TiagoOliveira98/Thesis-Project/Difficulty_2/Dual_Task/Unity_Project/DataLogging/JointData/Logs(1646428902)_tittitititititit_Dual.csv
WRIST,THUMB_CMC,THUMB_MCP,THUMB_IP,THUMB_TIP,INDEX_FINGER_MCP,INDEX_FINGER_PIP,INDEX_FINGER_DIP,INDEX_FINGER_TIP,MIDDLE_FINGER_MCP,MIDDLE_FINGER_PIP,MIDDLE_FINGER_DIP,MIDDLE_FINGER_TIP,RING_FINGER_MCP,RING_FINGER_PIP,RING_FINGER_DIP,RING_FINGER_TIP,PINKY_MCP,PINKY_PIP,PINKY_DIP,PINKY_TIP,WRIST2,THUMB_CMC2,THUMB_MCP2,THUMB_IP2,THUMB_TIP2,INDEX_FINGER_MCP2,INDEX_FINGER_PIP2,INDEX_FINGER_DIP2,INDEX_FINGER_TIP2,MIDDLE_FINGER_MCP2,MIDDLE_FINGER_PIP2,MIDDLE_FINGER_DIP2,MIDDLE_FINGER_TIP2,RING_FINGER_MCP2,RING_FINGER_PIP2,RING_FINGER_DIP2,RING_FINGER_TIP2,PINKY_MCP2,PINKY_PIP2,PINKY_DIP2,PINKY_TIP2,Timestamp,Event
-2.352155 -8.361263 0.003611104,-2.964567 -8.202316 0.4984841,-3.562137 -7.628206 0.788219,-3.990395 -7.005538 1.031742,-4.339495 -6.614002 1.282044,-3.169674 -5.862827 0.6093255,-3.432003 -4.729272 0.9353797,-3.548975 -4.036352 1.153018,-3.626101 -3.372962 1.341912,-2.81559 -5.617519 0.5834017,-3.01187 -4.289108 0.9349388,-3.01187 -4.289108 0.9349388,-3.144117 -2.725194 1.408111,-2.455538 -5.636892 0.6217227,-2.560024 -4.390842 0.9324211,-2.631013 -3.591752 1.180027,-2.69633 -2.90409 1.387122,-2.070839 -5.882278 0.6961215,-2.00757 -4.89798 0.9641241,-1.968279 -4.275096 1.19851,-1.945893 -3.676469 1.396803,-9.13939 -8.288906 0.03452763,-8.431006 -8.062004 0.3070394,-7.819109 -7.344789 0.549289,-7.379627 -6.650286 0.8478122,-6.961876 -6.195715 1.170035,-8.217293 -5.400648 0.2745156,-8.00024 -4.166109 0.5338489,-7.874384 -3.415602 0.785613,-7.762705 -2.734728 0.9781488,-8.600194 -5.141098 0.4252102,-8.389154 -3.696964 0.6390174,-8.242108 -2.764524 0.9533151,-8.118172 -1.967655 1.18819,-9.002517 -5.175808 0.6229967,-8.83081 -3.788551 0.8497938,-8.687632 -2.905627 1.117801,-8.544518 -2.160858 1.329021,-9.446453 -5.455832 0.8500879,-9.438478 -4.335197 1.114165,-9.378535 -3.58038 1.339567,-9.289847 -2.856545 1.509084,0.010, 10
-2.346509 -8.346947 -0.01312039,-2.95739 -8.195107 0.4880389,-3.554573 -7.625242 0.7855192,-3.988856 -7.011564 1.035627,-4.342308 -6.620574 1.298239,-3.169621 -5.859403 0.6037838,-3.432504 -4.731163 0.9285213,-3.548883 -4.038114 1.144888,-3.627371 -3.374033 1.334648,-2.817673 -5.611766 0.577278,-3.015107 -4.282865 0.9349232,-3.015107 -4.282865 0.9349232,-3.153118 -2.720706 1.405333,-2.459071 -5.626625 0.6129753,-2.561974 -4.384881 0.9320788,-2.633267 -3.587083 1.189984,-2.701014 -2.893628 1.405597,-2.076337 -5.865102 0.682997,-2.011459 -4.897647 0.959545,-1.971985 -4.284539 1.199419,-1.949322 -3.691335 1.403628,-9.145378 -8.291014 0.02354182,-8.429108 -8.042198 0.2771087,-7.819515 -7.337713 0.5159998,-7.385657 -6.656152 0.8212742,-6.960505 -6.210025 1.155991,-8.202275 -5.412649 0.2473658,-7.981555 -4.187725 0.5063723,-7.858579 -3.428236 0.760949,-7.753631 -2.744958 0.9573897,-8.591203 -5.148386 0.4092776,-8.377288 -3.715556 0.6214003,-8.230922 -2.77968 0.9393266,-8.109545 -1.980319 1.182069,-8.997363 -5.174758 0.6199998,-8.833129 -3.793399 0.8467808,-8.693084 -2.904441 1.119707,-8.549312 -2.152532 1.338314,-9.442466 -5.442458 0.8578885,-9.457755 -4.322811 1.13114,-9.403744 -3.563412 1.35476,-9.311916 -2.838698 1.521729,0.110, 10
-2.354561 -8.357349 0.0401723,-2.964486 -8.188606 0.5157545,-3.559116 -7.624221 0.8024207,-3.979425 -7.000541 1.045866,-4.326572 -6.60424 1.298084,-3.162162 -5.851752 0.6368542,-3.417566 -4.729308 0.9554794,-3.527304 -4.037561 1.177361,-3.599257 -3.370649 1.368774,-2.804245 -5.600873 0.6217536,-2.999161 -4.279288 0.9584186,-2.999161 -4.279288 0.9584186,-3.130314 -2.73718 1.426708,-2.442883 -5.6213 0.6676919,-2.547897 -4.386808 0.972823,-2.620925 -3.602094 1.219196,-2.691375 -2.928188 1.4259,-2.056105 -5.869531 0.7503091,-1.993651 -4.906294 1.007491,-1.955282 -4.297399 1.230914,-1.935107 -3.716662 1.425645,-9.136555 -8.270245 -0.02519269,-8.43295 -8.026766 0.2679765,-7.83049 -7.350959 0.5367497,-7.391888 -6.677095 0.8630378,-6.96895 -6.213201 1.21501,-8.201225 -5.406664 0.2536738,-7.978916 -4.171958 0.5385729,-7.857656 -3.418592 0.8084068,-7.752045 -2.740518 1.00566,-8.583717 -5.148136 0.4099329,-8.368569 -3.702998 0.6405647,-8.223472 -2.767589 0.9641057,-8.10576 -1.972878 1.199524,-8.988695 -5.185899 0.6164965,-8.819503 -3.803138 0.8632057,-8.677288 -2.906602 1.150756,-8.533806 -2.146604 1.372903,-9.434369 -5.472847 0.8538678,-9.431866 -4.350076 1.142163,-9.371603 -3.595849 1.382412,-9.280042 -2.875062 1.564614,0.210, 10
-2.35568 -8.332783 -7.717416E-05,-2.96566 -8.190142 0.4847025,-3.561031 -7.625075 0.7776635,-3.98048 -6.992102 1.025525,-4.33009 -6.581088 1.282345,-3.171798 -5.84072 0.5935116,-3.424896 -4.698558 0.9124396,-3.534307 -4.008573 1.131702,-3.601974 -3.347805 1.325643,-2.817994 -5.589475 0.5775928,-3.009333 -4.260756 0.9235143,-3.009333 -4.260756 0.9235143,-3.128178 -2.715607 1.402804,-2.459334 -5.610614 0.6266744,-2.559667 -4.375473 0.9336169,-2.629189 -3.591676 1.18746,-2.692218 -2.907029 1.40027,-2.075512 -5.863937 0.7106035,-2.005167 -4.905188 0.9720271,-1.962674 -4.302957 1.199251,-1.935445 -3.719484 1.395168,-9.137283 -8.275379 0.004287241,-8.430093 -8.053629 0.3214334,-7.826246 -7.3606 0.5903549,-7.399858 -6.662538 0.9114187,-6.983171 -6.206524 1.256199,-8.198144 -5.416688 0.2949577,-7.981722 -4.177938 0.5655419,-7.862377 -3.419117 0.8189105,-7.758109 -2.738519 1.005963,-8.588063 -5.142063 0.425283,-8.372129 -3.695578 0.6489117,-8.227571 -2.765334 0.9570578,-8.107384 -1.966971 1.188308,-8.996081 -5.16318 0.6069693,-8.819571 -3.768548 0.8455487,-8.677827 -2.880533 1.119334,-8.535502 -2.130044 1.33333,-9.44463 -5.432611 0.8185644,-9.443195 -4.307594 1.093776,-9.38709 -3.555742 1.322927,-9.300982 -2.840868 1.499175,0.310, 10
-2.347759 -8.348818 0.04460182,-2.949772 -8.19533 0.5411435,-3.547126 -7.637496 0.8390266,-3.971081 -7.010803 1.091363,-4.321307 -6.605978 1.352061,-3.165993 -5.847315 0.6527698,-3.420691 -4.713536 0.9718968,-3.528602 -4.022748 1.188786,-3.597788 -3.363647 1.379528,-2.810656 -5.593534 0.6276567,-3.003396 -4.264873 0.9756437,-3.003396 -4.264873 0.9756437,-3.126398 -2.714859 1.438334,-2.449574 -5.608009 0.6664533,-2.555661 -4.36894 0.9769341,-2.624533 -3.580299 1.221727,-2.689938 -2.902408 1.425558,-2.062834 -5.853668 0.7441821,-2.003781 -4.881479 1.00639,-1.966056 -4.273506 1.23665,-1.946257 -3.68878 1.434545,-9.142303 -8.276518 0.0006029679,-8.431827 -8.057978 0.3136736,-7.818573 -7.35798 0.5719191,-7.38275 -6.665139 0.8839136,-6.959345 -6.213392 1.225749,-8.197382 -5.412076 0.2689386,-7.97541 -4.181624 0.5438722,-7.85243 -3.421163 0.8003595,-7.746974 -2.737478 0.9938571,-8.584915 -5.14346 0.4045848,-8.369479 -3.715036 0.6245885,-8.224591 -2.785272 0.9406758,-8.105443 -1.989105 1.170174,-8.988324 -5.172581 0.5942407,-8.819849 -3.805228 0.8306452,-8.678418 -2.931854 1.108974,-8.535838 -2.190723 1.325984,-9.430352 -5.447282 0.8171115,-9.43473 -4.351018 1.0962,-9.382143 -3.606383 1.330551,-9.298996 -2.886638 1.501803,0.410, 10
-2.357609 -8.365501 0.07554097,-2.964415 -8.195156 0.5436343,-3.555715 -7.628772 0.8211379,-3.9781 -6.998779 1.054012,-4.325394 -6.603892 1.293541,-3.162642 -5.842311 0.6319126,-3.41468 -4.721553 0.9336042,-3.524116 -4.029596 1.147059,-3.593548 -3.369653 1.338425,-2.809385 -5.589821 0.6119016,-3.005213 -4.274863 0.940907,-3.005213 -4.274863 0.940907,-3.134383 -2.731022 1.390364,-2.451247 -5.601816 0.6540173,-2.556729 -4.376998 0.9473864,-2.628652 -3.590227 1.181407,-2.693341 -2.913538 1.375158,-2.067312 -5.843163 0.7337903,-2.006793 -4.883968 0.9817846,-1.968834 -4.278119 1.199277,-1.947001 -3.694957 1.388274,-9.13455 -8.258747 -0.00115423,-8.431193 -8.049749 0.3057051,-7.826621 -7.36356 0.5750761,-7.39107 -6.67337 0.8956997,-6.97792 -6.208818 1.239861,-8.201971 -5.397539 0.2890325,-7.982907 -4.181195 0.5675901,-7.861128 -3.435744 0.8289144,-7.754444 -2.761578 1.02217,-8.586103 -5.128258 0.4300171,-8.367378 -3.683887 0.6549793,-8.223715 -2.761169 0.9615633,-8.105934 -1.965692 1.188849,-8.99034 -5.161836 0.6212781,-8.810675 -3.762834 0.8658642,-8.672396 -2.870751 1.146181,-8.534958 -2.110295 1.365997,-9.436731 -5.44602 0.8432163,-9.43058 -4.326556 1.120073,-9.376015 -3.575476 1.352915,-9.29355 -2.853028 1.53099,0.510, 10
-2.352882 -8.355425 0.01232893,-2.95839 -8.178871 0.5030335,-3.553603 -7.612488 0.792451,-3.980478 -6.986869 1.036857,-4.321632 -6.59413 1.289856,-3.158965 -5.852724 0.6056773,-3.417112 -4.718204 0.9248735,-3.52966 -4.018114 1.152753,-3.605427 -3.346509 1.353833,-2.803696 -5.604678 0.5810367,-3.001229 -4.282218 0.9250693,-3.001229 -4.282218 0.9250693,-3.136291 -2.731489 1.385658,-2.444098 -5.621233 0.6224096,-2.555624 -4.392322 0.9302322,-2.627997 -3.607505 1.175061,-2.698662 -2.925422 1.377298,-2.05841 -5.86112 0.7011558,-1.998848 -4.90192 0.9594034,-1.962865 -4.299335 1.181675,-1.946017 -3.71775 1.374946,-9.17831 -8.294735 0.0620387,-8.462246 -8.073273 0.3459802,-7.845254 -7.378553 0.5973953,-7.410622 -6.67851 0.9053918,-6.988088 -6.224056 1.235584,-8.212176 -5.424842 0.3120082,-7.99313 -4.188303 0.5731837,-7.875159 -3.426793 0.8247411,-7.771579 -2.74909 1.005344,-8.598766 -5.146727 0.4580792,-8.382658 -3.703107 0.6591333,-8.240096 -2.772243 0.9557511,-8.123441 -1.983608 1.179523,-9.007573 -5.16736 0.6562665,-8.829104 -3.78848 0.876196,-8.686055 -2.899658 1.139883,-8.545698 -2.156438 1.344233,-9.45845 -5.438379 0.884341,-9.446191 -4.317777 1.148779,-9.388149 -3.563276 1.372226,-9.301676 -2.843538 1.545922,0.610, 10
-2.329542 -8.346783 -0.03003825,-2.943467 -8.191557 0.4405783,-3.541206 -7.617502 0.7185368,-3.969298 -6.989149 0.956866,-4.320871 -6.596895 1.205257,-3.15955 -5.858495 0.5240041,-3.418383 -4.721622 0.8281841,-3.531086 -4.024354 1.041346,-3.603634 -3.361681 1.234086,-2.807454 -5.607604 0.5113286,-3.004302 -4.280144 0.8443059,-3.004302 -4.280144 0.8443059,-3.133961 -2.73971 1.308798,-2.448481 -5.622564 0.5641425,-2.555439 -4.38833 0.8623412,-2.626191 -3.604694 1.107207,-2.697484 -2.920838 1.311858,-2.064178 -5.863027 0.6548823,-2.002653 -4.902414 0.9101464,-1.966555 -4.295951 1.136355,-1.950456 -3.704917 1.33393,-9.18733 -8.32839 0.1704886,-8.469446 -8.0884 0.4125649,-7.847103 -7.37466 0.640642,-7.409674 -6.681829 0.9373146,-6.991382 -6.240088 1.266815,-8.218581 -5.42369 0.3672686,-7.998293 -4.199867 0.6074985,-7.880997 -3.434824 0.8493378,-7.78326 -2.756439 1.02847,-8.606654 -5.144943 0.5339748,-8.391397 -3.7163 0.7136965,-8.24634 -2.78165 1.011619,-8.129309 -1.994374 1.233037,-9.014699 -5.161952 0.7478541,-8.840269 -3.803637 0.9592727,-8.692449 -2.923599 1.223522,-8.548254 -2.193284 1.425159,-9.460824 -5.429313 0.9880487,-9.460737 -4.319279 1.251878,-9.406225 -3.567726 1.466654,-9.321306 -2.854631 1.625517,0.710, 10
-2.309994 -8.369892 -0.01771592,-2.927599 -8.211214 0.4752428,-3.533745 -7.640907 0.7628319,-3.964401 -6.998944 1.006324,-4.32084 -6.568785 1.256365,-3.160646 -5.893296 0.5837589,-3.41977 -4.756166 0.9117646,-3.533431 -4.060555 1.134449,-3.609516 -3.390054 1.326561,-2.804897 -5.636734 0.5561997,-3.00238 -4.312601 0.9162424,-3.00238 -4.312601 0.9162424,-3.132265 -2.745759 1.401127,-2.444818 -5.638762 0.5913777,-2.559458 -4.412455 0.9083908,-2.637028 -3.618938 1.1674,-2.708821 -2.922512 1.382234,-2.059563 -5.866483 0.6607738,-2.006766 -4.895713 0.9316564,-1.973222 -4.284936 1.169918,-1.956566 -3.69239 1.374626,-9.176824 -8.332855 0.1625104,-8.475848 -8.099113 0.4365232,-7.857898 -7.391142 0.6844321,-7.421558 -6.694681 0.993586,-7.005641 -6.239273 1.324255,-8.220283 -5.435318 0.3965885,-7.997854 -4.225692 0.6556404,-7.880293 -3.464519 0.9049609,-7.778133 -2.78533 1.085507,-8.606083 -5.15261 0.548646,-8.389165 -3.713364 0.7412391,-8.248669 -2.782517 1.042434,-8.139118 -1.990273 1.271392,-9.010885 -5.16912 0.7498361,-8.838965 -3.781397 0.9702863,-8.703321 -2.892349 1.235702,-8.570116 -2.139547 1.446844,-9.460277 -5.441062 0.9781592,-9.459938 -4.319467 1.237625,-9.402847 -3.570866 1.447371,-9.319 -2.859138 1.610885,0.810, 10
-2.335285 -8.404461 0.1643052,-2.936418 -8.209618 0.6086887,-3.504905 -7.556843 0.869943,-3.888153 -6.837204 1.116159,-4.264572 -6.388276 1.382882,-3.204233 -5.868622 0.6725661,-3.462067 -4.773187 0.9876789,-3.571234 -4.099551 1.187603,-3.636536 -3.438435 1.36769,-2.85704 -5.611965 0.6858427,-3.058697 -4.343898 1.03784,-3.058697 -4.343898 1.03784,-3.195551 -2.842769 1.505202,-2.502616 -5.624567 0.7699416,-2.621678 -4.41724 1.089988,-2.71294 -3.647036 1.342062,-2.788176 -2.943746 1.559344,-2.118641 -5.871036 0.8880537,-2.09948 -4.90788 1.163695,-2.08958 -4.291498 1.405351,-2.084013 -3.674633 1.614841,-9.224534 -8.346603 0.1565978,-8.508623 -8.12908 0.4543418,-7.879075 -7.420606 0.6950557,-7.43962 -6.696023 0.9935595,-7.028875 -6.23249 1.306663,-8.240149 -5.470928 0.4156527,-8.012255 -4.246187 0.6574903,-7.902456 -3.482879 0.8927115,-7.809676 -2.797163 1.063914,-8.630376 -5.172135 0.5402414,-8.405904 -3.737001 0.7110544,-8.269145 -2.797405 0.999196,-8.163121 -1.993567 1.226142,-9.040852 -5.179721 0.7152649,-8.858371 -3.809294 0.9116449,-8.72061 -2.915515 1.166685,-8.588724 -2.168015 1.376044,-9.494069 -5.44053 0.9192674,-9.481375 -4.324483 1.163802,-9.426158 -3.581961 1.374415,-9.343074 -2.879292 1.539106,0.910, 10
-2.348178 -8.447012 0.1402118,-2.936072 -8.210535 0.5678065,-3.472054 -7.521167 0.8004317,-3.797661 -6.73431 1.016432,-4.113811 -6.149465 1.2471,-3.222165 -5.933378 0.5846794,-3.492125 -4.841523 0.8724952,-3.613173 -4.18734 1.062405,-3.699782 -3.554496 1.229181,-2.888633 -5.651327 0.5808942,-3.094219 -4.397583 0.8954931,-3.094219 -4.397583 0.8954931,-3.254206 -2.928394 1.337531,-2.553419 -5.634805 0.6572279,-2.675465 -4.45038 0.9559668,-2.768465 -3.697192 1.196647,-2.849838 -2.984729 1.401733,-2.188713 -5.851745 0.7583377,-2.178085 -4.910406 1.02196,-2.167621 -4.30645 1.243853,-2.155 -3.695755 1.419992,-9.251086 -8.322506 0.07228508,-8.532635 -8.106855 0.3756018,-7.909328 -7.409124 0.6323296,-7.47435 -6.678526 0.9398573,-7.06102 -6.215898 1.254209,-8.268291 -5.475171 0.3717349,-8.032439 -4.26332 0.6430888,-7.923573 -3.517279 0.8918345,-7.832526 -2.839909 1.070935,-8.658471 -5.177179 0.4933337,-8.433369 -3.739978 0.6996633,-8.299558 -2.81825 0.9978081,-8.199583 -2.013804 1.233167,-9.068385 -5.184922 0.6651751,-8.893553 -3.797762 0.8893173,-8.761913 -2.920925 1.144038,-8.640905 -2.172461 1.357043,-9.520135 -5.440599 0.8642757,-9.501997 -4.330223 1.109304,-9.444762 -3.59639 1.314799,-9.363177 -2.891513 1.47695,1.010, 10
-2.343057 -8.439043 0.1851499,-2.932415 -8.193218 0.6083031,-3.45976 -7.492998 0.838455,-3.768303 -6.704586 1.060847,-4.063772 -6.084619 1.297979,-3.230311 -5.902458 0.5868727,-3.506457 -4.818141 0.8624613,-3.63152 -4.156112 1.041387,-3.709468 -3.525331 1.195649,-2.891462 -5.625736 0.5862194,-3.088245 -4.372596 0.8852941,-3.088245 -4.372596 0.8852941,-3.243723 -2.913718 1.311196,-2.552264 -5.614719 0.6674844,-2.664177 -4.445056 0.9542947,-2.759494 -3.696893 1.200467,-2.836147 -2.994925 1.407945,-2.186544 -5.834169 0.7729104,-2.169349 -4.900203 1.031612,-2.159929 -4.301233 1.255617,-2.14534 -3.69851 1.434285,-9.260601 -8.350792 0.1019229,-8.549719 -8.125294 0.3935007,-7.920755 -7.407644 0.6302422,-7.479199 -6.678764 0.9207157,-7.073387 -6.215801 1.216865,-8.278724 -5.484941 0.3672655,-8.041066 -4.27466 0.6214418,-7.934922 -3.509569 0.8671215,-7.850575 -2.820074 1.04181,-8.667557 -5.191352 0.4795025,-8.443904 -3.754342 0.6617447,-8.311683 -2.812984 0.9563252,-8.217083 -2.008008 1.194189,-9.076803 -5.201538 0.6375604,-8.902832 -3.822819 0.8351815,-8.773704 -2.938204 1.074434,-8.657601 -2.193798 1.275773,-9.52928 -5.456586 0.8247509,-9.508056 -4.344564 1.052367,-9.450222 -3.622301 1.241917,-9.372051 -2.942843 1.387512,1.110, 10
-2.341123 -8.486317 0.2163924,-2.93038 -8.235542 0.694049,-3.443028 -7.543555 0.9460834,-3.736504 -6.748321 1.177271,-4.017965 -6.088918 1.413837,-3.235031 -5.964485 0.6813749,-3.51657 -4.885021 0.9935129,-3.636356 -4.195489 1.215302,-3.707899 -3.549602 1.402724,-2.891283 -5.669736 0.6545775,-3.095011 -4.406414 0.946616,-3.095011 -4.406414 0.946616,-3.252656 -2.948783 1.39175,-2.550452 -5.650138 0.7113578,-2.665596 -4.461826 1.002053,-2.754677 -3.702257 1.264892,-2.830592 -2.998413 1.484341,-2.183099 -5.863121 0.7924918,-2.167412 -4.912882 1.0599,-2.164165 -4.310638 1.288573,-2.161567 -3.715391 1.465159,-9.272131 -8.365257 0.09137549,-8.5599 -8.137907 0.3932554,-7.937855 -7.423036 0.6314065,-7.503201 -6.692134 0.9224223,-7.097066 -6.223199 1.220106,-8.29833 -5.498798 0.3621782,-8.06166 -4.272175 0.6121626,-7.95579 -3.505503 0.8535274,-7.869659 -2.81084 1.030187,-8.685779 -5.208576 0.4766387,-8.467097 -3.769374 0.6577742,-8.339861 -2.830008 0.958337,-8.247142 -2.020506 1.202817,-9.092153 -5.222522 0.6402652,-8.917523 -3.845913 0.8430176,-8.788709 -2.959425 1.104724,-8.67145 -2.210677 1.324812,-9.54269 -5.481559 0.8353233,-9.526371 -4.385312 1.073119,-9.475681 -3.654485 1.290423,-9.402485 -2.951066 1.461284,1.210, 10
-2.339636 -8.514673 0.1879555,-2.930493 -8.250597 0.64635,-3.435488 -7.543375 0.8861996,-3.718525 -6.739241 1.115341,-3.987222 -6.083112 1.35804,-3.257813 -6.001633 0.5934497,-3.544037 -4.929321 0.8990551,-3.658803 -4.242033 1.114362,-3.729698 -3.585937 1.297733,-2.915679 -5.705719 0.5865432,-3.116325 -4.441384 0.8767532,-3.116325 -4.441384 0.8767532,-3.269143 -2.983003 1.325652,-2.579158 -5.681966 0.6656772,-2.694208 -4.495029 0.9531862,-2.785437 -3.745398 1.228055,-2.856098 -3.041965 1.451911,-2.215841 -5.885673 0.7678463,-2.198009 -4.939778 1.045924,-2.204083 -4.338424 1.287433,-2.209017 -3.73607 1.470387,-9.293675 -8.403223 0.1875795,-8.580533 -8.180426 0.4766659,-7.950429 -7.44005 0.7118719,-7.520058 -6.684322 1.005661,-7.129547 -6.186444 1.303432,-8.31288 -5.518735 0.4227085,-8.084412 -4.305234 0.6590135,-7.981897 -3.546558 0.8920308,-7.895488 -2.86232 1.065039,-8.697658 -5.216085 0.5371384,-8.482751 -3.79552 0.700345,-8.358356 -2.864791 0.9798838,-8.263913 -2.061301 1.211767,-9.102782 -5.216922 0.70662,-8.926725 -3.857822 0.8887346,-8.799416 -2.977149 1.130971,-8.68145 -2.235343 1.344816,-9.553843 -5.469284 0.905926,-9.535989 -4.367612 1.123294,-9.493793 -3.637416 1.32405,-9.42505 -2.941947 1.491824,1.310, 10
-2.335815 -8.51231 0.06220275,-2.938528 -8.21917 0.5117256,-3.444195 -7.528184 0.7457126,-3.722969 -6.720237 0.966967,-3.97719 -6.035034 1.205263,-3.259231 -6.014097 0.4390356,-3.552694 -4.935603 0.750955,-3.67959 -4.262552 0.9698775,-3.768978 -3.612909 1.155079,-2.91753 -5.73747 0.4308714,-3.120546 -4.493663 0.7284962,-3.120546 -4.493663 0.7284962,-3.288021 -3.029311 1.203434,-2.583556 -5.722965 0.5039638,-2.703783 -4.572365 0.7967396,-2.796363 -3.841594 1.089043,-2.870251 -3.157134 1.321635,-2.225503 -5.922379 0.6006165,-2.226242 -4.998197 0.8982565,-2.246991 -4.418346 1.165156,-2.270309 -3.837883 1.356541,-9.309241 -8.408991 0.1572685,-8.585581 -8.18889 0.4598252,-7.955721 -7.445368 0.7031546,-7.525198 -6.663427 1.001084,-7.129574 -6.138711 1.306254,-8.325559 -5.525428 0.4165368,-8.09844 -4.313945 0.6568887,-7.992207 -3.560974 0.8857598,-7.899776 -2.87631 1.058739,-8.710579 -5.23331 0.525575,-8.498666 -3.817905 0.7035133,-8.37164 -2.891185 0.9876191,-8.272682 -2.08806 1.216794,-9.112508 -5.247365 0.6905788,-8.944382 -3.896183 0.8830684,-8.817468 -3.027494 1.131029,-8.69576 -2.291828 1.344272,-9.558028 -5.507858 0.8801125,-9.530244 -4.405986 1.111374,-9.478078 -3.687519 1.318949,-9.398936 -2.998717 1.48276,1.410, 10
-2.325709 -8.472603 -0.07698718,-2.924108 -8.204033 0.3639116,-3.424797 -7.532547 0.600291,-3.692442 -6.725215 0.8286192,-3.956425 -6.007837 1.081579,-3.278852 -6.009664 0.2585228,-3.559618 -4.961953 0.5853367,-3.691225 -4.310846 0.8329764,-3.789707 -3.660963 1.032216,-2.933546 -5.740285 0.2596566,-3.13683 -4.560289 0.5490514,-3.13683 -4.560289 0.5490514,-3.305904 -3.121974 1.043525,-2.594255 -5.734542 0.3422135,-2.708128 -4.649126 0.6232624,-2.800981 -3.982069 0.9214292,-2.881292 -3.346001 1.149592,-2.230481 -5.938711 0.4567757,-2.263892 -5.070006 0.7420502,-2.311058 -4.538215 1.001826,-2.365813 -3.996879 1.18508,-9.312108 -8.463583 0.2754874,-8.580871 -8.219213 0.56598,-7.958035 -7.443382 0.8092564,-7.533918 -6.655355 1.11308,-7.128218 -6.112941 1.439759,-8.332404 -5.534817 0.4741822,-8.101615 -4.341142 0.6894593,-7.987716 -3.593807 0.9155008,-7.890403 -2.91574 1.08781,-8.714561 -5.248041 0.596765,-8.499911 -3.848945 0.7475886,-8.368107 -2.932553 1.019943,-8.265285 -2.147339 1.237097,-9.115968 -5.268528 0.7784873,-8.948848 -3.923751 0.9533758,-8.811975 -3.056958 1.201035,-8.680404 -2.32194 1.412252,-9.565922 -5.541315 0.9886929,-9.54036 -4.445804 1.221546,-9.482267 -3.722195 1.428824,-9.395748 -3.02824 1.592117,1.510, 10
-2.361176 -8.435667 -0.2744471,-2.955012 -8.167068 0.1228996,-3.447132 -7.468816 0.3232365,-3.696622 -6.652197 0.5229769,-3.953341 -5.940008 0.7400042,-3.293842 -5.986494 -0.03746606,-3.565572 -4.954231 0.2471833,-3.705658 -4.314985 0.4683479,-3.815207 -3.678644 0.6525111,-2.946496 -5.746814 -0.02781308,-3.134686 -4.61318 0.2236688,-3.134686 -4.61318 0.2236688,-3.29838 -3.238841 0.6845776,-2.604682 -5.758077 0.06539983,-2.713782 -4.710943 0.3125547,-2.808048 -4.075778 0.596296,-2.89395 -3.469925 0.8181081,-2.244472 -5.964807 0.191352,-2.279748 -5.114229 0.4562636,-2.331928 -4.593605 0.7083883,-2.388783 -4.060615 0.8897729,-9.310526 -8.471624 0.2808113,-8.580002 -8.2313 0.5835444,-7.955538 -7.454819 0.8311749,-7.536194 -6.660251 1.128117,-7.136537 -6.118042 1.443629,-8.337748 -5.552932 0.5586765,-8.10324 -4.375774 0.7943318,-7.98559 -3.644484 1.029086,-7.88829 -2.968544 1.207139,-8.723093 -5.260387 0.6716176,-8.506497 -3.875764 0.8422061,-8.372217 -2.976799 1.125011,-8.266954 -2.193612 1.34644,-9.123362 -5.278781 0.8368477,-8.963913 -3.941714 1.020247,-8.826118 -3.099409 1.272352,-8.691489 -2.381424 1.489234,-9.564636 -5.54448 1.028183,-9.544535 -4.466287 1.263356,-9.483725 -3.752552 1.470637,-9.391649 -3.067955 1.632867,1.610, 10
-2.367697 -8.433779 -0.3394142,-2.97025 -8.15291 0.1031688,-3.458094 -7.475034 0.335818,-3.699379 -6.659139 0.5555514,-3.930793 -5.919445 0.7954999,-3.306181 -6.004718 -0.04176119,-3.567234 -4.982221 0.2531685,-3.704224 -4.335199 0.5002263,-3.820102 -3.688087 0.7073047,-2.949002 -5.767116 -0.05263868,-3.128211 -4.657173 0.2213888,-3.128211 -4.657173 0.2213888,-3.286098 -3.326609 0.7227036,-2.602664 -5.774429 0.01305613,-2.702055 -4.747434 0.2706619,-2.78932 -4.116151 0.5784008,-2.873465 -3.524303 0.8155905,-2.244086 -5.975105 0.1144187,-2.287176 -5.146129 0.3838245,-2.340898 -4.639984 0.6418098,-2.401712 -4.132533 0.8325925,-9.287642 -8.493782 0.2892524,-8.558195 -8.259161 0.5585276,-7.94104 -7.437717 0.7781998,-7.534878 -6.627676 1.054752,-7.129716 -6.093221 1.351035,-8.321519 -5.552108 0.4694979,-8.102381 -4.382435 0.6778845,-7.990333 -3.649669 0.9032534,-7.894119 -2.970201 1.07496,-8.708623 -5.269168 0.5935149,-8.508621 -3.89149 0.7312373,-8.379756 -2.988365 1.007574,-8.275311 -2.205507 1.228216,-9.112302 -5.291726 0.7720804,-8.95834 -3.95876 0.932044,-8.829446 -3.113958 1.173772,-8.702593 -2.395671 1.384331,-9.561288 -5.561179 0.977551,-9.531891 -4.469871 1.1997,-9.473998 -3.750195 1.39888,-9.386773 -3.062032 1.557113,1.710, 10
-2.352354 -8.39106 -0.5045251,-2.94015 -8.160341 -0.1118375,-3.43767 -7.403263 0.0641039,-3.674038 -6.578655 0.2676164,-3.905586 -5.824007 0.4907471,-3.309662 -5.949602 -0.4827096,-3.549477 -4.96993 -0.306816,-3.673706 -4.343265 -0.1064875,-3.787106 -3.700013 0.08561903,-2.935489 -5.757865 -0.4716203,-3.082672 -4.761449 -0.2972021,-3.082672 -4.761449 -0.2972021,-3.214245 -3.722429 0.2160413,-2.578086 -5.814308 -0.3808516,-2.670493 -4.918542 -0.1537642,-2.743701 -4.431148 0.2053387,-2.812538 -4.161374 0.4768581,-2.210209 -6.04265 -0.2429613,-2.281755 -5.356717 0.02507555,-2.361784 -5.045084 0.3058248,-2.429884 -4.876514 0.5195864,-9.340332 -8.472027 0.2059418,-8.607739 -8.224468 0.4384282,-7.987782 -7.402118 0.6390834,-7.575916 -6.596664 0.8977103,-7.177226 -6.064363 1.173601,-8.360611 -5.556324 0.3428324,-8.137853 -4.384527 0.5384468,-8.029181 -3.64869 0.7550961,-7.938221 -2.960437 0.9288244,-8.743611 -5.271591 0.4725802,-8.536798 -3.900047 0.5925944,-8.408863 -3.00824 0.8625814,-8.309059 -2.235879 1.085517,-9.147361 -5.283372 0.6574609,-8.984535 -3.948411 0.8096162,-8.857439 -3.10149 1.056399,-8.737332 -2.389754 1.271488,-9.598237 -5.540714 0.8610504,-9.556006 -4.451534 1.078134,-9.491548 -3.726661 1.282514,-9.402383 -3.036949 1.446974,1.810, 10
-2.289269 -8.355324 -0.4860519,-2.887316 -8.218386 0.008161485,-3.388323 -7.475423 0.2493871,-3.647762 -6.621543 0.489809,-3.86537 -5.848144 0.748628,-3.312286 -5.942968 -0.4747597,-3.522193 -4.976604 -0.331604,-3.626902 -4.356818 -0.1033519,-3.728054 -3.758519 0.1448063,-2.931123 -5.730648 -0.5373161,-3.035089 -4.724348 -0.2892917,-3.035089 -4.724348 -0.2892917,-3.097594 -4.373103 0.3302793,-2.567766 -5.761816 -0.5037915,-2.627463 -4.804079 -0.163726,-2.663393 -4.791593 0.3042576,-2.687776 -5.105173 0.5750942,-2.191146 -5.953292 -0.4172048,-2.226427 -5.25031 -0.06120253,-2.274689 -5.322706 0.298947,-2.299956 -5.640693 0.5413769,-9.361941 -8.515173 0.2293111,-8.609643 -8.244579 0.4442066,-7.996013 -7.427713 0.6270822,-7.598031 -6.60253 0.8713692,-7.216824 -6.03041 1.117273,-8.402744 -5.586004 0.3112062,-8.174712 -4.406795 0.4998781,-8.052587 -3.666343 0.7124151,-7.949798 -2.973219 0.8817493,-8.782057 -5.300207 0.4321197,-8.578938 -3.938156 0.5429387,-8.446169 -3.05787 0.8183267,-8.34321 -2.297474 1.047365,-9.175048 -5.304975 0.6088363,-9.022285 -3.988872 0.7465516,-8.89397 -3.162105 0.9880472,-8.769471 -2.47607 1.194539,-9.607128 -5.551073 0.8045575,-9.572425 -4.469314 1.01218,-9.509698 -3.751288 1.218515,-9.416941 -3.080311 1.378909,1.910, 8
-2.274036 -8.399529 -0.9546787,-2.873274 -8.274748 -0.4606433,-3.344312 -7.538003 -0.1579902,-3.602839 -6.696629 0.1440114,-3.848921 -5.910087 0.4386686,-3.308326 -6.068628 -0.7415541,-3.499955 -5.087962 -0.4217502,-3.611044 -4.392776 -0.09103203,-3.712417 -3.690305 0.1817557,-2.921162 -5.925136 -0.7179046,-2.96543 -4.840394 -0.06976634,-2.96543 -4.840394 -0.06976634,-2.953488 -5.576974 0.4936121,-2.536379 -5.977325 -0.6077475,-2.528417 -5.021265 0.05158043,-2.549551 -5.860445 0.3653047,-2.567718 -6.444808 0.4007529,-2.143094 -6.188841 -0.4687983,-2.192924 -5.541532 0.05490923,-2.26992 -6.142493 0.2548294,-2.305017 -6.608539 0.3007886,-9.422437 -8.574059 0.3042861,-8.674366 -8.240166 0.4513333,-8.055412 -7.368476 0.5517982,-7.648983 -6.541746 0.7319298,-7.240877 -5.96073 0.940259,-8.453673 -5.564207 0.1294667,-8.214759 -4.422256 0.2042235,-8.099367 -3.739233 0.3770363,-7.981367 -3.10289 0.5155924,-8.855801 -5.329036 0.2516364,-8.667246 -4.136151 0.2746444,-8.547772 -3.452116 0.5456136,-8.438978 -2.936613 0.7591829,-9.247698 -5.335933 0.4349562,-9.115955 -4.175262 0.4849382,-9.000713 -3.528528 0.7010459,-8.876572 -3.042784 0.8728217,-9.655272 -5.543182 0.6419755,-9.59904 -4.568502 0.7589146,-9.516258 -3.979499 0.9212283,-9.389069 -3.44239 1.055158,2.010, 7
-2.258081 -8.466524 -1.098637,-2.853275 -8.323318 -0.6010145,-3.331891 -7.574811 -0.2903591,-3.581001 -6.735809 0.01741421,-3.831457 -5.909315 0.3047804,-3.291254 -6.19528 -0.7562333,-3.501086 -5.21912 -0.3980658,-3.627304 -4.501695 -0.04319096,-3.72728 -3.781338 0.2699155,-2.910389 -6.052694 -0.729714,-2.997857 -5.078296 -0.002805114,-2.997857 -5.078296 -0.002805114,-2.937512 -6.344913 0.4640063,-2.512919 -6.1142 -0.6131129,-2.565229 -5.283353 0.1051134,-2.588656 -6.269579 0.3244214,-2.585495 -6.933694 0.3236624,-2.113176 -6.327356 -0.4707173,-2.200075 -5.770763 0.09759235,-2.278656 -6.499246 0.244104,-2.303491 -7.022776 0.254775,-9.380469 -8.502701 -0.136014,-8.667603 -8.227671 0.0473081,-8.081693 -7.351475 0.1441124,-7.674271 -6.554706 0.3144183,-7.295671 -5.959014 0.5248191,-8.461606 -5.559902 -0.3283996,-8.216705 -4.473172 -0.2703277,-8.109071 -3.768182 -0.1008632,-7.991017 -3.111174 0.05600786,-8.892358 -5.37231 -0.197003,-8.746306 -4.280085 -0.06786282,-8.626333 -3.761402 0.289371,-8.49157 -3.491583 0.5741301,-9.303743 -5.465963 -0.01028493,-9.254689 -4.437775 0.1498265,-9.160708 -3.973849 0.5039835,-9.018514 -3.751551 0.770988,-9.706502 -5.755435 0.2116954,-9.723059 -4.93378 0.4156662,-9.663455 -4.447443 0.7091388,-9.498626 -4.077734 0.9583312,2.110, 7
-2.272937 -8.48506 -1.224264,-2.83109 -8.373611 -0.6940581,-3.310764 -7.602321 -0.3693084,-3.568786 -6.774516 -0.0515908,-3.818117 -5.949226 0.2270842,-3.27891 -6.240903 -0.859151,-3.503581 -5.250274 -0.4625548,-3.635885 -4.52138 -0.0959115,-3.734905 -3.815053 0.2199914,-2.894328 -6.105161 -0.82684,-3.003273 -5.114645 -0.05194759,-3.003273 -5.114645 -0.05194759,-2.913749 -6.460422 0.3901802,-2.495502 -6.172962 -0.7037389,-2.564651 -5.38254 0.07210255,-2.581698 -6.406827 0.2434957,-2.569661 -7.070787 0.1854219,-2.095555 -6.388145 -0.5505847,-2.192417 -5.826448 0.05951321,-2.261559 -6.576501 0.1705512,-2.275831 -7.089721 0.1373329,-9.37851 -8.492483 -0.2193483,-8.668593 -8.240946 0.08241349,-8.096861 -7.344439 0.2051966,-7.698607 -6.559688 0.3770915,-7.300462 -5.966127 0.5561559,-8.498081 -5.54689 -0.2896292,-8.23933 -4.476789 -0.1915316,-8.116697 -3.767663 0.02906829,-7.991617 -3.11742 0.2505096,-8.912654 -5.382549 -0.1744919,-8.775907 -4.23947 0.1562762,-8.681665 -3.953125 0.6984469,-8.602161 -4.003892 1.086963,-9.318652 -5.485414 -0.007809713,-9.253312 -4.410686 0.3133711,-9.154086 -4.085355 0.835464,-9.042195 -4.109958 1.202663,-9.737309 -5.80191 0.1870467,-9.760145 -4.955707 0.5249133,-9.69487 -4.533023 0.9076436,-9.547879 -4.350109 1.238783,2.210, 7
-2.242485 -8.521826 -1.353503,-2.807315 -8.413397 -0.8467909,-3.300825 -7.641382 -0.5317277,-3.556933 -6.794015 -0.2278826,-3.777096 -5.956547 0.02276599,-3.26214 -6.315841 -0.998031,-3.500465 -5.307256 -0.5540942,-3.645401 -4.597816 -0.1691242,-3.746344 -3.906782 0.1544801,-2.87654 -6.18334 -0.9602918,-3.004553 -5.270502 -0.187487,-3.004553 -5.270502 -0.187487,-2.922673 -6.716706 0.1176766,-2.467021 -6.246913 -0.833801,-2.569851 -5.53516 -0.07260001,-2.59095 -6.603973 0.004033446,-2.56168 -7.174966 -0.1145612,-2.057802 -6.44253 -0.6736326,-2.200393 -5.906721 -0.06861579,-2.268569 -6.68881 -0.007402897,-2.256187 -7.143764 -0.07914031,-9.493368 -8.651363 -1.098559,-8.744582 -8.269678 -0.7275394,-8.153068 -7.415939 -0.5299593,-7.787923 -6.655158 -0.3046392,-7.42257 -6.00122 -0.07377648,-8.581352 -5.914457 -0.7974288,-8.319006 -4.751457 -0.5339211,-8.203329 -3.968399 -0.2615445,-8.091735 -3.181208 0.003461242,-8.984492 -5.833324 -0.6819469,-8.817682 -4.751222 -0.1339278,-8.775935 -4.402427 0.4717405,-8.750866 -4.2829 0.8974566,-9.3876 -5.924276 -0.5155084,-9.268516 -4.905528 0.01211965,-9.220456 -4.648949 0.6050721,-9.175992 -4.682004 1.005794,-9.82472 -6.174691 -0.3454652,-9.795072 -5.313621 0.1280979,-9.739398 -5.004386 0.5548612,-9.6333 -4.930817 0.8851066,2.310, 7
-2.203927 -8.597683 -1.35856,-2.766651 -8.476454 -0.8958476,-3.26515 -7.712799 -0.6323497,-3.521988 -6.860532 -0.3619834,-3.754561 -6.084985 -0.1436571,-3.234196 -6.370053 -1.072638,-3.468943 -5.331178 -0.5881333,-3.61123 -4.672847 -0.2186773,-3.717602 -4.051479 0.07726634,-2.849564 -6.254662 -1.025208,-2.954666 -5.428087 -0.2135022,-2.954666 -5.428087 -0.2135022,-2.85569 -7.060427 -0.0584203,-2.444013 -6.321064 -0.8927693,-2.519361 -5.71481 -0.1441268,-2.534529 -6.820179 -0.1426656,-2.521058 -7.308767 -0.3112226,-2.045295 -6.512667 -0.7269589,-2.11928 -6.036028 -0.1812904,-2.189672 -6.836012 -0.1677564,-2.197948 -7.240407 -0.2858232,-9.511469 -8.628551 -1.075136,-8.789579 -8.289248 -0.6306605,-8.25336 -7.443954 -0.3490392,-7.908117 -6.65958 -0.05121028,-7.536613 -5.984286 0.2426504,-8.642776 -5.840297 -0.8466424,-8.441721 -4.711669 -0.5129758,-8.302091 -3.941144 -0.2327397,-8.192484 -3.225404 -0.02745354,-9.026511 -5.786962 -0.7536306,-8.93322 -4.609594 -0.02281773,-8.851983 -5.099554 0.5178939,-8.841066 -5.598835 0.732734,-9.422363 -5.883039 -0.5763383,-9.359221 -4.820529 0.1317948,-9.226036 -5.451231 0.5983833,-9.196106 -6.121033 0.7266542,-9.877453 -6.110786 -0.39064,-9.868318 -5.137321 0.190501,-9.698821 -5.33501 0.5263895,-9.602916 -5.796607 0.6539689,2.410, 4
-2.197948 -8.665031 -1.293259,-2.756669 -8.528391 -0.8129102,-3.264711 -7.763906 -0.5465059,-3.523855 -6.90903 -0.2742239,-3.770058 -6.12802 -0.0495795,-3.232572 -6.425346 -1.003083,-3.472269 -5.373311 -0.5176982,-3.613886 -4.705847 -0.1489023,-3.724878 -4.088544 0.141955,-2.849642 -6.304113 -0.9602002,-2.973016 -5.461162 -0.1473945,-2.973016 -5.461162 -0.1473945,-2.860305 -7.067822 0.02875793,-2.4452 -6.364305 -0.8308909,-2.526267 -5.730778 -0.08365238,-2.537407 -6.797435 -0.05595183,-2.524945 -7.30666 -0.2070508,-2.044522 -6.558534 -0.6664529,-2.117564 -6.076223 -0.1093404,-2.192559 -6.850173 -0.06398582,-2.212263 -7.26552 -0.159021,-9.551724 -8.680466 -1.141376,-8.804932 -8.334806 -0.6612575,-8.248354 -7.471057 -0.3869291,-7.892966 -6.696521 -0.09341145,-7.515354 -6.043939 0.198812,-8.665931 -5.903733 -0.8796875,-8.438531 -4.802701 -0.5656844,-8.304788 -4.024061 -0.2900209,-8.18749 -3.251194 -0.07219517,-9.049141 -5.864526 -0.7927564,-8.941915 -4.763837 -0.02137506,-8.873906 -5.034076 0.626116,-8.851311 -5.368053 0.9420834,-9.441337 -5.968429 -0.6205217,-9.382261 -4.949127 0.1179307,-9.264866 -5.418607 0.6819595,-9.21572 -5.970008 0.9038699,-9.89086 -6.193085 -0.4410324,-9.879064 -5.271358 0.142692,-9.743032 -5.381588 0.5336865,-9.654283 -5.728323 0.7197485,2.510, 4
-2.187735 -8.722235 -1.230568,-2.762605 -8.555925 -0.7686715,-3.266711 -7.78637 -0.515545,-3.529732 -6.940027 -0.2503093,-3.782387 -6.172018 -0.0340699,-3.239123 -6.455173 -0.9877771,-3.473698 -5.43345 -0.4969438,-3.619522 -4.771022 -0.1250981,-3.736032 -4.143573 0.1709379,-2.851928 -6.340049 -0.9435562,-2.973822 -5.504595 -0.122618,-2.973822 -5.504595 -0.122618,-2.848833 -7.139151 0.03047276,-2.443737 -6.403564 -0.807752,-2.524745 -5.766078 -0.06008482,-2.532272 -6.846183 -0.04564583,-2.519396 -7.360878 -0.2067966,-2.036218 -6.601127 -0.6383629,-2.108672 -6.097904 -0.09548163,-2.183048 -6.871316 -0.06746328,-2.20412 -7.290372 -0.177251,-9.581694 -8.686533 -1.075818,-8.837332 -8.369429 -0.600172,-8.280574 -7.511019 -0.330955,-7.918621 -6.71928 -0.04123878,-7.539842 -6.047353 0.2371877,-8.67788 -5.906103 -0.9063324,-8.460526 -4.802226 -0.6055825,-8.31574 -4.022327 -0.3371173,-8.201224 -3.271346 -0.1365203,-9.058462 -5.844167 -0.8325921,-8.943666 -4.705282 -0.1060275,-8.876396 -5.153478 0.4803866,-8.871874 -5.601163 0.7270136,-9.455023 -5.925619 -0.6674278,-9.380955 -4.875421 0.02277577,-9.263617 -5.473359 0.5188416,-9.233059 -6.10514 0.6732732,-9.912344 -6.125371 -0.4911293,-9.887687 -5.176142 0.05577672,-9.737847 -5.386152 0.394365,-9.655488 -5.829252 0.5325559,2.610, 4
-2.194111 -8.723524 -1.237023,-2.760848 -8.558975 -0.7709237,-3.276241 -7.790403 -0.5045324,-3.549778 -6.938886 -0.2240192,-3.794717 -6.180768 0.001954556,-3.238635 -6.460674 -0.9654999,-3.481289 -5.425968 -0.4522712,-3.626768 -4.769054 -0.07432258,-3.73844 -4.145274 0.2140313,-2.849012 -6.345212 -0.9146981,-2.968379 -5.526642 -0.07617879,-2.968379 -5.526642 -0.07617879,-2.848163 -7.157162 0.05947924,-2.440186 -6.408216 -0.7727714,-2.517968 -5.797051 -0.01157188,-2.519278 -6.884884 -0.01146865,-2.501121 -7.375548 -0.1864026,-2.032637 -6.598484 -0.5977433,-2.102436 -6.088396 -0.05612814,-2.166257 -6.86569 -0.04389596,-2.173651 -7.273124 -0.1641475,-9.552689 -8.653494 -1.211378,-8.8204 -8.33176 -0.7513738,-8.270339 -7.490489 -0.4554611,-7.928616 -6.685258 -0.1475252,-7.564024 -5.984747 0.1509907,-8.654553 -5.922712 -0.9241453,-8.448753 -4.784238 -0.5593592,-8.317331 -3.992675 -0.2646523,-8.219229 -3.249179 -0.04219413,-9.043245 -5.864023 -0.8262272,-8.948987 -4.695168 -0.05436051,-8.881255 -5.168492 0.4979844,-8.883982 -5.660862 0.7343616,-9.444434 -5.957597 -0.6470594,-9.380069 -4.898065 0.09731257,-9.259789 -5.48138 0.5869551,-9.233814 -6.136094 0.7450933,-9.899461 -6.181304 -0.4611447,-9.893411 -5.221349 0.1416296,-9.73517 -5.342659 0.4916527,-9.639149 -5.749238 0.6444429,2.710, 4
-2.206391 -8.741043 -1.039862,-2.763454 -8.557924 -0.5434388,-3.27286 -7.79836 -0.2473684,-3.541646 -6.957206 0.04968333,-3.798372 -6.198537 0.3014522,-3.243713 -6.42024 -0.6902258,-3.482423 -5.400075 -0.1504681,-3.621971 -4.767369 0.2584504,-3.731045 -4.17139 0.5776006,-2.84546 -6.311894 -0.6354607,-2.974844 -5.527435 0.2348273,-2.974844 -5.527435 0.2348273,-2.835618 -7.16366 0.4271395,-2.426055 -6.387418 -0.4940963,-2.511676 -5.829323 0.2981086,-2.512166 -6.930749 0.2990055,-2.488526 -7.396266 0.1348559,-2.007645 -6.590027 -0.3126143,-2.087151 -6.120467 0.2513851,-2.155171 -6.927581 0.2589155,-2.157368 -7.316833 0.1427755,-9.560192 -8.705667 -1.259819,-8.821039 -8.367891 -0.7524353,-8.271645 -7.529859 -0.4488921,-7.928806 -6.741266 -0.1550403,-7.550528 -6.060564 0.1361039,-8.665243 -5.999628 -0.8829191,-8.440445 -4.890129 -0.5169529,-8.319075 -4.05882 -0.2061747,-8.218105 -3.24552 0.03755498,-9.061547 -5.936409 -0.820859,-8.965364 -4.842008 -0.03284502,-8.902777 -5.010568 0.5943401,-8.877552 -5.304006 0.9096658,-9.461792 -6.026051 -0.6826516,-9.407359 -5.038251 0.04997206,-9.314304 -5.468296 0.5837208,-9.271207 -6.008137 0.7969577,-9.914282 -6.230506 -0.5322687,-9.915829 -5.299787 0.05079436,-9.78658 -5.413422 0.4222634,-9.689749 -5.793146 0.6023413,2.810, 4
-2.180357 -8.767986 -0.9459022,-2.734261 -8.572792 -0.3744394,-3.241335 -7.828506 -0.02683163,-3.51029 -7.009595 0.3228315,-3.747237 -6.216723 0.6323808,-3.187939 -6.41706 -0.4531704,-3.430922 -5.399107 0.1053723,-3.564459 -4.727788 0.5295802,-3.656569 -4.101567 0.8534522,-2.780808 -6.323734 -0.4211342,-2.877199 -5.55693 0.4864169,-2.877199 -5.55693 0.4864169,-2.78086 -7.199665 0.7335031,-2.360062 -6.415389 -0.2972849,-2.422891 -5.849451 0.5227537,-2.454306 -6.92459 0.5542496,-2.458415 -7.438156 0.4135159,-1.942784 -6.636985 -0.1297691,-1.996405 -6.123793 0.4594795,-2.085443 -6.893915 0.5050099,-2.120093 -7.335427 0.416787,-9.566187 -8.741703 -1.252066,-8.82346 -8.459778 -0.7861265,-8.234011 -7.623996 -0.5250269,-7.883437 -6.811903 -0.2779192,-7.543293 -6.091478 -0.0519706,-8.636715 -6.047512 -0.9912562,-8.389946 -4.912788 -0.7141862,-8.265926 -4.069189 -0.4267742,-8.168364 -3.276435 -0.1554446,-9.036694 -5.956608 -0.9595517,-8.884228 -4.906486 -0.3702988,-8.846941 -4.646354 0.2136477,-8.847642 -4.644506 0.5893897,-9.43916 -6.037574 -0.8530532,-9.334125 -5.03672 -0.2755452,-9.303114 -5.063758 0.27827,-9.293661 -5.367551 0.5970385,-9.873323 -6.256219 -0.7273986,-9.864468 -5.380278 -0.2446873,-9.806333 -5.285899 0.1527719,-9.736526 -5.490457 0.4289421,2.910, 5
-2.163599 -8.780542 -0.9410046,-2.721924 -8.539669 -0.3921601,-3.220448 -7.778318 -0.05573642,-3.482731 -6.962982 0.2819784,-3.734896 -6.193479 0.5909314,-3.149668 -6.405284 -0.4565577,-3.393751 -5.385809 0.1018889,-3.526262 -4.720567 0.5280087,-3.615477 -4.099287 0.8568615,-2.746788 -6.332128 -0.4093987,-2.844968 -5.572829 0.5036931,-2.844968 -5.572829 0.5036931,-2.756905 -7.214239 0.7432828,-2.328538 -6.43572 -0.2730565,-2.390156 -5.861944 0.5450306,-2.432602 -6.927863 0.5753672,-2.437466 -7.442413 0.4360434,-1.910653 -6.665169 -0.09245121,-1.957314 -6.153705 0.4916077,-2.055491 -6.915412 0.5403347,-2.092595 -7.347211 0.4565284,-9.543184 -8.697138 -0.99748,-8.803216 -8.452633 -0.5376027,-8.228909 -7.617763 -0.2882062,-7.863346 -6.825249 -0.03681862,-7.515804 -6.153268 0.2020106,-8.617502 -5.927077 -0.8574367,-8.369971 -4.814126 -0.6244425,-8.252946 -3.982881 -0.3305546,-8.168036 -3.232292 -0.05532646,-9.013734 -5.82899 -0.8088242,-8.868331 -4.731433 -0.2621546,-8.815419 -4.489904 0.3418502,-8.816619 -4.572505 0.7217749,-9.420782 -5.933498 -0.6776996,-9.338214 -4.872894 -0.1528516,-9.294632 -4.907369 0.4166383,-9.2779 -5.274123 0.7434622,-9.853761 -6.203575 -0.515992,-9.887171 -5.315094 -0.05221587,-9.832063 -5.209304 0.3589228,-9.756861 -5.426746 0.6507472,3.010, 5
-2.159755 -8.809835 -0.8711094,-2.729056 -8.554571 -0.3757937,-3.210406 -7.78819 -0.05615973,-3.473721 -6.936737 0.2605447,-3.724251 -6.145707 0.5198089,-3.155729 -6.399185 -0.4852839,-3.398226 -5.367147 0.1075768,-3.518475 -4.72179 0.5347699,-3.589436 -4.063563 0.8517814,-2.750745 -6.323675 -0.4349802,-2.84688 -5.568247 0.4710394,-2.84688 -5.568247 0.4710394,-2.75866 -7.216197 0.5298257,-2.324297 -6.441448 -0.2914257,-2.376466 -5.845953 0.5204648,-2.42718 -7.011402 0.4615082,-2.428929 -7.425725 0.2426516,-1.907247 -6.696184 -0.116103,-1.952417 -6.215076 0.4307495,-2.058883 -7.050916 0.396596,-2.085071 -7.403217 0.2465572,-9.488029 -8.702436 -0.5939096,-8.747937 -8.502872 -0.1105346,-8.19989 -7.642353 0.1332194,-7.856501 -6.838012 0.3914452,-7.478281 -6.149282 0.6486746,-8.593582 -5.830162 -0.5495698,-8.368749 -4.73855 -0.3583857,-8.256289 -3.945155 -0.04933035,-8.161999 -3.255148 0.2474715,-8.992175 -5.706957 -0.4913349,-8.862682 -4.52556 0.003271341,-8.786346 -4.338026 0.661924,-8.765326 -4.57327 1.074567,-9.398092 -5.812971 -0.35434,-9.324097 -4.668238 0.1333951,-9.248109 -4.64788 0.7669781,-9.207092 -5.070592 1.143345,-9.827881 -6.113557 -0.1783814,-9.868198 -5.172088 0.2944666,-9.788943 -4.997392 0.7476432,-9.682358 -5.228746 1.065968,3.110, 4
-2.198043 -8.800224 -0.7247591,-2.766414 -8.526482 -0.2144289,-3.244116 -7.756187 0.1090347,-3.506182 -6.914291 0.4289247,-3.757993 -6.137657 0.6937141,-3.186571 -6.33304 -0.310829,-3.388394 -5.294614 0.2765836,-3.495185 -4.647117 0.6980624,-3.567098 -3.98484 1.008077,-2.786265 -6.273996 -0.2651719,-2.850059 -5.533113 0.6558222,-2.850059 -5.533113 0.6558222,-2.782692 -7.193353 0.7721685,-2.367244 -6.410926 -0.1304142,-2.386925 -5.826059 0.6828889,-2.442236 -6.964517 0.6526926,-2.463177 -7.396663 0.4523115,-1.961625 -6.689836 0.03830355,-1.981891 -6.234832 0.5902956,-2.084118 -7.048501 0.5859863,-2.126129 -7.396226 0.4523515,-9.436528 -8.726036 -0.3658373,-8.700397 -8.512888 0.02975979,-8.16579 -7.617088 0.218532,-7.821682 -6.82698 0.4548716,-7.453323 -6.144957 0.6872045,-8.570244 -5.79017 -0.4351687,-8.352481 -4.69102 -0.2419252,-8.223154 -3.883519 0.08909565,-8.119512 -3.211139 0.4064096,-8.969537 -5.65862 -0.3148435,-8.8605 -4.392733 0.1729404,-8.716391 -4.247215 0.874379,-8.657843 -4.607567 1.327547,-9.38336 -5.765526 -0.1200851,-9.338691 -4.526523 0.3557667,-9.213963 -4.495359 0.9829321,-9.143853 -4.967132 1.371449,-9.820066 -6.069586 0.1064401,-9.873083 -5.047731 0.5716704,-9.754214 -4.803562 1.00249,-9.611293 -5.035078 1.313966,3.210, 5
-2.22446 -8.806963 -0.7340924,-2.794735 -8.501637 -0.2148659,-3.264164 -7.724937 0.1098302,-3.520401 -6.885871 0.4356498,-3.770163 -6.102741 0.7155086,-3.175668 -6.330644 -0.2872896,-3.386902 -5.292881 0.2876509,-3.497728 -4.632116 0.7176802,-3.569143 -3.96271 1.048082,-2.778871 -6.280601 -0.2492401,-2.825509 -5.540123 0.6533508,-2.825509 -5.540123 0.6533508,-2.783446 -7.201959 0.7956617,-2.365869 -6.423629 -0.1226088,-2.375731 -5.834129 0.6781276,-2.443658 -6.940237 0.6676654,-2.475406 -7.394038 0.4888879,-1.968095 -6.706447 0.03864646,-1.973907 -6.237103 0.5888523,-2.079465 -7.02074 0.6000979,-2.129014 -7.380291 0.4856153,-9.441908 -8.746386 -0.2519336,-8.7069 -8.523994 0.1202425,-8.17462 -7.599109 0.2788128,-7.823256 -6.780309 0.4875968,-7.445745 -6.096292 0.6832052,-8.586032 -5.778629 -0.3362946,-8.35388 -4.638477 -0.1457136,-8.211718 -3.821071 0.1808824,-8.102966 -3.158115 0.478036,-8.988506 -5.643866 -0.214762,-8.872261 -4.321023 0.2580855,-8.733628 -4.183612 0.9513582,-8.684769 -4.592725 1.384921,-9.404426 -5.760871 -0.02159575,-9.358463 -4.490769 0.4434268,-9.231152 -4.426059 1.060661,-9.161264 -4.89561 1.441004,-9.840441 -6.089889 0.1981891,-9.899137 -5.075094 0.665458,-9.781828 -4.794382 1.10126,-9.633127 -5.000009 1.412594,3.310, 5
-2.246406 -8.750097 -0.735472,-2.801776 -8.481701 -0.179714,-3.273911 -7.685413 0.1614103,-3.518768 -6.860711 0.5005561,-3.741319 -6.06509 0.8085256,-3.175615 -6.279186 -0.2107918,-3.37575 -5.235816 0.347515,-3.481673 -4.567753 0.7781373,-3.547857 -3.932678 1.113607,-2.772924 -6.231239 -0.1866807,-2.806402 -5.487239 0.699187,-2.806402 -5.487239 0.699187,-2.778718 -7.164234 0.9208361,-2.361557 -6.382664 -0.07666945,-2.369104 -5.843662 0.7068192,-2.443475 -6.91324 0.7188857,-2.48245 -7.408095 0.5757459,-1.968571 -6.673264 0.07643354,-1.973441 -6.228723 0.6360693,-2.085975 -6.989954 0.6727595,-2.147395 -7.383739 0.5853908,-9.50143 -8.854994 0.4176723,-8.756019 -8.524479 0.7051591,-8.192237 -7.557624 0.8109583,-7.82596 -6.708747 0.9807863,-7.447704 -5.996762 1.130881,-8.599212 -5.718773 0.1038628,-8.366385 -4.64051 0.2313223,-8.229401 -3.85378 0.509224,-8.116194 -3.201654 0.771229,-9.002047 -5.57168 0.220366,-8.881844 -4.229681 0.5957476,-8.771161 -4.12622 1.238898,-8.741973 -4.530479 1.635883,-9.409353 -5.670175 0.4059967,-9.37074 -4.414872 0.7929001,-9.252202 -4.365989 1.368295,-9.186985 -4.831481 1.710215,-9.846042 -5.976297 0.6136534,-9.899645 -4.981252 1.045707,-9.782068 -4.727876 1.465091,-9.640751 -4.973165 1.745891,3.410, 5
-2.238041 -8.76042 -0.8172531,-2.787931 -8.473682 -0.2943261,-3.252419 -7.677658 0.04532671,-3.484471 -6.844333 0.3843424,-3.691437 -6.026076 0.6802684,-3.164978 -6.28998 -0.350246,-3.371454 -5.179063 0.2061988,-3.456419 -4.508672 0.6137364,-3.497034 -3.880558 0.9369586,-2.758312 -6.256172 -0.3087948,-2.802335 -5.477479 0.5811915,-2.802335 -5.477479 0.5811915,-2.775216 -7.1572 0.756263,-2.339349 -6.416448 -0.1818472,-2.352884 -5.855532 0.6014358,-2.431145 -6.949054 0.5919048,-2.467169 -7.418603 0.4280287,-1.941463 -6.711484 -0.01945388,-1.949428 -6.257071 0.523769,-2.072877 -7.03359 0.5391396,-2.135291 -7.416839 0.4349313,-9.521264 -8.994734 0.6127671,-8.781061 -8.67543 0.9289393,-8.221287 -7.696783 1.06494,-7.875317 -6.797806 1.234389,-7.508888 -6.03573 1.374477,-8.613928 -5.819146 0.3863197,-8.390142 -4.681022 0.5185377,-8.274183 -3.89072 0.7793075,-8.174719 -3.233285 1.033335,-9.028192 -5.650886 0.4781983,-8.930209 -4.233047 0.8457165,-8.868069 -4.188529 1.438749,-8.875413 -4.661993 1.809307,-9.440604 -5.74764 0.6348113,-9.406116 -4.438804 1.013402,-9.320312 -4.393726 1.53968,-9.283981 -4.875103 1.849544,-9.879836 -6.08081 0.8125969,-9.933597 -5.066467 1.25925,-9.837831 -4.795381 1.649598,-9.717268 -5.019708 1.909779,3.510, 5
-2.248273 -8.830307 -0.818249,-2.801566 -8.513428 -0.303122,-3.2651 -7.716243 0.004429996,-3.488331 -6.857912 0.3023314,-3.681786 -6.047163 0.5604595,-3.16843 -6.35387 -0.4043107,-3.35408 -5.234087 0.1181555,-3.447511 -4.540527 0.506327,-3.504786 -3.878402 0.8225793,-2.770242 -6.314054 -0.376789,-2.80635 -5.497545 0.4759097,-2.80635 -5.497545 0.4759097,-2.776937 -7.211317 0.6501746,-2.360305 -6.456563 -0.2661195,-2.378108 -5.861868 0.5144609,-2.443879 -6.953798 0.5205972,-2.475086 -7.471103 0.3630686,-1.965606 -6.725969 -0.1247022,-1.975266 -6.23118 0.4318184,-2.087161 -6.997151 0.4562101,-2.147146 -7.40209 0.3451477,-9.554317 -9.007339 0.6876445,-8.802691 -8.692087 0.9641119,-8.23193 -7.726588 1.096185,-7.874823 -6.840723 1.276397,-7.503201 -6.087183 1.427351,-8.624656 -5.815012 0.4429803,-8.403894 -4.677097 0.5891601,-8.287525 -3.897647 0.8582685,-8.188473 -3.260885 1.114434,-9.042209 -5.64438 0.5618341,-8.940819 -4.200747 0.9553308,-8.866646 -4.200732 1.563886,-8.868032 -4.717214 1.925562,-9.455154 -5.735397 0.7438117,-9.421378 -4.418029 1.132951,-9.320627 -4.425022 1.660638,-9.276073 -4.945217 1.968599,-9.897559 -6.055433 0.9411355,-9.959725 -5.036366 1.390553,-9.851479 -4.789649 1.775764,-9.726828 -5.033355 2.02446,3.610, 5
-2.238227 -8.823193 -0.7117758,-2.790982 -8.525967 -0.1810524,-3.267041 -7.747051 0.1398274,-3.499084 -6.874378 0.4528632,-3.674356 -6.02329 0.7277855,-3.181517 -6.336023 -0.2769251,-3.385106 -5.254732 0.2576787,-3.488144 -4.579372 0.6310982,-3.554402 -3.917696 0.9197549,-2.768059 -6.277458 -0.2680024,-2.795379 -5.536008 0.5924367,-2.795379 -5.536008 0.5924367,-2.751285 -7.233377 0.7948527,-2.351993 -6.41447 -0.1763741,-2.357584 -5.886703 0.5994388,-2.41256 -6.975942 0.6074378,-2.452579 -7.476242 0.4547726,-1.961012 -6.682483 -0.05487251,-1.967758 -6.226456 0.4851166,-2.067636 -7.008184 0.506261,-2.129697 -7.413378 0.393537,-9.616086 -9.147959 0.7805016,-8.880041 -8.794292 1.098894,-8.297008 -7.844942 1.267211,-7.930611 -6.944232 1.467575,-7.559647 -6.157273 1.628527,-8.679218 -5.93433 0.641491,-8.439437 -4.765475 0.7910632,-8.33199 -3.974159 1.040751,-8.242783 -3.301468 1.278713,-9.102027 -5.756328 0.7403063,-8.980245 -4.337757 1.123708,-8.923988 -4.265468 1.727723,-8.927177 -4.691524 2.110717,-9.518423 -5.840618 0.8946518,-9.46095 -4.557714 1.275993,-9.380259 -4.493574 1.824508,-9.329405 -4.94275 2.1652,-9.966037 -6.155376 1.063109,-10.01328 -5.168519 1.505887,-9.91189 -4.896358 1.904946,-9.769556 -5.096699 2.176095,3.710, 5
-2.30572 -8.790083 -0.5790637,-2.851021 -8.472956 -0.08228377,-3.319473 -7.691527 0.2262504,-3.529701 -6.8369 0.5260241,-3.739349 -6.051208 0.8185431,-3.269692 -6.314474 -0.06517589,-3.497093 -5.285507 0.478995,-3.593407 -4.6352 0.825415,-3.659342 -4.005627 1.077918,-2.836523 -6.218919 -0.06234413,-2.873636 -5.598055 0.7650112,-2.873636 -5.598055 0.7650112,-2.85216 -7.280384 1.000011,-2.40279 -6.343666 0.009877443,-2.420961 -5.910404 0.7543849,-2.487898 -6.952354 0.7944978,-2.528702 -7.465261 0.6846015,-2.00118 -6.612447 0.1072236,-2.003471 -6.17896 0.6271005,-2.125121 -6.909482 0.6840664,-2.207274 -7.312143 0.6170801,-9.678703 -9.230576 0.960855,-8.933297 -8.888561 1.241017,-8.352005 -7.89527 1.377514,-7.988482 -7.01313 1.566461,-7.621252 -6.250501 1.722151,-8.727942 -5.970949 0.7031457,-8.502245 -4.80915 0.8380173,-8.386214 -4.004144 1.094089,-8.284251 -3.313213 1.343494,-9.149967 -5.790829 0.8429622,-9.052319 -4.32052 1.234551,-8.970833 -4.314996 1.83404,-8.958971 -4.803697 2.199058,-9.571687 -5.87358 1.051067,-9.538592 -4.53165 1.442475,-9.428404 -4.530187 1.986884,-9.361571 -5.04013 2.310854,-10.02962 -6.182847 1.272956,-10.08237 -5.148525 1.738732,-9.964322 -4.90939 2.136969,-9.819161 -5.165151 2.396999,3.810, 5
-2.38841 -8.775728 -0.5603855,-2.92559 -8.4618 -0.08896342,-3.379254 -7.664253 0.1884649,-3.568622 -6.794347 0.4526719,-3.774723 -6.020183 0.6987172,-3.324232 -6.300111 -0.0642263,-3.564434 -5.300951 0.4953369,-3.684828 -4.665366 0.8539973,-3.780694 -4.030714 1.109685,-2.911015 -6.194015 -0.06066281,-2.949255 -5.597545 0.7413017,-2.949255 -5.597545 0.7413017,-2.905407 -7.32747 0.8859245,-2.497365 -6.312415 0.01577264,-2.510058 -5.890485 0.7484083,-2.559536 -6.957437 0.7743833,-2.578646 -7.498828 0.6543099,-2.111602 -6.58933 0.1149428,-2.115421 -6.12645 0.6087153,-2.216146 -6.862225 0.650053,-2.278751 -7.295045 0.5772914,-9.710882 -9.267365 1.080834,-8.96953 -8.907354 1.373433,-8.387383 -7.919631 1.520276,-8.023159 -7.025974 1.716299,-7.658878 -6.25654 1.877138,-8.755164 -5.970003 0.8241006,-8.540636 -4.819131 0.9343793,-8.429563 -4.016185 1.159174,-8.331615 -3.319377 1.385202,-9.17806 -5.794492 0.9362561,-9.094311 -4.327301 1.295013,-9.003318 -4.340094 1.861697,-8.978786 -4.820467 2.197509,-9.593792 -5.873966 1.11027,-9.570357 -4.544571 1.470782,-9.452332 -4.571825 1.993871,-9.371983 -5.095743 2.30221,-10.0414 -6.170148 1.299384,-10.09665 -5.150563 1.729955,-9.975588 -4.919282 2.103513,-9.823813 -5.188081 2.34268,3.910, 4
-2.475467 -8.573166 -0.5764917,-3.00406 -8.303963 -0.03763306,-3.435236 -7.526924 0.2790912,-3.614903 -6.674228 0.5852443,-3.835037 -5.889833 0.8930206,-3.399283 -6.124271 -0.005580664,-3.621429 -5.194692 0.5679264,-3.743883 -4.590204 0.909889,-3.846261 -3.997091 1.157416,-2.96714 -6.003361 -0.01284581,-3.027239 -5.481493 0.8567618,-3.027239 -5.481493 0.8567618,-2.953038 -7.230124 0.9999241,-2.537082 -6.124635 0.05922359,-2.57913 -5.763429 0.8611252,-2.621581 -6.861807 0.8767464,-2.631096 -7.37019 0.7317729,-2.141104 -6.39764 0.163752,-2.151865 -5.940082 0.704699,-2.26428 -6.662415 0.7482643,-2.318397 -7.063681 0.670067,-9.76975 -9.292995 1.31203,-9.04041 -8.946615 1.598806,-8.442804 -7.924917 1.752536,-8.075016 -7.018373 1.960954,-7.707701 -6.243412 2.156227,-8.813621 -5.925415 1.048099,-8.595795 -4.798116 1.17988,-8.489775 -4.003689 1.438574,-8.394919 -3.305522 1.681328,-9.239526 -5.752725 1.171166,-9.147677 -4.360559 1.543991,-9.069798 -4.3325 2.145506,-9.052291 -4.768152 2.512432,-9.654745 -5.83419 1.359981,-9.626487 -4.586141 1.727193,-9.522403 -4.566452 2.267265,-9.445643 -5.027784 2.603029,-10.10632 -6.137949 1.563042,-10.15462 -5.150465 2.006537,-10.04582 -4.930833 2.388771,-9.903713 -5.187324 2.639177,4.010, 4
-2.477821 -8.427492 -0.5509135,-3.003016 -8.204559 -0.012797,-3.454821 -7.422082 0.2928251,-3.641295 -6.553815 0.5911806,-3.871159 -5.780273 0.8916203,-3.420959 -6.025243 0.08789176,-3.659966 -5.081155 0.6903197,-3.79208 -4.460664 1.04086,-3.905948 -3.860859 1.286754,-2.992804 -5.870645 0.08158559,-3.06193 -5.42534 0.9747959,-3.06193 -5.42534 0.9747959,-2.962497 -7.192159 1.091033,-2.555823 -5.95498 0.153845,-2.608903 -5.644388 0.9870791,-2.640516 -6.741178 0.9947495,-2.63966 -7.272827 0.8401835,-2.151634 -6.188206 0.2570775,-2.176114 -5.752805 0.8290038,-2.283834 -6.486606 0.87341,-2.335311 -6.9128 0.7905236,-9.789711 -9.260218 1.181277,-9.055658 -8.921513 1.453342,-8.461446 -7.917247 1.581245,-8.08161 -7.011433 1.756735,-7.706034 -6.2852 1.911803,-8.828947 -5.944417 0.8783033,-8.600569 -4.821006 1.001892,-8.5 -4.03564 1.255827,-8.415615 -3.351636 1.497496,-9.252151 -5.761396 0.9875516,-9.14626 -4.360867 1.34607,-9.100189 -4.36898 1.919908,-9.110929 -4.833461 2.265279,-9.663955 -5.830448 1.161835,-9.623312 -4.582275 1.506576,-9.547823 -4.615022 2.007877,-9.502261 -5.113697 2.307574,-10.1083 -6.124751 1.356489,-10.16154 -5.146228 1.775777,-10.07143 -4.959035 2.141666,-9.954697 -5.241352 2.377257,4.110, 4
-2.510147 -8.247955 -0.4482993,-3.054954 -8.045319 0.1018881,-3.509645 -7.274358 0.4133739,-3.700098 -6.369115 0.7054893,-3.954981 -5.587513 0.9777224,-3.515297 -5.857272 0.183527,-3.78524 -4.924617 0.7930343,-3.918804 -4.298971 1.150643,-4.031727 -3.691075 1.395595,-3.073605 -5.665039 0.1617183,-3.133904 -5.275737 1.059113,-3.133904 -5.275737 1.059113,-2.988138 -7.070804 1.111232,-2.615944 -5.718647 0.2238668,-2.659529 -5.411207 1.079431,-2.673261 -6.568323 1.049056,-2.682618 -7.117509 0.8533146,-2.191231 -5.926563 0.3141139,-2.23039 -5.497627 0.9029733,-2.336884 -6.270278 0.9372026,-2.401937 -6.704574 0.8457149,-9.790775 -9.246153 1.008478,-9.061869 -8.898834 1.30589,-8.477653 -7.905611 1.472773,-8.10108 -6.993398 1.675791,-7.713228 -6.241629 1.846326,-8.851851 -5.967121 0.8073304,-8.629219 -4.819314 0.9842631,-8.511964 -4.028818 1.268744,-8.417568 -3.365905 1.529063,-9.279009 -5.789272 0.9163215,-9.174037 -4.320585 1.330504,-9.096584 -4.360548 1.912841,-9.09674 -4.877648 2.248457,-9.695687 -5.869021 1.08863,-9.650439 -4.550319 1.479735,-9.544903 -4.604707 1.979754,-9.497804 -5.144667 2.26899,-10.1482 -6.173519 1.276578,-10.18448 -5.129585 1.724627,-10.06986 -4.924028 2.091464,-9.94906 -5.218772 2.318727,4.210, 4
-2.526346 -8.084497 -0.1759397,-3.054464 -7.937164 0.4141877,-3.529942 -7.18897 0.7235051,-3.738829 -6.29821 1.028093,-4.002979 -5.503381 1.328877,-3.57832 -5.682504 0.4887198,-3.847984 -4.797309 1.146809,-3.97124 -4.208997 1.549983,-4.068697 -3.624012 1.81342,-3.133874 -5.435241 0.4582353,-3.184397 -5.179849 1.384323,-3.184397 -5.179849 1.384323,-2.98562 -7.113219 1.483997,-2.671257 -5.44614 0.5127959,-2.711473 -5.300214 1.398987,-2.68875 -6.487112 1.356779,-2.69445 -7.106935 1.158552,-2.238667 -5.620733 0.6031386,-2.279132 -5.267448 1.241012,-2.372346 -6.045752 1.292633,-2.450645 -6.520933 1.207438,-9.833074 -9.276876 1.083982,-9.102359 -8.931093 1.390985,-8.511939 -7.927847 1.545164,-8.136048 -7.001337 1.732833,-7.768847 -6.230463 1.889706,-8.887806 -5.977479 0.8783585,-8.660645 -4.833784 1.012313,-8.547223 -4.039995 1.25888,-8.451425 -3.357524 1.496773,-9.320095 -5.799308 0.9605066,-9.224157 -4.357677 1.318485,-9.155979 -4.362493 1.876861,-9.153029 -4.827965 2.218879,-9.737526 -5.882799 1.102367,-9.698059 -4.583734 1.453429,-9.601778 -4.637067 1.936386,-9.549213 -5.170536 2.22654,-10.18525 -6.187122 1.261073,-10.22606 -5.153001 1.676207,-10.11739 -4.948967 2.030706,-9.98998 -5.243534 2.258599,4.310, 4
-2.531062 -8.006298 -0.1893952,-3.074791 -7.897653 0.4782799,-3.549908 -7.166454 0.8291489,-3.753807 -6.297525 1.165672,-3.990032 -5.485845 1.510507,-3.617445 -5.658542 0.6037158,-3.892246 -4.752781 1.293734,-4.013994 -4.15143 1.708298,-4.099319 -3.592313 1.97541,-3.158743 -5.391354 0.5434397,-3.187766 -5.156999 1.48796,-3.187766 -5.156999 1.48796,-2.982604 -7.122006 1.574504,-2.689379 -5.383719 0.5707232,-2.709485 -5.235216 1.463319,-2.67294 -6.418766 1.453891,-2.681754 -7.094416 1.275213,-2.255661 -5.534044 0.6390536,-2.277242 -5.1227 1.303777,-2.370243 -5.828135 1.405802,-2.462407 -6.318923 1.364127,-9.856248 -9.252392 1.060051,-9.116683 -8.901262 1.359724,-8.527422 -7.908287 1.516389,-8.148846 -6.997796 1.707697,-7.788704 -6.23563 1.86793,-8.897521 -5.949859 0.8585272,-8.673841 -4.814767 1.007997,-8.560025 -4.018326 1.273723,-8.462001 -3.344497 1.528205,-9.334966 -5.782629 0.9457468,-9.241875 -4.355739 1.319016,-9.168464 -4.364364 1.898905,-9.160675 -4.841276 2.260338,-9.756907 -5.867825 1.094605,-9.722358 -4.588019 1.455226,-9.622084 -4.643274 1.947386,-9.561531 -5.171185 2.247327,-10.20566 -6.167746 1.257318,-10.25601 -5.135314 1.674526,-10.15264 -4.942632 2.030035,-10.02533 -5.237745 2.263962,4.410, 4
-2.546347 -7.890991 -0.03080419,-3.094884 -7.782576 0.6407835,-3.56428 -7.042524 0.9973023,-3.762456 -6.180288 1.338295,-4.008854 -5.372592 1.676761,-3.620008 -5.512229 0.8191256,-3.901958 -4.67172 1.549643,-4.027336 -4.09731 1.98526,-4.121614 -3.532971 2.269928,-3.150828 -5.241977 0.7700755,-3.193563 -5.0895 1.749702,-3.193563 -5.0895 1.749702,-2.97761 -7.064151 1.814274,-2.675892 -5.250761 0.8105155,-2.699597 -5.196428 1.761106,-2.669351 -6.40343 1.727189,-2.676413 -7.069845 1.535011,-2.239704 -5.425485 0.8953943,-2.268968 -5.056608 1.57755,-2.380886 -5.738815 1.665789,-2.479597 -6.205184 1.619007,-9.898651 -9.304981 1.050059,-9.156429 -8.946463 1.340439,-8.56534 -7.934961 1.479939,-8.186556 -7.010612 1.653324,-7.830149 -6.254964 1.797429,-8.949827 -6.011364 0.8296699,-8.726995 -4.85598 0.9530175,-8.621901 -4.051147 1.190826,-8.528887 -3.363538 1.423707,-9.385299 -5.838033 0.9059983,-9.287229 -4.397546 1.245027,-9.221247 -4.399387 1.78813,-9.213758 -4.873694 2.118431,-9.803797 -5.916136 1.041363,-9.766257 -4.630458 1.36483,-9.673296 -4.667211 1.834774,-9.61192 -5.186437 2.122772,-10.24725 -6.207584 1.191952,-10.29495 -5.182449 1.586193,-10.19446 -4.963737 1.935807,-10.06641 -5.241611 2.16692,4.510, 4
-2.528325 -7.751983 -0.02812458,-3.071583 -7.638671 0.6971698,-3.551024 -6.913679 1.084112,-3.730949 -6.098575 1.448207,-3.940807 -5.292251 1.850351,-3.564444 -5.40788 0.9410985,-3.837901 -4.600393 1.676148,-3.963923 -4.017675 2.149852,-4.061832 -3.469772 2.481372,-3.09137 -5.126609 0.8767329,-3.139771 -5.01509 1.891539,-3.139771 -5.01509 1.891539,-2.906213 -7.057564 2.048705,-2.609388 -5.135128 0.9022378,-2.6292 -5.131296 1.884707,-2.597226 -6.303957 1.882787,-2.611049 -7.017206 1.70649,-2.16006 -5.306207 0.9736959,-2.200049 -5.026171 1.71254,-2.309319 -5.76045 1.822601,-2.409101 -6.274471 1.787529,-9.926605 -9.254169 0.9468666,-9.193651 -8.916859 1.236619,-8.611428 -7.912897 1.371658,-8.223354 -7.001487 1.541237,-7.848497 -6.278564 1.678956,-8.999446 -5.984167 0.7338398,-8.780914 -4.831338 0.8914267,-8.657658 -4.010168 1.155925,-8.55114 -3.327106 1.402459,-9.433681 -5.813569 0.8155249,-9.369234 -4.347678 1.180998,-9.269134 -4.375215 1.709622,-9.235659 -4.878374 2.017171,-9.851133 -5.907715 0.9614893,-9.847538 -4.581478 1.31336,-9.733335 -4.671859 1.770529,-9.667015 -5.237308 2.035959,-10.28345 -6.217979 1.123518,-10.34716 -5.153593 1.508026,-10.23751 -4.94628 1.84392,-10.109 -5.242336 2.061821,4.610, 4
-2.502614 -7.696987 0.12243,-3.042023 -7.625566 0.8433634,-3.508053 -6.904375 1.251308,-3.692797 -6.06237 1.629517,-3.901772 -5.219946 2.036808,-3.546202 -5.360837 1.160656,-3.791544 -4.584134 1.947152,-3.919775 -3.997528 2.45587,-4.028818 -3.425168 2.807642,-3.079105 -5.050497 1.090851,-3.084635 -4.981555 2.073485,-3.084635 -4.981555 2.073485,-2.892872 -7.005289 2.119183,-2.589159 -5.059486 1.111897,-2.568033 -5.12325 2.078058,-2.55552 -6.330762 1.999473,-2.597952 -6.996971 1.787383,-2.139046 -5.241392 1.183703,-2.138731 -5.030014 1.893215,-2.239845 -5.815813 1.933172,-2.350435 -6.310834 1.854146,-9.935839 -9.291103 1.10738,-9.192374 -8.918592 1.407861,-8.617825 -7.891876 1.534049,-8.231723 -6.97138 1.692177,-7.845498 -6.261364 1.818123,-9.018899 -5.96371 0.8693638,-8.804071 -4.828077 1.001623,-8.688346 -4.025984 1.252443,-8.587427 -3.356505 1.495258,-9.452063 -5.804954 0.9292187,-9.37834 -4.363233 1.282869,-9.307021 -4.409814 1.828498,-9.290134 -4.918226 2.153496,-9.863881 -5.904268 1.057389,-9.860983 -4.601364 1.387926,-9.77174 -4.693513 1.861573,-9.719645 -5.263654 2.13484,-10.29547 -6.215812 1.202789,-10.37021 -5.176715 1.597046,-10.27048 -4.982761 1.958192,-10.1477 -5.296472 2.186449,4.710, 4
-2.426497 -7.56027 -0.4991843,-3.026187 -7.561906 0.2473767,-3.497381 -6.942249 0.7563162,-3.674316 -6.1363 1.200989,-3.873495 -5.218668 1.611882,-3.49473 -5.481376 0.8020743,-3.716724 -4.698486 1.623124,-3.84904 -4.069046 2.119805,-3.974552 -3.471569 2.470501,-2.985647 -5.23232 0.7466136,-2.990137 -5.045946 1.725251,-2.990137 -5.045946 1.725251,-2.835721 -6.944057 1.515039,-2.46751 -5.247571 0.7819778,-2.446115 -5.172599 1.709127,-2.459062 -6.353137 1.455325,-2.516486 -6.921065 1.183935,-2.003497 -5.395082 0.8836629,-2.013282 -5.041431 1.495116,-2.135524 -5.711026 1.398859,-2.242775 -6.0778 1.261237,-9.956328 -9.335085 1.159888,-9.222032 -8.952847 1.472913,-8.645783 -7.939708 1.615793,-8.255159 -6.999954 1.795181,-7.863935 -6.275678 1.959259,-9.025056 -6.005356 0.9312019,-8.814381 -4.867214 1.048143,-8.709562 -4.054655 1.298412,-8.612428 -3.362492 1.546314,-9.457542 -5.835355 0.9916533,-9.38631 -4.42451 1.331264,-9.328156 -4.406221 1.881111,-9.318549 -4.861438 2.224056,-9.871413 -5.917236 1.117851,-9.869439 -4.642114 1.457891,-9.79064 -4.711782 1.952979,-9.738096 -5.261779 2.24735,-10.30655 -6.20684 1.261645,-10.37948 -5.167682 1.659961,-10.29658 -4.999399 2.028255,-10.18458 -5.339293 2.267367,4.810, 4
-2.476827 -7.487878 -0.2871632,-3.040243 -7.591488 0.5414775,-3.523264 -7.007352 1.196723,-3.680425 -6.255529 1.729107,-3.853653 -5.346939 2.267584,-3.530621 -5.493005 1.254223,-3.680644 -4.935863 2.117534,-3.832325 -4.269454 2.691003,-3.975012 -3.600202 3.138781,-3.00794 -5.208133 1.174086,-3.004769 -5.072601 2.152237,-3.004769 -5.072601 2.152237,-2.814609 -6.654788 2.225268,-2.456398 -5.190533 1.177953,-2.436089 -5.257404 2.082822,-2.465977 -6.453975 1.781227,-2.486335 -7.047647 1.507325,-1.928654 -5.366958 1.268356,-1.965273 -5.295954 1.895816,-2.101223 -6.129579 1.720786,-2.183714 -6.563052 1.568593,-9.960238 -9.308832 1.105894,-9.23188 -8.965315 1.406676,-8.647022 -7.926124 1.524614,-8.249454 -6.989591 1.678314,-7.875653 -6.281372 1.809565,-9.02542 -5.997266 0.8312244,-8.806066 -4.848921 0.9485612,-8.705481 -4.047 1.207776,-8.616933 -3.370918 1.45476,-9.453226 -5.828826 0.8857501,-9.360472 -4.414583 1.192165,-9.314944 -4.393438 1.707414,-9.318615 -4.842955 2.021094,-9.862189 -5.914318 1.007449,-9.845636 -4.660978 1.309793,-9.782191 -4.6982 1.759985,-9.738434 -5.205144 2.027855,-10.28915 -6.214696 1.149262,-10.36206 -5.20375 1.523836,-10.30102 -5.023473 1.86181,-10.20472 -5.32592 2.072721,4.910, 4
-2.50688 -7.494802 -1.217079,-3.095989 -7.482809 -0.4060182,-3.539435 -6.866577 0.2476935,-3.696901 -6.092331 0.7144928,-3.941967 -5.276549 1.149589,-3.486117 -5.959499 0.6420591,-3.689037 -5.154703 1.54687,-3.868914 -4.353487 2.084619,-4.028616 -3.647455 2.520565,-2.960257 -5.783525 0.5393299,-3.042528 -5.064388 1.432462,-3.042528 -5.064388 1.432462,-2.840754 -6.296239 1.23181,-2.416156 -5.751358 0.5256028,-2.455464 -5.095469 1.385265,-2.498672 -6.070993 0.9155157,-2.5173 -6.711525 0.5912763,-1.906798 -5.842395 0.5874604,-1.964029 -5.070333 1.209861,-2.121229 -5.558037 1.004917,-2.19467 -5.948495 0.8871973,-9.946077 -9.293863 1.136935,-9.210251 -8.949255 1.41432,-8.640914 -7.916847 1.538602,-8.260222 -7.007467 1.703272,-7.886744 -6.305955 1.843301,-9.021647 -5.952686 0.8742457,-8.816881 -4.833286 1.009022,-8.704446 -4.028553 1.266083,-8.599768 -3.352764 1.513417,-9.461048 -5.799251 0.9599646,-9.406709 -4.356689 1.320585,-9.317161 -4.412153 1.859325,-9.289878 -4.926276 2.166736,-9.881693 -5.908199 1.111674,-9.894864 -4.597888 1.449832,-9.787132 -4.687367 1.909014,-9.719766 -5.244066 2.169435,-10.31913 -6.236333 1.282192,-10.40063 -5.189332 1.664833,-10.30177 -4.995723 2.002112,-10.17522 -5.291971 2.217854,5.010, 4
-2.471282 -7.564947 -0.3960283,-3.051746 -7.679243 0.430225,-3.539024 -7.082067 1.052735,-3.723625 -6.319343 1.511411,-3.979853 -5.495419 1.961743,-3.524739 -5.723726 1.373386,-3.726061 -5.122962 2.300013,-3.910618 -4.439966 2.895795,-4.071105 -3.779044 3.359996,-2.984485 -5.461696 1.264265,-3.039648 -5.16012 2.223015,-3.039648 -5.16012 2.223015,-2.859456 -6.726287 2.139322,-2.418138 -5.47034 1.258825,-2.451128 -5.322437 2.210663,-2.524414 -6.431236 1.871764,-2.558257 -6.960118 1.579879,-1.885593 -5.652887 1.31728,-1.959384 -5.30718 1.989455,-2.133034 -6.000789 1.83702,-2.207744 -6.371144 1.716588,-9.960568 -9.275597 1.158105,-9.231617 -8.939461 1.457251,-8.655098 -7.91728 1.580697,-8.263723 -6.993442 1.734984,-7.891726 -6.302566 1.870421,-9.039165 -5.942564 0.8729761,-8.820923 -4.831234 0.9953355,-8.718071 -4.029503 1.262123,-8.621966 -3.349946 1.520378,-9.47326 -5.77804 0.931746,-9.401107 -4.397768 1.253049,-9.348768 -4.401781 1.785284,-9.342249 -4.865333 2.106961,-9.887129 -5.868587 1.059654,-9.88427 -4.637449 1.368655,-9.813889 -4.715169 1.830523,-9.76372 -5.249095 2.102483,-10.31791 -6.170694 1.206644,-10.39128 -5.16048 1.576317,-10.31783 -4.996103 1.913905,-10.20999 -5.312604 2.132915,5.110, 4
-2.537643 -7.584781 -0.2889625,-3.122662 -7.691345 0.5952054,-3.593618 -7.145236 1.284671,-3.767302 -6.423707 1.809768,-4.00686 -5.571816 2.333204,-3.619313 -5.768057 1.521255,-3.804903 -5.189077 2.475165,-4.00758 -4.554287 3.072622,-4.197952 -3.903266 3.546388,-3.074732 -5.469747 1.399272,-3.088528 -5.144872 2.384601,-3.088528 -5.144872 2.384601,-2.862246 -6.706502 2.300445,-2.508361 -5.423257 1.389884,-2.493089 -5.279258 2.319968,-2.561667 -6.542092 1.859664,-2.600221 -7.177795 1.507312,-1.979545 -5.594862 1.459638,-2.015772 -5.367629 2.093172,-2.176942 -6.204026 1.849227,-2.266793 -6.649612 1.658614,-9.962753 -9.310251 1.061748,-9.223939 -8.952908 1.369955,-8.651409 -7.919111 1.484666,-8.266436 -6.988687 1.62715,-7.903195 -6.275051 1.737099,-9.055696 -6.005514 0.7794188,-8.852972 -4.842187 0.8729864,-8.746787 -4.013731 1.103035,-8.647373 -3.322724 1.336948,-9.487883 -5.839723 0.822964,-9.428538 -4.413133 1.12613,-9.365931 -4.418876 1.645371,-9.350878 -4.90717 1.964779,-9.901104 -5.928127 0.9373282,-9.910803 -4.644485 1.241416,-9.835409 -4.717834 1.72472,-9.782104 -5.2758 2.012388,-10.33192 -6.224029 1.068558,-10.41597 -5.19695 1.438938,-10.33529 -5.008638 1.805928,-10.22018 -5.32913 2.044506,5.210, 4
-2.576169 -7.578834 -1.34043,-3.18391 -7.673487 -0.427507,-3.634645 -7.108192 0.241058,-3.807177 -6.360971 0.6853613,-4.094429 -5.547485 1.054566,-3.62941 -6.303748 0.7334398,-3.824839 -5.44664 1.663459,-4.040451 -4.639201 2.21793,-4.236254 -3.939605 2.671831,-3.077753 -6.119383 0.5733609,-3.111637 -5.271265 1.482641,-3.111637 -5.271265 1.482641,-2.946033 -6.184618 1.300372,-2.499433 -6.045033 0.5087726,-2.483647 -5.265228 1.427192,-2.579616 -5.954341 1.040318,-2.640827 -6.486103 0.7694343,-1.966091 -6.070278 0.5219609,-1.990269 -5.272237 1.184201,-2.178401 -5.597384 1.055796,-2.272977 -5.901964 1.007011,-9.986551 -9.292688 1.099218,-9.252657 -8.952579 1.379647,-8.67345 -7.921216 1.485891,-8.282688 -6.980205 1.624691,-7.9049 -6.296615 1.735171,-9.051447 -5.982833 0.7856582,-8.838841 -4.850365 0.8861964,-8.740786 -4.046089 1.130358,-8.655086 -3.388088 1.370471,-9.484383 -5.816492 0.8413974,-9.403924 -4.397187 1.132312,-9.361993 -4.40488 1.635078,-9.367593 -4.895408 1.93066,-9.89986 -5.902446 0.9683405,-9.888253 -4.639575 1.259927,-9.824027 -4.723297 1.702672,-9.782295 -5.283211 1.95996,-10.33396 -6.200841 1.114955,-10.41087 -5.188152 1.482129,-10.34436 -5.032852 1.817419,-10.24494 -5.377697 2.03124,5.310, 4
-2.654679 -7.346666 -0.649562,-3.224408 -7.41953 0.2539654,-3.68447 -6.947067 0.9618481,-3.975596 -6.248211 1.374046,-4.224943 -5.659818 1.696588,-3.555916 -7.34929 2.125444,-3.738721 -6.288032 3.162898,-4.012022 -5.46754 3.662081,-4.280421 -4.643579 4.049352,-3.084503 -7.016729 1.950249,-3.150177 -5.767835 2.864205,-3.150177 -5.767835 2.864205,-3.671702 -4.208119 3.197673,-2.570962 -6.697289 1.798941,-2.508683 -5.486413 2.54102,-2.609781 -5.353071 2.413787,-2.752185 -5.313943 2.371757,-2.078784 -6.472232 1.705633,-1.961427 -5.664784 2.409236,-2.054471 -5.499443 2.603762,-2.178448 -5.405617 2.781786,-10.00894 -9.274002 1.069939,-9.272551 -8.954176 1.34396,-8.696501 -7.926265 1.44967,-8.299217 -7.004192 1.581779,-7.921114 -6.322639 1.687829,-9.085171 -5.965589 0.7442878,-8.872787 -4.818162 0.8446887,-8.768903 -4.012436 1.08396,-8.677603 -3.348964 1.316994,-9.515188 -5.806205 0.7972273,-9.443068 -4.37933 1.0848,-9.401243 -4.409558 1.566151,-9.40207 -4.912399 1.843501,-9.92322 -5.901775 0.9229543,-9.920542 -4.627258 1.198464,-9.861501 -4.72741 1.634489,-9.824125 -5.303247 1.888855,-10.35002 -6.21593 1.072186,-10.42637 -5.192922 1.430406,-10.36104 -5.034503 1.776662,-10.26321 -5.37631 1.999387,5.410, 7
-2.723845 -7.568151 -1.718366,-3.291466 -7.537349 -1.022777,-3.794885 -7.020055 -0.4572654,-4.138694 -6.312505 -0.05063617,-4.439512 -5.66052 0.3059758,-3.730293 -6.831825 0.3361136,-3.907631 -6.041046 1.258353,-4.122154 -5.255394 1.741535,-4.380237 -4.400403 2.100402,-3.255781 -6.607004 0.3594009,-3.371305 -5.772821 1.333339,-3.371305 -5.772821 1.333339,-3.854048 -4.461952 1.922126,-2.727322 -6.474643 0.4295195,-2.654531 -5.607706 1.353377,-2.744874 -5.411012 1.440795,-2.886607 -5.30955 1.448642,-2.179283 -6.480554 0.526286,-2.049478 -5.83329 1.415106,-2.129848 -5.57796 1.758892,-2.240465 -5.436417 2.004677,-10.0212 -9.297104 1.098846,-9.279219 -8.946922 1.401116,-8.70685 -7.915116 1.516244,-8.310568 -6.996067 1.6528,-7.929965 -6.338444 1.764598,-9.093722 -5.969707 0.843732,-8.886173 -4.807296 0.9555852,-8.785633 -4.010149 1.194911,-8.691689 -3.373222 1.429002,-9.532089 -5.816155 0.8854033,-9.480072 -4.415887 1.181295,-9.445697 -4.405324 1.680518,-9.440455 -4.903332 1.98271,-9.951302 -5.928436 1.003912,-9.979996 -4.691888 1.291948,-9.93172 -4.766021 1.750226,-9.884313 -5.336174 2.024384,-10.38454 -6.256877 1.143592,-10.49896 -5.255842 1.521011,-10.44462 -5.111112 1.888254,-10.34073 -5.470396 2.123357,5.510, 7
-2.763795 -7.453025 -0.349178,-3.373517 -7.452846 0.5183554,-3.82328 -6.964687 1.268708,-4.086811 -6.300115 1.737856,-4.30519 -5.650526 2.079163,-3.641926 -7.287485 2.460338,-3.859586 -6.146592 3.530047,-4.137027 -5.183679 4.012847,-4.382641 -4.317524 4.385104,-3.147051 -7.019826 2.330592,-3.26165 -5.635742 3.322934,-3.26165 -5.635742 3.322934,-3.674743 -4.350603 3.434853,-2.633507 -6.763705 2.225459,-2.630127 -5.393079 3.057181,-2.771297 -5.187292 2.860537,-2.915169 -5.236787 2.723917,-2.139392 -6.594699 2.172987,-2.071983 -5.643236 2.91163,-2.204282 -5.426923 3.057858,-2.339521 -5.439279 3.184675,-10.04136 -9.282063 0.9654695,-9.288382 -8.973351 1.312993,-8.715256 -7.963512 1.449991,-8.324828 -7.029361 1.59357,-7.947752 -6.353567 1.703631,-9.103535 -6.010623 0.7497489,-8.894669 -4.836103 0.883076,-8.801132 -4.03495 1.137873,-8.721666 -3.401639 1.384905,-9.543813 -5.839865 0.7691514,-9.467319 -4.401472 1.102435,-9.452682 -4.437855 1.609515,-9.474577 -4.97484 1.906693,-9.961858 -5.931624 0.8711216,-9.962005 -4.65516 1.192559,-9.934783 -4.775966 1.657889,-9.917864 -5.381183 1.925462,-10.39773 -6.239383 0.9942269,-10.48769 -5.224819 1.399965,-10.43537 -5.106899 1.782717,-10.34779 -5.490944 2.025826,5.610, 7
-2.611654 -7.588434 -2.143118,-3.261078 -7.349794 -1.517595,-3.730553 -6.73994 -0.9893126,-4.068882 -6.025218 -0.5747787,-4.329206 -5.381763 -0.1448523,-3.646304 -6.897365 -0.1348978,-3.798843 -6.0226 0.7311853,-3.954823 -5.291275 1.186499,-4.145736 -4.534765 1.499263,-3.174614 -6.867078 -0.1107582,-3.21424 -5.935552 0.7434431,-3.21424 -5.935552 0.7434431,-3.508683 -4.252948 1.201666,-2.649981 -6.854306 -0.04372489,-2.587428 -5.944585 0.8817338,-2.641645 -5.312131 1.076996,-2.702209 -4.8103 1.175183,-2.121894 -6.872161 0.05693996,-2.01743 -6.169094 0.8657576,-2.054576 -5.620689 1.290952,-2.091893 -5.1441 1.593247,-10.07766 -9.353889 1.119179,-9.338217 -9.028627 1.479402,-8.777243 -7.990461 1.613263,-8.390071 -7.034104 1.754224,-8.001284 -6.348081 1.873811,-9.153898 -6.02507 0.9043744,-8.944687 -4.857624 1.024707,-8.860144 -4.048854 1.278564,-8.782741 -3.40764 1.5296,-9.592461 -5.866125 0.9123673,-9.533129 -4.45173 1.225734,-9.524241 -4.473009 1.76417,-9.531614 -4.999662 2.090175,-10.01075 -5.960279 1.002073,-10.03096 -4.71304 1.301843,-10.00754 -4.843832 1.779809,-9.975948 -5.455082 2.062163,-10.44443 -6.265811 1.112065,-10.55331 -5.270544 1.511327,-10.51093 -5.159046 1.891068,-10.4209 -5.534481 2.125983,5.710, 7
-2.590479 -7.336025 -1.68486,-3.156853 -7.365715 -0.9029779,-3.617348 -6.8379 -0.3002242,-3.906497 -6.100921 0.09336424,-4.150247 -5.479507 0.4464672,-3.542091 -6.769362 0.5128474,-3.733908 -5.916943 1.39341,-3.94252 -5.121089 1.902645,-4.152555 -4.244401 2.272962,-3.086288 -6.594646 0.5,-3.179024 -5.774986 1.446341,-3.179024 -5.774986 1.446341,-3.575504 -4.382043 2.266831,-2.566622 -6.494392 0.4770222,-2.482258 -5.68503 1.389725,-2.561259 -5.383176 1.7063,-2.69761 -5.141658 1.902062,-2.038489 -6.456787 0.4927478,-1.897329 -5.840552 1.336624,-1.952355 -5.582239 1.735464,-2.058858 -5.375186 2.036078,-10.1068 -9.367727 0.9004535,-9.388185 -9.041229 1.274678,-8.830491 -8.035275 1.468024,-8.437891 -7.09711 1.669681,-8.036131 -6.418117 1.851954,-9.180557 -6.097045 0.8076365,-8.980876 -4.899068 1.028326,-8.884926 -4.058569 1.352781,-8.805089 -3.381958 1.633255,-9.61154 -5.938557 0.8634611,-9.553609 -4.480783 1.299173,-9.534781 -4.489849 1.847204,-9.552032 -5.01618 2.15188,-10.0322 -6.023487 1.000304,-10.04044 -4.731729 1.39731,-10.01212 -4.847801 1.873818,-9.993647 -5.444694 2.129033,-10.47745 -6.326601 1.162351,-10.57379 -5.266571 1.626337,-10.52179 -5.168682 2.012279,-10.44101 -5.585678 2.241467,5.810, 7
-2.736178 -7.244945 -1.172424,-3.29517 -7.152574 -0.4292778,-3.671762 -6.630575 0.2411414,-3.868658 -5.954471 0.6678662,-3.996486 -5.374176 1.070514,-3.402962 -7.320625 1.439284,-3.479688 -6.372416 2.387957,-3.732161 -5.679985 2.875726,-3.997593 -5.013782 3.227735,-2.920735 -7.222299 1.326891,-2.86467 -6.031229 2.13211,-2.86467 -6.031229 2.13211,-3.237059 -4.604729 2.453025,-2.456338 -7.008058 1.213316,-2.333533 -5.860525 1.942473,-2.4634 -5.312936 2.034844,-2.619465 -4.999141 2.192124,-2.067619 -6.754165 1.119187,-1.902188 -5.97331 1.797104,-1.963228 -5.53589 2.124354,-2.054872 -5.24228 2.420951,-10.11544 -9.398453 1.013229,-9.37662 -9.095039 1.410937,-8.812205 -8.071793 1.589742,-8.429168 -7.110191 1.772817,-8.03351 -6.413159 1.943584,-9.179229 -6.101874 0.8601006,-8.979959 -4.939777 1.048165,-8.894652 -4.143062 1.357662,-8.81879 -3.509475 1.6344,-9.620334 -5.938934 0.8843507,-9.548291 -4.509515 1.271409,-9.540901 -4.519237 1.831915,-9.558965 -5.035935 2.157804,-10.04474 -6.035814 0.9941817,-10.05763 -4.78375 1.36435,-10.03619 -4.882522 1.860829,-10.01183 -5.469755 2.144493,-10.48717 -6.356747 1.125274,-10.60675 -5.347954 1.568609,-10.57075 -5.220796 1.963133,-10.49262 -5.591288 2.20449,5.910, 7
-2.367722 -8.241707 1.075697,-2.985604 -7.995393 1.661916,-3.5093 -7.237644 2.132031,-3.778778 -6.432062 2.628174,-4.08857 -5.699329 3.131473,-3.591597 -5.643369 1.978725,-3.86751 -4.920772 2.81817,-4.010017 -4.456726 3.305337,-4.133431 -3.982515 3.58911,-3.092649 -5.326477 2.018937,-3.095988 -5.393263 3.060067,-3.095988 -5.393263 3.060067,-2.9233 -7.189706 2.998919,-2.573807 -5.366521 2.144236,-2.549862 -5.488613 3.060337,-2.544369 -6.688559 2.896628,-2.591179 -7.129889 2.660575,-2.092611 -5.610413 2.333566,-2.06534 -5.399877 2.900628,-2.188231 -6.180372 2.880635,-2.311029 -6.542315 2.789228,-10.07848 -9.386429 0.9164525,-9.341107 -9.069639 1.271425,-8.791195 -8.06164 1.439792,-8.41438 -7.117241 1.613924,-8.024474 -6.453476 1.780383,-9.155974 -6.111562 0.7692974,-8.951237 -4.952919 0.9735193,-8.859426 -4.138238 1.304222,-8.783167 -3.479682 1.585364,-9.590541 -5.952875 0.8152054,-9.536893 -4.53874 1.208311,-9.518206 -4.518924 1.764171,-9.531976 -5.015207 2.095617,-10.01052 -6.056606 0.9377986,-10.03554 -4.802688 1.291105,-10.00671 -4.885829 1.768689,-9.978013 -5.454557 2.038547,-10.44965 -6.388956 1.088965,-10.56417 -5.368048 1.527587,-10.51785 -5.244833 1.910712,-10.42868 -5.627765 2.144236,6.010, 4
-2.419272 -8.363207 0.513337,-2.985253 -8.176693 1.063384,-3.525173 -7.404212 1.448977,-3.784822 -6.586087 1.84238,-4.090193 -5.873333 2.250832,-3.569281 -5.887893 1.317271,-3.85664 -5.172505 2.045288,-4.022395 -4.679306 2.487383,-4.16913 -4.194254 2.781074,-3.09804 -5.57784 1.355269,-3.154031 -5.553279 2.302426,-3.154031 -5.553279 2.302426,-2.931683 -7.446502 2.34555,-2.60046 -5.605196 1.46892,-2.627853 -5.645177 2.36935,-2.605703 -6.813802 2.26978,-2.600728 -7.363387 2.07651,-2.131844 -5.826977 1.634114,-2.150657 -5.538623 2.229167,-2.250783 -6.299992 2.227313,-2.329443 -6.716987 2.147724,-10.09932 -9.441391 0.8860052,-9.358562 -9.143831 1.247846,-8.80303 -8.116484 1.40611,-8.424273 -7.154064 1.565413,-8.017249 -6.486494 1.711236,-9.165253 -6.178035 0.754637,-8.953124 -4.993609 0.9361899,-8.86482 -4.167816 1.239448,-8.794572 -3.494997 1.508126,-9.603855 -6.017719 0.785867,-9.518832 -4.572671 1.161633,-9.516197 -4.584171 1.69667,-9.54229 -5.105173 2.006273,-10.02563 -6.108741 0.8937498,-10.01881 -4.831836 1.246152,-10.00599 -4.927504 1.712652,-9.991182 -5.505111 1.974982,-10.47081 -6.419501 1.027221,-10.56614 -5.384944 1.466287,-10.52448 -5.277767 1.859157,-10.44476 -5.669715 2.095211,6.110, 4
-2.43574 -8.390266 0.3687852,-2.99604 -8.248934 0.8954445,-3.522968 -7.510835 1.284345,-3.780295 -6.708398 1.674906,-4.081951 -6.006685 2.04812,-3.572955 -5.98538 1.210357,-3.860446 -5.278759 1.919372,-4.024503 -4.773785 2.333797,-4.178137 -4.245876 2.606108,-3.103821 -5.661291 1.257282,-3.154174 -5.671863 2.16347,-3.154174 -5.671863 2.16347,-2.972233 -7.472785 2.1425,-2.610187 -5.691085 1.372196,-2.633134 -5.777158 2.226703,-2.626222 -6.934976 2.095029,-2.639924 -7.420738 1.90379,-2.150459 -5.924461 1.545615,-2.155705 -5.698602 2.079636,-2.267687 -6.441844 2.057172,-2.359509 -6.809064 1.980685,-10.12495 -9.473919 1.004961,-9.382832 -9.137739 1.362942,-8.820514 -8.138792 1.525802,-8.435207 -7.187236 1.695123,-8.024994 -6.513685 1.856288,-9.185633 -6.187078 0.867613,-8.97401 -5.003397 1.022309,-8.887087 -4.19329 1.298671,-8.81674 -3.540105 1.54688,-9.61908 -6.017665 0.8958946,-9.542196 -4.600494 1.228923,-9.531629 -4.556016 1.736425,-9.548998 -5.037145 2.055442,-10.03799 -6.10408 1.001489,-10.03385 -4.864624 1.327918,-10.01118 -4.941785 1.799834,-9.981924 -5.513216 2.08418,-10.47881 -6.407131 1.12777,-10.57531 -5.397396 1.543615,-10.53513 -5.265231 1.924284,-10.45199 -5.631765 2.164572,6.210, 4
-2.517759 -8.459995 -0.1612306,-3.055716 -8.324711 0.444009,-3.556745 -7.620061 0.8305406,-3.795516 -6.847415 1.200686,-4.071789 -6.136477 1.55114,-3.576853 -6.133615 0.7039037,-3.845589 -5.425458 1.434814,-3.995617 -4.919012 1.869792,-4.132975 -4.396639 2.155944,-3.11663 -5.87159 0.7077377,-3.157587 -5.751968 1.675922,-3.157587 -5.751968 1.675922,-2.983391 -7.576067 1.680207,-2.639612 -5.916662 0.7937715,-2.654677 -5.85999 1.721443,-2.657167 -7.030558 1.59559,-2.669486 -7.55476 1.383967,-2.194088 -6.147226 0.9279212,-2.198908 -5.825409 1.54043,-2.303132 -6.575546 1.520906,-2.387229 -6.977687 1.422208,-10.14874 -9.510897 1.211263,-9.403947 -9.19235 1.59846,-8.842054 -8.177469 1.786682,-8.463272 -7.215612 1.979398,-8.062368 -6.525011 2.167797,-9.179321 -6.168122 1.105292,-8.979279 -5.031447 1.280503,-8.900372 -4.212009 1.589092,-8.831208 -3.535521 1.860236,-9.61886 -5.997676 1.137857,-9.562541 -4.618272 1.497127,-9.551169 -4.600447 2.050536,-9.567407 -5.072933 2.396474,-10.04251 -6.088891 1.242147,-10.06019 -4.877407 1.586197,-10.03264 -4.969688 2.082258,-10.0023 -5.526762 2.379719,-10.48877 -6.402456 1.375125,-10.59304 -5.407423 1.802742,-10.54351 -5.301181 2.184814,-10.45088 -5.682335 2.427346,6.310, 4
-2.500386 -8.524763 -0.5925974,-3.019777 -8.402914 0.04011005,-3.514494 -7.740705 0.4465524,-3.761934 -6.993198 0.8265258,-4.033947 -6.297508 1.196332,-3.54273 -6.307508 0.3281214,-3.817353 -5.525379 1.030494,-3.961643 -4.982352 1.456989,-4.088374 -4.472644 1.755423,-3.082631 -6.081727 0.3199886,-3.126399 -5.850485 1.287719,-3.126399 -5.850485 1.287719,-2.947706 -7.67766 1.302798,-2.604996 -6.124067 0.3951536,-2.617459 -5.94842 1.320474,-2.625042 -7.07793 1.213222,-2.640818 -7.638072 1.01117,-2.160535 -6.330711 0.5206088,-2.158642 -5.943542 1.154908,-2.267593 -6.627157 1.183481,-2.35517 -7.034584 1.12533,-10.12129 -9.524088 1.034077,-9.387397 -9.185719 1.417608,-8.835516 -8.172794 1.610912,-8.459669 -7.223102 1.808472,-8.054829 -6.532253 1.998189,-9.188977 -6.209903 0.9335254,-8.991901 -5.031742 1.12555,-8.90096 -4.211845 1.437431,-8.820265 -3.547534 1.712147,-9.630224 -6.056141 0.9749311,-9.552974 -4.620485 1.378695,-9.539472 -4.63512 1.926256,-9.557554 -5.142311 2.243408,-10.05554 -6.14944 1.090421,-10.05279 -4.893453 1.458695,-10.02922 -4.993862 1.943735,-10.00735 -5.565298 2.224614,-10.50172 -6.46915 1.228071,-10.59427 -5.454304 1.66569,-10.5467 -5.319303 2.046527,-10.46477 -5.67677 2.279357,6.410, 4
-2.481662 -8.586996 -0.5408654,-3.002399 -8.462713 0.09765357,-3.508311 -7.796941 0.496055,-3.751514 -7.042661 0.8706478,-4.020752 -6.346302 1.2454,-3.52372 -6.357428 0.3562526,-3.799572 -5.599055 1.068527,-3.943911 -5.061901 1.519497,-4.070791 -4.539544 1.826463,-3.071888 -6.118604 0.3411169,-3.131535 -5.903209 1.309749,-3.131535 -5.903209 1.309749,-2.934719 -7.710104 1.366819,-2.598884 -6.148078 0.4129415,-2.627574 -5.995258 1.340155,-2.626364 -7.128282 1.26158,-2.635231 -7.682802 1.075962,-2.153888 -6.345167 0.5305814,-2.169648 -6.007431 1.173086,-2.268218 -6.737663 1.201983,-2.349132 -7.154719 1.141801,-10.12317 -9.521345 0.9900929,-9.395082 -9.192207 1.36692,-8.832458 -8.186152 1.552595,-8.450037 -7.235017 1.740081,-8.039229 -6.553723 1.91442,-9.188478 -6.225701 0.8937302,-8.991824 -5.041656 1.087809,-8.907969 -4.231515 1.402495,-8.8331 -3.567457 1.680682,-9.627378 -6.066636 0.9373998,-9.545129 -4.650441 1.335974,-9.55537 -4.657211 1.872341,-9.587051 -5.14265 2.186278,-10.05224 -6.151491 1.056728,-10.03886 -4.913795 1.424074,-10.0401 -4.997943 1.894902,-10.03224 -5.551605 2.168032,-10.50179 -6.460029 1.198298,-10.59305 -5.443631 1.633098,-10.55768 -5.309878 2.007051,-10.48094 -5.663361 2.234918,6.510, 4
-2.440967 -8.662117 -0.5486521,-2.959925 -8.577595 0.09075111,-3.454535 -7.930414 0.5058743,-3.700186 -7.170545 0.888832,-3.971794 -6.45405 1.243631,-3.496066 -6.469379 0.3703601,-3.755391 -5.712341 1.095309,-3.881645 -5.167442 1.541289,-3.997915 -4.61608 1.843853,-3.041664 -6.205886 0.3532903,-3.06328 -6.041605 1.301836,-3.06328 -6.041605 1.301836,-2.909205 -7.802339 1.289616,-2.569294 -6.237461 0.4244714,-2.562178 -6.140703 1.340544,-2.565469 -7.292158 1.216239,-2.607214 -7.802764 1.007791,-2.13158 -6.451914 0.5457929,-2.109794 -6.156725 1.159744,-2.209376 -6.878046 1.160459,-2.312641 -7.260326 1.083652,-10.13459 -9.556906 1.030295,-9.392851 -9.222254 1.389986,-8.82217 -8.194988 1.546528,-8.43673 -7.229057 1.710925,-8.034206 -6.555389 1.868842,-9.181858 -6.253864 0.8869181,-8.978538 -5.062662 1.033988,-8.908756 -4.267091 1.31405,-8.854165 -3.616318 1.574278,-9.618884 -6.095109 0.9126446,-9.518578 -4.710149 1.232242,-9.547784 -4.630353 1.755553,-9.600796 -5.03968 2.089886,-10.03986 -6.181375 1.009873,-10.01951 -4.980446 1.311049,-10.03996 -5.022937 1.763352,-10.04058 -5.530424 2.047266,-10.48705 -6.485214 1.129755,-10.58085 -5.503959 1.516058,-10.56126 -5.38842 1.867633,-10.49036 -5.743593 2.090856,6.610, 4
-2.433575 -8.721037 -0.5982823,-2.942697 -8.638481 0.04242545,-3.44859 -7.988344 0.450666,-3.690929 -7.256276 0.8242717,-3.953778 -6.552559 1.191144,-3.482874 -6.540482 0.3553091,-3.748489 -5.776287 1.076624,-3.880173 -5.232349 1.546808,-3.989271 -4.70263 1.869136,-3.035461 -6.291923 0.3336527,-3.053473 -6.08044 1.254075,-3.053473 -6.08044 1.254075,-2.874366 -7.851293 1.271891,-2.567799 -6.32913 0.3901141,-2.568508 -6.212163 1.279471,-2.558167 -7.342379 1.166143,-2.579627 -7.867925 0.9774222,-2.131335 -6.531089 0.4939647,-2.116138 -6.24685 1.106329,-2.193098 -7.002346 1.088699,-2.277 -7.401081 1.006325,-10.12115 -9.602844 1.083115,-9.384562 -9.242064 1.444197,-8.831357 -8.232603 1.609472,-8.458823 -7.274278 1.792899,-8.043187 -6.590711 1.971471,-9.186211 -6.282644 0.9460244,-8.984822 -5.095993 1.080461,-8.895327 -4.279314 1.35362,-8.817674 -3.603752 1.606316,-9.624735 -6.122438 0.983204,-9.560779 -4.76712 1.290705,-9.557744 -4.684343 1.820752,-9.57655 -5.098732 2.177074,-10.04966 -6.215712 1.09027,-10.05911 -5.041364 1.403433,-10.0569 -5.079095 1.895716,-10.03374 -5.592253 2.209829,-10.49325 -6.517256 1.219867,-10.5922 -5.524322 1.6203,-10.55622 -5.397237 2.005466,-10.46471 -5.758371 2.261484,6.710, 4
-2.405499 -8.876781 -0.4953665,-2.914369 -8.79578 0.1551536,-3.414057 -8.127876 0.5729533,-3.654547 -7.391782 0.9601792,-3.922312 -6.687266 1.338618,-3.458189 -6.693134 0.4848759,-3.727639 -5.945696 1.242101,-3.852783 -5.40566 1.728686,-3.950813 -4.867439 2.057104,-3.011066 -6.424123 0.4570952,-3.021751 -6.24028 1.400501,-3.021751 -6.24028 1.400501,-2.857533 -8.024704 1.369678,-2.540934 -6.450788 0.5175778,-2.532999 -6.356122 1.411536,-2.524604 -7.499559 1.278791,-2.559727 -8.019653 1.073671,-2.104016 -6.644658 0.6294465,-2.079929 -6.384059 1.236179,-2.161633 -7.132505 1.218882,-2.259216 -7.525135 1.138831,-10.12581 -9.5924 1.083333,-9.388242 -9.27187 1.450189,-8.830434 -8.253906 1.607505,-8.459105 -7.289392 1.767872,-8.061939 -6.628682 1.915431,-9.202172 -6.286444 0.948086,-9.00483 -5.085876 1.107894,-8.910466 -4.263718 1.393597,-8.828155 -3.617742 1.654439,-9.642887 -6.11024 0.9759915,-9.578391 -4.682985 1.311151,-9.568849 -4.661783 1.819611,-9.590463 -5.154423 2.139847,-10.07107 -6.190279 1.083357,-10.07982 -4.937667 1.416387,-10.06867 -5.028084 1.880876,-10.05625 -5.605216 2.16157,-10.51625 -6.493371 1.209137,-10.6152 -5.467447 1.619332,-10.58436 -5.337976 1.987728,-10.51714 -5.702986 2.22182,6.810, 4
-2.381999 -8.991554 -0.4405449,-2.892626 -8.918474 0.1963208,-3.395267 -8.253443 0.6133717,-3.635103 -7.522252 1.014137,-3.899351 -6.82238 1.428161,-3.440283 -6.789346 0.4787014,-3.69405 -6.104784 1.217603,-3.821649 -5.606178 1.687981,-3.931014 -5.111013 2.006599,-2.994151 -6.505925 0.4656895,-3.019981 -6.411281 1.417498,-3.019981 -6.411281 1.417498,-2.836744 -8.195383 1.447584,-2.525265 -6.525032 0.5433609,-2.524673 -6.521868 1.42661,-2.507767 -7.65349 1.315606,-2.529805 -8.175964 1.120881,-2.086927 -6.712419 0.6728429,-2.080445 -6.497045 1.272244,-2.162064 -7.237884 1.268001,-2.247327 -7.626018 1.195728,-10.14809 -9.594639 1.119838,-9.409938 -9.277107 1.540175,-8.856449 -8.266233 1.759467,-8.484995 -7.306828 1.974207,-8.070198 -6.610813 2.181015,-9.18691 -6.267715 1.066518,-8.987192 -5.087126 1.258,-8.898152 -4.252925 1.562599,-8.822256 -3.578939 1.829204,-9.629468 -6.105546 1.094596,-9.564905 -4.715562 1.490161,-9.553673 -4.69721 2.047359,-9.573234 -5.180364 2.395262,-10.06003 -6.198886 1.200984,-10.06727 -4.975322 1.571595,-10.05486 -5.053344 2.07293,-10.03714 -5.607173 2.374321,-10.51473 -6.515808 1.33291,-10.60599 -5.507802 1.773816,-10.56057 -5.397516 2.167231,-10.47439 -5.778261 2.42,6.910, 4
-2.40569 -9.027559 -0.316843,-2.919693 -8.98658 0.3018921,-3.412607 -8.31509 0.7548816,-3.635378 -7.578888 1.193221,-3.910457 -6.864643 1.645131,-3.468136 -6.825666 0.605782,-3.708607 -6.166059 1.347053,-3.824868 -5.678024 1.825574,-3.927761 -5.212209 2.153017,-3.013089 -6.512153 0.6165543,-3.028591 -6.492116 1.559225,-3.028591 -6.492116 1.559225,-2.861106 -8.24284 1.625372,-2.529468 -6.52578 0.7109439,-2.525264 -6.606698 1.571118,-2.511202 -7.738983 1.452681,-2.538136 -8.215082 1.26605,-2.075138 -6.722469 0.8626969,-2.074693 -6.610775 1.440893,-2.165615 -7.384259 1.413813,-2.253021 -7.743806 1.337812,-10.12662 -9.594076 1.014253,-9.382078 -9.236059 1.453261,-8.825357 -8.256063 1.684943,-8.459194 -7.302222 1.909419,-8.07508 -6.580226 2.133164,-9.175923 -6.296075 0.9574864,-8.978724 -5.111347 1.158221,-8.898463 -4.276823 1.492571,-8.840488 -3.60226 1.782792,-9.612052 -6.134986 0.974973,-9.537107 -4.75041 1.363914,-9.545307 -4.677366 1.946457,-9.592835 -5.114081 2.317395,-10.03615 -6.213598 1.066618,-10.02904 -4.998331 1.42352,-10.03607 -5.028226 1.927296,-10.03841 -5.55943 2.232961,-10.48804 -6.508831 1.191945,-10.58223 -5.507757 1.622413,-10.55488 -5.373924 2.015976,-10.48342 -5.748378 2.268002,7.010, 4
-2.453096 -9.07534 -0.6420597,-2.969639 -9.050434 -0.008297801,-3.434329 -8.387522 0.4099288,-3.644081 -7.661691 0.8071457,-3.98464 -7.014425 1.24021,-3.491896 -6.921635 0.335429,-3.729262 -6.293157 1.073141,-3.89164 -5.808267 1.549223,-4.033561 -5.391502 1.888894,-3.038601 -6.673109 0.3333029,-3.111199 -6.578595 1.309378,-3.111199 -6.578595 1.309378,-2.876898 -8.426825 1.426906,-2.559073 -6.716256 0.4204059,-2.581913 -6.715373 1.34688,-2.569968 -7.806974 1.268708,-2.56039 -8.375988 1.083279,-2.095627 -6.928009 0.5532025,-2.116082 -6.679033 1.246447,-2.224286 -7.345176 1.312042,-2.291507 -7.728974 1.280361,-10.1099 -9.584209 1.024236,-9.377046 -9.233988 1.375383,-8.828051 -8.225513 1.55047,-8.45616 -7.268417 1.741552,-8.058136 -6.591894 1.918374,-9.178147 -6.27696 0.9008343,-8.988763 -5.081259 1.073663,-8.902918 -4.262311 1.36728,-8.824513 -3.599761 1.619263,-9.619843 -6.119106 0.956357,-9.551796 -4.682407 1.316941,-9.534156 -4.674548 1.840064,-9.544793 -5.167926 2.152784,-10.04584 -6.209734 1.082922,-10.04845 -4.960842 1.418562,-10.02311 -5.0576 1.870034,-9.994565 -5.621675 2.131116,-10.49074 -6.518879 1.231278,-10.58258 -5.48901 1.631921,-10.52882 -5.358517 1.978671,-10.43729 -5.721878 2.190861,7.110, 4
-2.511962 -8.976383 -1.193487,-3.079224 -8.994537 -0.6198817,-3.551751 -8.404757 -0.1546634,-3.766454 -7.721748 0.2823287,-4.095371 -7.068563 0.7346402,-3.573502 -7.077098 -0.03839791,-3.827862 -6.448418 0.7636461,-4.008505 -5.927722 1.281395,-4.159948 -5.471703 1.63363,-3.09932 -6.85135 -0.01390851,-3.177877 -6.698839 0.960348,-3.177877 -6.698839 0.960348,-2.951735 -8.439074 0.8616542,-2.595545 -6.885416 0.09466088,-2.626456 -6.759193 0.9919814,-2.640302 -7.777523 0.8039186,-2.637859 -8.259321 0.560828,-2.115564 -7.051518 0.2399408,-2.161131 -6.719148 0.8324515,-2.299158 -7.285732 0.7866188,-2.364934 -7.570903 0.6941385,-10.14974 -9.602289 1.142859,-9.409894 -9.274157 1.529127,-8.850827 -8.268572 1.726033,-8.478713 -7.305171 1.923941,-8.080531 -6.614849 2.10916,-9.18736 -6.281051 1.072011,-8.984485 -5.103938 1.26376,-8.904404 -4.271209 1.568375,-8.842723 -3.586127 1.836769,-9.626012 -6.10732 1.109524,-9.549263 -4.683496 1.485721,-9.55132 -4.670846 2.01534,-9.585708 -5.150964 2.34116,-10.05202 -6.186161 1.222761,-10.04937 -4.939123 1.577025,-10.04111 -5.038892 2.036129,-10.03055 -5.600294 2.305711,-10.50405 -6.494108 1.361003,-10.59215 -5.476997 1.791959,-10.55169 -5.373434 2.159848,-10.47434 -5.754761 2.387005,7.210, 4
-2.524815 -8.933529 -1.489269,-3.11806 -8.961771 -0.9460992,-3.582764 -8.402178 -0.460905,-3.794159 -7.705352 -0.01521742,-4.123201 -7.06357 0.4203968,-3.578512 -7.148683 -0.2937925,-3.843786 -6.497909 0.5011436,-4.024553 -5.97229 0.9783978,-4.183084 -5.518457 1.289079,-3.107495 -6.961021 -0.2217824,-3.206927 -6.760522 0.819581,-3.206927 -6.760522 0.819581,-2.978325 -8.310202 0.770757,-2.602019 -7.018356 -0.07977521,-2.641764 -6.778554 0.8788185,-2.670101 -7.615699 0.7385397,-2.67978 -7.981401 0.5077809,-2.107037 -7.206305 0.09396124,-2.164491 -6.859903 0.7673867,-2.320364 -7.302469 0.7860477,-2.385654 -7.49566 0.7395699,-10.14971 -9.608023 1.235105,-9.412357 -9.260244 1.61819,-8.860227 -8.244415 1.804258,-8.491403 -7.280721 1.993914,-8.083632 -6.585477 2.160422,-9.211545 -6.252441 1.151986,-9.011284 -5.08711 1.299029,-8.92911 -4.260704 1.553887,-8.85985 -3.58092 1.791982,-9.654253 -6.082712 1.174058,-9.590245 -4.66576 1.518099,-9.579296 -4.668685 2.016405,-9.599589 -5.14465 2.325773,-10.07847 -6.170459 1.267913,-10.08893 -4.926933 1.596756,-10.07102 -5.040863 2.053481,-10.05103 -5.612824 2.329009,-10.52361 -6.483922 1.385119,-10.61588 -5.482934 1.786768,-10.56395 -5.375829 2.145623,-10.47433 -5.747535 2.377939,7.310, 4
-2.625908 -8.806252 -2.094708,-3.227258 -8.810307 -1.464165,-3.695796 -8.258244 -0.9372483,-3.909565 -7.57645 -0.5304488,-4.198214 -6.934992 -0.1741284,-3.633747 -7.440343 -0.5170237,-3.914519 -6.62323 0.2463266,-4.131609 -5.954883 0.7112807,-4.318289 -5.399698 1.071956,-3.152968 -7.286218 -0.5316744,-3.274971 -6.548551 0.3617176,-3.274971 -6.548551 0.3617176,-3.092089 -7.847244 0.2057179,-2.643086 -7.283473 -0.4730883,-2.705164 -6.520765 0.3803421,-2.753006 -7.111999 0.2403506,-2.768473 -7.551031 0.08690488,-2.159089 -7.351654 -0.3782684,-2.20356 -6.648904 0.2236851,-2.355809 -6.881538 0.2259272,-2.42154 -7.07917 0.2409774,-10.17554 -9.626963 1.185734,-9.438514 -9.286055 1.592821,-8.880091 -8.277901 1.794712,-8.514696 -7.312593 1.999619,-8.122039 -6.608587 2.198443,-9.22451 -6.289613 1.084449,-9.019371 -5.115297 1.25281,-8.938613 -4.281575 1.549592,-8.873625 -3.597654 1.812168,-9.66083 -6.118961 1.109796,-9.591396 -4.722993 1.466759,-9.599343 -4.664839 2.025639,-9.638951 -5.103585 2.383331,-10.08221 -6.190509 1.21087,-10.08046 -4.963552 1.549215,-10.08189 -5.034683 2.04016,-10.07746 -5.579957 2.34213,-10.53109 -6.482605 1.33841,-10.61652 -5.483914 1.760925,-10.58252 -5.386579 2.143554,-10.50829 -5.769337 2.390673,7.410, 4
-2.667965 -8.733879 -2.138144,-3.304198 -8.692204 -1.459153,-3.769757 -8.170683 -0.838874,-3.991196 -7.51505 -0.4015568,-4.272907 -6.857607 -0.07600081,-3.686833 -7.91477 -0.1650604,-3.925898 -6.902708 0.6694034,-4.167038 -6.066211 1.119871,-4.388932 -5.390543 1.492392,-3.199838 -7.761657 -0.2023523,-3.346449 -6.61473 0.6995283,-3.346449 -6.61473 0.6995283,-3.27568 -6.88647 0.466894,-2.688348 -7.645278 -0.180162,-2.774076 -6.482425 0.6401428,-2.848972 -6.632652 0.4074599,-2.914515 -6.912714 0.2254673,-2.190447 -7.573787 -0.1209983,-2.260889 -6.623017 0.4854184,-2.427239 -6.659523 0.4854409,-2.518405 -6.857278 0.5201381,-10.19119 -9.595728 1.212991,-9.458987 -9.262098 1.612441,-8.900257 -8.249752 1.815452,-8.520761 -7.285764 2.014283,-8.116471 -6.590923 2.198542,-9.230596 -6.249539 1.128691,-9.015581 -5.084968 1.31959,-8.929698 -4.252409 1.627705,-8.861034 -3.578657 1.896723,-9.670619 -6.080457 1.150233,-9.607491 -4.669965 1.528922,-9.606615 -4.678606 2.051964,-9.635441 -5.172214 2.367535,-10.09632 -6.166008 1.251807,-10.1088 -4.928162 1.597379,-10.1008 -5.039087 2.058259,-10.09377 -5.60579 2.324618,-10.54305 -6.475326 1.378723,-10.63813 -5.471946 1.794904,-10.59722 -5.396156 2.16111,-10.52341 -5.796883 2.389573,7.510, 4
-2.759059 -8.575033 -1.439053,-3.405771 -8.429108 -0.8400051,-3.902257 -7.912357 -0.2154545,-4.204597 -7.310796 0.2031622,-4.41288 -6.741764 0.5747154,-3.61685 -8.486261 0.9830012,-3.8116 -7.563732 2.015436,-4.090263 -6.855405 2.471888,-4.39255 -6.248783 2.776654,-3.179222 -8.236721 0.9306254,-3.288366 -6.989007 1.706021,-3.288366 -6.989007 1.706021,-3.544083 -6.03536 1.406804,-2.712319 -7.917713 0.9087238,-2.774242 -6.662938 1.628988,-2.948456 -6.397466 1.482018,-3.092718 -6.439308 1.411354,-2.287007 -7.608419 0.9155118,-2.308619 -6.683801 1.525211,-2.493465 -6.520062 1.698414,-2.648411 -6.603584 1.855062,-10.21306 -9.624779 1.210641,-9.471557 -9.271437 1.618482,-8.912804 -8.255445 1.828581,-8.537707 -7.276888 2.042885,-8.119468 -6.552816 2.253559,-9.242211 -6.279278 1.175324,-9.025528 -5.098772 1.344804,-8.946301 -4.283082 1.63524,-8.881822 -3.604339 1.89385,-9.682038 -6.111217 1.201057,-9.608897 -4.736494 1.556703,-9.624475 -4.647415 2.11538,-9.662472 -5.056934 2.48728,-10.10795 -6.198806 1.29537,-10.10803 -4.988122 1.636652,-10.11547 -5.01604 2.131714,-10.10531 -5.527071 2.445974,-10.55791 -6.506962 1.414108,-10.64651 -5.514499 1.836975,-10.61032 -5.383711 2.228996,-10.52463 -5.741251 2.489428,7.610, 7
-2.82411 -8.387705 -0.8499982,-3.422441 -8.333128 -0.08264929,-3.924932 -7.86939 0.5756347,-4.173077 -7.139607 0.9938614,-4.356131 -6.487351 1.346444,-3.820881 -8.123999 1.650772,-3.984455 -7.395594 2.71949,-4.252316 -6.798619 3.289346,-4.560659 -6.142487 3.682359,-3.38699 -7.887501 1.63687,-3.647695 -7.024438 2.73586,-3.647695 -7.024438 2.73586,-4.281046 -5.324883 3.607121,-2.88103 -7.636453 1.602304,-2.940525 -6.680786 2.482896,-3.024052 -6.476053 2.464031,-3.136255 -6.367401 2.468304,-2.345044 -7.413759 1.62607,-2.32301 -6.740574 2.379566,-2.454739 -6.61841 2.577333,-2.594759 -6.573299 2.721052,-10.21235 -9.621565 1.279227,-9.475945 -9.264194 1.707249,-8.926982 -8.247986 1.927017,-8.560081 -7.274561 2.150608,-8.14689 -6.549911 2.370427,-9.261413 -6.251772 1.233295,-9.047063 -5.107211 1.405391,-8.973404 -4.282608 1.703514,-8.910269 -3.579946 1.975966,-9.704701 -6.084829 1.250944,-9.64053 -4.716958 1.604893,-9.64227 -4.651893 2.16812,-9.664371 -5.068332 2.538566,-10.13373 -6.17822 1.341529,-10.14518 -4.966442 1.685053,-10.13218 -5.026909 2.192035,-10.10208 -5.560695 2.510107,-10.58587 -6.496399 1.460068,-10.68429 -5.497779 1.883102,-10.63725 -5.376739 2.275075,-10.54103 -5.747541 2.533986,7.710, 7
-2.649141 -8.640127 -0.8264269,-3.379313 -8.47534 -0.2760547,-3.98555 -8.0411 0.2432238,-4.360086 -7.396036 0.7119585,-4.610427 -6.776667 1.192184,-3.949675 -6.934124 0.6186832,-4.291607 -6.196548 1.482082,-4.49263 -5.703222 1.999578,-4.719332 -5.232278 2.359088,-3.451708 -6.666367 0.6732266,-3.580276 -6.678718 1.735701,-3.580276 -6.678718 1.735701,-3.376959 -7.633636 1.824134,-2.933053 -6.653263 0.799337,-3.022701 -6.638872 1.763298,-3.007912 -7.260796 1.595586,-3.024231 -7.348501 1.409653,-2.466443 -6.729427 0.9669826,-2.557307 -6.47014 1.575234,-2.669267 -6.842376 1.587729,-2.758258 -6.960144 1.584378,-10.22316 -9.593561 1.242916,-9.490307 -9.264723 1.662308,-8.936665 -8.242945 1.883879,-8.568368 -7.27242 2.103274,-8.15937 -6.564418 2.300891,-9.275671 -6.248271 1.223489,-9.060465 -5.090477 1.443137,-8.980712 -4.264867 1.764652,-8.913597 -3.585091 2.038189,-9.715454 -6.067212 1.250489,-9.65367 -4.648157 1.669879,-9.651495 -4.668765 2.219938,-9.67516 -5.161668 2.548393,-10.13727 -6.152327 1.352745,-10.1489 -4.886255 1.720943,-10.12818 -4.9775 2.185343,-10.11383 -5.533264 2.455184,-10.58204 -6.471309 1.485019,-10.67144 -5.447211 1.918309,-10.61435 -5.329607 2.291377,-10.52842 -5.712678 2.527085,7.810, 4
-2.798952 -8.495401 -0.9705096,-3.432605 -8.368156 -0.2350531,-3.938019 -7.893133 0.4983009,-4.180176 -7.274123 1.041441,-4.430384 -6.642839 1.488095,-3.887685 -7.711219 1.364138,-4.138849 -6.784158 2.332141,-4.399247 -5.932333 2.810401,-4.680106 -5.177991 3.206579,-3.389999 -7.492973 1.314373,-3.572165 -6.384269 2.335246,-3.572165 -6.384269 2.335246,-3.702689 -5.820266 2.273003,-2.862025 -7.304105 1.320821,-2.950682 -6.203221 2.191239,-3.0096 -6.360685 1.808127,-3.095691 -6.588102 1.487816,-2.325508 -7.191062 1.353862,-2.378113 -6.356437 2.078868,-2.53374 -6.399436 2.027934,-2.65835 -6.514787 1.983589,-10.23604 -9.62138 1.315349,-9.491778 -9.258596 1.707963,-8.934286 -8.230665 1.923353,-8.568294 -7.255563 2.145061,-8.155097 -6.544227 2.349324,-9.274121 -6.25023 1.315446,-9.065368 -5.08658 1.531949,-8.990407 -4.276607 1.84953,-8.928417 -3.604558 2.126304,-9.720098 -6.075637 1.362844,-9.642381 -4.630259 1.797176,-9.642158 -4.663092 2.363154,-9.674835 -5.167506 2.701442,-10.14644 -6.157856 1.476603,-10.14581 -4.864534 1.872314,-10.12053 -4.957672 2.352764,-10.10176 -5.521802 2.626719,-10.59813 -6.475866 1.612655,-10.68272 -5.441896 2.069087,-10.61906 -5.303045 2.449082,-10.52787 -5.656389 2.682959,7.910, 5
