TiagoOliveira98/Thesis-Project/Difficulty_2/Dual_Task/Unity_Project/DataLogging/JointData/Logs(1647359103)_Tiago_Dual.csv
WRIST,THUMB_CMC,THUMB_MCP,THUMB_IP,THUMB_TIP,INDEX_FINGER_MCP,INDEX_FINGER_PIP,INDEX_FINGER_DIP,INDEX_FINGER_TIP,MIDDLE_FINGER_MCP,MIDDLE_FINGER_PIP,MIDDLE_FINGER_DIP,MIDDLE_FINGER_TIP,RING_FINGER_MCP,RING_FINGER_PIP,RING_FINGER_DIP,RING_FINGER_TIP,PINKY_MCP,PINKY_PIP,PINKY_DIP,PINKY_TIP,WRIST2,THUMB_CMC2,THUMB_MCP2,THUMB_IP2,THUMB_TIP2,INDEX_FINGER_MCP2,INDEX_FINGER_PIP2,INDEX_FINGER_DIP2,INDEX_FINGER_TIP2,MIDDLE_FINGER_MCP2,MIDDLE_FINGER_PIP2,MIDDLE_FINGER_DIP2,MIDDLE_FINGER_TIP2,RING_FINGER_MCP2,RING_FINGER_PIP2,RING_FINGER_DIP2,RING_FINGER_TIP2,PINKY_MCP2,PINKY_PIP2,PINKY_DIP2,PINKY_TIP2,Timestamp,Event
-2.406129 -8.017315 0.0007974979,-2.927181 -7.670457 0.2561235,-3.347139 -6.932703 0.3814392,-3.58897 -6.214185 0.5276555,-3.823683 -5.722615 0.6826791,-2.963135 -5.477706 0.08722384,-3.119658 -4.51164 0.2436509,-3.204451 -3.934652 0.3391433,-3.274734 -3.382049 0.428053,-2.655701 -5.309007 0.139054,-2.743623 -4.21219 0.3048037,-2.743623 -4.21219 0.3048037,-2.860713 -2.908706 0.6181004,-2.354519 -5.351726 0.2649694,-2.364366 -4.29684 0.4438474,-2.410544 -3.638993 0.6222767,-2.461613 -3.027237 0.7834657,-2.040673 -5.595701 0.4169845,-1.91846 -4.768454 0.5837485,-1.862782 -4.230228 0.7514632,-1.821856 -3.712184 0.8919296,-8.254683 -8.249483 0.0006725093,-7.701271 -7.74336 0.2238302,-7.302314 -6.957238 0.4281201,-7.05166 -6.216991 0.6770376,-6.785645 -5.716808 0.9400934,-7.800342 -5.451381 0.1288855,-7.765593 -4.395736 0.2622831,-7.759332 -3.750459 0.415205,-7.761567 -3.202313 0.5287781,-8.143974 -5.375767 0.2028652,-8.166931 -4.143651 0.2935755,-8.174308 -3.383373 0.4728476,-8.186935 -2.734769 0.6130326,-8.456402 -5.548279 0.3062393,-8.513439 -4.413768 0.4079778,-8.516117 -3.710405 0.5514879,-8.508582 -3.10852 0.6632436,-8.756998 -5.918916 0.4429933,-8.918022 -5.119159 0.5616883,-8.988215 -4.581576 0.6720501,-9.030331 -4.056697 0.7458049,0.010,7  0
-2.39612 -8.011438 0.03361489,-2.916305 -7.686672 0.3101691,-3.34593 -6.947795 0.4464916,-3.594421 -6.225771 0.6001298,-3.831728 -5.722412 0.7624187,-2.96893 -5.464057 0.1219193,-3.134205 -4.502157 0.2729258,-3.224173 -3.926381 0.3715352,-3.297885 -3.376922 0.4652551,-2.659969 -5.294631 0.1639291,-2.750574 -4.209923 0.318588,-2.750574 -4.209923 0.318588,-2.86396 -2.921725 0.6233683,-2.356348 -5.344625 0.2838793,-2.370409 -4.29754 0.4543104,-2.41626 -3.647609 0.636205,-2.460001 -3.04097 0.7991875,-2.039854 -5.594977 0.4321129,-1.924388 -4.774338 0.5936987,-1.872342 -4.239437 0.766013,-1.829999 -3.720312 0.9102664,-8.254585 -8.251896 0.02596409,-7.6995 -7.744742 0.235761,-7.301394 -6.949004 0.4275122,-7.056854 -6.204761 0.6666815,-6.791489 -5.711881 0.9261593,-7.800741 -5.440561 0.1244771,-7.768869 -4.385709 0.2400968,-7.76361 -3.740268 0.3907348,-7.766557 -3.195298 0.5092603,-8.146502 -5.369247 0.2041137,-8.169089 -4.143173 0.2744439,-8.177202 -3.379422 0.4517116,-8.189167 -2.732202 0.5937031,-8.460505 -5.540954 0.3111485,-8.512947 -4.415279 0.3969918,-8.517103 -3.706387 0.5391237,-8.508918 -3.103292 0.6550323,-8.76316 -5.910072 0.4552342,-8.930273 -5.122749 0.562751,-9.007721 -4.588 0.6689343,-9.055034 -4.065382 0.7478527,0.110,7  0
-2.395375 -8.021931 -0.007101297,-2.912681 -7.710683 0.2916347,-3.343082 -6.969265 0.4270275,-3.584721 -6.237041 0.5741828,-3.813047 -5.711544 0.7335728,-2.964073 -5.498684 0.1197636,-3.128202 -4.521865 0.2738202,-3.215426 -3.930919 0.374809,-3.280527 -3.36705 0.471289,-2.653332 -5.317662 0.1494571,-2.750565 -4.207852 0.3060549,-2.750565 -4.207852 0.3060549,-2.859827 -2.899364 0.621204,-2.348791 -5.352993 0.2565845,-2.368418 -4.285553 0.4255624,-2.413439 -3.61765 0.6100348,-2.460423 -2.999446 0.7784827,-2.028076 -5.591671 0.3911194,-1.910781 -4.762641 0.5508644,-1.854933 -4.224744 0.7236491,-1.811172 -3.712198 0.8744824,-8.24479 -8.26063 0.0494923,-7.692204 -7.76794 0.3012778,-7.295582 -6.96849 0.5107502,-7.054775 -6.214616 0.7644706,-6.786841 -5.709623 1.030608,-7.792079 -5.447385 0.1917897,-7.764613 -4.391168 0.329153,-7.761486 -3.740025 0.4875119,-7.766542 -3.18858 0.6058652,-8.139695 -5.373245 0.2592686,-8.164678 -4.140897 0.3446634,-8.173707 -3.371286 0.516574,-8.187674 -2.726079 0.6509638,-8.455321 -5.543684 0.3598583,-8.514066 -4.404323 0.4611295,-8.520082 -3.694569 0.6067895,-8.511266 -3.091297 0.7226756,-8.761202 -5.913833 0.4986144,-8.925102 -5.120105 0.6165313,-8.998456 -4.58669 0.7286872,-9.039593 -4.066246 0.8089122,0.210,7  0
-2.372983 -8.033789 0.07858144,-2.902342 -7.710953 0.3867836,-3.340215 -6.969347 0.5314347,-3.5832 -6.241815 0.6946008,-3.813608 -5.705974 0.8700477,-2.969998 -5.48343 0.1880014,-3.132813 -4.516443 0.3539583,-3.2143 -3.932011 0.467255,-3.26893 -3.366534 0.5699738,-2.658277 -5.306806 0.2197481,-2.752651 -4.203088 0.3654271,-2.752651 -4.203088 0.3654271,-2.856726 -2.918411 0.6517278,-2.353893 -5.350192 0.3338271,-2.365945 -4.294981 0.4971854,-2.410539 -3.639155 0.6694061,-2.450094 -3.029921 0.8272758,-2.032058 -5.598625 0.479344,-1.921253 -4.783277 0.6413899,-1.875914 -4.254959 0.8060851,-1.835403 -3.755103 0.9419006,-8.253309 -8.280958 0.05626186,-7.701112 -7.784032 0.3366379,-7.298057 -6.978022 0.5585802,-7.046919 -6.21949 0.8212469,-6.772235 -5.711884 1.099334,-7.786731 -5.466182 0.2430679,-7.765889 -4.40029 0.3932759,-7.769421 -3.749598 0.5580338,-7.780993 -3.197612 0.6789132,-8.135272 -5.395055 0.3030036,-8.159329 -4.161329 0.4080269,-8.171664 -3.390667 0.5908602,-8.191507 -2.735365 0.7307928,-8.449563 -5.567092 0.3957234,-8.512488 -4.441622 0.5174989,-8.520254 -3.736573 0.6720682,-8.513882 -3.137679 0.7923356,-8.752538 -5.934908 0.5285338,-8.912407 -5.14011 0.667022,-8.981885 -4.607677 0.7829193,-9.022305 -4.086126 0.8619058,0.310,7  0
-2.350266 -8.076559 0.1476934,-2.893706 -7.722913 0.4153359,-3.322485 -6.975702 0.5379986,-3.560699 -6.244165 0.6863941,-3.792484 -5.709922 0.8523177,-2.956113 -5.506788 0.2156507,-3.125352 -4.527128 0.3705383,-3.212082 -3.942308 0.4740797,-3.275213 -3.37589 0.5717821,-2.647086 -5.329675 0.2611238,-2.744362 -4.21582 0.4100027,-2.744362 -4.21582 0.4100027,-2.858355 -2.928655 0.6968965,-2.346056 -5.364393 0.386045,-2.36207 -4.297722 0.5501557,-2.409351 -3.642308 0.7194273,-2.454545 -3.02588 0.8768875,-2.030807 -5.603469 0.5372639,-1.918728 -4.777236 0.7040331,-1.875746 -4.243236 0.8708337,-1.839806 -3.734993 1.006976,-8.262712 -8.309919 0.1296641,-7.702361 -7.808327 0.3874765,-7.298698 -6.989624 0.5954514,-7.053135 -6.222568 0.8482937,-6.778926 -5.719514 1.115029,-7.796506 -5.477621 0.2754862,-7.774649 -4.416902 0.418996,-7.774485 -3.762585 0.5822381,-7.783271 -3.203554 0.7019346,-8.145523 -5.400125 0.3407945,-8.169029 -4.167842 0.4303166,-8.178383 -3.392034 0.6072928,-8.192778 -2.732549 0.7428379,-8.459816 -5.565163 0.4366863,-8.521353 -4.437513 0.5400133,-8.527876 -3.731302 0.6780302,-8.517997 -3.132936 0.7853401,-8.763119 -5.930238 0.5733169,-8.918489 -5.123859 0.6977499,-8.985574 -4.58561 0.8024952,-9.021572 -4.066405 0.8700387,0.410,7  0
-2.354079 -8.078522 0.1086934,-2.89919 -7.714218 0.3466879,-3.336012 -6.971392 0.4593716,-3.578203 -6.243032 0.6010898,-3.806519 -5.715292 0.7554646,-2.965548 -5.511669 0.1468871,-3.138812 -4.53203 0.2937841,-3.22797 -3.948276 0.3849787,-3.291247 -3.383707 0.4722862,-2.654673 -5.342586 0.2045401,-2.749834 -4.230587 0.3504526,-2.749834 -4.230587 0.3504526,-2.858053 -2.933452 0.6356819,-2.350361 -5.374778 0.3386821,-2.363366 -4.315439 0.4977503,-2.407262 -3.666112 0.6654905,-2.450259 -3.060239 0.8161596,-2.033123 -5.602749 0.4979871,-1.918349 -4.769197 0.656939,-1.872435 -4.23137 0.8246454,-1.837218 -3.719059 0.9576849,-8.251218 -8.303068 0.1642608,-7.706326 -7.795463 0.4398656,-7.309188 -6.980034 0.6599914,-7.063875 -6.227578 0.923051,-6.789849 -5.732487 1.200897,-7.796201 -5.460008 0.3644656,-7.763194 -4.405681 0.5200739,-7.759233 -3.768005 0.6853149,-7.762597 -3.2158 0.8067404,-8.147382 -5.387015 0.4268948,-8.167429 -4.155393 0.535207,-8.177023 -3.39345 0.7141182,-8.189573 -2.739814 0.8540313,-8.463408 -5.561624 0.521715,-8.519423 -4.425813 0.6450037,-8.527925 -3.714332 0.804813,-8.520089 -3.102202 0.9313036,-8.768559 -5.939422 0.6565673,-8.925426 -5.148127 0.7935349,-8.996857 -4.617839 0.9151445,-9.03357 -4.09402 1.002226,0.510,7  0
-2.347459 -8.077829 0.1070575,-2.89298 -7.720029 0.3467934,-3.329327 -6.970912 0.4509308,-3.562642 -6.23414 0.5861076,-3.798927 -5.707365 0.7378256,-2.95476 -5.509211 0.1203042,-3.127109 -4.527592 0.2633709,-3.21357 -3.938343 0.3590685,-3.271653 -3.369491 0.4487918,-2.642039 -5.340933 0.1778065,-2.735158 -4.226949 0.3191811,-2.735158 -4.226949 0.3191811,-2.822677 -2.918725 0.6156217,-2.33638 -5.37169 0.3122639,-2.352103 -4.31702 0.4654121,-2.389535 -3.66278 0.6301931,-2.424851 -3.058198 0.7808446,-2.015892 -5.59633 0.4764054,-1.905145 -4.764333 0.6290944,-1.858466 -4.230918 0.7888061,-1.822713 -3.72548 0.9196238,-8.245305 -8.328762 0.1908667,-7.701054 -7.813486 0.4387093,-7.308747 -6.992202 0.6419916,-7.069928 -6.234076 0.8922551,-6.794543 -5.751173 1.154407,-7.799368 -5.475515 0.3367095,-7.766358 -4.416009 0.4727996,-7.759519 -3.768026 0.6291292,-7.761007 -3.208932 0.7478414,-8.148768 -5.400663 0.4019832,-8.170091 -4.169125 0.48883,-8.177024 -3.39948 0.6660501,-8.184437 -2.742675 0.806052,-8.463235 -5.570821 0.4986967,-8.51836 -4.434274 0.6011137,-8.52496 -3.719519 0.7478104,-8.514079 -3.109068 0.8630067,-8.767554 -5.943906 0.6337797,-8.928793 -5.146574 0.7533083,-9.002602 -4.613275 0.8613398,-9.043183 -4.096174 0.9322604,0.610,7  0
-2.357971 -8.120047 0.1450118,-2.889339 -7.722539 0.5090491,-3.281447 -6.957561 0.6790221,-3.445195 -6.18823 0.8594937,-3.64356 -5.559075 1.068917,-2.938478 -5.53004 0.2631429,-3.082943 -4.546335 0.4469752,-3.153158 -3.948499 0.5950794,-3.201099 -3.373977 0.72372,-2.609891 -5.369983 0.2713405,-2.678648 -4.248237 0.4371629,-2.678648 -4.248237 0.4371629,-2.74966 -2.913873 0.7846612,-2.298259 -5.418081 0.3692202,-2.284948 -4.358962 0.5446023,-2.318406 -3.689046 0.7300648,-2.35566 -3.049922 0.898824,-1.975413 -5.673122 0.5142952,-1.858778 -4.84198 0.7020507,-1.806994 -4.297781 0.8764666,-1.763639 -3.768694 1.020795,-8.318137 -8.306698 0.1424287,-7.767204 -7.779512 0.3916707,-7.371237 -6.967231 0.6041043,-7.131836 -6.222117 0.8659136,-6.875382 -5.716363 1.132643,-7.867896 -5.46788 0.2975879,-7.831089 -4.42031 0.4412867,-7.825092 -3.791084 0.5978692,-7.830499 -3.253102 0.7181401,-8.213816 -5.394599 0.3775978,-8.231502 -4.161086 0.4777931,-8.232417 -3.396106 0.6581469,-8.238963 -2.750649 0.8075861,-8.527102 -5.559978 0.4954849,-8.593015 -4.425121 0.608296,-8.591428 -3.709984 0.7737865,-8.572425 -3.096476 0.900838,-8.832791 -5.929945 0.6482644,-9.006025 -5.130639 0.790625,-9.079215 -4.589567 0.9151636,-9.115207 -4.059142 1.003019,0.710,7  0
-2.222845 -8.091103 0.1773393,-2.77998 -7.691049 0.494849,-3.189051 -6.95893 0.644093,-3.379885 -6.217439 0.8023815,-3.544416 -5.587484 0.9646024,-2.795532 -5.493103 0.2548077,-2.931512 -4.510409 0.4159166,-2.984324 -3.922964 0.5535153,-3.016995 -3.353679 0.678841,-2.464889 -5.329921 0.281225,-2.527976 -4.213108 0.428438,-2.527976 -4.213108 0.428438,-2.564742 -2.905633 0.7562701,-2.150743 -5.387376 0.3881366,-2.130915 -4.31772 0.5434712,-2.160604 -3.654923 0.7240083,-2.18512 -3.0359 0.8917149,-1.826797 -5.65603 0.5363185,-1.697749 -4.835983 0.7073229,-1.647773 -4.28799 0.8786266,-1.60394 -3.759597 1.026206,-8.420992 -8.312056 0.1602165,-7.881284 -7.773815 0.4093635,-7.491079 -6.963457 0.6152619,-7.254453 -6.208726 0.8655435,-6.992743 -5.733562 1.116936,-7.983021 -5.471416 0.3037021,-7.940507 -4.413837 0.443931,-7.929945 -3.77054 0.6041337,-7.928674 -3.214188 0.731514,-8.333668 -5.392535 0.372263,-8.351528 -4.144144 0.489444,-8.352643 -3.370642 0.6792247,-8.357767 -2.711687 0.8328881,-8.650441 -5.560526 0.474653,-8.701882 -4.409314 0.5911825,-8.701696 -3.687648 0.7489167,-8.685418 -3.063032 0.8676931,-8.958187 -5.936363 0.6073865,-9.115712 -5.141904 0.7516891,-9.186021 -4.594199 0.8780576,-9.224571 -4.053689 0.9656632,0.810,7  0
-2.148696 -8.077042 0.08983691,-2.68925 -7.701591 0.4152828,-3.112343 -7.007153 0.5763987,-3.330698 -6.300903 0.7474141,-3.510731 -5.688684 0.9360119,-2.712335 -5.505642 0.1686532,-2.855627 -4.505348 0.3114105,-2.914198 -3.915969 0.4369954,-2.947512 -3.345435 0.5578533,-2.385217 -5.340511 0.1947345,-2.452171 -4.204532 0.3175569,-2.452171 -4.204532 0.3175569,-2.495656 -2.894749 0.6270958,-2.077734 -5.400558 0.3025326,-2.059244 -4.319194 0.4332696,-2.090084 -3.643271 0.6122882,-2.12064 -3.031002 0.7806513,-1.762252 -5.663337 0.4525086,-1.629019 -4.829083 0.60836,-1.5768 -4.272138 0.7831591,-1.537292 -3.743579 0.9370137,-8.448406 -8.329342 0.1545938,-7.902448 -7.78631 0.3967198,-7.522421 -6.979936 0.6055633,-7.300922 -6.222269 0.8588864,-7.04582 -5.737279 1.115335,-8.015384 -5.490964 0.3169294,-7.979273 -4.418017 0.4695239,-7.981084 -3.76321 0.6335536,-7.993572 -3.1972 0.7562357,-8.368199 -5.412996 0.3901944,-8.395418 -4.147729 0.5123731,-8.406482 -3.370152 0.7012478,-8.422292 -2.708847 0.8437514,-8.685078 -5.5846 0.4937857,-8.750164 -4.422536 0.6166987,-8.76212 -3.698947 0.7727877,-8.757761 -3.075333 0.8818402,-8.990852 -5.961279 0.6285223,-9.144713 -5.148628 0.7813125,-9.208739 -4.600955 0.9034089,-9.24017 -4.071359 0.9764975,0.910,7  0
-2.049596 -8.112682 0.02264956,-2.574829 -7.78139 0.4052832,-3.007656 -7.168506 0.6180548,-3.2661 -6.537332 0.8358614,-3.451414 -5.988586 1.072439,-2.630095 -5.568851 0.1628903,-2.777018 -4.565471 0.3257495,-2.83857 -3.974967 0.4694477,-2.8754 -3.420059 0.59816,-2.303812 -5.399044 0.1709574,-2.37993 -4.259187 0.2945149,-2.37993 -4.259187 0.2945149,-2.45013 -2.970564 0.6354629,-2.000879 -5.454881 0.265834,-1.991266 -4.379823 0.3926252,-2.019448 -3.707654 0.5789707,-2.055288 -3.096851 0.7563758,-1.693567 -5.715456 0.4082586,-1.555336 -4.889401 0.5438318,-1.48909 -4.336274 0.7066719,-1.442459 -3.798842 0.8571385,-8.517799 -8.364161 0.1932961,-7.9648 -7.818498 0.4492904,-7.581673 -7.024238 0.664124,-7.35495 -6.268177 0.9185607,-7.097442 -5.775604 1.178531,-8.07155 -5.523729 0.3524348,-8.025445 -4.441677 0.5058066,-8.021459 -3.791414 0.6738133,-8.029637 -3.225569 0.7963479,-8.42742 -5.436353 0.4202636,-8.446573 -4.163164 0.5443835,-8.453104 -3.383185 0.7394156,-8.465429 -2.720533 0.8828139,-8.748155 -5.601825 0.5191513,-8.803742 -4.43818 0.648613,-8.809657 -3.709146 0.8126705,-8.799623 -3.091447 0.9271261,-9.054814 -5.972232 0.6533937,-9.194386 -5.161651 0.8170067,-9.246861 -4.613719 0.9429364,-9.26368 -4.082098 1.02038,1.010,7  0
-1.991768 -8.109791 0.01384529,-2.518119 -7.757417 0.3938006,-2.933517 -7.101408 0.5971767,-3.181104 -6.444543 0.8092344,-3.4032 -5.901942 1.054283,-2.59867 -5.572002 0.1866548,-2.742442 -4.565286 0.3485835,-2.801587 -3.962503 0.4883692,-2.833435 -3.390949 0.6221877,-2.269552 -5.402279 0.1841035,-2.344118 -4.258587 0.3173674,-2.344118 -4.258587 0.3173674,-2.400328 -2.960176 0.6475471,-1.960065 -5.454452 0.268107,-1.954071 -4.369317 0.4085411,-1.986315 -3.68757 0.597549,-2.02626 -3.063488 0.7776632,-1.645161 -5.716254 0.3945117,-1.518157 -4.88792 0.5474898,-1.452142 -4.341037 0.7189471,-1.404905 -3.81256 0.8752805,-8.599354 -8.371965 0.2451248,-8.029942 -7.823282 0.4911677,-7.634354 -7.022019 0.7011546,-7.399134 -6.258512 0.9506185,-7.12849 -5.760061 1.203792,-8.124581 -5.518043 0.4150318,-8.085983 -4.434927 0.5649279,-8.079468 -3.789442 0.7206023,-8.081096 -3.22776 0.8274871,-8.481271 -5.430919 0.4798945,-8.507936 -4.171478 0.5960764,-8.514072 -3.412557 0.7774291,-8.521874 -2.767173 0.9148719,-8.802237 -5.592138 0.57642,-8.861753 -4.433961 0.6974396,-8.862867 -3.735405 0.8510472,-8.845373 -3.136178 0.9568775,-9.111736 -5.952463 0.7040671,-9.252164 -5.144416 0.8567048,-9.307125 -4.611509 0.9735594,-9.326281 -4.089397 1.042625,1.110,7  0
-1.981633 -8.091722 0.02854804,-2.498405 -7.747632 0.4319847,-2.908277 -7.090316 0.6451181,-3.144611 -6.415466 0.8602273,-3.374805 -5.843471 1.109308,-2.579624 -5.546248 0.2226378,-2.714014 -4.533603 0.3773981,-2.772405 -3.929359 0.5062798,-2.806635 -3.364205 0.6369028,-2.249169 -5.379171 0.2019357,-2.317963 -4.224819 0.3293801,-2.317963 -4.224819 0.3293801,-2.371434 -2.926708 0.6548263,-1.940436 -5.431476 0.2638697,-1.931353 -4.33608 0.3971247,-1.968289 -3.654647 0.5834422,-2.010714 -3.02964 0.7578654,-1.624786 -5.691353 0.372213,-1.496884 -4.867626 0.5153661,-1.432023 -4.325653 0.6842488,-1.379386 -3.801954 0.8427648,-8.63852 -8.382547 0.1984438,-8.061413 -7.843662 0.4643086,-7.661207 -7.032918 0.6802934,-7.423956 -6.267875 0.9348282,-7.15133 -5.7663 1.194547,-8.146246 -5.539251 0.3879118,-8.107045 -4.446228 0.5550326,-8.09782 -3.79238 0.7217112,-8.096027 -3.222632 0.8309644,-8.50669 -5.456449 0.4452382,-8.533306 -4.185797 0.5826058,-8.537822 -3.426266 0.7760574,-8.548056 -2.770435 0.917522,-8.828219 -5.625089 0.5378785,-8.890545 -4.454284 0.6745099,-8.887989 -3.754835 0.8337408,-8.869743 -3.148011 0.9386716,-9.137295 -5.992862 0.6589588,-9.282909 -5.173254 0.8240832,-9.338665 -4.631082 0.9471424,-9.361313 -4.093377 1.019164,1.210,7  0
-1.954785 -8.079065 0.09984536,-2.479937 -7.748557 0.5047464,-2.897389 -7.112678 0.725658,-3.14555 -6.459524 0.9492329,-3.384039 -5.902852 1.203691,-2.567796 -5.515411 0.2961878,-2.70994 -4.513174 0.4481867,-2.767711 -3.905128 0.5748917,-2.795135 -3.338744 0.7023061,-2.233599 -5.347101 0.2725763,-2.309792 -4.20358 0.3926979,-2.309792 -4.20358 0.3926979,-2.365667 -2.927747 0.7056936,-1.922343 -5.401503 0.3325601,-1.914874 -4.316633 0.44913,-1.951469 -3.644133 0.6319999,-1.990586 -3.024227 0.8053111,-1.608452 -5.665555 0.4392309,-1.479392 -4.848844 0.5745465,-1.418587 -4.312582 0.7417288,-1.373792 -3.79178 0.9009901,-8.647038 -8.366005 0.1724622,-8.075901 -7.829092 0.4442333,-7.676437 -7.03265 0.6632615,-7.437683 -6.270463 0.9186914,-7.169414 -5.761013 1.178924,-8.165364 -5.53327 0.3698719,-8.119651 -4.442403 0.5375792,-8.108028 -3.78957 0.7088968,-8.107823 -3.213597 0.822826,-8.523517 -5.447597 0.4257605,-8.549202 -4.187084 0.5571733,-8.554378 -3.431714 0.754737,-8.562951 -2.78302 0.8992748,-8.845738 -5.608835 0.5153065,-8.905362 -4.453382 0.655879,-8.910825 -3.754438 0.8288622,-8.897544 -3.151484 0.9402526,-9.157053 -5.967785 0.6367289,-9.302083 -5.156003 0.8001789,-9.359784 -4.622554 0.9224178,-9.38168 -4.098562 0.9933091,1.310,7  0
-1.977853 -8.0753 0.09279837,-2.501471 -7.728372 0.5061074,-2.912717 -7.080302 0.731735,-3.154762 -6.421911 0.9624918,-3.379147 -5.855477 1.219987,-2.581112 -5.506597 0.2975175,-2.71495 -4.498947 0.4634541,-2.768638 -3.89092 0.5985413,-2.793053 -3.325466 0.726866,-2.248477 -5.344949 0.272264,-2.314554 -4.202573 0.405437,-2.314554 -4.202573 0.405437,-2.370973 -2.918236 0.7342514,-1.939259 -5.404541 0.3312838,-1.91881 -4.325099 0.4600618,-1.951656 -3.654554 0.6500673,-1.990078 -3.033664 0.8267176,-1.629065 -5.672147 0.43707,-1.490679 -4.856044 0.5871788,-1.427062 -4.316098 0.7648098,-1.380286 -3.788121 0.9274328,-8.68383 -8.353931 0.04802452,-8.097373 -7.851341 0.2982895,-7.698132 -7.062156 0.5037661,-7.461627 -6.292727 0.74596,-7.195131 -5.78384 1.005198,-8.187167 -5.55236 0.2039622,-8.147613 -4.456857 0.3527507,-8.146677 -3.803998 0.5245889,-8.159083 -3.234827 0.6405477,-8.551217 -5.468278 0.259284,-8.577571 -4.200546 0.3718806,-8.582526 -3.449184 0.5678828,-8.59199 -2.801691 0.7054058,-8.878103 -5.629049 0.3466413,-8.939873 -4.471643 0.475058,-8.943316 -3.781588 0.6443179,-8.932489 -3.189865 0.750682,-9.190193 -5.985977 0.4646932,-9.339709 -5.163965 0.6198298,-9.401517 -4.615385 0.7389274,-9.431886 -4.071995 0.8058573,1.410,7  0
-1.978196 -8.043335 0.08126803,-2.507848 -7.710174 0.4874799,-2.919089 -7.080356 0.7123565,-3.164028 -6.440555 0.9390688,-3.396751 -5.887387 1.198305,-2.581745 -5.47987 0.274236,-2.718058 -4.469695 0.4319096,-2.770913 -3.869417 0.5588132,-2.795749 -3.312531 0.6842049,-2.246389 -5.315576 0.2529708,-2.315463 -4.176738 0.3887719,-2.315463 -4.176738 0.3887719,-2.364729 -2.908982 0.7101505,-1.935899 -5.379192 0.3159164,-1.920688 -4.303978 0.4454581,-1.953443 -3.63447 0.6382774,-1.990518 -3.012596 0.8160992,-1.62589 -5.651831 0.4238367,-1.490482 -4.841573 0.5749913,-1.428977 -4.309629 0.755854,-1.385374 -3.787462 0.9211861,-8.672341 -8.355835 0.06586231,-8.09684 -7.853486 0.3792422,-7.702057 -7.068626 0.6210315,-7.468706 -6.302125 0.8869692,-7.208348 -5.779875 1.162666,-8.199141 -5.560066 0.3155438,-8.1611 -4.468549 0.4981947,-8.160428 -3.813097 0.6809818,-8.172741 -3.239622 0.804208,-8.557259 -5.470981 0.3541352,-8.584289 -4.209288 0.5079409,-8.591105 -3.456597 0.7160311,-8.605883 -2.802164 0.8666416,-8.877379 -5.632574 0.4279845,-8.942296 -4.470476 0.590903,-8.94268 -3.779769 0.7765874,-8.930266 -3.182909 0.8940548,-9.186099 -5.992464 0.536336,-9.336856 -5.171066 0.7127835,-9.397595 -4.628961 0.8432096,-9.4268 -4.085584 0.9196383,1.510,7  0
-1.988659 -8.067839 0.05735642,-2.513765 -7.726549 0.4415361,-2.925839 -7.074249 0.6469957,-3.171291 -6.414164 0.8595399,-3.394512 -5.855927 1.098067,-2.58525 -5.508161 0.2121269,-2.722482 -4.501926 0.3647231,-2.776662 -3.90037 0.4845338,-2.801661 -3.339088 0.6056393,-2.25115 -5.344623 0.1980978,-2.322493 -4.207092 0.3152042,-2.322493 -4.207092 0.3152042,-2.378021 -2.931391 0.6233523,-1.939014 -5.403796 0.2698458,-1.92621 -4.325878 0.3847433,-1.961353 -3.656742 0.5611725,-2.001815 -3.04251 0.7269496,-1.622937 -5.668913 0.3856338,-1.491777 -4.845058 0.5172654,-1.430631 -4.308254 0.6827354,-1.385558 -3.788733 0.8358718,-8.688246 -8.364798 -0.0126057,-8.10034 -7.888546 0.2979217,-7.702731 -7.094326 0.5307074,-7.468882 -6.322737 0.7858758,-7.214698 -5.812007 1.047376,-8.205403 -5.592044 0.2482006,-8.165776 -4.498092 0.4414079,-8.16323 -3.83704 0.6295635,-8.174061 -3.261959 0.7548388,-8.570146 -5.503108 0.2806595,-8.592793 -4.220769 0.4442207,-8.599833 -3.459231 0.6540053,-8.614958 -2.799503 0.8009434,-8.894089 -5.66406 0.3459058,-8.952449 -4.481731 0.5084581,-8.955406 -3.782254 0.6827763,-8.948612 -3.182275 0.7895369,-9.201879 -6.022764 0.4435384,-9.345757 -5.183696 0.6137353,-9.405947 -4.633626 0.7334887,-9.437766 -4.093481 0.7980785,1.610,7  0
-2.001639 -8.078079 0.04321273,-2.529126 -7.758361 0.4321793,-2.946894 -7.123303 0.6399661,-3.191023 -6.480945 0.8487694,-3.415682 -5.924324 1.080512,-2.58789 -5.525 0.217248,-2.725028 -4.51832 0.374394,-2.784979 -3.916296 0.5019141,-2.814934 -3.356928 0.622637,-2.255885 -5.359245 0.2033754,-2.32302 -4.222507 0.3310122,-2.32302 -4.222507 0.3310122,-2.386411 -2.932684 0.6485862,-1.946646 -5.418205 0.274384,-1.935073 -4.343379 0.3946335,-1.969265 -3.666137 0.5791206,-2.005862 -3.045963 0.7528622,-1.635337 -5.68522 0.388151,-1.500917 -4.857419 0.5265116,-1.439046 -4.307612 0.6975579,-1.393523 -3.780567 0.8557802,-8.679024 -8.34985 -0.05499885,-8.105526 -7.849971 0.2436651,-7.704676 -7.081071 0.4806298,-7.463407 -6.324812 0.7504344,-7.201921 -5.795003 1.034276,-8.209694 -5.586811 0.140866,-8.16819 -4.485401 0.3234693,-8.162838 -3.828865 0.5075214,-8.173279 -3.250456 0.6310763,-8.567196 -5.496131 0.1968311,-8.595104 -4.23118 0.3400581,-8.604372 -3.47912 0.5496395,-8.622679 -2.829978 0.6925458,-8.88795 -5.660009 0.2899715,-8.953263 -4.506335 0.4513448,-8.958533 -3.816164 0.639292,-8.948179 -3.218348 0.7606355,-9.19585 -6.017489 0.419112,-9.348862 -5.196685 0.6038328,-9.409922 -4.653881 0.7429461,-9.435185 -4.114732 0.8226331,1.710,7  0
-1.998876 -8.08073 0.05423839,-2.519433 -7.761911 0.4288613,-2.934775 -7.118684 0.6321382,-3.181551 -6.481889 0.8422007,-3.406549 -5.947384 1.080821,-2.593229 -5.524856 0.1936967,-2.727659 -4.521154 0.3456174,-2.784461 -3.919408 0.472073,-2.813624 -3.359805 0.5917109,-2.26196 -5.358443 0.1951713,-2.33027 -4.219945 0.3108502,-2.33027 -4.219945 0.3108502,-2.391392 -2.921138 0.6317242,-1.95218 -5.419189 0.2828279,-1.938924 -4.333881 0.4028288,-1.970112 -3.654342 0.583284,-2.009521 -3.030617 0.7548984,-1.638309 -5.691322 0.4166317,-1.501237 -4.860187 0.552506,-1.435425 -4.311023 0.7166529,-1.388701 -3.782835 0.8716238,-8.684515 -8.33551 -0.09983138,-8.101727 -7.84297 0.1953661,-7.698896 -7.077308 0.4196705,-7.460572 -6.312454 0.6763711,-7.208149 -5.785394 0.9464052,-8.198294 -5.592212 0.08586732,-8.155708 -4.497146 0.2636383,-8.149332 -3.844992 0.4493448,-8.158314 -3.275338 0.5682784,-8.55729 -5.494032 0.1372627,-8.583843 -4.22607 0.2675129,-8.587366 -3.466668 0.4740068,-8.602509 -2.807571 0.6203597,-8.881639 -5.648419 0.2249225,-8.940098 -4.490245 0.3754913,-8.938709 -3.797348 0.5579671,-8.926086 -3.194095 0.6774784,-9.192912 -5.997559 0.3492416,-9.346912 -5.172342 0.5250641,-9.408332 -4.622816 0.6627865,-9.438261 -4.06704 0.744752,1.810,7  0
-1.984235 -8.074213 0.08709092,-2.512187 -7.757025 0.4883076,-2.937122 -7.116856 0.707852,-3.189289 -6.469192 0.925585,-3.417686 -5.921268 1.165148,-2.594423 -5.518903 0.2777385,-2.735052 -4.519388 0.4326938,-2.791668 -3.924722 0.5539345,-2.820434 -3.36713 0.6727224,-2.260992 -5.345608 0.2583101,-2.336658 -4.209549 0.3837206,-2.336658 -4.209549 0.3837206,-2.390802 -2.926961 0.7021023,-1.949794 -5.404094 0.3250095,-1.942957 -4.327994 0.4471267,-1.975574 -3.655527 0.6290278,-2.014387 -3.032146 0.8011248,-1.634389 -5.677109 0.4363773,-1.504302 -4.860485 0.5747081,-1.442315 -4.322689 0.7411787,-1.39783 -3.799792 0.8963225,-8.664591 -8.323999 -0.08208299,-8.078063 -7.833458 0.2270392,-7.675242 -7.068012 0.456718,-7.43332 -6.307504 0.7152246,-7.181761 -5.769857 0.9784375,-8.184576 -5.571697 0.1220353,-8.147335 -4.477779 0.2981393,-8.144861 -3.827102 0.4796586,-8.154135 -3.260684 0.5985529,-8.542716 -5.47755 0.1594153,-8.575048 -4.209219 0.2999324,-8.587758 -3.456232 0.5034032,-8.605961 -2.796385 0.6529685,-8.863422 -5.637001 0.2309197,-8.940483 -4.510643 0.432576,-8.941042 -3.809487 0.6203924,-8.931037 -3.209421 0.74041,-9.187348 -6.026371 0.3899176,-9.342257 -5.202482 0.5650572,-9.406432 -4.652493 0.6968728,-9.439236 -4.106254 0.7728127,1.910,7  0
-1.986705 -8.079905 0.1086683,-2.515778 -7.74294 0.4878233,-2.93433 -7.081069 0.6853604,-3.174116 -6.405709 0.8848988,-3.394722 -5.839406 1.108108,-2.590031 -5.514775 0.2529812,-2.728052 -4.524883 0.3908657,-2.783038 -3.935199 0.4968396,-2.813796 -3.381505 0.6064539,-2.256075 -5.342037 0.2373272,-2.328144 -4.211523 0.3420237,-2.328144 -4.211523 0.3420237,-2.381382 -2.935188 0.6311378,-1.946023 -5.397209 0.3059867,-1.93767 -4.325149 0.415225,-1.970578 -3.653894 0.5885731,-2.010391 -3.040161 0.749119,-1.630104 -5.663339 0.4201239,-1.503669 -4.848377 0.5470291,-1.444037 -4.313098 0.7071148,-1.399404 -3.801061 0.8547204,-8.67179 -8.321028 -0.0638798,-8.085086 -7.825194 0.2212456,-7.685505 -7.052736 0.4435235,-7.452104 -6.298618 0.6963175,-7.19569 -5.796371 0.9578372,-8.180951 -5.558082 0.1603564,-8.142966 -4.464246 0.3375518,-8.138809 -3.806554 0.5148892,-8.146279 -3.22954 0.6292751,-8.545708 -5.472168 0.2069054,-8.570286 -4.198775 0.3553014,-8.574644 -3.437957 0.5601637,-8.587707 -2.787985 0.7088866,-8.870064 -5.641013 0.2858885,-8.931764 -4.469172 0.4378539,-8.931535 -3.767011 0.6153795,-8.918489 -3.168463 0.7317688,-9.178075 -6.009264 0.3979376,-9.319601 -5.187299 0.5707378,-9.368932 -4.639227 0.703245,-9.386788 -4.105903 0.7845811,2.010,7  0
-1.99789 -8.072399 0.08105943,-2.521757 -7.74941 0.4874109,-2.940117 -7.120164 0.7090589,-3.185061 -6.488329 0.9330404,-3.405907 -5.941188 1.186694,-2.591999 -5.508582 0.2655504,-2.727176 -4.511093 0.4274439,-2.782576 -3.913353 0.5548327,-2.809629 -3.35411 0.6780615,-2.259748 -5.343991 0.2515953,-2.326427 -4.211277 0.3837457,-2.326427 -4.211277 0.3837457,-2.384625 -2.921533 0.7211054,-1.951406 -5.405876 0.3218042,-1.932744 -4.332289 0.4477163,-1.961336 -3.655352 0.6457397,-1.994498 -3.031614 0.8275434,-1.64119 -5.677531 0.4377139,-1.503553 -4.856422 0.5855213,-1.440198 -4.309492 0.7667984,-1.392799 -3.781656 0.9304199,-8.66079 -8.331038 -0.01727788,-8.084377 -7.824886 0.2869067,-7.687758 -7.047912 0.5163897,-7.450197 -6.291682 0.7746251,-7.184536 -5.787151 1.040308,-8.183033 -5.549234 0.216087,-8.143296 -4.455268 0.403822,-8.137846 -3.797218 0.5868397,-8.146139 -3.226188 0.7004782,-8.544253 -5.468593 0.2554654,-8.572546 -4.204945 0.4023282,-8.57696 -3.450355 0.6099873,-8.591572 -2.803797 0.7538193,-8.866427 -5.639338 0.3300797,-8.933862 -4.487817 0.4857638,-8.937322 -3.795131 0.6639894,-8.929448 -3.201654 0.775381,-9.173161 -6.005373 0.4395353,-9.325718 -5.191321 0.6124642,-9.381441 -4.651936 0.7420883,-9.406404 -4.116433 0.8176993,2.110,7  0
-2.00419 -8.065029 0.08298036,-2.529491 -7.742738 0.4946507,-2.949251 -7.108825 0.7204412,-3.193169 -6.465612 0.9451729,-3.41707 -5.913595 1.191044,-2.607296 -5.501428 0.2775513,-2.746713 -4.507595 0.4357392,-2.802624 -3.914865 0.5564662,-2.831877 -3.360918 0.6737322,-2.273014 -5.337036 0.2578809,-2.343 -4.206619 0.3821242,-2.343 -4.206619 0.3821242,-2.397003 -2.936181 0.6984404,-1.961411 -5.40171 0.3269534,-1.945688 -4.33257 0.4495948,-1.974529 -3.663824 0.640103,-2.010791 -3.040891 0.817802,-1.648236 -5.677331 0.4416483,-1.512341 -4.861877 0.582918,-1.448838 -4.323888 0.7542874,-1.403359 -3.796223 0.9147426,-8.682036 -8.311651 -0.05337062,-8.090916 -7.826478 0.2464006,-7.690581 -7.05446 0.4756537,-7.457018 -6.29339 0.7299759,-7.200285 -5.772077 0.9897431,-8.185779 -5.550534 0.1774411,-8.145269 -4.459554 0.3680946,-8.144779 -3.802875 0.5538572,-8.158811 -3.231329 0.6694667,-8.549606 -5.460394 0.2208534,-8.578397 -4.190675 0.3718152,-8.586222 -3.438713 0.5794344,-8.604459 -2.79039 0.7260648,-8.874505 -5.628166 0.2995848,-8.939771 -4.461614 0.461666,-8.946736 -3.76417 0.6486166,-8.940214 -3.163421 0.7665552,-9.183446 -5.997609 0.4118192,-9.328634 -5.174717 0.5944563,-9.382101 -4.624536 0.7307094,-9.401487 -4.081512 0.8102374,2.210,7  0
-1.992023 -8.078543 0.09470645,-2.527279 -7.756217 0.4835459,-2.947582 -7.108653 0.6866012,-3.192232 -6.438034 0.887723,-3.417315 -5.872316 1.111066,-2.599458 -5.517242 0.2594878,-2.735548 -4.513773 0.3945068,-2.791024 -3.91174 0.5001773,-2.81667 -3.352111 0.6134888,-2.266769 -5.345827 0.2352969,-2.340842 -4.204429 0.3395728,-2.340842 -4.204429 0.3395728,-2.399962 -2.931265 0.623354,-1.955407 -5.399721 0.2956485,-1.94561 -4.312719 0.4016713,-1.980052 -3.63693 0.5749277,-2.017919 -3.017299 0.7381392,-1.639381 -5.666668 0.4007948,-1.50978 -4.838748 0.5274201,-1.448485 -4.294131 0.6932187,-1.401855 -3.769598 0.8454518,-8.668368 -8.319271 -0.07331107,-8.090896 -7.815187 0.2186344,-7.695263 -7.045169 0.4431726,-7.460698 -6.282309 0.6974918,-7.207251 -5.766777 0.9617863,-8.197531 -5.547853 0.1374025,-8.161067 -4.448345 0.3136997,-8.15549 -3.793994 0.4935081,-8.163433 -3.224809 0.6083818,-8.559284 -5.47109 0.1829505,-8.593143 -4.20441 0.3230376,-8.6031 -3.450875 0.5277616,-8.619345 -2.800241 0.6687162,-8.88236 -5.643668 0.2626789,-8.953272 -4.481928 0.4138205,-8.95695 -3.791576 0.5941361,-8.947017 -3.193982 0.7050396,-9.188494 -6.007612 0.3754675,-9.350306 -5.188936 0.5439985,-9.416265 -4.640982 0.6763248,-9.44978 -4.089679 0.7491085,2.310,7  0
-2.010582 -8.075031 0.099929,-2.543682 -7.734308 0.4416818,-2.955389 -7.071487 0.6139739,-3.19272 -6.400403 0.7971652,-3.412299 -5.848676 1.00058,-2.601464 -5.502698 0.1963777,-2.738138 -4.49913 0.3186185,-2.795507 -3.906676 0.4100504,-2.823856 -3.353231 0.5107276,-2.270038 -5.337348 0.1946777,-2.339847 -4.197169 0.2976441,-2.339847 -4.197169 0.2976441,-2.401983 -2.927753 0.5722101,-1.961056 -5.392114 0.2765738,-1.945657 -4.310689 0.3814605,-1.977734 -3.63613 0.5493734,-2.015806 -3.019321 0.7091352,-1.648557 -5.656507 0.4014543,-1.513724 -4.837049 0.5314514,-1.451463 -4.296604 0.6985695,-1.40797 -3.7731 0.8519083,-8.683727 -8.306669 -0.1338132,-8.102365 -7.805968 0.174891,-7.701353 -7.044143 0.4076681,-7.465265 -6.28589 0.6653869,-7.213793 -5.766853 0.9331847,-8.19649 -5.562492 0.110461,-8.161259 -4.454141 0.2973803,-8.157122 -3.798048 0.4836589,-8.167395 -3.228673 0.6035598,-8.556529 -5.479628 0.153571,-8.587865 -4.203657 0.3045714,-8.598048 -3.447689 0.5175583,-8.61781 -2.789728 0.6675065,-8.879565 -5.647993 0.2296633,-8.949616 -4.492866 0.3953746,-8.957153 -3.801343 0.5848393,-8.95245 -3.201576 0.7082182,-9.186053 -6.00908 0.341226,-9.343198 -5.197607 0.5235031,-9.407704 -4.65491 0.6639997,-9.437992 -4.111795 0.7492948,2.410,7  0
-1.994647 -8.077881 0.1285813,-2.524332 -7.763441 0.5588984,-2.945998 -7.138551 0.7924836,-3.187469 -6.481845 1.0172,-3.413958 -5.911427 1.267241,-2.609029 -5.513777 0.3402475,-2.748245 -4.519617 0.4927143,-2.803506 -3.92387 0.6159894,-2.831957 -3.369235 0.7357308,-2.272844 -5.337823 0.3054466,-2.342214 -4.20457 0.423685,-2.342214 -4.20457 0.423685,-2.392987 -2.931449 0.7374963,-1.961003 -5.393056 0.3559251,-1.947991 -4.323453 0.4752034,-1.978514 -3.65641 0.6655014,-2.012956 -3.039978 0.8411096,-1.646336 -5.657718 0.4548885,-1.51405 -4.839516 0.5949793,-1.449791 -4.305219 0.767981,-1.401726 -3.787242 0.9264057,-8.684952 -8.320745 -0.1093819,-8.103903 -7.82864 0.2055549,-7.706494 -7.053571 0.4418854,-7.472051 -6.292069 0.7006652,-7.216027 -5.769304 0.9628402,-8.204426 -5.574855 0.1413889,-8.160234 -4.478971 0.3354145,-8.156092 -3.818457 0.5265074,-8.166815 -3.242727 0.6468615,-8.565158 -5.486347 0.1779017,-8.593126 -4.210306 0.3335089,-8.603174 -3.450872 0.5461979,-8.620611 -2.79499 0.6950882,-8.888736 -5.647306 0.2490441,-8.953026 -4.478323 0.4096801,-8.957679 -3.778467 0.5895,-8.951035 -3.177658 0.7025274,-9.19769 -6.002466 0.3546993,-9.34922 -5.176212 0.5320286,-9.411093 -4.622291 0.6632836,-9.442459 -4.076291 0.737058,2.510,7  0
-1.996542 -8.082655 0.1246952,-2.526936 -7.747498 0.5217204,-2.945439 -7.094473 0.7317154,-3.186769 -6.42679 0.9391409,-3.410128 -5.861309 1.170434,-2.600902 -5.513156 0.300447,-2.737004 -4.518289 0.4491806,-2.790229 -3.922775 0.5661067,-2.816092 -3.363839 0.6852404,-2.266921 -5.341529 0.2778135,-2.337881 -4.206523 0.3965847,-2.337881 -4.206523 0.3965847,-2.388072 -2.928721 0.7044109,-1.956933 -5.397442 0.3391441,-1.942373 -4.320829 0.4587839,-1.97438 -3.647594 0.6408135,-2.010247 -3.030433 0.8078656,-1.643388 -5.664648 0.4461527,-1.509935 -4.850429 0.5839752,-1.450459 -4.313024 0.7534729,-1.406314 -3.794561 0.9068994,-8.674564 -8.331911 -0.06368995,-8.098334 -7.827138 0.2459567,-7.6975 -7.052152 0.4775074,-7.45418 -6.292505 0.7346175,-7.196954 -5.773448 1.00061,-8.199654 -5.562805 0.1753877,-8.163306 -4.46831 0.3677138,-8.156906 -3.813076 0.5610254,-8.16611 -3.243413 0.6841008,-8.561279 -5.483491 0.217495,-8.592615 -4.220394 0.3683497,-8.6016 -3.467766 0.5794618,-8.618617 -2.814958 0.7279053,-8.885763 -5.651999 0.2931921,-8.952313 -4.500612 0.45499,-8.958402 -3.809824 0.6375988,-8.953175 -3.212302 0.754757,-9.194114 -6.014848 0.4057581,-9.346028 -5.19968 0.5804908,-9.411821 -4.650936 0.7106924,-9.44628 -4.098838 0.7883459,2.610,7  0
-1.999115 -8.089943 0.1215326,-2.533257 -7.754718 0.5000184,-2.954751 -7.088787 0.6993533,-3.201835 -6.406787 0.9000971,-3.424406 -5.837036 1.120626,-2.597338 -5.521066 0.2763095,-2.735402 -4.518466 0.412874,-2.791581 -3.92608 0.5166303,-2.82238 -3.375015 0.6222956,-2.262048 -5.348232 0.2602555,-2.336657 -4.212411 0.3647398,-2.336657 -4.212411 0.3647398,-2.403278 -2.937082 0.6485328,-1.951613 -5.403265 0.3293864,-1.939391 -4.321891 0.4397538,-1.975897 -3.649528 0.6058305,-2.020008 -3.033197 0.7679941,-1.638021 -5.671278 0.4426582,-1.506879 -4.847677 0.574043,-1.448216 -4.305879 0.7356668,-1.405887 -3.783432 0.8865037,-8.672939 -8.336445 -0.03742032,-8.09141 -7.841594 0.2662961,-7.691461 -7.060145 0.4940544,-7.452749 -6.299438 0.7486585,-7.202651 -5.778539 1.007649,-8.199097 -5.562749 0.1989814,-8.161593 -4.473989 0.3912498,-8.159611 -3.813873 0.5798374,-8.167607 -3.238346 0.7012056,-8.562117 -5.480049 0.2404423,-8.58865 -4.214334 0.4033549,-8.596963 -3.459272 0.6154706,-8.612213 -2.804803 0.7640346,-8.886086 -5.649576 0.3151747,-8.94934 -4.479003 0.4820768,-8.955211 -3.778698 0.6632522,-8.947282 -3.175115 0.7776414,-9.193392 -6.01773 0.4230402,-9.344965 -5.191768 0.5991643,-9.403214 -4.638626 0.7279551,-9.429755 -4.091621 0.8010479,2.710,7  0
-1.999819 -8.075663 0.07561388,-2.532869 -7.737033 0.455829,-2.955574 -7.088292 0.6592741,-3.207314 -6.418945 0.8628501,-3.427637 -5.860324 1.089443,-2.601367 -5.51552 0.2403722,-2.735678 -4.502186 0.3730376,-2.789853 -3.901515 0.4777072,-2.816084 -3.346006 0.5886769,-2.268897 -5.34818 0.2224943,-2.337436 -4.199069 0.3369282,-2.337436 -4.199069 0.3369282,-2.393261 -2.915495 0.6405711,-1.960508 -5.401166 0.2873936,-1.948182 -4.313691 0.3993427,-1.979839 -3.636339 0.5724623,-2.017453 -3.016813 0.741482,-1.647822 -5.661233 0.395947,-1.512783 -4.832802 0.5292345,-1.448483 -4.289991 0.6980394,-1.400308 -3.765797 0.854108,-8.673745 -8.330086 -0.05411252,-8.092455 -7.821316 0.2328233,-7.699 -7.043037 0.4622479,-7.468862 -6.28689 0.7223448,-7.209414 -5.779809 0.9979464,-8.198738 -5.557046 0.1754596,-8.158725 -4.468986 0.3570704,-8.154257 -3.815469 0.5398753,-8.164597 -3.242291 0.6601447,-8.562244 -5.479116 0.2300303,-8.592157 -4.214115 0.3746158,-8.60021 -3.458873 0.582503,-8.61426 -2.809226 0.7245978,-8.887305 -5.653619 0.3177337,-8.955917 -4.494924 0.4746122,-8.960559 -3.796909 0.6620801,-8.951287 -3.196979 0.7785769,-9.196243 -6.026142 0.4381772,-9.359166 -5.206758 0.6189848,-9.42892 -4.650125 0.7594595,-9.463107 -4.091409 0.8421432,2.810,7  0
-2.00251 -8.078911 0.07995899,-2.526962 -7.741967 0.4771986,-2.941713 -7.092272 0.6903921,-3.17841 -6.430469 0.9043263,-3.407269 -5.866213 1.141652,-2.604756 -5.520279 0.2652422,-2.74123 -4.526485 0.4222427,-2.795013 -3.931994 0.5467458,-2.822463 -3.370801 0.671911,-2.271048 -5.351348 0.2479625,-2.341104 -4.213848 0.377003,-2.341104 -4.213848 0.377003,-2.391521 -2.931942 0.6967975,-1.960147 -5.407129 0.3148392,-1.945838 -4.330104 0.4438344,-1.979097 -3.655326 0.630151,-2.017807 -3.035231 0.806746,-1.644282 -5.670934 0.4268628,-1.511507 -4.853916 0.5712419,-1.450273 -4.313421 0.7454005,-1.405764 -3.791624 0.9059249,-8.682314 -8.336981 -0.06082867,-8.095714 -7.851549 0.2395236,-7.691517 -7.078168 0.4679813,-7.452068 -6.309178 0.7237175,-7.204275 -5.777027 0.9863598,-8.1986 -5.573545 0.1454511,-8.162359 -4.485172 0.3231946,-8.161727 -3.830464 0.5118758,-8.173664 -3.262778 0.6352844,-8.560846 -5.484886 0.1858166,-8.590899 -4.220134 0.3228444,-8.60212 -3.464427 0.5282853,-8.618921 -2.807033 0.6758264,-8.885767 -5.650051 0.2608701,-8.951244 -4.488187 0.407649,-8.959266 -3.795416 0.5855803,-8.953148 -3.195547 0.7024156,-9.194498 -6.012855 0.3725198,-9.346354 -5.184957 0.5372356,-9.411583 -4.629893 0.6641201,-9.444845 -4.0783 0.7374704,2.910,7  0
-1.988564 -8.065491 0.04503564,-2.525567 -7.735281 0.4233838,-2.943692 -7.101861 0.624071,-3.19204 -6.452277 0.827368,-3.409851 -5.899716 1.056729,-2.594041 -5.513825 0.2060528,-2.730952 -4.499528 0.3468512,-2.785591 -3.894916 0.4593672,-2.80853 -3.333803 0.5755012,-2.263442 -5.347298 0.1903178,-2.332891 -4.195085 0.3081708,-2.332891 -4.195085 0.3081708,-2.381376 -2.913357 0.6075562,-1.957814 -5.403268 0.2579739,-1.94513 -4.315193 0.3727335,-1.976511 -3.642251 0.5480365,-2.011982 -3.026823 0.7141416,-1.64857 -5.669193 0.3683618,-1.511425 -4.843621 0.5058534,-1.447167 -4.305616 0.6753682,-1.400202 -3.785921 0.8267345,-8.680096 -8.336018 -0.005737513,-8.093089 -7.848358 0.2877528,-7.695579 -7.055643 0.5155922,-7.464158 -6.29231 0.7701186,-7.208055 -5.783746 1.033751,-8.195803 -5.556282 0.2352055,-8.160419 -4.474618 0.4183427,-8.160593 -3.821008 0.6040805,-8.174474 -3.242685 0.7297968,-8.560519 -5.471657 0.2799391,-8.588968 -4.207545 0.4280186,-8.598236 -3.449877 0.6370997,-8.612411 -2.792736 0.7936121,-8.886557 -5.63985 0.356491,-8.951457 -4.475502 0.5097589,-8.957579 -3.773913 0.6924789,-8.950441 -3.171349 0.8128064,-9.196731 -6.008871 0.4660985,-9.345634 -5.179513 0.6344421,-9.407886 -4.625099 0.7615995,-9.440633 -4.079319 0.8392081,3.010,7  0
-2.002192 -8.081631 0.08594682,-2.533431 -7.755065 0.4565701,-2.948301 -7.109605 0.6538329,-3.187654 -6.448961 0.8540746,-3.410585 -5.894442 1.076537,-2.599714 -5.520383 0.2349485,-2.736963 -4.517936 0.370593,-2.79196 -3.919796 0.4767526,-2.817472 -3.363779 0.586725,-2.267605 -5.350479 0.2264823,-2.343198 -4.209655 0.3358277,-2.343198 -4.209655 0.3358277,-2.40458 -2.931727 0.6334354,-1.957397 -5.406492 0.3023863,-1.949127 -4.321744 0.4130678,-1.982566 -3.64369 0.5869582,-2.022442 -3.023015 0.7552471,-1.641704 -5.673341 0.4202572,-1.50958 -4.840637 0.551955,-1.448723 -4.293538 0.7172238,-1.406583 -3.769027 0.8719159,-8.686039 -8.342346 -0.0206761,-8.109204 -7.846294 0.2941171,-7.709045 -7.06315 0.5371349,-7.468296 -6.295833 0.804122,-7.210499 -5.756305 1.083953,-8.210555 -5.570925 0.2327432,-8.164993 -4.481697 0.4272198,-8.159959 -3.827447 0.6211858,-8.173509 -3.253847 0.7469409,-8.573054 -5.483307 0.277561,-8.597098 -4.219406 0.4294468,-8.604744 -3.46194 0.6385085,-8.620974 -2.806039 0.7855558,-8.898215 -5.648042 0.3567305,-8.961073 -4.485982 0.5182439,-8.965784 -3.792851 0.7007949,-8.957554 -3.194504 0.8164431,-9.209425 -6.010927 0.4733871,-9.358748 -5.181644 0.6534624,-9.419562 -4.626718 0.7807953,-9.446924 -4.074085 0.8534797,3.110,7  0
-2.002561 -8.067106 0.08051864,-2.529365 -7.757549 0.4445408,-2.948625 -7.112113 0.6358167,-3.196623 -6.462503 0.8330189,-3.417057 -5.921803 1.054197,-2.6003 -5.506613 0.1894273,-2.738787 -4.503566 0.3234774,-2.797191 -3.907018 0.4326214,-2.823824 -3.351178 0.5412216,-2.272173 -5.33644 0.188326,-2.341325 -4.194389 0.2967132,-2.341325 -4.194389 0.2967132,-2.397575 -2.915799 0.5941127,-1.964341 -5.389158 0.2725332,-1.949998 -4.306001 0.3805102,-1.98034 -3.636481 0.5552878,-2.014905 -3.020809 0.7162548,-1.651772 -5.653288 0.4026226,-1.513586 -4.827646 0.5365117,-1.448303 -4.289577 0.7022321,-1.400782 -3.769562 0.852578,-8.686508 -8.329706 -0.04113524,-8.107243 -7.836139 0.2575959,-7.706961 -7.065114 0.4840944,-7.468753 -6.302125 0.7383285,-7.220651 -5.777296 1.003551,-8.207831 -5.562424 0.1547113,-8.16636 -4.4787 0.3317884,-8.160302 -3.827336 0.5183043,-8.169296 -3.260501 0.6418826,-8.567863 -5.471187 0.1980011,-8.596004 -4.214658 0.3321398,-8.606678 -3.462958 0.5397035,-8.625925 -2.812375 0.6868061,-8.892105 -5.63297 0.2770502,-8.957477 -4.485782 0.4212898,-8.963219 -3.799652 0.6005413,-8.958907 -3.207902 0.7181978,-9.20207 -5.991155 0.3917956,-9.35363 -5.179038 0.5560115,-9.41896 -4.635589 0.6841422,-9.453526 -4.092647 0.7608838,3.210,7  0
-2.004438 -8.0655 0.07172727,-2.535484 -7.720749 0.4620196,-2.952338 -7.075998 0.6759241,-3.197796 -6.424976 0.8952197,-3.425377 -5.872135 1.14417,-2.610762 -5.505367 0.2363896,-2.746862 -4.512851 0.3878104,-2.796953 -3.921489 0.5057189,-2.819402 -3.363157 0.6269507,-2.276497 -5.339612 0.2221123,-2.345452 -4.202468 0.344334,-2.345452 -4.202468 0.344334,-2.393968 -2.932325 0.6600021,-1.964729 -5.394748 0.2924032,-1.948138 -4.318947 0.4143572,-1.97673 -3.648754 0.6012813,-2.013034 -3.02909 0.7780052,-1.650399 -5.659531 0.4076548,-1.51541 -4.842527 0.5496836,-1.450598 -4.303463 0.7232051,-1.403876 -3.775218 0.8820787,-8.679556 -8.335855 -0.03131326,-8.100852 -7.835005 0.2770754,-7.698717 -7.058723 0.5082615,-7.457865 -6.292398 0.7670785,-7.20331 -5.755702 1.036196,-8.201333 -5.567565 0.1812364,-8.158773 -4.479763 0.3656851,-8.156974 -3.820544 0.5555767,-8.171856 -3.248531 0.6794335,-8.564615 -5.475446 0.2202697,-8.592915 -4.214782 0.3595587,-8.605239 -3.459646 0.5657989,-8.627076 -2.80437 0.7145199,-8.889675 -5.638389 0.2959382,-8.955537 -4.484579 0.4433182,-8.963708 -3.798481 0.6180009,-8.961908 -3.205652 0.7343755,-9.200053 -5.99996 0.409332,-9.355176 -5.185568 0.5737621,-9.417808 -4.641229 0.6997175,-9.449313 -4.097979 0.7750544,3.310,7  0
-1.989135 -8.075098 0.05758117,-2.52672 -7.747348 0.4370688,-2.949019 -7.116733 0.6453868,-3.194115 -6.460929 0.8536577,-3.417798 -5.904843 1.084245,-2.601365 -5.521095 0.2115947,-2.741549 -4.511472 0.3485816,-2.797724 -3.911573 0.4581103,-2.82597 -3.35674 0.5701405,-2.266817 -5.353212 0.1958516,-2.34588 -4.211008 0.3078346,-2.34588 -4.211008 0.3078346,-2.405645 -2.921051 0.6183079,-1.953961 -5.409606 0.2629109,-1.949998 -4.323596 0.3731373,-1.984056 -3.64455 0.5511602,-2.023966 -3.020288 0.719223,-1.637515 -5.673313 0.3733528,-1.508773 -4.835577 0.5054686,-1.45053 -4.288587 0.6722935,-1.410788 -3.761509 0.824021,-8.674447 -8.331089 -0.02568102,-8.096329 -7.838819 0.2897148,-7.699947 -7.063782 0.5194501,-7.467749 -6.29969 0.775427,-7.216137 -5.780845 1.037518,-8.197632 -5.561319 0.1966664,-8.156664 -4.477118 0.3857062,-8.15375 -3.824028 0.5732532,-8.166068 -3.255352 0.6919535,-8.56152 -5.469736 0.2346249,-8.593379 -4.20359 0.3781521,-8.60564 -3.451887 0.5877354,-8.625618 -2.801256 0.733584,-8.884941 -5.632049 0.3096941,-8.956464 -4.473398 0.465694,-8.966846 -3.785874 0.6505429,-8.964178 -3.185963 0.7703024,-9.191445 -5.992928 0.4214963,-9.353596 -5.176879 0.593464,-9.419996 -4.634813 0.7251769,-9.452901 -4.091558 0.8022692,3.410,7  0
-2.019231 -8.056787 0.06557287,-2.558084 -7.713594 0.4203531,-2.973012 -7.051453 0.5979002,-3.210394 -6.386344 0.780094,-3.422296 -5.841712 0.9786088,-2.606734 -5.490777 0.1929949,-2.737662 -4.489563 0.3258422,-2.788807 -3.895164 0.4244993,-2.812499 -3.335052 0.5297589,-2.275774 -5.329785 0.18801,-2.340991 -4.188928 0.3037102,-2.340991 -4.188928 0.3037102,-2.395758 -2.916596 0.6027591,-1.969052 -5.386867 0.26473,-1.95155 -4.306721 0.3818261,-1.981325 -3.633576 0.5559557,-2.018322 -3.019258 0.720154,-1.658042 -5.65235 0.3838112,-1.516314 -4.837942 0.5233241,-1.454272 -4.297991 0.6930594,-1.411335 -3.776464 0.8461938,-8.687895 -8.335323 -0.07719286,-8.106374 -7.838537 0.2207451,-7.706265 -7.064994 0.4494078,-7.47182 -6.299387 0.7084751,-7.215923 -5.774244 0.9790112,-8.200724 -5.574172 0.1358041,-8.161261 -4.474645 0.3200741,-8.160515 -3.814931 0.5150139,-8.176308 -3.238382 0.6415774,-8.563619 -5.489536 0.1860684,-8.59621 -4.219173 0.3286819,-8.605567 -3.455583 0.5391502,-8.625481 -2.798311 0.6850386,-8.887882 -5.650705 0.2714177,-8.960351 -4.495954 0.4287139,-8.965307 -3.80096 0.6051938,-8.96285 -3.20675 0.7173505,-9.198112 -6.001889 0.393049,-9.352947 -5.169125 0.569133,-9.416635 -4.614635 0.698029,-9.453111 -4.065295 0.769264,3.510,7  0
-2.008895 -8.066988 0.08081783,-2.542852 -7.718275 0.4176644,-2.956074 -7.061994 0.5949728,-3.196249 -6.405166 0.7865098,-3.420158 -5.854969 0.9984814,-2.604853 -5.493509 0.1689557,-2.743026 -4.498657 0.2957588,-2.797889 -3.905794 0.3954853,-2.823987 -3.350545 0.502259,-2.274454 -5.335423 0.1773006,-2.34026 -4.19729 0.2781565,-2.34026 -4.19729 0.2781565,-2.395235 -2.918911 0.5718762,-1.966579 -5.393026 0.2680576,-1.945819 -4.311541 0.3708761,-1.978667 -3.633289 0.5432616,-2.016628 -3.015631 0.7071983,-1.654944 -5.65797 0.4006521,-1.515493 -4.839085 0.5279769,-1.45575 -4.295021 0.6916794,-1.413422 -3.772699 0.8419734,-8.686462 -8.346651 -0.06072832,-8.105071 -7.850791 0.2323131,-7.703362 -7.071107 0.4558061,-7.465267 -6.299135 0.7074709,-7.209024 -5.783226 0.9704444,-8.203446 -5.581834 0.1545082,-8.164512 -4.482276 0.3374085,-8.157934 -3.819958 0.5282785,-8.166611 -3.244847 0.6490754,-8.567003 -5.495507 0.1979792,-8.59758 -4.225791 0.3435278,-8.605612 -3.467088 0.5536979,-8.623003 -2.809611 0.6997589,-8.892299 -5.656108 0.2750562,-8.957614 -4.494174 0.4293685,-8.963099 -3.799151 0.6046456,-8.958682 -3.199739 0.7138978,-9.202311 -6.010026 0.3851647,-9.358469 -5.178459 0.5535629,-9.426975 -4.618162 0.6837791,-9.466183 -4.053002 0.7598619,3.610,7  0
-1.990578 -8.07045 0.06682938,-2.532058 -7.74777 0.4498248,-2.953737 -7.108879 0.653788,-3.200659 -6.437305 0.857565,-3.430363 -5.867835 1.084156,-2.606758 -5.518998 0.226152,-2.74241 -4.506721 0.3578351,-2.796938 -3.901777 0.4638263,-2.821802 -3.342447 0.5760809,-2.27238 -5.34629 0.2042827,-2.344787 -4.198019 0.3111498,-2.344787 -4.198019 0.3111498,-2.405757 -2.916204 0.604866,-1.960218 -5.394026 0.2650394,-1.951184 -4.307024 0.3720521,-1.98357 -3.631712 0.542084,-2.019273 -3.00913 0.7053211,-1.644369 -5.650666 0.3697277,-1.512894 -4.823696 0.5004131,-1.450484 -4.283523 0.6651049,-1.403402 -3.760864 0.8166092,-8.688214 -8.335091 -0.04602502,-8.103856 -7.841768 0.2533467,-7.698199 -7.075498 0.4826407,-7.459296 -6.314874 0.7395205,-7.208897 -5.792783 1.007402,-8.20244 -5.570236 0.1627251,-8.159835 -4.483606 0.3366568,-8.155365 -3.83086 0.5190859,-8.165837 -3.263631 0.637046,-8.566696 -5.47875 0.2006053,-8.594913 -4.21644 0.3352237,-8.605618 -3.462469 0.5385361,-8.624438 -2.808525 0.6841401,-8.892294 -5.63982 0.2713348,-8.953993 -4.485176 0.4139169,-8.959967 -3.794515 0.5880274,-8.953576 -3.197392 0.7023601,-9.203498 -5.996395 0.3769193,-9.352258 -5.176223 0.5367125,-9.412774 -4.631411 0.6633838,-9.441422 -4.089075 0.7393268,3.710,7  0
-2.014013 -8.084433 0.09832407,-2.546956 -7.758022 0.4884127,-2.969628 -7.10822 0.6938672,-3.216456 -6.439567 0.896621,-3.442509 -5.872102 1.120482,-2.606805 -5.519154 0.2652253,-2.741855 -4.515306 0.4073474,-2.796646 -3.914975 0.5193894,-2.82395 -3.360149 0.6309944,-2.273659 -5.349455 0.2444087,-2.342542 -4.20681 0.361441,-2.342542 -4.20681 0.361441,-2.408403 -2.926986 0.6507317,-1.964696 -5.40368 0.3075168,-1.946028 -4.32161 0.4256837,-1.978211 -3.644036 0.6010715,-2.015077 -3.026374 0.7667716,-1.653333 -5.668963 0.4159586,-1.52058 -4.844665 0.5536723,-1.46081 -4.301638 0.7228619,-1.416776 -3.779624 0.8778548,-8.686413 -8.334799 -0.06929328,-8.106152 -7.836629 0.2186455,-7.704712 -7.059515 0.4437453,-7.468114 -6.28738 0.6980208,-7.210212 -5.761854 0.9626052,-8.195107 -5.575981 0.1465462,-8.157705 -4.478504 0.3277833,-8.157337 -3.823671 0.5150368,-8.173233 -3.247879 0.6361148,-8.559289 -5.487121 0.1968472,-8.590349 -4.215034 0.3389575,-8.598981 -3.457008 0.5460159,-8.616148 -2.798842 0.6913017,-8.883808 -5.648513 0.2789053,-8.952046 -4.483919 0.4364172,-8.957603 -3.79394 0.6213449,-8.951143 -3.199317 0.7400316,-9.192354 -6.006188 0.395795,-9.344412 -5.177871 0.5709023,-9.406301 -4.626884 0.7026134,-9.436193 -4.076946 0.7773334,3.810,7  0
-2.019341 -8.089554 0.1008161,-2.55389 -7.747315 0.4688052,-2.973981 -7.099561 0.6624067,-3.220041 -6.436645 0.8603234,-3.438082 -5.870641 1.080258,-2.61101 -5.516721 0.2258507,-2.74923 -4.516551 0.365633,-2.806005 -3.921846 0.4801257,-2.834558 -3.367319 0.5911537,-2.279543 -5.352707 0.2225168,-2.348742 -4.215223 0.3345605,-2.348742 -4.215223 0.3345605,-2.415037 -2.929993 0.6311984,-1.971067 -5.411839 0.3046767,-1.953021 -4.335897 0.4180741,-1.984116 -3.660798 0.5949658,-2.019325 -3.042957 0.760121,-1.658509 -5.677181 0.4311057,-1.52313 -4.853734 0.5675075,-1.462456 -4.30561 0.7372831,-1.415225 -3.77627 0.8904408,-8.685349 -8.350616 -0.05200427,-8.095232 -7.866237 0.2507261,-7.694754 -7.076999 0.4815031,-7.455194 -6.303016 0.7370654,-7.198581 -5.7714 0.9975237,-8.197347 -5.586397 0.1904402,-8.158083 -4.489311 0.3822613,-8.156507 -3.832006 0.5735523,-8.169418 -3.25664 0.6972336,-8.560763 -5.499795 0.2340699,-8.588636 -4.226934 0.3910532,-8.59999 -3.466881 0.606532,-8.618912 -2.806505 0.7605144,-8.886557 -5.66576 0.3105769,-8.951574 -4.490588 0.4741247,-8.958074 -3.7876 0.6636416,-8.951548 -3.181348 0.7861308,-9.197281 -6.029563 0.4192714,-9.344994 -5.188545 0.5979044,-9.406292 -4.624601 0.7315423,-9.437101 -4.067173 0.8092875,3.910,7  0
-2.005623 -8.090374 0.08985931,-2.542691 -7.749177 0.4399155,-2.967057 -7.098199 0.6259657,-3.218512 -6.43617 0.820003,-3.441704 -5.87571 1.036389,-2.608449 -5.521287 0.2034422,-2.748422 -4.514869 0.3387949,-2.80242 -3.918317 0.4460253,-2.826443 -3.362996 0.5542848,-2.27867 -5.357845 0.2093756,-2.349136 -4.209554 0.3216992,-2.349136 -4.209554 0.3216992,-2.410202 -2.918904 0.6202717,-1.969691 -5.413585 0.2982384,-1.956177 -4.321828 0.4115768,-1.988741 -3.641464 0.5843625,-2.025905 -3.021989 0.7493758,-1.655055 -5.6758 0.4274775,-1.518648 -4.845793 0.5621412,-1.457279 -4.292978 0.7295416,-1.411086 -3.762697 0.8796731,-8.674198 -8.339579 -0.04651695,-8.092318 -7.842409 0.2573468,-7.692853 -7.067651 0.4942726,-7.457366 -6.307363 0.7610183,-7.197124 -5.78995 1.039481,-8.190925 -5.57193 0.1792757,-8.153494 -4.475 0.3766395,-8.147202 -3.817356 0.572108,-8.15817 -3.24452 0.69419,-8.552346 -5.486375 0.2328475,-8.587291 -4.219285 0.3836772,-8.595714 -3.45881 0.5990934,-8.615582 -2.800728 0.7469754,-8.876443 -5.650327 0.32397,-8.948258 -4.496223 0.491245,-8.950319 -3.805195 0.6795516,-8.942288 -3.203836 0.7972565,-9.186434 -6.009611 0.4505795,-9.346758 -5.182876 0.6340812,-9.413368 -4.630352 0.7723824,-9.449205 -4.070829 0.851335,4.010,7  0
-2.010601 -8.093824 0.129519,-2.549899 -7.741498 0.495104,-2.970198 -7.086491 0.6829309,-3.21236 -6.403324 0.8745168,-3.43248 -5.829103 1.089844,-2.616262 -5.514436 0.2437008,-2.748735 -4.515487 0.3639534,-2.799669 -3.924272 0.4651245,-2.825975 -3.36882 0.5776536,-2.281531 -5.348934 0.2297427,-2.348215 -4.212857 0.3214827,-2.348215 -4.212857 0.3214827,-2.400424 -2.933553 0.622167,-1.971336 -5.404566 0.2976374,-1.953735 -4.329454 0.3945202,-1.982943 -3.656014 0.5685911,-2.018694 -3.038638 0.7367797,-1.657028 -5.667295 0.4097702,-1.52244 -4.848192 0.5350122,-1.461486 -4.307963 0.702651,-1.415836 -3.78556 0.8547276,-8.66658 -8.34375 -0.0708559,-8.093116 -7.848056 0.2356085,-7.696038 -7.069119 0.4691114,-7.456692 -6.312273 0.7314612,-7.198398 -5.79541 1.003624,-8.194319 -5.578886 0.1469299,-8.158074 -4.481025 0.3343026,-8.153778 -3.822591 0.5247539,-8.165826 -3.250605 0.6494979,-8.550107 -5.496234 0.1969927,-8.579529 -4.229049 0.3477095,-8.590112 -3.46742 0.5636923,-8.609916 -2.80989 0.7156537,-8.87173 -5.663029 0.2828552,-8.938673 -4.502607 0.4482188,-8.944448 -3.798927 0.6415844,-8.93645 -3.190742 0.7659489,-9.179934 -6.025785 0.4056443,-9.340524 -5.203722 0.5877854,-9.408788 -4.651813 0.7245957,-9.443514 -4.099347 0.8055356,4.110,7  0
-2.017088 -8.095531 0.1316793,-2.54598 -7.743764 0.5091673,-2.961128 -7.069908 0.7106671,-3.200191 -6.383449 0.9156752,-3.426708 -5.81211 1.148397,-2.615476 -5.518161 0.2769816,-2.749545 -4.530138 0.4192954,-2.800819 -3.942174 0.5343501,-2.827316 -3.38178 0.6510242,-2.285266 -5.351321 0.2685223,-2.352822 -4.223539 0.3863271,-2.352822 -4.223539 0.3863271,-2.405734 -2.945554 0.698676,-1.977011 -5.406999 0.3427583,-1.957821 -4.333698 0.4609266,-1.99128 -3.667377 0.63929,-2.02857 -3.052104 0.8110021,-1.663488 -5.671953 0.4624143,-1.52777 -4.853347 0.5998242,-1.46569 -4.312408 0.7682484,-1.419078 -3.789844 0.9263297,-8.682732 -8.343275 -0.07568461,-8.095436 -7.853105 0.2242362,-7.692333 -7.072771 0.4481692,-7.457568 -6.305458 0.6995188,-7.203595 -5.790243 0.9557616,-8.18832 -5.587894 0.1433137,-8.151028 -4.493757 0.3303356,-8.151491 -3.839294 0.524631,-8.166367 -3.263322 0.653143,-8.549559 -5.49756 0.1886119,-8.578524 -4.232331 0.3408019,-8.589895 -3.476408 0.5604162,-8.610643 -2.816036 0.7176303,-8.874499 -5.657411 0.2671894,-8.938423 -4.499845 0.4303035,-8.944449 -3.803741 0.6199639,-8.937788 -3.200311 0.7402943,-9.186847 -6.013782 0.3807846,-9.34267 -5.191463 0.5590554,-9.40801 -4.635694 0.6903235,-9.441998 -4.07649 0.7649893,4.210,7  0
-2.018246 -8.072947 0.0618055,-2.547627 -7.72703 0.4237078,-2.965626 -7.068309 0.6161115,-3.210283 -6.403743 0.8155249,-3.427828 -5.849046 1.042125,-2.615318 -5.510871 0.1778549,-2.746466 -4.5109 0.3183011,-2.797807 -3.912812 0.4351766,-2.820066 -3.3531 0.5556945,-2.287874 -5.348144 0.1808563,-2.356968 -4.206668 0.2971329,-2.356968 -4.206668 0.2971329,-2.416579 -2.910408 0.6083093,-1.979304 -5.403447 0.2672561,-1.960181 -4.318449 0.3867976,-1.990596 -3.639726 0.565095,-2.024125 -3.015128 0.7342994,-1.664698 -5.667081 0.3981893,-1.524801 -4.843754 0.5390882,-1.459059 -4.293704 0.7126989,-1.407217 -3.759795 0.8700518,-8.674417 -8.34812 -0.05698941,-8.087721 -7.865886 0.2483658,-7.685905 -7.077379 0.4816024,-7.443752 -6.310411 0.7405271,-7.191437 -5.782781 1.009914,-8.192513 -5.584871 0.182557,-8.152157 -4.492499 0.3759441,-8.151631 -3.83494 0.5702427,-8.165922 -3.262491 0.6979589,-8.55507 -5.498035 0.2242031,-8.581748 -4.226507 0.3744011,-8.591138 -3.468496 0.58753,-8.607422 -2.815844 0.7373772,-8.879418 -5.663057 0.2987048,-8.943253 -4.494786 0.4553266,-8.949976 -3.792881 0.6404657,-8.94426 -3.189678 0.7593274,-9.187396 -6.027605 0.4080276,-9.342189 -5.193395 0.5799691,-9.407156 -4.634978 0.7086564,-9.439714 -4.082867 0.7827849,4.310,7  0
-2.002742 -8.086681 0.08275793,-2.534106 -7.765313 0.4499143,-2.958025 -7.113986 0.6436462,-3.20311 -6.448534 0.8417345,-3.423965 -5.894794 1.058322,-2.6069 -5.524457 0.2253584,-2.744081 -4.524365 0.3656561,-2.800571 -3.927664 0.4758644,-2.827562 -3.374482 0.5851023,-2.279179 -5.357397 0.2204912,-2.351425 -4.220333 0.3402122,-2.351425 -4.220333 0.3402122,-2.411995 -2.937931 0.6459524,-1.971031 -5.412561 0.2987331,-1.962461 -4.335689 0.4174898,-1.993409 -3.662519 0.5914232,-2.025742 -3.045335 0.7589979,-1.656321 -5.678129 0.4202262,-1.524405 -4.855226 0.5540099,-1.461049 -4.314392 0.7200595,-1.411501 -3.794059 0.8724989,-8.673088 -8.345058 -0.06006777,-8.092389 -7.833615 0.2105066,-7.688267 -7.058386 0.4179083,-7.440743 -6.294496 0.6584858,-7.18413 -5.781827 0.90729,-8.191699 -5.574233 0.1211387,-8.154435 -4.480054 0.2939676,-8.149712 -3.821762 0.4740795,-8.160572 -3.253789 0.5891808,-8.550511 -5.492007 0.1771804,-8.585357 -4.227731 0.3099449,-8.594522 -3.460625 0.5156438,-8.616396 -2.80191 0.6627291,-8.871691 -5.662502 0.2653614,-8.941016 -4.514028 0.4145234,-8.944715 -3.817092 0.5915034,-8.938426 -3.219108 0.707145,-9.175088 -6.028532 0.3890373,-9.331636 -5.214187 0.5574506,-9.390324 -4.669122 0.6884441,-9.417587 -4.127401 0.7680361,4.410,7  0
-2.006434 -8.087713 0.06342711,-2.546091 -7.758675 0.4355829,-2.966213 -7.0983 0.6234137,-3.208855 -6.418832 0.8096103,-3.429335 -5.863356 1.015186,-2.614898 -5.536438 0.2021373,-2.749723 -4.534795 0.3321642,-2.802606 -3.939142 0.4348044,-2.829448 -3.380827 0.5435654,-2.280766 -5.363017 0.1848932,-2.351777 -4.224041 0.2876965,-2.351777 -4.224041 0.2876965,-2.40786 -2.945137 0.581931,-1.969671 -5.410646 0.2517689,-1.958599 -4.333328 0.3586146,-1.991914 -3.662733 0.5259708,-2.028872 -3.044475 0.6890244,-1.652651 -5.665884 0.3632481,-1.520399 -4.842599 0.4924206,-1.459139 -4.306106 0.6535802,-1.413056 -3.784784 0.8036851,-8.671578 -8.346493 0.002783258,-8.09034 -7.853472 0.3059535,-7.689345 -7.06781 0.5462354,-7.454555 -6.305087 0.8110633,-7.193624 -5.787635 1.084414,-8.183916 -5.571247 0.2621753,-8.140059 -4.48399 0.4517408,-8.139515 -3.830852 0.6376168,-8.153315 -3.26133 0.7596105,-8.549892 -5.481227 0.3028152,-8.572175 -4.21905 0.4530312,-8.580161 -3.469313 0.658789,-8.596794 -2.821696 0.8103821,-8.876775 -5.652414 0.3752094,-8.937168 -4.494653 0.5270272,-8.943917 -3.801592 0.7059541,-8.93742 -3.203549 0.8230831,-9.188108 -6.027296 0.4817838,-9.33149 -5.209866 0.6531922,-9.388327 -4.664575 0.7820483,-9.41193 -4.12923 0.8600459,4.510,7  0
-2.018861 -8.086481 0.07488226,-2.550879 -7.758655 0.4419095,-2.965704 -7.108749 0.6404217,-3.20835 -6.458202 0.8456818,-3.431367 -5.913295 1.076673,-2.615463 -5.523918 0.2050273,-2.746789 -4.522566 0.3515574,-2.79972 -3.924409 0.4664753,-2.823468 -3.370569 0.5781553,-2.283871 -5.358003 0.2062095,-2.348422 -4.217624 0.3257235,-2.348422 -4.217624 0.3257235,-2.409932 -2.929733 0.6330421,-1.975277 -5.413424 0.291932,-1.958483 -4.333473 0.4095165,-1.99195 -3.657865 0.5874885,-2.027431 -3.036705 0.7547421,-1.662823 -5.676582 0.4210767,-1.525374 -4.848547 0.5592762,-1.462891 -4.299695 0.7280954,-1.416266 -3.770011 0.8856151,-8.667961 -8.356709 -0.05564145,-8.085558 -7.855525 0.2472191,-7.687943 -7.078371 0.4778714,-7.454919 -6.308746 0.7380536,-7.199883 -5.782461 1.005559,-8.189178 -5.592355 0.1672719,-8.151421 -4.493637 0.3603469,-8.148034 -3.831941 0.5594108,-8.161997 -3.252855 0.6877159,-8.548604 -5.505483 0.2177851,-8.577466 -4.237901 0.3697942,-8.587225 -3.475947 0.5912746,-8.608454 -2.81265 0.7496299,-8.871914 -5.666852 0.3021498,-8.935553 -4.502447 0.4640231,-8.939512 -3.800439 0.6541329,-8.933273 -3.193494 0.7760338,-9.181808 -6.025083 0.4229307,-9.334661 -5.191473 0.5981587,-9.400018 -4.633598 0.7302097,-9.436286 -4.070384 0.8091711,4.610,7  0
-2.024321 -8.102053 0.06855763,-2.55836 -7.754632 0.419978,-2.972683 -7.067617 0.5992206,-3.209333 -6.382994 0.7858925,-3.434366 -5.823689 1.000386,-2.613142 -5.5394 0.1774161,-2.747815 -4.54227 0.3162128,-2.801511 -3.945395 0.4305346,-2.8276 -3.379396 0.5459185,-2.282018 -5.373786 0.1791898,-2.347877 -4.238651 0.2913633,-2.347877 -4.238651 0.2913633,-2.402952 -2.946054 0.6060852,-1.972062 -5.423949 0.2650266,-1.95288 -4.348695 0.3784073,-1.984196 -3.674857 0.553552,-2.018196 -3.055481 0.7237306,-1.656871 -5.678051 0.3932035,-1.519901 -4.854299 0.5275306,-1.456547 -4.309116 0.6926185,-1.406781 -3.78088 0.8461819,-8.668594 -8.340918 -0.09566922,-8.089278 -7.84082 0.2164893,-7.690556 -7.069282 0.4556556,-7.445414 -6.309024 0.7118148,-7.193102 -5.787915 0.9753624,-8.189593 -5.590572 0.1550103,-8.149504 -4.492974 0.3524858,-8.147917 -3.838672 0.5455408,-8.162647 -3.265906 0.6706112,-8.550494 -5.502676 0.1934348,-8.578787 -4.226558 0.3552891,-8.590249 -3.468419 0.5732238,-8.611728 -2.807906 0.7313284,-8.874642 -5.667601 0.2654936,-8.939391 -4.495201 0.4332299,-8.94814 -3.795196 0.6244524,-8.945374 -3.186626 0.748118,-9.183661 -6.032262 0.3732451,-9.336018 -5.207824 0.5546752,-9.401255 -4.655578 0.6925559,-9.434086 -4.099142 0.7771258,4.710,7  0
-2.020731 -8.081005 0.05540896,-2.545057 -7.744196 0.4203728,-2.952892 -7.088634 0.6137526,-3.19144 -6.422554 0.8135853,-3.423669 -5.875452 1.043474,-2.605604 -5.522909 0.1796217,-2.739792 -4.518671 0.3177748,-2.797737 -3.918267 0.4352435,-2.826088 -3.355873 0.5533506,-2.27878 -5.357069 0.1787708,-2.347234 -4.211256 0.2976975,-2.347234 -4.211256 0.2976975,-2.403862 -2.911098 0.6053113,-1.972402 -5.414775 0.2623119,-1.956387 -4.330469 0.3795307,-1.988676 -3.654637 0.5559555,-2.021146 -3.027309 0.7247195,-1.660983 -5.679788 0.3901978,-1.523159 -4.861645 0.5296141,-1.457965 -4.319328 0.7001443,-1.406197 -3.79206 0.857561,-8.670273 -8.347698 -0.08256978,-8.08927 -7.850833 0.2260061,-7.693276 -7.076688 0.4581633,-7.461053 -6.315449 0.7174154,-7.205791 -5.797752 0.9841895,-8.190596 -5.590875 0.1523459,-8.151089 -4.48403 0.344494,-8.150941 -3.824837 0.5363134,-8.166933 -3.24587 0.6618176,-8.55119 -5.504842 0.1976028,-8.57941 -4.23561 0.354644,-8.587295 -3.476346 0.5751874,-8.604383 -2.818441 0.7277534,-8.875419 -5.665378 0.2781534,-8.940375 -4.505023 0.4477866,-8.945426 -3.81336 0.6379497,-8.937009 -3.217127 0.7563028,-9.184679 -6.020336 0.3938559,-9.342484 -5.19661 0.5773959,-9.410282 -4.650676 0.7108403,-9.444929 -4.102006 0.784639,4.810,7  0
-2.013605 -8.085726 0.03219742,-2.552719 -7.7348 0.3884429,-2.963857 -7.059919 0.574602,-3.193771 -6.381004 0.7697443,-3.418137 -5.816946 0.9926154,-2.617914 -5.530311 0.1671546,-2.746512 -4.524264 0.3088065,-2.796507 -3.924364 0.4214218,-2.820218 -3.356449 0.5399427,-2.284537 -5.370475 0.1711546,-2.352619 -4.22775 0.2946724,-2.352619 -4.22775 0.2946724,-2.401929 -2.925011 0.6159148,-1.971626 -5.428371 0.2578769,-1.957051 -4.345032 0.3858809,-1.986402 -3.667129 0.5632876,-2.01968 -3.037692 0.7370964,-1.65082 -5.690437 0.3851644,-1.51846 -4.86052 0.5316412,-1.454612 -4.314484 0.7030799,-1.40476 -3.783632 0.862074,-8.674934 -8.343172 -0.06314942,-8.093502 -7.843231 0.2401943,-7.691175 -7.05946 0.4646166,-7.457995 -6.301481 0.7147113,-7.206364 -5.795369 0.9673512,-8.192897 -5.581522 0.1752398,-8.150779 -4.487072 0.3653225,-8.148416 -3.834314 0.5531787,-8.160214 -3.265127 0.673662,-8.554242 -5.494802 0.2169426,-8.579612 -4.226427 0.3689359,-8.589817 -3.470773 0.5758017,-8.608689 -2.814798 0.727316,-8.877957 -5.663173 0.2932286,-8.939571 -4.500549 0.4514131,-8.946581 -3.804452 0.6318173,-8.94146 -3.199444 0.7510266,-9.185787 -6.032935 0.4037133,-9.338675 -5.220874 0.5746902,-9.40121 -4.678588 0.703938,-9.431956 -4.134167 0.7851149,4.910,7  0
-2.019676 -8.058887 0.05278982,-2.551953 -7.724454 0.4321986,-2.975541 -7.06138 0.6264098,-3.218658 -6.395094 0.8218837,-3.425709 -5.83664 1.033926,-2.60861 -5.506469 0.1965591,-2.74117 -4.514074 0.3463968,-2.795847 -3.916623 0.4602478,-2.822373 -3.360322 0.5750482,-2.278919 -5.336352 0.1867429,-2.346715 -4.201395 0.3157661,-2.346715 -4.201395 0.3157661,-2.405705 -2.904837 0.6253483,-1.972228 -5.390444 0.2608201,-1.9557 -4.318091 0.3906229,-1.988216 -3.644876 0.5707765,-2.02278 -3.022405 0.7378227,-1.66045 -5.653492 0.3801731,-1.522634 -4.843865 0.5271046,-1.458121 -4.303096 0.7034779,-1.406342 -3.777946 0.8638581,-8.66999 -8.35796 -0.09465489,-8.082563 -7.865552 0.2016709,-7.685974 -7.082624 0.4203954,-7.449768 -6.313283 0.6652355,-7.19512 -5.79373 0.9145865,-8.187572 -5.604757 0.1175357,-8.153316 -4.497228 0.2959242,-8.152619 -3.831398 0.4805923,-8.165576 -3.250543 0.6018963,-8.546137 -5.516426 0.1604689,-8.580495 -4.238612 0.3035024,-8.591104 -3.475212 0.5170565,-8.611732 -2.819288 0.6680765,-8.86828 -5.67574 0.2366108,-8.939951 -4.507753 0.3935376,-8.946155 -3.81051 0.5761582,-8.941545 -3.21224 0.691683,-9.174477 -6.027938 0.3466702,-9.336468 -5.200251 0.5219408,-9.403149 -4.651205 0.6536771,-9.440191 -4.106373 0.7262372,5.010,7  0
-2.021244 -8.093441 0.06807734,-2.548496 -7.766849 0.4336241,-2.965954 -7.099937 0.6259958,-3.212575 -6.439317 0.8243536,-3.434109 -5.893089 1.047034,-2.610187 -5.533844 0.1949316,-2.742424 -4.541411 0.3358062,-2.796272 -3.947091 0.450254,-2.821563 -3.390386 0.5622996,-2.282214 -5.366258 0.1940811,-2.350044 -4.231009 0.3056181,-2.350044 -4.231009 0.3056181,-2.414409 -2.938251 0.6129811,-1.97435 -5.424959 0.2796102,-1.957819 -4.339227 0.3899455,-1.991614 -3.662195 0.563806,-2.029932 -3.039943 0.7326205,-1.661474 -5.695402 0.4086789,-1.523212 -4.864093 0.5389904,-1.460824 -4.312543 0.705781,-1.415418 -3.783912 0.8605854,-8.658217 -8.353085 -0.1116645,-8.07922 -7.846458 0.1792049,-7.682522 -7.067926 0.4007714,-7.443987 -6.299427 0.6502401,-7.189507 -5.78403 0.9074949,-8.188972 -5.601507 0.11428,-8.148956 -4.492231 0.2979837,-8.145679 -3.82844 0.4800483,-8.157923 -3.249317 0.5975466,-8.548627 -5.517702 0.1632362,-8.580181 -4.242774 0.3203238,-8.589087 -3.477888 0.5374525,-8.6071 -2.819077 0.6904808,-8.871022 -5.684566 0.2435838,-8.938528 -4.521375 0.4122173,-8.942327 -3.815229 0.6069463,-8.933277 -3.209566 0.7304439,-9.175762 -6.050024 0.3586146,-9.335768 -5.228328 0.5444551,-9.403014 -4.677538 0.6862556,-9.436662 -4.127849 0.7696466,5.110,7  0
-2.020864 -8.088993 0.05204079,-2.5518 -7.76449 0.4201342,-2.967393 -7.108911 0.6100425,-3.208445 -6.441449 0.8044845,-3.416908 -5.887853 1.018364,-2.607924 -5.53605 0.1770767,-2.745571 -4.531763 0.3033136,-2.799949 -3.933391 0.4084947,-2.824868 -3.376813 0.5170102,-2.277949 -5.365675 0.1694649,-2.349903 -4.224272 0.2726009,-2.349903 -4.224272 0.2726009,-2.416009 -2.932463 0.5738708,-1.969911 -5.41753 0.2475221,-1.956454 -4.331278 0.3538786,-1.987397 -3.655481 0.5267321,-2.024898 -3.034264 0.6969411,-1.655709 -5.67871 0.3692721,-1.521965 -4.842994 0.4971066,-1.456469 -4.296368 0.6636444,-1.409472 -3.769845 0.8201393,-8.674739 -8.347725 -0.1003099,-8.084357 -7.85618 0.2140562,-7.685474 -7.089222 0.4442784,-7.452159 -6.327721 0.7015855,-7.198634 -5.806775 0.9604896,-8.187139 -5.600393 0.1266479,-8.143157 -4.503103 0.3085364,-8.136893 -3.847847 0.4961278,-8.1487 -3.276299 0.6157521,-8.548109 -5.508783 0.1641252,-8.578884 -4.232852 0.3053213,-8.590081 -3.474404 0.5178099,-8.612531 -2.82253 0.6691899,-8.870214 -5.669293 0.2368734,-8.938114 -4.502199 0.388633,-8.942905 -3.808294 0.5692759,-8.936494 -3.208177 0.6877115,-9.177171 -6.024116 0.3480207,-9.326086 -5.196794 0.517239,-9.383479 -4.649639 0.6460471,-9.411163 -4.103919 0.7203807,5.210,7  0
-2.026419 -8.091852 0.09016921,-2.559984 -7.76692 0.4529952,-2.982823 -7.106056 0.6486768,-3.228331 -6.446821 0.8503211,-3.443075 -5.888273 1.071868,-2.61426 -5.52466 0.221639,-2.74664 -4.525873 0.3743051,-2.801172 -3.930126 0.4960991,-2.825548 -3.373804 0.6130348,-2.283497 -5.358617 0.2294462,-2.353999 -4.223987 0.3602298,-2.353999 -4.223987 0.3602298,-2.419 -2.92332 0.6762457,-1.9734 -5.4213 0.3228391,-1.961405 -4.344617 0.4527768,-1.994966 -3.664926 0.633454,-2.028054 -3.04213 0.8061326,-1.657277 -5.696367 0.45956,-1.520938 -4.865474 0.6056287,-1.457046 -4.313934 0.7776596,-1.408608 -3.782905 0.9375222,-8.662672 -8.375311 -0.0816254,-8.075704 -7.878671 0.2224955,-7.67479 -7.097979 0.4503968,-7.43584 -6.325637 0.7046182,-7.177782 -5.795061 0.9650748,-8.183475 -5.616953 0.1451173,-8.143414 -4.510238 0.3405709,-8.138761 -3.850748 0.5340125,-8.151274 -3.270586 0.6572347,-8.545658 -5.531282 0.190432,-8.57678 -4.25975 0.3490134,-8.585135 -3.502779 0.5718485,-8.605112 -2.845668 0.7285927,-8.870372 -5.699724 0.2724654,-8.939276 -4.534809 0.4421377,-8.945475 -3.838995 0.6398544,-8.941289 -3.236291 0.7647634,-9.180418 -6.063247 0.3872708,-9.338414 -5.238269 0.574551,-9.403173 -4.685089 0.7174404,-9.437768 -4.131518 0.7994638,5.310,7  0
-2.025558 -8.100101 0.06295352,-2.563712 -7.752452 0.4013168,-2.986682 -7.079177 0.5776322,-3.232763 -6.405315 0.7621073,-3.445034 -5.857725 0.9636182,-2.614912 -5.535514 0.1702334,-2.749934 -4.535581 0.3068348,-2.803771 -3.939645 0.4146822,-2.828697 -3.384186 0.5218579,-2.283653 -5.373702 0.1789508,-2.356498 -4.235922 0.2935243,-2.356498 -4.235922 0.2935243,-2.419709 -2.940567 0.5995827,-1.973773 -5.429134 0.2705979,-1.963316 -4.346162 0.3878848,-1.996045 -3.667823 0.5571914,-2.030988 -3.049541 0.7206931,-1.65768 -5.691457 0.4030573,-1.522044 -4.857032 0.5350128,-1.458685 -4.30565 0.6960129,-1.410413 -3.773909 0.8450337,-8.666606 -8.365499 -0.0004043192,-8.082828 -7.870965 0.2986922,-7.684092 -7.08344 0.5247535,-7.450268 -6.313896 0.7776216,-7.19225 -5.809541 1.040352,-8.183829 -5.59173 0.2313193,-8.142078 -4.514049 0.4077324,-8.139616 -3.868635 0.5921682,-8.150088 -3.303371 0.7157086,-8.548038 -5.497993 0.2690915,-8.577635 -4.231691 0.4015905,-8.585078 -3.477106 0.6009178,-8.599449 -2.823719 0.7496832,-8.872985 -5.659461 0.3386219,-8.93327 -4.492314 0.4746161,-8.93722 -3.797528 0.6411772,-8.928511 -3.195268 0.7516612,-9.181817 -6.02115 0.4438615,-9.326535 -5.19511 0.5968069,-9.386234 -4.647935 0.7133654,-9.415619 -4.105676 0.7848377,5.410,7  0
-2.024765 -8.117176 0.06730928,-2.560531 -7.759677 0.4103329,-2.974977 -7.094819 0.5892063,-3.216457 -6.421073 0.7755846,-3.432087 -5.862886 0.9868668,-2.611612 -5.548749 0.159495,-2.748679 -4.549765 0.2853459,-2.804855 -3.955581 0.3948171,-2.833226 -3.399423 0.5081357,-2.279283 -5.388278 0.1596824,-2.343561 -4.257862 0.2573926,-2.343561 -4.257862 0.2573926,-2.399292 -2.971374 0.5653636,-1.969641 -5.441646 0.2428886,-1.956539 -4.368278 0.3394633,-1.98965 -3.692865 0.5114983,-2.027318 -3.07825 0.6789176,-1.655345 -5.699571 0.3686152,-1.520403 -4.865522 0.4865204,-1.457778 -4.31357 0.6464306,-1.410096 -3.784151 0.796122,-8.668685 -8.371445 -0.06146388,-8.085795 -7.87412 0.2277809,-7.684094 -7.09713 0.4503774,-7.446387 -6.322389 0.7034632,-7.189211 -5.801427 0.9616628,-8.184736 -5.614551 0.1452055,-8.144528 -4.517852 0.3280578,-8.142547 -3.856678 0.5163242,-8.155768 -3.278298 0.6392683,-8.547541 -5.520568 0.1970304,-8.577634 -4.247634 0.3414822,-8.58643 -3.479848 0.5579457,-8.607407 -2.81568 0.7146703,-8.872835 -5.679306 0.2818978,-8.933899 -4.514104 0.4392732,-8.937735 -3.81038 0.6235977,-8.931247 -3.202575 0.7491015,-9.182388 -6.035156 0.4026814,-9.331856 -5.198025 0.5801781,-9.39163 -4.641319 0.7168654,-9.421628 -4.084338 0.8017281,5.510,7  0
-2.009573 -8.089363 0.01459192,-2.547997 -7.745065 0.3560407,-2.973166 -7.083709 0.5351514,-3.226162 -6.425456 0.7249433,-3.443139 -5.878943 0.9368345,-2.612475 -5.541004 0.1102892,-2.743984 -4.528668 0.2472639,-2.79773 -3.925991 0.3644404,-2.825572 -3.364043 0.4830906,-2.283072 -5.377828 0.117212,-2.350172 -4.230608 0.2285183,-2.350172 -4.230608 0.2285183,-2.409904 -2.925224 0.5432154,-1.973312 -5.433568 0.208589,-1.958778 -4.346208 0.3243311,-1.988872 -3.666672 0.495994,-2.024778 -3.038403 0.6631667,-1.657855 -5.696823 0.3415211,-1.518319 -4.876323 0.4767898,-1.453209 -4.33086 0.6441758,-1.404176 -3.800487 0.7971374,-8.663808 -8.360361 -0.02644582,-8.075485 -7.867284 0.2706793,-7.682105 -7.087082 0.492644,-7.448393 -6.316097 0.7399544,-7.190736 -5.799404 0.9923897,-8.185213 -5.593078 0.201144,-8.146061 -4.501234 0.3853852,-8.146289 -3.848969 0.574256,-8.160136 -3.274778 0.6988144,-8.546398 -5.500432 0.2448951,-8.579184 -4.237633 0.3961366,-8.585382 -3.485258 0.6080796,-8.599249 -2.832808 0.7607045,-8.872171 -5.664028 0.3237286,-8.941034 -4.508422 0.4867967,-8.946177 -3.816385 0.6741922,-8.937569 -3.214286 0.7900792,-9.182755 -6.028471 0.4346884,-9.34028 -5.216035 0.6185626,-9.40331 -4.662437 0.7520882,-9.43261 -4.105742 0.8295107,5.610,7  0
-2.029986 -8.085003 0.05928847,-2.556712 -7.764006 0.4361842,-2.969004 -7.08011 0.6302306,-3.202833 -6.392222 0.8290139,-3.418609 -5.815568 1.048193,-2.621807 -5.531444 0.2104365,-2.754794 -4.537082 0.3581024,-2.807812 -3.94027 0.4707288,-2.83031 -3.379065 0.5854402,-2.293511 -5.361483 0.202977,-2.363799 -4.230154 0.3229848,-2.363799 -4.230154 0.3229848,-2.419724 -2.941306 0.6268315,-1.985362 -5.420062 0.2804893,-1.968995 -4.34659 0.4008856,-2.002292 -3.674654 0.5747303,-2.03589 -3.051116 0.7454277,-1.670161 -5.690963 0.4003527,-1.534238 -4.871812 0.5432191,-1.471673 -4.327207 0.7161224,-1.420133 -3.801243 0.8768198,-8.663716 -8.379122 -0.04351886,-8.081683 -7.875579 0.2570361,-7.688797 -7.096508 0.4947976,-7.45732 -6.329425 0.7600112,-7.193878 -5.807601 1.036907,-8.194109 -5.603357 0.1972315,-8.155551 -4.500317 0.3946232,-8.15316 -3.837869 0.5905076,-8.166245 -3.260441 0.7149073,-8.557733 -5.525709 0.2487412,-8.590658 -4.247068 0.4041414,-8.598435 -3.486731 0.619864,-8.614072 -2.82918 0.7702242,-8.883168 -5.698461 0.3351774,-8.954091 -4.531456 0.50047,-8.961338 -3.831721 0.6929499,-8.955146 -3.226779 0.8149867,-9.192484 -6.067989 0.4566883,-9.350806 -5.237316 0.639852,-9.418086 -4.677482 0.7789019,-9.452128 -4.117767 0.8606003,5.710,7  0
-2.030468 -8.074776 0.001008545,-2.573277 -7.739935 0.3598353,-2.992557 -7.09045 0.5431749,-3.233284 -6.432327 0.7298742,-3.441498 -5.889345 0.9360318,-2.623883 -5.531348 0.1242814,-2.754626 -4.527605 0.2634366,-2.811347 -3.926236 0.3769022,-2.8403 -3.363472 0.4906907,-2.296265 -5.367177 0.1229162,-2.360303 -4.229604 0.246733,-2.360303 -4.229604 0.246733,-2.423734 -2.930151 0.5632247,-1.990564 -5.418546 0.2042886,-1.972141 -4.346117 0.3221869,-2.003465 -3.676263 0.4993829,-2.034442 -3.054884 0.6683635,-1.681998 -5.672697 0.327237,-1.536638 -4.855404 0.4714087,-1.469868 -4.3101 0.6462066,-1.416331 -3.78 0.8051766,-8.674361 -8.366259 -0.002134118,-8.099604 -7.855211 0.2991812,-7.698727 -7.085386 0.5322395,-7.457188 -6.319976 0.7941935,-7.19402 -5.793468 1.067605,-8.199438 -5.595696 0.2115719,-8.153621 -4.500658 0.393763,-8.147282 -3.849205 0.5786215,-8.158053 -3.280806 0.6983063,-8.556323 -5.498605 0.2608781,-8.580737 -4.237858 0.3985234,-8.588901 -3.480956 0.6059539,-8.60589 -2.829998 0.7547942,-8.877691 -5.656361 0.3460014,-8.935633 -4.507448 0.4971206,-8.941837 -3.817262 0.6757906,-8.932851 -3.221274 0.7951993,-9.18556 -6.01516 0.4687583,-9.33112 -5.193948 0.6454958,-9.393038 -4.650684 0.7794212,-9.419549 -4.109317 0.8616721,5.810,7  0
-2.045417 -8.073042 -0.02095232,-2.581303 -7.727813 0.319112,-3.007049 -7.066806 0.494463,-3.258213 -6.405525 0.6768821,-3.46736 -5.854232 0.8734019,-2.626411 -5.533129 0.08362737,-2.756792 -4.529912 0.2283206,-2.810983 -3.932572 0.346018,-2.839434 -3.374889 0.4637933,-2.299678 -5.37031 0.09337452,-2.369175 -4.235215 0.2134843,-2.369175 -4.235215 0.2134843,-2.43083 -2.92573 0.5232051,-1.992805 -5.425611 0.1875194,-1.980168 -4.344978 0.3125584,-2.013774 -3.659505 0.4778832,-2.049375 -3.030454 0.6404797,-1.679608 -5.686847 0.3224142,-1.543573 -4.861461 0.4601956,-1.482164 -4.305558 0.6240857,-1.434836 -3.76853 0.7735332,-8.669565 -8.355944 -0.06373711,-8.087382 -7.850006 0.2311077,-7.687719 -7.076898 0.4587392,-7.449717 -6.31173 0.7191665,-7.184578 -5.786628 0.9837645,-8.185855 -5.593052 0.1464085,-8.147528 -4.486215 0.3305886,-8.143525 -3.830533 0.5150314,-8.154379 -3.255332 0.6340562,-8.545197 -5.506258 0.199477,-8.578573 -4.224878 0.3436777,-8.589614 -3.465798 0.5514829,-8.60773 -2.811075 0.6957864,-8.866499 -5.666555 0.2859021,-8.932775 -4.489889 0.4454439,-8.937445 -3.790361 0.6280007,-8.926147 -3.186748 0.7444993,-9.173679 -6.021044 0.4097385,-9.321935 -5.183559 0.5867118,-9.381482 -4.638137 0.7188845,-9.408982 -4.096591 0.7908154,5.910,7  0
-2.046634 -8.064156 0.003342423,-2.578357 -7.734386 0.3655659,-3.001934 -7.064115 0.5512339,-3.240933 -6.394241 0.7434203,-3.453594 -5.832624 0.9522882,-2.631878 -5.51774 0.1258618,-2.762953 -4.520986 0.272973,-2.818989 -3.929115 0.3923702,-2.850924 -3.37045 0.5090948,-2.29985 -5.355016 0.1333778,-2.370972 -4.227111 0.2559333,-2.370972 -4.227111 0.2559333,-2.436068 -2.932127 0.5738568,-1.989998 -5.416043 0.2274431,-1.980261 -4.348943 0.3572367,-2.012767 -3.670753 0.5333672,-2.051205 -3.048724 0.7037028,-1.670546 -5.678945 0.3655351,-1.543543 -4.850983 0.5094354,-1.484682 -4.300832 0.6760451,-1.44276 -3.772819 0.8314464,-8.661537 -8.368193 -0.007379821,-8.077314 -7.877002 0.2923924,-7.683565 -7.094051 0.521906,-7.454243 -6.322065 0.7788396,-7.193731 -5.803095 1.045646,-8.178254 -5.590022 0.2267953,-8.141881 -4.48526 0.4122211,-8.143618 -3.815135 0.5985336,-8.158847 -3.232859 0.7202319,-8.545912 -5.503095 0.2676581,-8.574265 -4.229817 0.4177486,-8.582948 -3.469022 0.6290163,-8.60255 -2.818109 0.779677,-8.873968 -5.672052 0.34185,-8.93818 -4.509693 0.4964901,-8.942227 -3.810335 0.67821,-8.935202 -3.20882 0.7921315,-9.186514 -6.04146 0.4499795,-9.336681 -5.212759 0.6270416,-9.391962 -4.660174 0.7603724,-9.415562 -4.110631 0.8362178,6.010,7  0
-2.040712 -8.072029 0.002871482,-2.575297 -7.755504 0.3932518,-3.001115 -7.107097 0.6001708,-3.251692 -6.451656 0.8043503,-3.4631 -5.892711 1.022516,-2.632342 -5.533126 0.1636604,-2.764229 -4.532201 0.3096031,-2.817893 -3.930676 0.4290645,-2.844581 -3.376752 0.547903,-2.298281 -5.364328 0.1503132,-2.370989 -4.228673 0.2666407,-2.370989 -4.228673 0.2666407,-2.437615 -2.929194 0.5871997,-1.988296 -5.420043 0.2220202,-1.97991 -4.340787 0.336367,-2.015639 -3.661845 0.5094838,-2.055414 -3.038389 0.680842,-1.672081 -5.681402 0.3384051,-1.538598 -4.846935 0.4683287,-1.477421 -4.293952 0.6315277,-1.432422 -3.761942 0.7879584,-8.659676 -8.369858 -0.04051595,-8.073554 -7.872824 0.2537989,-7.679645 -7.090002 0.4806325,-7.448852 -6.315578 0.734684,-7.189508 -5.79512 0.9968675,-8.174765 -5.604599 0.1807042,-8.139759 -4.503925 0.3637444,-8.137624 -3.840976 0.5522618,-8.146871 -3.259314 0.6769962,-8.535378 -5.514199 0.2298859,-8.570414 -4.240887 0.3750386,-8.576107 -3.476942 0.587517,-8.58812 -2.815538 0.740842,-8.860093 -5.676198 0.3128161,-8.926723 -4.502968 0.4713292,-8.928701 -3.802001 0.6555468,-8.91428 -3.192701 0.7720514,-9.171411 -6.034803 0.4301124,-9.330983 -5.208443 0.6107883,-9.397421 -4.654975 0.7424303,-9.431108 -4.093915 0.8156858,6.110,7  0
-2.043082 -8.070082 -0.02654888,-2.586189 -7.751534 0.3279909,-3.013519 -7.097988 0.5115843,-3.258971 -6.430171 0.696209,-3.462397 -5.869504 0.8914312,-2.638452 -5.537279 0.08530025,-2.768819 -4.53796 0.2201223,-2.822479 -3.945481 0.3312028,-2.85149 -3.392043 0.4449604,-2.305002 -5.36967 0.08811293,-2.374593 -4.235198 0.20217,-2.374593 -4.235198 0.20217,-2.437159 -2.937536 0.5127366,-1.994967 -5.423592 0.1740928,-1.98382 -4.34723 0.2905787,-2.015648 -3.668943 0.4561953,-2.05307 -3.045547 0.6195787,-1.678901 -5.681226 0.3038275,-1.543243 -4.847482 0.4362394,-1.48096 -4.296676 0.5943723,-1.434659 -3.767559 0.7427599,-8.649663 -8.378811 -0.03432156,-8.069185 -7.868635 0.2572509,-7.670964 -7.091588 0.4831949,-7.435175 -6.324225 0.7407568,-7.174196 -5.801561 1.005735,-8.17766 -5.611345 0.186194,-8.142529 -4.517091 0.3832072,-8.138802 -3.855167 0.5769044,-8.148392 -3.274846 0.7054386,-8.535839 -5.521278 0.2397261,-8.564714 -4.255075 0.3985337,-8.573418 -3.494316 0.6185213,-8.592024 -2.830668 0.7798762,-8.856788 -5.681596 0.3258165,-8.918158 -4.51838 0.4908492,-8.92469 -3.819152 0.680578,-8.920475 -3.209737 0.8062314,-9.165963 -6.042514 0.4462674,-9.31265 -5.209926 0.6236296,-9.373191 -4.657186 0.7607016,-9.406069 -4.100205 0.8465707,6.210,7  0
-2.060262 -8.061302 -0.03154168,-2.595686 -7.73909 0.3232196,-3.019043 -7.078742 0.5054849,-3.265772 -6.417038 0.6901142,-3.478128 -5.864908 0.8894082,-2.644502 -5.528961 0.0849508,-2.775655 -4.526457 0.2261943,-2.826795 -3.932388 0.3411699,-2.851519 -3.373468 0.455559,-2.313651 -5.361772 0.08915645,-2.381936 -4.225967 0.2051887,-2.381936 -4.225967 0.2051887,-2.442899 -2.923386 0.5213512,-2.004377 -5.41732 0.1779024,-1.990722 -4.339288 0.2956404,-2.02435 -3.65889 0.4653979,-2.061095 -3.033931 0.6330409,-1.689209 -5.678892 0.309662,-1.550934 -4.845293 0.4456652,-1.490439 -4.289506 0.6104861,-1.447682 -3.756705 0.7664444,-8.648349 -8.37105 -0.0383638,-8.071784 -7.869897 0.2549421,-7.674176 -7.09522 0.4821718,-7.436872 -6.333152 0.7427506,-7.180344 -5.824769 1.012465,-8.17548 -5.609876 0.181082,-8.136011 -4.516951 0.3669706,-8.132166 -3.85543 0.5547299,-8.141333 -3.273379 0.6789383,-8.533863 -5.51431 0.2315603,-8.559699 -4.246953 0.3850238,-8.567237 -3.476285 0.601974,-8.584864 -2.809525 0.756248,-8.854141 -5.66925 0.3138397,-8.914625 -4.509315 0.4730992,-8.917622 -3.799024 0.6588442,-8.909666 -3.188004 0.7780801,-9.160902 -6.020641 0.4327938,-9.310648 -5.188929 0.608228,-9.369168 -4.638769 0.7397503,-9.398402 -4.095758 0.8152331,6.310,7  0
-2.046943 -8.060295 -0.02896193,-2.589122 -7.740093 0.3604707,-3.009584 -7.094364 0.5659999,-3.252583 -6.427082 0.7704595,-3.462752 -5.855806 0.9860891,-2.643637 -5.529161 0.1206096,-2.775612 -4.525876 0.2610575,-2.827859 -3.929913 0.3828487,-2.855233 -3.375448 0.5048492,-2.309311 -5.361713 0.1093678,-2.384094 -4.223485 0.223267,-2.384094 -4.223485 0.223267,-2.453215 -2.92236 0.5494337,-1.999184 -5.420566 0.1843134,-1.988272 -4.343695 0.3035136,-2.02469 -3.668417 0.476781,-2.066412 -3.039894 0.6475283,-1.683094 -5.682786 0.3044589,-1.550149 -4.845634 0.4395901,-1.489165 -4.2964 0.6036016,-1.44536 -3.763678 0.7621368,-8.657694 -8.368839 0.002185288,-8.071693 -7.869468 0.3025384,-7.673122 -7.090249 0.5317593,-7.438648 -6.32385 0.7884325,-7.179861 -5.814838 1.051265,-8.174092 -5.595106 0.2395032,-8.130499 -4.502922 0.4259268,-8.124984 -3.84712 0.6120324,-8.135014 -3.278499 0.7337748,-8.536101 -5.501867 0.2835818,-8.562846 -4.234478 0.4289085,-8.570101 -3.469289 0.6379193,-8.586425 -2.809325 0.7927393,-8.860897 -5.663981 0.3605779,-8.9252 -4.506107 0.5158327,-8.928885 -3.804026 0.6974198,-8.917974 -3.196849 0.8165487,-9.169998 -6.027339 0.4737383,-9.320574 -5.217245 0.6492472,-9.38082 -4.672979 0.7788207,-9.406768 -4.125631 0.8618371,6.410,7  0
-2.069611 -8.068373 0.0003127643,-2.610565 -7.728672 0.3629578,-3.025572 -7.055883 0.5497199,-3.265128 -6.377836 0.7415036,-3.473151 -5.808209 0.9488784,-2.645821 -5.517005 0.1199994,-2.770853 -4.517588 0.2589679,-2.824967 -3.920015 0.3797123,-2.854706 -3.35903 0.5021455,-2.313972 -5.358877 0.1213728,-2.37357 -4.22735 0.2421685,-2.37357 -4.22735 0.2421685,-2.440332 -2.918487 0.5637367,-2.006835 -5.421573 0.2090983,-1.983838 -4.346992 0.3271901,-2.02306 -3.665534 0.5031017,-2.062973 -3.038225 0.6748711,-1.695301 -5.689471 0.3394667,-1.552678 -4.859134 0.47777,-1.492912 -4.298099 0.6484438,-1.446514 -3.757001 0.808123,-8.650395 -8.374846 -0.05257,-8.063357 -7.873127 0.2467969,-7.669242 -7.100523 0.4733099,-7.43978 -6.335634 0.7285237,-7.183904 -5.822702 0.9901562,-8.176121 -5.610422 0.1642869,-8.131112 -4.518945 0.3538857,-8.121563 -3.863195 0.5426593,-8.128595 -3.288206 0.6632985,-8.538646 -5.521406 0.2102804,-8.567163 -4.250594 0.3600558,-8.571389 -3.494409 0.5762116,-8.589156 -2.835967 0.727595,-8.862947 -5.686472 0.2910535,-8.927321 -4.522689 0.4484336,-8.926598 -3.828063 0.6356145,-8.91585 -3.222995 0.754685,-9.172073 -6.046975 0.4079899,-9.324165 -5.226051 0.5820885,-9.379495 -4.674021 0.7191597,-9.40472 -4.117155 0.8001881,6.510,7  0
-2.050246 -8.059067 -0.03510309,-2.587821 -7.729486 0.3197192,-3.010386 -7.068977 0.5103239,-3.263234 -6.411401 0.7065138,-3.47903 -5.864997 0.9229978,-2.637208 -5.520727 0.06907409,-2.766857 -4.517188 0.2100845,-2.818989 -3.922276 0.3348353,-2.84452 -3.368621 0.4568893,-2.308003 -5.360675 0.07946424,-2.376038 -4.227306 0.1975392,-2.376038 -4.227306 0.1975392,-2.441087 -2.920591 0.521715,-2.000872 -5.421756 0.1759785,-1.987022 -4.344115 0.2975965,-2.022835 -3.668191 0.4710216,-2.059636 -3.041124 0.6425316,-1.687407 -5.68494 0.3161703,-1.553315 -4.847084 0.4498732,-1.494623 -4.289401 0.6131918,-1.449452 -3.746931 0.7697335,-8.658792 -8.362442 -0.05903329,-8.074675 -7.861367 0.2327994,-7.672882 -7.094684 0.4539889,-7.434174 -6.328885 0.7056146,-7.18427 -5.815914 0.9629602,-8.175545 -5.606382 0.1578718,-8.136626 -4.513511 0.3414122,-8.129218 -3.862007 0.5258225,-8.134481 -3.29067 0.6470699,-8.534941 -5.511594 0.2063772,-8.563912 -4.241334 0.3533988,-8.570251 -3.479145 0.5635424,-8.584842 -2.812583 0.719576,-8.857394 -5.671253 0.2876809,-8.920027 -4.508844 0.4449157,-8.923098 -3.809455 0.6269079,-8.91033 -3.196338 0.748543,-9.164191 -6.031524 0.4035111,-9.315281 -5.213479 0.5785124,-9.377613 -4.665733 0.7108854,-9.405223 -4.106271 0.7947532,6.610,7  0
-2.063869 -8.069122 -0.001264646,-2.597981 -7.741981 0.3562234,-3.019735 -7.057339 0.5356637,-3.263402 -6.378092 0.7207022,-3.473339 -5.824172 0.917805,-2.637462 -5.524011 0.1143415,-2.765105 -4.529932 0.2565033,-2.82124 -3.934687 0.3735665,-2.849955 -3.375786 0.4894185,-2.310148 -5.360288 0.1201741,-2.378061 -4.232229 0.246941,-2.378061 -4.232229 0.246941,-2.447464 -2.920585 0.5674344,-2.005337 -5.422432 0.2122183,-1.99072 -4.347932 0.341245,-2.027007 -3.6668 0.5180322,-2.063152 -3.038106 0.6889703,-1.693934 -5.692354 0.346135,-1.555346 -4.865787 0.4899215,-1.492101 -4.306499 0.6635292,-1.441956 -3.766558 0.8254899,-8.642987 -8.3855 -0.01875145,-8.061034 -7.881431 0.259091,-7.669188 -7.099361 0.4781407,-7.440971 -6.325988 0.7317528,-7.182384 -5.803812 0.9938538,-8.177415 -5.608525 0.1727279,-8.139319 -4.525618 0.3583951,-8.130751 -3.865719 0.5479842,-8.134976 -3.289229 0.6693695,-8.536181 -5.521 0.2312674,-8.567546 -4.254994 0.3773647,-8.57275 -3.489423 0.5904529,-8.588019 -2.825568 0.738273,-8.857549 -5.687463 0.3251693,-8.923254 -4.523019 0.4820165,-8.925498 -3.818697 0.6665702,-8.916126 -3.2088 0.7836526,-9.16318 -6.052021 0.4521545,-9.321867 -5.224655 0.6258059,-9.385741 -4.664594 0.7615221,-9.420906 -4.101219 0.8390196,6.710,7  0
-2.054295 -8.085546 0.01713631,-2.591237 -7.750783 0.3730955,-3.006081 -7.090007 0.5597776,-3.24442 -6.419699 0.75126,-3.462576 -5.859636 0.960416,-2.633664 -5.532651 0.1331908,-2.768638 -4.541925 0.2746226,-2.827203 -3.950535 0.3960035,-2.85886 -3.393659 0.5139614,-2.30453 -5.371879 0.1410254,-2.376582 -4.248374 0.2577797,-2.376582 -4.248374 0.2577797,-2.446405 -2.94894 0.5756704,-1.997545 -5.435671 0.234546,-1.985764 -4.363793 0.3545991,-2.022132 -3.685322 0.5279034,-2.058608 -3.058928 0.6975271,-1.683258 -5.704353 0.3708185,-1.550397 -4.87185 0.5015917,-1.488792 -4.313381 0.6624234,-1.439191 -3.772678 0.8181967,-8.664515 -8.378183 -0.03015558,-8.077074 -7.867195 0.2617719,-7.677631 -7.091834 0.4864029,-7.445039 -6.326339 0.741545,-7.187764 -5.805032 1.001425,-8.174312 -5.620285 0.1994318,-8.132367 -4.528669 0.3918955,-8.126409 -3.880191 0.5829414,-8.136287 -3.303301 0.7097334,-8.533096 -5.521224 0.2544454,-8.562403 -4.250649 0.4139351,-8.56908 -3.487577 0.6329175,-8.585161 -2.822156 0.7917708,-8.855896 -5.675779 0.3427224,-8.918223 -4.505813 0.5128132,-8.919216 -3.800809 0.7018443,-8.907336 -3.186351 0.8275223,-9.166294 -6.029188 0.464754,-9.314511 -5.200746 0.6497842,-9.374606 -4.652833 0.7855223,-9.404426 -4.098678 0.8682941,6.810,7  0
-2.050804 -8.091108 0.02424221,-2.589504 -7.768854 0.3791655,-3.007993 -7.106876 0.5566888,-3.249244 -6.454069 0.7397659,-3.459132 -5.920032 0.9377758,-2.631729 -5.535305 0.122271,-2.75531 -4.543971 0.2558469,-2.808711 -3.948272 0.3682506,-2.836403 -3.393774 0.4817723,-2.302377 -5.374725 0.1288868,-2.361934 -4.247982 0.2414395,-2.361934 -4.247982 0.2414395,-2.429734 -2.949859 0.5468422,-1.995144 -5.438095 0.2243606,-1.977043 -4.364503 0.3389039,-2.01201 -3.687457 0.5085135,-2.04801 -3.06752 0.6742991,-1.681569 -5.710759 0.3636294,-1.544707 -4.880025 0.4975909,-1.484615 -4.320877 0.6635219,-1.438827 -3.785398 0.818545,-8.671511 -8.373177 -0.03656721,-8.080914 -7.883367 0.2670973,-7.679721 -7.104932 0.4884854,-7.444711 -6.338612 0.7378292,-7.194968 -5.8192 0.9915534,-8.1826 -5.620752 0.1874893,-8.135777 -4.529575 0.3736385,-8.130445 -3.882234 0.5622399,-8.140031 -3.310124 0.6919774,-8.542947 -5.516496 0.2330946,-8.571599 -4.245546 0.3842569,-8.577724 -3.479782 0.6036634,-8.59374 -2.811277 0.7683293,-8.865585 -5.664722 0.3121159,-8.925578 -4.503107 0.4778038,-8.92602 -3.798267 0.6649098,-8.913087 -3.183635 0.7910988,-9.174839 -6.011268 0.4274816,-9.323313 -5.191926 0.6145211,-9.383694 -4.642882 0.7471258,-9.411475 -4.08764 0.830932,6.910,7  0
-2.053263 -8.094757 0.008392361,-2.583673 -7.761039 0.376606,-3.005573 -7.096029 0.5680584,-3.246356 -6.421386 0.7602152,-3.443199 -5.844974 0.964093,-2.625781 -5.550925 0.1402407,-2.759876 -4.555355 0.2835438,-2.818167 -3.959761 0.4055321,-2.850425 -3.40386 0.5255266,-2.296005 -5.383296 0.1403385,-2.367373 -4.251939 0.2592842,-2.367373 -4.251939 0.2592842,-2.43672 -2.94155 0.5714486,-1.991218 -5.44137 0.2258511,-1.978641 -4.36792 0.3489802,-2.012378 -3.682331 0.5174876,-2.048887 -3.05498 0.6829973,-1.679781 -5.704818 0.3570542,-1.548775 -4.874132 0.4905952,-1.486648 -4.315635 0.6515048,-1.438375 -3.782407 0.8061095,-8.661848 -8.379095 -0.05389699,-8.069752 -7.884162 0.2297689,-7.674942 -7.106466 0.4470335,-7.441672 -6.338125 0.6956026,-7.189101 -5.818074 0.9541031,-8.175829 -5.619051 0.141024,-8.13413 -4.518296 0.31228,-8.126287 -3.854511 0.4953011,-8.132413 -3.27299 0.6171755,-8.537191 -5.524941 0.1904977,-8.564377 -4.254138 0.3268228,-8.567165 -3.490796 0.5355904,-8.579942 -2.829991 0.6818172,-8.86105 -5.681087 0.271714,-8.923819 -4.513772 0.4229376,-8.921963 -3.810914 0.6039521,-8.908201 -3.201481 0.7151849,-9.170184 -6.03255 0.3884613,-9.328423 -5.201429 0.5635695,-9.387979 -4.644128 0.6940315,-9.414605 -4.084981 0.7662449,7.010,7  0
-2.0448 -8.105507 -0.002019506,-2.580871 -7.777901 0.338973,-2.999776 -7.108725 0.5099797,-3.235813 -6.439983 0.6897267,-3.44272 -5.874671 0.8829302,-2.622135 -5.559275 0.09183261,-2.758154 -4.561994 0.2320718,-2.815294 -3.964365 0.3474799,-2.84215 -3.404388 0.460795,-2.294563 -5.396626 0.1058064,-2.364451 -4.2658 0.2235843,-2.364451 -4.2658 0.2235843,-2.427521 -2.954207 0.5273481,-1.987035 -5.454637 0.204683,-1.974561 -4.378026 0.3225973,-2.00819 -3.69313 0.4916089,-2.040284 -3.06409 0.6576271,-1.671413 -5.717985 0.3463126,-1.538544 -4.882871 0.4818693,-1.478683 -4.323507 0.6488051,-1.431716 -3.789102 0.8050629,-8.684395 -8.392389 -0.05378858,-8.087077 -7.886358 0.231579,-7.679454 -7.111785 0.4456108,-7.438749 -6.342292 0.6877582,-7.189189 -5.82796 0.937671,-8.185949 -5.638811 0.1609972,-8.140293 -4.543257 0.3459822,-8.13344 -3.883141 0.5378588,-8.139302 -3.308605 0.6661558,-8.547762 -5.540336 0.2081772,-8.570895 -4.270545 0.3526572,-8.575072 -3.507169 0.5703535,-8.588269 -2.843915 0.7350481,-8.87361 -5.692894 0.2844358,-8.927385 -4.533709 0.4340132,-8.926139 -3.831534 0.6168627,-8.913746 -3.226694 0.7422582,-9.183857 -6.04542 0.3955646,-9.332084 -5.230823 0.561211,-9.393733 -4.676286 0.6917123,-9.424944 -4.119066 0.7828708,7.110,7  0
-2.039984 -8.085762 -0.04516191,-2.571473 -7.745955 0.3270732,-2.988457 -7.076236 0.5239725,-3.223395 -6.398998 0.7212436,-3.430432 -5.824695 0.9356923,-2.619869 -5.55635 0.1102487,-2.751004 -4.560466 0.2597767,-2.808642 -3.966289 0.3833144,-2.838796 -3.404494 0.5072205,-2.291154 -5.391735 0.1102145,-2.359757 -4.261644 0.2436353,-2.359757 -4.261644 0.2436353,-2.416099 -2.942307 0.571112,-1.984644 -5.450481 0.1943369,-1.972499 -4.376423 0.3296087,-2.003775 -3.689304 0.5112667,-2.037303 -3.058794 0.6903056,-1.669682 -5.711391 0.3216153,-1.541748 -4.877912 0.4654685,-1.47711 -4.321426 0.6375208,-1.424235 -3.785856 0.8023781,-8.661911 -8.397089 0.03254741,-8.068814 -7.885557 0.2982551,-7.670166 -7.095172 0.5115323,-7.439647 -6.325963 0.7612936,-7.188574 -5.814686 1.023281,-8.172783 -5.616518 0.2241718,-8.133737 -4.530043 0.4010735,-8.128833 -3.880893 0.5904629,-8.137527 -3.310533 0.7181494,-8.532515 -5.519346 0.2884301,-8.565093 -4.260821 0.4243085,-8.570848 -3.493729 0.6306857,-8.582452 -2.829822 0.7845027,-8.858213 -5.675289 0.3846806,-8.922102 -4.52264 0.5327153,-8.924608 -3.822757 0.7055069,-8.911534 -3.218744 0.8182063,-9.170617 -6.032478 0.5151056,-9.323926 -5.213494 0.6847267,-9.389509 -4.664062 0.8063602,-9.421679 -4.113578 0.8808948,7.210,7  0
-2.047952 -8.087975 -0.02238592,-2.58073 -7.751815 0.3253157,-2.986962 -7.065237 0.4975832,-3.218574 -6.383804 0.6757077,-3.430712 -5.828295 0.8698328,-2.619683 -5.546585 0.08176169,-2.749828 -4.54586 0.2238502,-2.809577 -3.944194 0.3465266,-2.84316 -3.381746 0.4689319,-2.293334 -5.384717 0.089798,-2.357894 -4.254591 0.2172303,-2.357894 -4.254591 0.2172303,-2.42262 -2.94861 0.5397971,-1.987389 -5.442524 0.1836381,-1.970719 -4.369572 0.315643,-2.000238 -3.687013 0.4941438,-2.031168 -3.054172 0.6691441,-1.675361 -5.7061 0.3195248,-1.543201 -4.88363 0.4662838,-1.479171 -4.332127 0.6389316,-1.427008 -3.797531 0.802414,-8.64957 -8.401403 0.01123208,-8.063627 -7.900661 0.3034358,-7.674878 -7.10629 0.525817,-7.449754 -6.333288 0.7794904,-7.192875 -5.818255 1.045669,-8.177176 -5.619993 0.2373725,-8.134123 -4.53021 0.4304647,-8.127632 -3.872697 0.6230894,-8.140099 -3.291627 0.7489964,-8.539488 -5.531104 0.2902448,-8.566613 -4.263052 0.4444028,-8.570626 -3.506124 0.6635708,-8.587538 -2.850349 0.8164907,-8.863144 -5.696875 0.378411,-8.928171 -4.531179 0.5401282,-8.932959 -3.830768 0.7302678,-8.928505 -3.22224 0.8506564,-9.173053 -6.06312 0.4992072,-9.322109 -5.228065 0.68164,-9.381698 -4.671329 0.8179592,-9.412049 -4.112953 0.8971235,7.310,7  0
-2.044196 -8.082569 0.01366365,-2.577981 -7.7611 0.3911298,-2.997767 -7.083688 0.5797012,-3.231965 -6.407693 0.7653932,-3.434542 -5.840116 0.9605516,-2.618915 -5.542011 0.1673592,-2.749954 -4.548187 0.3116263,-2.807065 -3.954083 0.4228699,-2.835966 -3.403398 0.5313269,-2.28933 -5.370408 0.1565739,-2.36157 -4.246026 0.2819542,-2.36157 -4.246026 0.2819542,-2.431978 -2.946452 0.5846871,-1.982811 -5.423654 0.2328454,-1.975731 -4.356415 0.3543744,-2.008368 -3.679831 0.5305386,-2.044182 -3.059072 0.7018567,-1.670148 -5.682674 0.3528464,-1.536058 -4.85629 0.4930213,-1.470711 -4.303701 0.6698957,-1.422391 -3.77344 0.8351713,-8.647025 -8.402464 0.02376905,-8.064272 -7.907451 0.2963307,-7.673632 -7.101194 0.5098177,-7.448531 -6.331112 0.7576522,-7.189992 -5.823471 1.016251,-8.174358 -5.607012 0.2175323,-8.139491 -4.51869 0.3959078,-8.135852 -3.86199 0.5818647,-8.146639 -3.283308 0.7062694,-8.537912 -5.525651 0.2713976,-8.567945 -4.251516 0.4112424,-8.571529 -3.492627 0.6203248,-8.581388 -2.84159 0.7685632,-8.86173 -5.695501 0.3577667,-8.93014 -4.514685 0.5078026,-8.937872 -3.805746 0.6906387,-8.931089 -3.196298 0.8085068,-9.169282 -6.067073 0.4752305,-9.320676 -5.235634 0.6398307,-9.379308 -4.684906 0.7662861,-9.406597 -4.14776 0.8390339,7.410,7  0
-2.031314 -8.082865 -0.0443207,-2.56822 -7.753072 0.291101,-2.988864 -7.076243 0.4580138,-3.228458 -6.399198 0.6329781,-3.430159 -5.832922 0.822597,-2.614563 -5.55179 0.05547052,-2.748004 -4.54643 0.1874619,-2.805996 -3.942254 0.2956012,-2.833674 -3.383649 0.4053675,-2.2877 -5.386785 0.06374523,-2.360821 -4.249616 0.1757953,-2.360821 -4.249616 0.1757953,-2.425065 -2.931681 0.4768624,-1.982409 -5.441148 0.154189,-1.974386 -4.361782 0.2699879,-2.005601 -3.675916 0.4389924,-2.037044 -3.049931 0.6059506,-1.670336 -5.698162 0.2875887,-1.540527 -4.870427 0.4247588,-1.479293 -4.31348 0.5970687,-1.431307 -3.781017 0.757951,-8.653303 -8.397839 0.02635028,-8.074573 -7.891168 0.3181864,-7.675526 -7.101884 0.5506002,-7.44136 -6.335807 0.8151582,-7.179912 -5.820467 1.086004,-8.178963 -5.61335 0.2642442,-8.142638 -4.519854 0.457808,-8.139053 -3.867981 0.6494369,-8.148923 -3.293671 0.7775654,-8.538964 -5.525087 0.3227349,-8.570491 -4.249195 0.4851119,-8.57966 -3.484901 0.7024678,-8.596328 -2.821363 0.861877,-8.861501 -5.688911 0.4145138,-8.925527 -4.520565 0.5864856,-8.929307 -3.814099 0.7767302,-8.919147 -3.199029 0.9015821,-9.171256 -6.055337 0.5399162,-9.323161 -5.221282 0.7266755,-9.389646 -4.66715 0.863773,-9.426382 -4.105411 0.9490709,7.510,7  0
-2.033406 -8.079845 -0.04970188,-2.56795 -7.762771 0.3174478,-2.976225 -7.115453 0.5097781,-3.208243 -6.458316 0.7067611,-3.425191 -5.911895 0.9292153,-2.618445 -5.55119 0.08207779,-2.752327 -4.544782 0.2213127,-2.80905 -3.945322 0.3409211,-2.8373 -3.387527 0.461825,-2.290189 -5.386329 0.08038507,-2.357748 -4.245985 0.1957762,-2.357748 -4.245985 0.1957762,-2.419871 -2.947317 0.5158623,-1.982172 -5.443983 0.16457,-1.971101 -4.368803 0.2807857,-2.006177 -3.697002 0.4590244,-2.042092 -3.069025 0.6332473,-1.668224 -5.706239 0.2902104,-1.530694 -4.878791 0.4286683,-1.464646 -4.329471 0.5996768,-1.41164 -3.792989 0.7601093,-8.67033 -8.403526 -0.0008579961,-8.076002 -7.90523 0.2872586,-7.674112 -7.110534 0.501913,-7.444411 -6.331007 0.7452001,-7.191018 -5.808572 0.9939024,-8.180916 -5.629436 0.2228577,-8.139176 -4.534984 0.4155594,-8.133637 -3.87889 0.6071591,-8.143702 -3.302074 0.7337537,-8.542147 -5.536947 0.2728136,-8.57083 -4.274272 0.4218641,-8.575664 -3.519713 0.6374288,-8.593242 -2.860053 0.7963444,-8.865618 -5.698444 0.3566693,-8.92958 -4.545372 0.5149851,-8.934694 -3.856957 0.6981478,-8.932006 -3.257769 0.8160895,-9.174531 -6.05926 0.4712277,-9.320491 -5.237451 0.6495645,-9.379603 -4.690223 0.7781938,-9.412461 -4.139418 0.8578636,7.610,7  0
-2.037269 -8.098642 -0.04513116,-2.577008 -7.780756 0.2832699,-2.986033 -7.114925 0.4451592,-3.214468 -6.433759 0.6114044,-3.426334 -5.876865 0.7871666,-2.609713 -5.564812 0.05140916,-2.743396 -4.552949 0.1694624,-2.802279 -3.951829 0.2625302,-2.831375 -3.397573 0.3630726,-2.281711 -5.401337 0.05332055,-2.349448 -4.253357 0.1553257,-2.349448 -4.253357 0.1553257,-2.4111 -2.948485 0.4392371,-1.975186 -5.459034 0.1365041,-1.967958 -4.371439 0.2382017,-2.002069 -3.685067 0.3970993,-2.036229 -3.058616 0.5552458,-1.662527 -5.720502 0.2580873,-1.528339 -4.88112 0.382099,-1.464697 -4.325809 0.5430636,-1.414615 -3.79409 0.6943197,-8.64623 -8.398418 0.02124898,-8.067748 -7.896188 0.3034981,-7.675649 -7.091751 0.5296817,-7.450477 -6.327867 0.7880922,-7.190759 -5.81549 1.061573,-8.180232 -5.606538 0.2493762,-8.134871 -4.523445 0.4385911,-8.13002 -3.874675 0.6226425,-8.142173 -3.301533 0.74027,-8.542728 -5.525619 0.3066136,-8.56702 -4.26066 0.4603657,-8.574435 -3.508463 0.6692594,-8.592248 -2.86495 0.8167936,-8.864982 -5.700904 0.39856,-8.92766 -4.536042 0.5578798,-8.937341 -3.832772 0.7446635,-8.93458 -3.226261 0.8661863,-9.173046 -6.080388 0.5208416,-9.317349 -5.246759 0.7033847,-9.374496 -4.692767 0.8403507,-9.400848 -4.146938 0.921373,7.710,7  0
