TiagoOliveira98/Thesis-Project/Difficulty_2/Dual_Task/Unity_Project/DataLogging/JointData/Logs(1646505563)_a6_Dual.csv
WRIST,THUMB_CMC,THUMB_MCP,THUMB_IP,THUMB_TIP,INDEX_FINGER_MCP,INDEX_FINGER_PIP,INDEX_FINGER_DIP,INDEX_FINGER_TIP,MIDDLE_FINGER_MCP,MIDDLE_FINGER_PIP,MIDDLE_FINGER_DIP,MIDDLE_FINGER_TIP,RING_FINGER_MCP,RING_FINGER_PIP,RING_FINGER_DIP,RING_FINGER_TIP,PINKY_MCP,PINKY_PIP,PINKY_DIP,PINKY_TIP,WRIST2,THUMB_CMC2,THUMB_MCP2,THUMB_IP2,THUMB_TIP2,INDEX_FINGER_MCP2,INDEX_FINGER_PIP2,INDEX_FINGER_DIP2,INDEX_FINGER_TIP2,MIDDLE_FINGER_MCP2,MIDDLE_FINGER_PIP2,MIDDLE_FINGER_DIP2,MIDDLE_FINGER_TIP2,RING_FINGER_MCP2,RING_FINGER_PIP2,RING_FINGER_DIP2,RING_FINGER_TIP2,PINKY_MCP2,PINKY_PIP2,PINKY_DIP2,PINKY_TIP2,Timestamp,Event
-3.049006 -7.633464 0.0002800954,-3.579576 -7.628378 0.6335104,-4.056332 -7.231319 0.9425675,-4.435934 -6.84179 1.13303,-4.741667 -6.502103 1.359901,-3.662142 -5.889549 0.9094481,-3.833929 -4.986008 1.097614,-3.933006 -4.243674 1.2463,-4.018641 -3.593802 1.422219,-3.439837 -5.65143 0.6727452,-3.499723 -4.697634 0.8961433,-3.499723 -4.697634 0.8961433,-3.546969 -3.293125 1.221181,-3.240484 -5.542673 0.4554108,-3.303902 -4.698591 0.5943094,-3.326712 -4.011954 0.7824494,-3.334187 -3.413862 0.9578989,-3.075315 -5.553347 0.2705859,-3.153433 -4.887786 0.4113194,-3.190199 -4.360221 0.5116992,-3.196697 -3.836896 0.6030678,-8.567896 -7.862588 0.0004983064,-7.923962 -7.583766 0.1647806,-7.386059 -6.885033 0.2981611,-7.019759 -6.219316 0.5001138,-6.690529 -5.819717 0.7113407,-7.760756 -5.187852 -0.1017494,-7.60778 -4.094059 -0.03686119,-7.546539 -3.412487 0.101844,-7.495811 -2.824934 0.2245082,-8.105193 -4.960805 -0.01293899,-7.967713 -3.71899 -0.008665827,-7.87942 -2.905213 0.2018758,-7.809597 -2.217275 0.3931289,-8.445752 -4.976728 0.09942275,-8.355145 -3.805655 0.1282499,-8.276622 -3.061668 0.2720875,-8.196922 -2.459668 0.400724,-8.802406 -5.203043 0.2495314,-8.849828 -4.270666 0.342414,-8.840196 -3.672075 0.4551326,-8.800617 -3.122705 0.523589,0.010,51  Main Camera (Points)
-3.049006 -7.633464 0.0002800954,-3.579576 -7.628378 0.6335104,-4.056332 -7.231319 0.9425675,-4.435934 -6.84179 1.13303,-4.741667 -6.502103 1.359901,-3.662142 -5.889549 0.9094481,-3.833929 -4.986008 1.097614,-3.933006 -4.243674 1.2463,-4.018641 -3.593802 1.422219,-3.439837 -5.65143 0.6727452,-3.499723 -4.697634 0.8961433,-3.499723 -4.697634 0.8961433,-3.546969 -3.293125 1.221181,-3.240484 -5.542673 0.4554108,-3.303902 -4.698591 0.5943094,-3.326712 -4.011954 0.7824494,-3.334187 -3.413862 0.9578989,-3.075315 -5.553347 0.2705859,-3.153433 -4.887786 0.4113194,-3.190199 -4.360221 0.5116992,-3.196697 -3.836896 0.6030678,-8.568375 -7.849497 -0.06575837,-7.931197 -7.586946 0.06211501,-7.394186 -6.904609 0.1816497,-7.029877 -6.24517 0.3762446,-6.709465 -5.85072 0.5842658,-7.767349 -5.198213 -0.2154183,-7.613878 -4.115571 -0.1619139,-7.553827 -3.43937 -0.03009743,-7.506845 -2.863707 0.08644779,-8.109298 -4.966702 -0.1149797,-7.966145 -3.715431 -0.1236191,-7.871716 -2.902552 0.06738958,-7.801495 -2.219257 0.2464283,-8.449821 -4.97112 0.007470869,-8.35299 -3.788441 0.0229853,-8.266909 -3.049971 0.1490623,-8.178182 -2.451967 0.2684816,-8.808663 -5.185117 0.16468,-8.855117 -4.237773 0.2459521,-8.84209 -3.641003 0.3495904,-8.795977 -3.098296 0.4167411,0.110,51  Main Camera (Points)
-3.704478 -7.362359 -0.246588,-4.035856 -7.47205 0.5898684,-4.313345 -7.193196 1.061506,-4.59638 -6.911335 1.34505,-4.817701 -6.614204 1.587265,-4.048208 -5.89669 1.10494,-4.070029 -4.996753 1.510608,-4.083836 -4.295551 1.804456,-4.143988 -3.66472 2.061918,-3.922311 -5.571533 0.7456302,-3.850555 -4.670214 1.174652,-3.850555 -4.670214 1.174652,-3.767935 -3.426293 1.676158,-3.833393 -5.410074 0.4146091,-3.755184 -4.585859 0.6983482,-3.712866 -3.974575 0.9611462,-3.701219 -3.391566 1.171518,-3.787399 -5.373704 0.09152636,-3.704427 -4.733581 0.2845396,-3.650354 -4.286779 0.4487148,-3.617497 -3.808178 0.578057,-8.571839 -7.875885 -0.03709771,-7.929703 -7.589777 0.09690934,-7.40054 -6.90685 0.2335182,-7.036777 -6.249734 0.4442024,-6.709618 -5.855344 0.6729639,-7.773315 -5.213838 -0.144238,-7.621653 -4.120872 -0.07741751,-7.563232 -3.438487 0.06402868,-7.518072 -2.853103 0.1887689,-8.118377 -4.983478 -0.04058492,-7.978656 -3.730952 -0.0348751,-7.884665 -2.9167 0.1726655,-7.813663 -2.227602 0.3620213,-8.461233 -4.996469 0.08277084,-8.367959 -3.817141 0.1110529,-8.281151 -3.076184 0.2526795,-8.194715 -2.474222 0.3814514,-8.822538 -5.21798 0.238517,-8.873769 -4.268772 0.335833,-8.86091 -3.659347 0.4529559,-8.816903 -3.101374 0.5258771,0.210,51  Main Camera (Points)
-3.704478 -7.362359 -0.246588,-4.035856 -7.47205 0.5898684,-4.313345 -7.193196 1.061506,-4.59638 -6.911335 1.34505,-4.817701 -6.614204 1.587265,-4.048208 -5.89669 1.10494,-4.070029 -4.996753 1.510608,-4.083836 -4.295551 1.804456,-4.143988 -3.66472 2.061918,-3.922311 -5.571533 0.7456302,-3.850555 -4.670214 1.174652,-3.850555 -4.670214 1.174652,-3.767935 -3.426293 1.676158,-3.833393 -5.410074 0.4146091,-3.755184 -4.585859 0.6983482,-3.712866 -3.974575 0.9611462,-3.701219 -3.391566 1.171518,-3.787399 -5.373704 0.09152636,-3.704427 -4.733581 0.2845396,-3.650354 -4.286779 0.4487148,-3.617497 -3.808178 0.578057,-8.575076 -7.883296 -0.04087267,-7.945512 -7.606784 0.07175396,-7.41184 -6.907176 0.1972469,-7.054008 -6.257248 0.4002297,-6.738617 -5.860176 0.6247215,-7.788858 -5.21608 -0.1716756,-7.634286 -4.132617 -0.1070245,-7.57348 -3.453177 0.03450856,-7.522801 -2.87136 0.1576888,-8.128897 -4.990863 -0.05257802,-7.981551 -3.743221 -0.04211251,-7.884431 -2.92567 0.1641762,-7.809922 -2.230987 0.3537185,-8.467892 -5.002998 0.08835901,-8.367897 -3.829184 0.1254293,-8.280216 -3.084458 0.2671606,-8.189638 -2.477652 0.3981315,-8.827739 -5.224014 0.2590112,-8.876041 -4.277461 0.3583952,-8.862747 -3.676342 0.4706835,-8.81461 -3.123829 0.5405699,0.310,51  Main Camera (Points)
-3.030218 -7.744613 0.244069,-3.630253 -7.785665 0.7498559,-4.131966 -7.457946 1.009608,-4.540148 -7.078632 1.170569,-4.853293 -6.784862 1.361401,-3.892529 -5.975736 0.9968737,-4.044262 -5.119791 1.242087,-4.150462 -4.434352 1.449168,-4.260685 -3.794291 1.66771,-3.647877 -5.713804 0.8173216,-3.767336 -4.77996 1.048001,-3.767336 -4.77996 1.048001,-3.828289 -3.384035 1.356162,-3.405505 -5.5755 0.6732806,-3.507307 -4.698869 0.8506986,-3.558987 -4.011028 0.9839758,-3.570911 -3.407039 1.108643,-3.180951 -5.553018 0.5346432,-3.243049 -4.821952 0.7157225,-3.272478 -4.298494 0.796238,-3.255352 -3.762088 0.8286554,-8.585873 -7.876729 -0.04129519,-7.953817 -7.611631 0.09197682,-7.415287 -6.922469 0.2302157,-7.050151 -6.270966 0.444424,-6.726013 -5.869468 0.6803027,-7.788457 -5.215534 -0.1592587,-7.640195 -4.124979 -0.0866849,-7.582961 -3.440744 0.05956353,-7.537504 -2.857286 0.1852704,-8.130569 -4.985827 -0.04706197,-7.98839 -3.738534 -0.03651405,-7.893179 -2.921899 0.1677891,-7.820002 -2.228417 0.3586802,-8.473354 -4.998973 0.08920278,-8.377122 -3.821245 0.1238519,-8.292496 -3.079035 0.2658216,-8.207312 -2.473419 0.3985356,-8.837581 -5.223529 0.2580989,-8.882782 -4.276183 0.3595154,-8.870476 -3.67108 0.4757524,-8.827405 -3.115821 0.5526116,0.410,51  Main Camera (Points)
-2.986358 -7.65336 0.3308423,-3.540279 -7.704717 0.6796268,-4.061857 -7.3048 0.8868235,-4.452671 -6.900747 1.050107,-4.78261 -6.646841 1.223361,-3.665161 -5.751304 0.8861324,-3.885421 -4.866022 1.13103,-4.028617 -4.226345 1.326239,-4.150854 -3.646883 1.522577,-3.36729 -5.5348 0.888545,-3.521854 -4.487997 1.215356,-3.521854 -4.487997 1.215356,-3.667761 -3.078614 1.5543,-3.06175 -5.547261 0.9178019,-3.153228 -4.556186 1.214588,-3.201075 -3.877807 1.357428,-3.246758 -3.210039 1.453862,-2.763224 -5.76164 0.9605982,-2.780677 -5.05292 1.275482,-2.771114 -4.552844 1.423322,-2.739312 -4.028781 1.488132,-8.61133 -7.888861 -0.0149543,-7.967334 -7.616273 0.1463474,-7.430086 -6.925155 0.2881115,-7.058737 -6.268107 0.5031723,-6.727318 -5.856 0.7313012,-7.79479 -5.228954 -0.1195359,-7.636662 -4.13252 -0.0413159,-7.58147 -3.442241 0.1097398,-7.541688 -2.849294 0.2390561,-8.138606 -4.993158 -0.02521121,-7.996758 -3.747788 -0.01873126,-7.906746 -2.929543 0.1857086,-7.838606 -2.239 0.3711197,-8.482044 -4.999862 0.09562363,-8.388138 -3.820508 0.1251311,-8.305527 -3.074063 0.266526,-8.223514 -2.47218 0.3947254,-8.844347 -5.217744 0.2547,-8.882273 -4.272808 0.3504033,-8.86507 -3.663933 0.4660102,-8.819562 -3.109414 0.5373346,0.510,51  Main Camera (Points)
-2.929558 -7.904191 1.189123,-3.48365 -7.771287 1.540322,-4.01009 -7.346881 1.737007,-4.428951 -6.906656 1.904383,-4.770921 -6.654702 2.104422,-3.627407 -5.737026 1.478704,-3.880099 -4.786529 1.68493,-4.006165 -4.18004 1.836971,-4.098623 -3.622462 1.975913,-3.307291 -5.482105 1.48267,-3.480587 -4.365068 1.684607,-3.480587 -4.365068 1.684607,-3.669682 -3.014955 2.032903,-2.979883 -5.455136 1.541891,-3.070574 -4.368263 1.747584,-3.16124 -3.676007 1.932044,-3.246265 -3.100158 2.08607,-2.628653 -5.639036 1.634058,-2.513783 -4.783927 1.826952,-2.461699 -4.211563 1.99634,-2.420388 -3.671052 2.144696,-8.624352 -7.88244 -0.0249876,-7.975609 -7.604974 0.1134219,-7.438984 -6.91087 0.2356614,-7.072917 -6.248879 0.4342563,-6.74367 -5.843015 0.6469256,-7.80722 -5.222293 -0.1609105,-7.650921 -4.12187 -0.09955801,-7.59517 -3.437784 0.04271878,-7.551373 -2.84359 0.1688618,-8.149576 -4.990115 -0.05781531,-8.008653 -3.734832 -0.0626602,-7.922439 -2.918924 0.1417144,-7.854188 -2.226224 0.3300261,-8.490525 -4.99611 0.0711033,-8.393527 -3.81109 0.09084926,-8.312164 -3.06353 0.2324665,-8.228979 -2.45621 0.3666309,-8.849787 -5.212215 0.2355804,-8.892385 -4.272519 0.3230762,-8.878906 -3.668127 0.438565,-8.834626 -3.119092 0.5124414,0.610,51  Main Camera (Points)
-2.889258 -7.945234 1.337949,-3.442469 -7.786909 1.7188,-3.961793 -7.31769 1.93978,-4.357554 -6.789876 2.130092,-4.67015 -6.443126 2.344601,-3.61377 -5.732055 1.659135,-3.875231 -4.746504 1.862178,-4.001524 -4.136882 2.007682,-4.091268 -3.571595 2.139978,-3.299068 -5.486818 1.646407,-3.490639 -4.335231 1.84747,-3.490639 -4.335231 1.84747,-3.667622 -2.975373 2.176755,-2.979077 -5.462368 1.697539,-3.085545 -4.350515 1.886467,-3.17334 -3.640524 2.073862,-3.255613 -3.035097 2.222389,-2.634777 -5.644748 1.784891,-2.545235 -4.779703 1.947689,-2.502549 -4.202417 2.114208,-2.467808 -3.655476 2.258924,-8.646603 -7.894737 -0.03065816,-8.001612 -7.607427 0.1100044,-7.465787 -6.911268 0.2355291,-7.100367 -6.242947 0.4334205,-6.775805 -5.832593 0.64517,-7.833672 -5.235147 -0.142042,-7.673699 -4.143734 -0.07809307,-7.615408 -3.462065 0.06218257,-7.569224 -2.868175 0.1877636,-8.176154 -5.003231 -0.04429375,-8.034948 -3.74299 -0.04719988,-7.94322 -2.927286 0.1522376,-7.871051 -2.233425 0.3366927,-8.515841 -5.01184 0.07661843,-8.418534 -3.816086 0.1021162,-8.336843 -3.069249 0.2397772,-8.250044 -2.458507 0.3674783,-8.87227 -5.231584 0.228827,-8.915637 -4.283604 0.3243338,-8.904262 -3.680604 0.4374235,-8.859784 -3.130134 0.5095722,0.710,51  Main Camera (Points)
-2.889258 -7.945234 1.337949,-3.442469 -7.786909 1.7188,-3.961793 -7.31769 1.93978,-4.357554 -6.789876 2.130092,-4.67015 -6.443126 2.344601,-3.61377 -5.732055 1.659135,-3.875231 -4.746504 1.862178,-4.001524 -4.136882 2.007682,-4.091268 -3.571595 2.139978,-3.299068 -5.486818 1.646407,-3.490639 -4.335231 1.84747,-3.490639 -4.335231 1.84747,-3.667622 -2.975373 2.176755,-2.979077 -5.462368 1.697539,-3.085545 -4.350515 1.886467,-3.17334 -3.640524 2.073862,-3.255613 -3.035097 2.222389,-2.634777 -5.644748 1.784891,-2.545235 -4.779703 1.947689,-2.502549 -4.202417 2.114208,-2.467808 -3.655476 2.258924,-8.654582 -7.908298 0.09691064,-8.024775 -7.630029 0.1963032,-7.491978 -6.897431 0.3075435,-7.129704 -6.216116 0.5082206,-6.798625 -5.797028 0.7231383,-7.855275 -5.203357 -0.111205,-7.698948 -4.138385 -0.06904805,-7.640781 -3.461336 0.06255718,-7.596324 -2.881793 0.1841546,-8.195385 -4.979234 0.0130955,-8.053962 -3.738597 -0.009936921,-7.95748 -2.929364 0.1876019,-7.88356 -2.238686 0.3703558,-8.53519 -4.99617 0.162864,-8.44432 -3.809653 0.172131,-8.361302 -3.07814 0.3096428,-8.273756 -2.467758 0.4358543,-8.897197 -5.225452 0.3418536,-8.945497 -4.282196 0.4252778,-8.941364 -3.686161 0.5382323,-8.905046 -3.129591 0.6152587,0.810,51  Main Camera (Points)
-2.889258 -7.945234 1.337949,-3.442469 -7.786909 1.7188,-3.961793 -7.31769 1.93978,-4.357554 -6.789876 2.130092,-4.67015 -6.443126 2.344601,-3.61377 -5.732055 1.659135,-3.875231 -4.746504 1.862178,-4.001524 -4.136882 2.007682,-4.091268 -3.571595 2.139978,-3.299068 -5.486818 1.646407,-3.490639 -4.335231 1.84747,-3.490639 -4.335231 1.84747,-3.667622 -2.975373 2.176755,-2.979077 -5.462368 1.697539,-3.085545 -4.350515 1.886467,-3.17334 -3.640524 2.073862,-3.255613 -3.035097 2.222389,-2.634777 -5.644748 1.784891,-2.545235 -4.779703 1.947689,-2.502549 -4.202417 2.114208,-2.467808 -3.655476 2.258924,-8.70542 -7.936588 0.04554292,-8.067062 -7.651889 0.1431561,-7.539184 -6.940963 0.2447785,-7.182753 -6.265069 0.4342488,-6.865398 -5.852412 0.6352164,-7.897959 -5.247472 -0.1440214,-7.745762 -4.157384 -0.1091631,-7.6944 -3.477846 0.01886467,-7.655293 -2.884256 0.1374492,-8.244343 -5.022461 -0.02947991,-8.108906 -3.758065 -0.05960211,-8.018805 -2.93905 0.136613,-7.950554 -2.25372 0.3147727,-8.590007 -5.038738 0.1087228,-8.499376 -3.838826 0.1146407,-8.419111 -3.087028 0.2522376,-8.336276 -2.47931 0.378298,-8.952238 -5.265752 0.2760131,-8.991389 -4.304959 0.3591694,-8.982328 -3.689705 0.4723082,-8.9405 -3.132342 0.5441686,0.910,51  Main Camera (Points)
-2.889258 -7.945234 1.337949,-3.442469 -7.786909 1.7188,-3.961793 -7.31769 1.93978,-4.357554 -6.789876 2.130092,-4.67015 -6.443126 2.344601,-3.61377 -5.732055 1.659135,-3.875231 -4.746504 1.862178,-4.001524 -4.136882 2.007682,-4.091268 -3.571595 2.139978,-3.299068 -5.486818 1.646407,-3.490639 -4.335231 1.84747,-3.490639 -4.335231 1.84747,-3.667622 -2.975373 2.176755,-2.979077 -5.462368 1.697539,-3.085545 -4.350515 1.886467,-3.17334 -3.640524 2.073862,-3.255613 -3.035097 2.222389,-2.634777 -5.644748 1.784891,-2.545235 -4.779703 1.947689,-2.502549 -4.202417 2.114208,-2.467808 -3.655476 2.258924,-8.724474 -7.951108 0.01787367,-8.076001 -7.670846 0.1270885,-7.552305 -6.955051 0.2334838,-7.206163 -6.267164 0.4229531,-6.900846 -5.812007 0.6227778,-7.925343 -5.27654 -0.1678357,-7.765417 -4.185439 -0.1149492,-7.712391 -3.503403 0.02908394,-7.669737 -2.903162 0.1606705,-8.269821 -5.043908 -0.05684909,-8.123432 -3.781023 -0.07276939,-8.033298 -2.965392 0.1303664,-7.960783 -2.27563 0.3109757,-8.616094 -5.056207 0.08446192,-8.515985 -3.857066 0.1043793,-8.438194 -3.105964 0.2506601,-8.353091 -2.498468 0.383507,-8.983646 -5.280914 0.2541241,-9.0163 -4.320098 0.3522815,-9.005333 -3.700964 0.4712541,-8.954966 -3.140782 0.5434382,1.010,51  Main Camera (Points)
-2.889258 -7.945234 1.337949,-3.442469 -7.786909 1.7188,-3.961793 -7.31769 1.93978,-4.357554 -6.789876 2.130092,-4.67015 -6.443126 2.344601,-3.61377 -5.732055 1.659135,-3.875231 -4.746504 1.862178,-4.001524 -4.136882 2.007682,-4.091268 -3.571595 2.139978,-3.299068 -5.486818 1.646407,-3.490639 -4.335231 1.84747,-3.490639 -4.335231 1.84747,-3.667622 -2.975373 2.176755,-2.979077 -5.462368 1.697539,-3.085545 -4.350515 1.886467,-3.17334 -3.640524 2.073862,-3.255613 -3.035097 2.222389,-2.634777 -5.644748 1.784891,-2.545235 -4.779703 1.947689,-2.502549 -4.202417 2.114208,-2.467808 -3.655476 2.258924,-8.734615 -7.931226 -0.0832679,-8.082869 -7.656374 0.05256963,-7.55378 -6.94982 0.1615086,-7.206566 -6.263645 0.3436134,-6.905101 -5.819257 0.5347383,-7.931638 -5.274469 -0.2044964,-7.77622 -4.147177 -0.1349972,-7.719952 -3.46254 0.0115723,-7.669856 -2.861127 0.1455521,-8.278581 -5.052633 -0.1034303,-8.137671 -3.770277 -0.09739012,-8.052228 -2.953535 0.1084025,-7.979208 -2.260935 0.2944398,-8.625625 -5.072399 0.02690643,-8.518781 -3.854681 0.06835452,-8.440465 -3.095615 0.2325256,-8.357094 -2.47055 0.3795552,-8.994374 -5.302817 0.1838366,-9.024687 -4.349314 0.2953235,-9.018128 -3.730543 0.4268899,-8.974329 -3.163653 0.5137738,1.110,51  Main Camera (Points)
-2.889258 -7.945234 1.337949,-3.442469 -7.786909 1.7188,-3.961793 -7.31769 1.93978,-4.357554 -6.789876 2.130092,-4.67015 -6.443126 2.344601,-3.61377 -5.732055 1.659135,-3.875231 -4.746504 1.862178,-4.001524 -4.136882 2.007682,-4.091268 -3.571595 2.139978,-3.299068 -5.486818 1.646407,-3.490639 -4.335231 1.84747,-3.490639 -4.335231 1.84747,-3.667622 -2.975373 2.176755,-2.979077 -5.462368 1.697539,-3.085545 -4.350515 1.886467,-3.17334 -3.640524 2.073862,-3.255613 -3.035097 2.222389,-2.634777 -5.644748 1.784891,-2.545235 -4.779703 1.947689,-2.502549 -4.202417 2.114208,-2.467808 -3.655476 2.258924,-8.753731 -7.935148 -0.01951937,-8.108193 -7.649181 0.1149157,-7.586835 -6.940052 0.2394139,-7.242907 -6.254426 0.4425634,-6.928724 -5.799533 0.6512851,-7.953753 -5.260482 -0.10623,-7.795071 -4.142404 -0.01983058,-7.738588 -3.453846 0.1317814,-7.686891 -2.839376 0.2685001,-8.297716 -5.038202 0.01035853,-8.157431 -3.770767 0.03786773,-8.071213 -2.948829 0.2512434,-7.995687 -2.255044 0.4411822,-8.64377 -5.062288 0.1579284,-8.544909 -3.85948 0.2190126,-8.470459 -3.091804 0.3985554,-8.38903 -2.466885 0.555262,-9.011569 -5.304352 0.3322064,-9.050835 -4.35114 0.4602581,-9.048307 -3.725864 0.6031492,-9.007132 -3.158174 0.6954392,1.210,51  Main Camera (Points)
-2.889258 -7.945234 1.337949,-3.442469 -7.786909 1.7188,-3.961793 -7.31769 1.93978,-4.357554 -6.789876 2.130092,-4.67015 -6.443126 2.344601,-3.61377 -5.732055 1.659135,-3.875231 -4.746504 1.862178,-4.001524 -4.136882 2.007682,-4.091268 -3.571595 2.139978,-3.299068 -5.486818 1.646407,-3.490639 -4.335231 1.84747,-3.490639 -4.335231 1.84747,-3.667622 -2.975373 2.176755,-2.979077 -5.462368 1.697539,-3.085545 -4.350515 1.886467,-3.17334 -3.640524 2.073862,-3.255613 -3.035097 2.222389,-2.634777 -5.644748 1.784891,-2.545235 -4.779703 1.947689,-2.502549 -4.202417 2.114208,-2.467808 -3.655476 2.258924,-8.769728 -7.922933 -0.08541013,-8.127622 -7.639054 0.08761284,-7.610258 -6.942918 0.2263817,-7.263924 -6.276005 0.4344074,-6.951605 -5.840516 0.6485386,-7.979667 -5.262905 -0.1245981,-7.81806 -4.12141 -0.01905213,-7.759729 -3.424931 0.1453841,-7.707737 -2.812904 0.2868622,-8.325278 -5.043602 -0.02966937,-8.184123 -3.750811 0.02630472,-8.096918 -2.923031 0.2560758,-8.019838 -2.227784 0.4559312,-8.670064 -5.068272 0.0940102,-8.572471 -3.847125 0.1815016,-8.498784 -3.069263 0.3715017,-8.416817 -2.439331 0.5335158,-9.033461 -5.300359 0.2476697,-9.06442 -4.337263 0.3948979,-9.050892 -3.704677 0.5446483,-8.996598 -3.13622 0.6347205,1.310,51  Main Camera (Points)
-2.889258 -7.945234 1.337949,-3.442469 -7.786909 1.7188,-3.961793 -7.31769 1.93978,-4.357554 -6.789876 2.130092,-4.67015 -6.443126 2.344601,-3.61377 -5.732055 1.659135,-3.875231 -4.746504 1.862178,-4.001524 -4.136882 2.007682,-4.091268 -3.571595 2.139978,-3.299068 -5.486818 1.646407,-3.490639 -4.335231 1.84747,-3.490639 -4.335231 1.84747,-3.667622 -2.975373 2.176755,-2.979077 -5.462368 1.697539,-3.085545 -4.350515 1.886467,-3.17334 -3.640524 2.073862,-3.255613 -3.035097 2.222389,-2.634777 -5.644748 1.784891,-2.545235 -4.779703 1.947689,-2.502549 -4.202417 2.114208,-2.467808 -3.655476 2.258924,-8.781739 -7.946728 -0.04767489,-8.135468 -7.666234 0.09950106,-7.60931 -6.957149 0.2254664,-7.264656 -6.27482 0.4295952,-6.950748 -5.824523 0.6404385,-7.978717 -5.27926 -0.1164955,-7.818262 -4.143083 -0.01305848,-7.761253 -3.449431 0.1478733,-7.712282 -2.828646 0.2847436,-8.331036 -5.057275 -0.004282292,-8.184775 -3.780511 0.04111163,-8.100963 -2.949697 0.2670911,-8.029445 -2.252983 0.4647278,-8.683954 -5.086807 0.1385905,-8.576705 -3.871171 0.2169479,-8.500767 -3.085195 0.4107823,-8.41975 -2.449635 0.5794302,-9.058456 -5.331441 0.3075363,-9.085626 -4.361768 0.4482782,-9.074411 -3.720733 0.6069748,-9.025489 -3.135705 0.7155995,1.410,51  Main Camera (Points)
-2.889258 -7.945234 1.337949,-3.442469 -7.786909 1.7188,-3.961793 -7.31769 1.93978,-4.357554 -6.789876 2.130092,-4.67015 -6.443126 2.344601,-3.61377 -5.732055 1.659135,-3.875231 -4.746504 1.862178,-4.001524 -4.136882 2.007682,-4.091268 -3.571595 2.139978,-3.299068 -5.486818 1.646407,-3.490639 -4.335231 1.84747,-3.490639 -4.335231 1.84747,-3.667622 -2.975373 2.176755,-2.979077 -5.462368 1.697539,-3.085545 -4.350515 1.886467,-3.17334 -3.640524 2.073862,-3.255613 -3.035097 2.222389,-2.634777 -5.644748 1.784891,-2.545235 -4.779703 1.947689,-2.502549 -4.202417 2.114208,-2.467808 -3.655476 2.258924,-8.821045 -7.96931 -0.018017,-8.164657 -7.689371 0.1290823,-7.639007 -6.982597 0.2532052,-7.299604 -6.283342 0.4570252,-6.990096 -5.804268 0.6617646,-8.000967 -5.297689 -0.1195003,-7.840119 -4.162969 -0.04381358,-7.782183 -3.46692 0.1030777,-7.732435 -2.851193 0.2301932,-8.355752 -5.073269 -0.0244858,-8.204629 -3.810955 -0.007440726,-8.116457 -2.998923 0.202234,-8.043842 -2.33198 0.3828024,-8.711607 -5.092484 0.1007988,-8.60183 -3.879665 0.155937,-8.522052 -3.105201 0.3425059,-8.437752 -2.487257 0.5003515,-9.086122 -5.321276 0.2495373,-9.106569 -4.346926 0.376752,-9.086819 -3.69793 0.5256523,-9.028337 -3.113731 0.6223545,1.510,51  Main Camera (Points)
-2.889258 -7.945234 1.337949,-3.442469 -7.786909 1.7188,-3.961793 -7.31769 1.93978,-4.357554 -6.789876 2.130092,-4.67015 -6.443126 2.344601,-3.61377 -5.732055 1.659135,-3.875231 -4.746504 1.862178,-4.001524 -4.136882 2.007682,-4.091268 -3.571595 2.139978,-3.299068 -5.486818 1.646407,-3.490639 -4.335231 1.84747,-3.490639 -4.335231 1.84747,-3.667622 -2.975373 2.176755,-2.979077 -5.462368 1.697539,-3.085545 -4.350515 1.886467,-3.17334 -3.640524 2.073862,-3.255613 -3.035097 2.222389,-2.634777 -5.644748 1.784891,-2.545235 -4.779703 1.947689,-2.502549 -4.202417 2.114208,-2.467808 -3.655476 2.258924,-8.880879 -8.003702 -0.04696067,-8.19836 -7.688049 0.1154504,-7.667057 -6.973733 0.2580027,-7.330481 -6.270044 0.4749225,-7.029809 -5.742559 0.7141094,-8.069334 -5.321577 -0.1610455,-7.879791 -4.239156 -0.06729363,-7.789979 -3.58624 0.108751,-7.706331 -2.992761 0.2560455,-8.429985 -5.113787 -0.06771968,-8.273917 -3.964282 -0.04888921,-8.173547 -3.264458 0.1706553,-8.083569 -2.693994 0.3345053,-8.775716 -5.116163 0.0680447,-8.677428 -3.991951 0.1154191,-8.597889 -3.303068 0.3220208,-8.490535 -2.7607 0.4795864,-9.131717 -5.304737 0.2276624,-9.146932 -4.37902 0.3542092,-9.110661 -3.763334 0.5116193,-9.016276 -3.207168 0.6109472,1.610,51  Main Camera (Points)
-2.889258 -7.945234 1.337949,-3.442469 -7.786909 1.7188,-3.961793 -7.31769 1.93978,-4.357554 -6.789876 2.130092,-4.67015 -6.443126 2.344601,-3.61377 -5.732055 1.659135,-3.875231 -4.746504 1.862178,-4.001524 -4.136882 2.007682,-4.091268 -3.571595 2.139978,-3.299068 -5.486818 1.646407,-3.490639 -4.335231 1.84747,-3.490639 -4.335231 1.84747,-3.667622 -2.975373 2.176755,-2.979077 -5.462368 1.697539,-3.085545 -4.350515 1.886467,-3.17334 -3.640524 2.073862,-3.255613 -3.035097 2.222389,-2.634777 -5.644748 1.784891,-2.545235 -4.779703 1.947689,-2.502549 -4.202417 2.114208,-2.467808 -3.655476 2.258924,-8.920151 -7.929313 -0.192857,-8.216989 -7.638757 -0.03479341,-7.676566 -6.934663 0.08029193,-7.329967 -6.24546 0.2666783,-7.02167 -5.69487 0.4795472,-8.067369 -5.281904 -0.4195316,-7.86161 -4.25115 -0.3751427,-7.775778 -3.632539 -0.1952695,-7.696686 -3.05433 -0.03521781,-8.435257 -5.091631 -0.3530707,-8.267921 -4.03815 -0.3547581,-8.161611 -3.431427 -0.0997295,-8.072982 -2.944529 0.09472987,-8.784155 -5.089547 -0.2433205,-8.680397 -4.041588 -0.2285017,-8.601318 -3.43906 -0.01157707,-8.503191 -2.973354 0.1537041,-9.138802 -5.254423 -0.1044049,-9.137588 -4.400902 -0.02891999,-9.098987 -3.850142 0.1041732,-9.006193 -3.344017 0.1964449,1.710,51  Main Camera (Points)
-2.889258 -7.945234 1.337949,-3.442469 -7.786909 1.7188,-3.961793 -7.31769 1.93978,-4.357554 -6.789876 2.130092,-4.67015 -6.443126 2.344601,-3.61377 -5.732055 1.659135,-3.875231 -4.746504 1.862178,-4.001524 -4.136882 2.007682,-4.091268 -3.571595 2.139978,-3.299068 -5.486818 1.646407,-3.490639 -4.335231 1.84747,-3.490639 -4.335231 1.84747,-3.667622 -2.975373 2.176755,-2.979077 -5.462368 1.697539,-3.085545 -4.350515 1.886467,-3.17334 -3.640524 2.073862,-3.255613 -3.035097 2.222389,-2.634777 -5.644748 1.784891,-2.545235 -4.779703 1.947689,-2.502549 -4.202417 2.114208,-2.467808 -3.655476 2.258924,-8.92378 -7.854474 -0.2929481,-8.277476 -7.658037 0.0602206,-7.763764 -6.897407 0.2469335,-7.426721 -6.190793 0.4652602,-7.12481 -5.577047 0.699937,-8.072936 -5.234582 -0.3794652,-7.831075 -4.309538 -0.3257035,-7.743792 -3.671653 -0.1187447,-7.668747 -3.102356 0.1021395,-8.441941 -5.040927 -0.3178953,-8.298985 -4.065328 -0.05359788,-8.26823 -3.743392 0.4453568,-8.278312 -3.735322 0.8036605,-8.802029 -5.070232 -0.2062641,-8.731588 -4.14451 0.01998705,-8.668228 -3.813104 0.488783,-8.620531 -3.794053 0.8328947,-9.181609 -5.281483 -0.06150614,-9.185189 -4.498838 0.1617038,-9.156423 -4.141809 0.4705063,-9.099781 -3.993584 0.7404283,1.810,51  Main Camera (Points)
-2.84201 -7.822752 -0.08603899,-3.429459 -7.654191 0.1327478,-3.875355 -7.084276 0.1217778,-4.139194 -6.494674 0.122613,-4.34943 -5.977691 0.1373514,-3.558899 -5.903931 -0.2981163,-3.788869 -5.020539 -0.363306,-3.917413 -4.426257 -0.2916457,-4.007824 -3.863098 -0.1531109,-3.26515 -5.772497 -0.3018603,-3.385909 -4.925212 -0.3155381,-3.385909 -4.925212 -0.3155381,-3.443112 -4.094814 0.05993406,-2.964639 -5.79105 -0.2578823,-3.033133 -5.026103 -0.1857025,-3.064428 -4.608226 0.1032366,-3.094595 -4.355941 0.331616,-2.657052 -5.908747 -0.1981596,-2.688394 -5.304311 -0.003769718,-2.715565 -4.97491 0.1868223,-2.753593 -4.738111 0.3336596,-8.984714 -7.752635 -1.211455,-8.335646 -7.577159 -0.7510835,-7.867145 -6.865184 -0.4950683,-7.665257 -6.041996 -0.2695706,-7.606565 -5.28436 -0.05403495,-8.064479 -5.410034 -1.183412,-7.847167 -4.415699 -1.092183,-7.756735 -3.725558 -0.8990174,-7.681967 -3.150284 -0.7066068,-8.4374 -5.218905 -1.220142,-8.327617 -4.157421 -0.9177578,-8.358191 -3.950857 -0.4468765,-8.441778 -4.123174 -0.1343105,-8.796088 -5.18828 -1.209349,-8.702513 -4.19899 -0.9044251,-8.716364 -4.085304 -0.4255843,-8.771684 -4.352886 -0.1313912,-9.185996 -5.285003 -1.159073,-9.173247 -4.456639 -0.8436067,-9.135554 -4.328758 -0.4955032,-9.113237 -4.537903 -0.2417815,1.910,51  Main Camera (Points)
-2.753505 -7.793064 -0.009906151,-3.357151 -7.648669 0.4009257,-3.805806 -7.0512 0.5220632,-4.089006 -6.380031 0.6415538,-4.330629 -5.76438 0.7625347,-3.581694 -5.85327 -0.2068315,-3.758224 -4.968757 -0.15759,-3.876327 -4.372732 0.0214406,-3.974699 -3.804455 0.2384486,-3.246044 -5.736318 -0.2301679,-3.339788 -4.841629 0.04667301,-3.339788 -4.841629 0.04667301,-3.300346 -4.685787 0.7217464,-2.923061 -5.737011 -0.1786824,-2.994071 -4.893024 0.1390719,-3.02326 -4.765552 0.6073398,-3.014068 -4.894117 0.8774141,-2.588104 -5.818658 -0.08521848,-2.646215 -5.207841 0.2220166,-2.693533 -5.144905 0.5488895,-2.697528 -5.281751 0.756799,-8.981076 -7.699936 -1.574023,-8.367277 -7.52588 -1.110381,-7.883906 -6.859597 -0.7942577,-7.716905 -6.032609 -0.4865946,-7.802051 -5.312862 -0.2165668,-8.079332 -5.435504 -1.581881,-7.896834 -4.421887 -1.350632,-7.77033 -3.75798 -1.104059,-7.66639 -3.16256 -0.9030671,-8.434189 -5.272716 -1.525173,-8.32976 -4.297781 -0.9080524,-8.329904 -5.00104 -0.4551482,-8.401479 -5.658769 -0.3328716,-8.801629 -5.220972 -1.397724,-8.709763 -4.252548 -0.8579495,-8.657864 -4.84859 -0.4438475,-8.694345 -5.499197 -0.329589,-9.217724 -5.256635 -1.233748,-9.184761 -4.436784 -0.8106131,-9.08001 -4.601942 -0.5133113,-9.042088 -5.032762 -0.3983126,2.010,51  Main Camera (Points)
-2.685633 -7.944965 -0.02445932,-3.308351 -7.758484 0.3994472,-3.760548 -7.118549 0.5525823,-4.047027 -6.355852 0.7000643,-4.275982 -5.715404 0.8309186,-3.581026 -5.992516 -0.1234463,-3.748142 -5.059801 0.0157135,-3.870716 -4.397218 0.2381943,-3.959099 -3.758004 0.4552743,-3.239006 -5.899659 -0.1405492,-3.313915 -4.988367 0.3288766,-3.313915 -4.988367 0.3288766,-3.326 -5.245956 0.9395891,-2.908724 -5.887702 -0.09216879,-2.989435 -5.084141 0.3902364,-3.036469 -5.312326 0.7613835,-3.022933 -5.536861 0.862429,-2.569959 -5.928963 -0.009365058,-2.660558 -5.35609 0.3763168,-2.71943 -5.504125 0.596602,-2.691081 -5.68886 0.6589231,-8.965951 -7.564395 -2.111124,-8.342745 -7.337008 -1.653945,-7.862094 -6.659995 -1.401213,-7.756455 -5.857474 -1.142857,-7.998421 -5.272123 -0.9638802,-8.093397 -5.391853 -2.240872,-7.899316 -4.363393 -1.846062,-7.742293 -3.736967 -1.541654,-7.649068 -3.183544 -1.40236,-8.45292 -5.286979 -2.167959,-8.295933 -4.415201 -1.323777,-8.293394 -5.308343 -0.9088233,-8.407849 -5.962604 -0.9183788,-8.820811 -5.247362 -1.984602,-8.681808 -4.418643 -1.20515,-8.622671 -5.299911 -0.8717402,-8.690472 -5.978954 -0.9315531,-9.243204 -5.247358 -1.770196,-9.135896 -4.472717 -1.296709,-9.018238 -4.883639 -1.101047,-9.028321 -5.405433 -1.132885,2.110,51  Main Camera (Points)
-4.076515 -7.145889 -1.991444,-4.434809 -6.622583 -1.567108,-4.5208 -6.17998 -1.199686,-4.57785 -5.782089 -0.932847,-4.630862 -5.48822 -0.621336,-4.091219 -5.850212 -0.944618,-3.977321 -5.227842 -0.5155309,-3.986837 -4.732723 -0.3050512,-4.006739 -4.264904 -0.2093298,-3.864759 -5.960758 -0.9992172,-3.625862 -5.491502 -0.4482656,-3.625862 -5.491502 -0.4482656,-3.551685 -4.695377 0.08229315,-3.730373 -6.089082 -1.04279,-3.492925 -5.697293 -0.4806001,-3.408033 -5.248891 0.008215308,-3.358938 -4.785981 0.3315951,-3.678562 -6.208575 -1.10754,-3.532145 -5.915617 -0.6615462,-3.491243 -5.571638 -0.3144653,-3.484554 -5.205226 0.01615369,-8.950871 -7.500827 -2.276704,-8.328342 -7.245758 -1.795717,-7.865515 -6.569084 -1.536402,-7.782499 -5.774029 -1.284599,-8.026052 -5.214499 -1.119214,-8.09407 -5.373844 -2.369765,-7.905576 -4.304115 -1.968767,-7.749821 -3.672464 -1.670748,-7.665952 -3.106185 -1.541048,-8.458872 -5.266717 -2.3069,-8.309733 -4.399478 -1.468628,-8.318842 -5.31748 -1.128333,-8.4293 -5.974412 -1.203409,-8.832625 -5.226091 -2.126204,-8.700065 -4.404835 -1.328709,-8.652426 -5.317642 -1.050771,-8.717829 -6.011911 -1.164478,-9.257946 -5.235634 -1.906827,-9.153187 -4.434597 -1.435019,-9.038784 -4.900864 -1.270096,-9.047764 -5.460421 -1.330754,2.210,51  Main Camera (Points)
-4.076515 -7.145889 -1.991444,-4.434809 -6.622583 -1.567108,-4.5208 -6.17998 -1.199686,-4.57785 -5.782089 -0.932847,-4.630862 -5.48822 -0.621336,-4.091219 -5.850212 -0.944618,-3.977321 -5.227842 -0.5155309,-3.986837 -4.732723 -0.3050512,-4.006739 -4.264904 -0.2093298,-3.864759 -5.960758 -0.9992172,-3.625862 -5.491502 -0.4482656,-3.625862 -5.491502 -0.4482656,-3.551685 -4.695377 0.08229315,-3.730373 -6.089082 -1.04279,-3.492925 -5.697293 -0.4806001,-3.408033 -5.248891 0.008215308,-3.358938 -4.785981 0.3315951,-3.678562 -6.208575 -1.10754,-3.532145 -5.915617 -0.6615462,-3.491243 -5.571638 -0.3144653,-3.484554 -5.205226 0.01615369,-8.927326 -7.455785 -2.229262,-8.30165 -7.211229 -1.749285,-7.83122 -6.518369 -1.500947,-7.76277 -5.708301 -1.259399,-8.046496 -5.175391 -1.10776,-8.085856 -5.300209 -2.341771,-7.894665 -4.261631 -1.922322,-7.730503 -3.655731 -1.607043,-7.639102 -3.106824 -1.470289,-8.45407 -5.204074 -2.27795,-8.301322 -4.354047 -1.43703,-8.302389 -5.281839 -1.086228,-8.416181 -5.936216 -1.146019,-8.829607 -5.18315 -2.094757,-8.694425 -4.410781 -1.286771,-8.643727 -5.343582 -1.016151,-8.717922 -6.022392 -1.139906,-9.255319 -5.216537 -1.875012,-9.143003 -4.459237 -1.390971,-9.025243 -4.973569 -1.235197,-9.040782 -5.540376 -1.303666,2.310,51  Main Camera (Points)
-4.695055 -5.11273 -4.530616,-4.544139 -5.378053 -4.939954,-4.510153 -5.465367 -5.232596,-4.469742 -5.481045 -5.39115,-4.441721 -5.546373 -5.530536,-4.662585 -5.179661 -5.49197,-4.741146 -5.440429 -5.78643,-4.859705 -5.392707 -5.832609,-4.95122 -5.362646 -5.790687,-4.793667 -4.957644 -5.344977,-4.995556 -5.062665 -5.690528,-4.995556 -5.062665 -5.690528,-5.251016 -4.957199 -5.586329,-4.928911 -4.753393 -5.230762,-5.219317 -4.739173 -5.464962,-5.441441 -4.699525 -5.293324,-5.601851 -4.692537 -5.162338,-5.053541 -4.545047 -5.126304,-5.32847 -4.53133 -5.20912,-5.529012 -4.513737 -5.115483,-5.693813 -4.56758 -5.045229,-8.908285 -7.438631 -2.330712,-8.273721 -7.165796 -1.843427,-7.812217 -6.494409 -1.593511,-7.763624 -5.709437 -1.3623,-8.038129 -5.174025 -1.21847,-8.062203 -5.301444 -2.400632,-7.878215 -4.251977 -1.975559,-7.717752 -3.621512 -1.653156,-7.63249 -3.062731 -1.510327,-8.438497 -5.215319 -2.336901,-8.296619 -4.34346 -1.474846,-8.288654 -5.248887 -1.110414,-8.39237 -5.935278 -1.147825,-8.820484 -5.195352 -2.155296,-8.688831 -4.402775 -1.313094,-8.62735 -5.318727 -1.028413,-8.687415 -6.024427 -1.1346,-9.251505 -5.220918 -1.934632,-9.141027 -4.442711 -1.444516,-9.014372 -4.911888 -1.281753,-9.013079 -5.475859 -1.33161,2.410,51  Main Camera (Points)
-4.695055 -5.11273 -4.530616,-4.544139 -5.378053 -4.939954,-4.510153 -5.465367 -5.232596,-4.469742 -5.481045 -5.39115,-4.441721 -5.546373 -5.530536,-4.662585 -5.179661 -5.49197,-4.741146 -5.440429 -5.78643,-4.859705 -5.392707 -5.832609,-4.95122 -5.362646 -5.790687,-4.793667 -4.957644 -5.344977,-4.995556 -5.062665 -5.690528,-4.995556 -5.062665 -5.690528,-5.251016 -4.957199 -5.586329,-4.928911 -4.753393 -5.230762,-5.219317 -4.739173 -5.464962,-5.441441 -4.699525 -5.293324,-5.601851 -4.692537 -5.162338,-5.053541 -4.545047 -5.126304,-5.32847 -4.53133 -5.20912,-5.529012 -4.513737 -5.115483,-5.693813 -4.56758 -5.045229,-8.912147 -7.439729 -2.247468,-8.278215 -7.178575 -1.770183,-7.811592 -6.493022 -1.544114,-7.752231 -5.714114 -1.333333,-8.017344 -5.198061 -1.204704,-8.063068 -5.28697 -2.394418,-7.872577 -4.246506 -1.967537,-7.710122 -3.631691 -1.642789,-7.622737 -3.084537 -1.500066,-8.430348 -5.196414 -2.335613,-8.290344 -4.339097 -1.469974,-8.28212 -5.278637 -1.10321,-8.382076 -5.972046 -1.156928,-8.803252 -5.173001 -2.152402,-8.676789 -4.385126 -1.310782,-8.61352 -5.322138 -1.021598,-8.667904 -6.024435 -1.136991,-9.223324 -5.195802 -1.934874,-9.120893 -4.436937 -1.432401,-8.999481 -4.922142 -1.269646,-9.001328 -5.482372 -1.335049,2.510,51  Main Camera (Points)
-4.695055 -5.11273 -4.530616,-4.544139 -5.378053 -4.939954,-4.510153 -5.465367 -5.232596,-4.469742 -5.481045 -5.39115,-4.441721 -5.546373 -5.530536,-4.662585 -5.179661 -5.49197,-4.741146 -5.440429 -5.78643,-4.859705 -5.392707 -5.832609,-4.95122 -5.362646 -5.790687,-4.793667 -4.957644 -5.344977,-4.995556 -5.062665 -5.690528,-4.995556 -5.062665 -5.690528,-5.251016 -4.957199 -5.586329,-4.928911 -4.753393 -5.230762,-5.219317 -4.739173 -5.464962,-5.441441 -4.699525 -5.293324,-5.601851 -4.692537 -5.162338,-5.053541 -4.545047 -5.126304,-5.32847 -4.53133 -5.20912,-5.529012 -4.513737 -5.115483,-5.693813 -4.56758 -5.045229,-8.908087 -7.467329 -2.281974,-8.278861 -7.182565 -1.780267,-7.823232 -6.488703 -1.519325,-7.778144 -5.709646 -1.280866,-8.046269 -5.237632 -1.125227,-8.053153 -5.33189 -2.313056,-7.868021 -4.254372 -1.895282,-7.710151 -3.617266 -1.583058,-7.621874 -3.05645 -1.439234,-8.42568 -5.232715 -2.253088,-8.289117 -4.396337 -1.374651,-8.295009 -5.322639 -1.030796,-8.387032 -6.009321 -1.093196,-8.807186 -5.199977 -2.078901,-8.686002 -4.392755 -1.253161,-8.637094 -5.293844 -0.9907978,-8.684614 -5.996267 -1.109172,-9.237439 -5.217512 -1.860532,-9.152888 -4.395208 -1.382326,-9.037476 -4.842525 -1.224209,-9.025976 -5.405071 -1.275328,2.610,51  Main Camera (Points)
-4.695055 -5.11273 -4.530616,-4.544139 -5.378053 -4.939954,-4.510153 -5.465367 -5.232596,-4.469742 -5.481045 -5.39115,-4.441721 -5.546373 -5.530536,-4.662585 -5.179661 -5.49197,-4.741146 -5.440429 -5.78643,-4.859705 -5.392707 -5.832609,-4.95122 -5.362646 -5.790687,-4.793667 -4.957644 -5.344977,-4.995556 -5.062665 -5.690528,-4.995556 -5.062665 -5.690528,-5.251016 -4.957199 -5.586329,-4.928911 -4.753393 -5.230762,-5.219317 -4.739173 -5.464962,-5.441441 -4.699525 -5.293324,-5.601851 -4.692537 -5.162338,-5.053541 -4.545047 -5.126304,-5.32847 -4.53133 -5.20912,-5.529012 -4.513737 -5.115483,-5.693813 -4.56758 -5.045229,-8.922025 -7.527193 -2.224275,-8.291962 -7.224613 -1.731634,-7.81736 -6.522662 -1.470798,-7.75401 -5.72822 -1.223378,-8.036603 -5.241403 -1.067196,-8.0601 -5.368833 -2.286463,-7.870308 -4.305947 -1.895146,-7.706727 -3.664539 -1.599812,-7.610873 -3.107934 -1.461077,-8.435888 -5.276342 -2.214959,-8.298839 -4.460283 -1.342024,-8.299884 -5.326927 -0.9546242,-8.392277 -5.994352 -0.973842,-8.817039 -5.246891 -2.030414,-8.697916 -4.445633 -1.202517,-8.644303 -5.300096 -0.9034795,-8.687527 -6.00358 -0.986196,-9.247721 -5.266931 -1.804204,-9.163706 -4.444265 -1.334854,-9.047202 -4.834226 -1.159823,-9.030093 -5.377438 -1.190965,2.710,51  Main Camera (Points)
-4.730947 -5.27297 -6.374171,-4.565661 -5.132312 -6.343897,-4.49542 -4.917115 -6.340344,-4.41951 -4.640162 -6.294856,-4.387498 -4.375009 -6.244902,-4.710553 -5.074308 -6.540165,-4.730301 -5.341393 -6.579671,-4.813068 -5.329158 -6.428752,-4.878323 -5.301464 -6.257635,-4.850327 -5.027691 -6.517396,-4.989269 -5.156785 -6.635614,-4.989269 -5.156785 -6.635614,-5.187005 -4.941543 -6.193061,-4.996608 -4.91443 -6.508867,-5.241564 -4.90648 -6.535286,-5.452797 -4.811876 -6.273312,-5.603115 -4.764653 -6.04845,-5.134289 -4.773569 -6.49945,-5.395983 -4.716171 -6.406221,-5.592718 -4.654237 -6.220354,-5.752613 -4.671316 -6.077498,-8.897464 -7.551091 -2.167556,-8.283024 -7.27144 -1.698856,-7.820889 -6.537565 -1.462884,-7.771629 -5.740041 -1.24293,-8.050101 -5.278854 -1.101115,-8.079123 -5.365713 -2.249621,-7.879234 -4.306076 -1.823791,-7.716939 -3.685028 -1.501615,-7.625603 -3.125344 -1.351756,-8.448526 -5.276011 -2.18073,-8.301058 -4.427152 -1.295599,-8.29467 -5.376991 -0.9219965,-8.39325 -6.100942 -0.9636135,-8.821868 -5.25632 -1.997822,-8.691119 -4.438352 -1.150255,-8.637884 -5.358564 -0.8616858,-8.694752 -6.094175 -0.9626993,-9.242555 -5.295652 -1.779756,-9.154487 -4.464035 -1.278127,-9.032917 -4.869176 -1.110824,-9.02261 -5.413398 -1.15509,2.810,51  Main Camera (Points)
-4.793447 -4.712748 -4.208883,-4.599798 -4.980762 -4.527884,-4.541716 -5.088176 -4.825328,-4.464148 -5.093498 -5.003286,-4.432608 -5.051397 -5.177189,-4.720177 -5.099851 -5.187951,-4.744051 -5.445385 -5.533577,-4.839946 -5.414849 -5.602265,-4.913231 -5.330999 -5.581931,-4.865959 -4.972203 -5.095631,-5.015724 -5.207289 -5.528395,-5.015724 -5.207289 -5.528395,-5.222771 -4.948406 -5.357001,-5.018938 -4.776826 -5.016999,-5.265055 -4.887012 -5.299898,-5.490369 -4.821952 -5.082503,-5.650177 -4.736846 -4.907891,-5.165094 -4.548566 -4.946522,-5.404643 -4.674892 -5.052522,-5.582639 -4.643236 -4.915995,-5.72484 -4.651698 -4.817421,-8.921719 -7.606964 -2.161543,-8.311521 -7.307043 -1.702174,-7.841234 -6.565893 -1.468128,-7.797915 -5.750366 -1.242688,-8.114622 -5.317801 -1.104313,-8.114648 -5.409662 -2.317562,-7.908531 -4.344055 -1.919049,-7.740824 -3.721431 -1.614639,-7.645697 -3.15848 -1.479148,-8.479069 -5.330222 -2.240422,-8.319926 -4.524091 -1.353519,-8.322274 -5.470724 -0.9872297,-8.42369 -6.175468 -1.039009,-8.847771 -5.312294 -2.045818,-8.712837 -4.49263 -1.221494,-8.659616 -5.402371 -0.9492677,-8.712543 -6.131381 -1.059335,-9.265581 -5.352345 -1.815074,-9.182773 -4.517872 -1.342396,-9.061578 -4.899596 -1.186982,-9.045875 -5.432977 -1.237818,2.910,51  Main Camera (Points)
-4.793447 -4.712748 -4.208883,-4.599798 -4.980762 -4.527884,-4.541716 -5.088176 -4.825328,-4.464148 -5.093498 -5.003286,-4.432608 -5.051397 -5.177189,-4.720177 -5.099851 -5.187951,-4.744051 -5.445385 -5.533577,-4.839946 -5.414849 -5.602265,-4.913231 -5.330999 -5.581931,-4.865959 -4.972203 -5.095631,-5.015724 -5.207289 -5.528395,-5.015724 -5.207289 -5.528395,-5.222771 -4.948406 -5.357001,-5.018938 -4.776826 -5.016999,-5.265055 -4.887012 -5.299898,-5.490369 -4.821952 -5.082503,-5.650177 -4.736846 -4.907891,-5.165094 -4.548566 -4.946522,-5.404643 -4.674892 -5.052522,-5.582639 -4.643236 -4.915995,-5.72484 -4.651698 -4.817421,-8.914494 -7.631107 -2.205881,-8.314211 -7.356016 -1.723979,-7.844059 -6.655494 -1.453525,-7.766161 -5.875528 -1.19041,-8.045811 -5.381258 -1.01544,-8.124132 -5.440704 -2.286829,-7.927135 -4.354338 -1.888001,-7.767291 -3.707496 -1.578537,-7.670135 -3.132483 -1.421942,-8.487023 -5.363001 -2.212848,-8.325022 -4.489313 -1.336566,-8.316713 -5.421421 -0.9640281,-8.414962 -6.118066 -1.002689,-8.857075 -5.341633 -2.018844,-8.720586 -4.50579 -1.198622,-8.660818 -5.409763 -0.904825,-8.716205 -6.122269 -0.9984276,-9.279838 -5.372604 -1.788916,-9.18987 -4.544783 -1.301522,-9.066933 -4.965564 -1.126098,-9.060812 -5.513343 -1.158575,3.010,51  Main Camera (Points)
-4.793447 -4.712748 -4.208883,-4.599798 -4.980762 -4.527884,-4.541716 -5.088176 -4.825328,-4.464148 -5.093498 -5.003286,-4.432608 -5.051397 -5.177189,-4.720177 -5.099851 -5.187951,-4.744051 -5.445385 -5.533577,-4.839946 -5.414849 -5.602265,-4.913231 -5.330999 -5.581931,-4.865959 -4.972203 -5.095631,-5.015724 -5.207289 -5.528395,-5.015724 -5.207289 -5.528395,-5.222771 -4.948406 -5.357001,-5.018938 -4.776826 -5.016999,-5.265055 -4.887012 -5.299898,-5.490369 -4.821952 -5.082503,-5.650177 -4.736846 -4.907891,-5.165094 -4.548566 -4.946522,-5.404643 -4.674892 -5.052522,-5.582639 -4.643236 -4.915995,-5.72484 -4.651698 -4.817421,-8.955544 -7.649902 -2.306127,-8.31162 -7.340141 -1.802249,-7.847825 -6.686732 -1.546711,-7.764151 -5.931362 -1.305382,-7.999794 -5.337047 -1.152117,-8.103762 -5.494893 -2.352374,-7.920418 -4.398817 -1.976003,-7.770047 -3.712715 -1.673478,-7.679351 -3.127148 -1.519685,-8.481868 -5.420295 -2.298454,-8.346948 -4.560426 -1.42815,-8.338785 -5.420331 -1.011604,-8.417358 -6.115644 -1.002026,-8.861449 -5.378185 -2.130996,-8.739431 -4.575893 -1.293576,-8.672553 -5.432783 -0.9487619,-8.699521 -6.163527 -1.003756,-9.290262 -5.364599 -1.925089,-9.198502 -4.558799 -1.435486,-9.076306 -4.968826 -1.225106,-9.055896 -5.532396 -1.235966,3.110,51  Main Camera (Points)
-4.793447 -4.712748 -4.208883,-4.599798 -4.980762 -4.527884,-4.541716 -5.088176 -4.825328,-4.464148 -5.093498 -5.003286,-4.432608 -5.051397 -5.177189,-4.720177 -5.099851 -5.187951,-4.744051 -5.445385 -5.533577,-4.839946 -5.414849 -5.602265,-4.913231 -5.330999 -5.581931,-4.865959 -4.972203 -5.095631,-5.015724 -5.207289 -5.528395,-5.015724 -5.207289 -5.528395,-5.222771 -4.948406 -5.357001,-5.018938 -4.776826 -5.016999,-5.265055 -4.887012 -5.299898,-5.490369 -4.821952 -5.082503,-5.650177 -4.736846 -4.907891,-5.165094 -4.548566 -4.946522,-5.404643 -4.674892 -5.052522,-5.582639 -4.643236 -4.915995,-5.72484 -4.651698 -4.817421,-8.954275 -7.68514 -2.306942,-8.315919 -7.421788 -1.817975,-7.830284 -6.774307 -1.549415,-7.730392 -6.015343 -1.293839,-7.965078 -5.41065 -1.130457,-8.106307 -5.528837 -2.296897,-7.927916 -4.435113 -1.915509,-7.779658 -3.756062 -1.598864,-7.689575 -3.185277 -1.429214,-8.490592 -5.454917 -2.231874,-8.357271 -4.582555 -1.371234,-8.342377 -5.421878 -0.9388024,-8.419667 -6.116677 -0.898139,-8.873969 -5.422113 -2.05944,-8.753246 -4.616954 -1.245939,-8.683137 -5.457608 -0.9000329,-8.709556 -6.184867 -0.9320619,-9.301874 -5.423717 -1.851064,-9.21147 -4.620224 -1.366693,-9.085098 -5.025957 -1.152425,-9.063372 -5.587313 -1.149783,3.210,51  Main Camera (Points)
-3.568726 -7.233831 -0.654733,-3.871704 -7.005163 0.100974,-4.086168 -6.582258 0.5246187,-4.282968 -6.143428 0.8092197,-4.45347 -5.660531 1.134755,-3.932677 -5.649211 0.6747488,-4.018244 -4.789594 1.243512,-4.078966 -4.256309 1.692288,-4.168398 -3.74664 2.030021,-3.722853 -5.688833 0.5118407,-3.610481 -5.473059 1.262281,-3.610481 -5.473059 1.262281,-3.548164 -6.242731 1.819819,-3.546406 -5.902544 0.4002258,-3.384205 -5.906423 1.259156,-3.330034 -6.496334 1.667793,-3.395725 -6.885266 1.801276,-3.45352 -6.126355 0.2770736,-3.316425 -6.088302 0.9803597,-3.277525 -6.420705 1.25653,-3.323302 -6.625082 1.416605,-8.943356 -7.764188 -2.237077,-8.323846 -7.529274 -1.74473,-7.852313 -6.834896 -1.485896,-7.758314 -6.047395 -1.240017,-7.972126 -5.442199 -1.08061,-8.124317 -5.589963 -2.268959,-7.94864 -4.48602 -1.883991,-7.795221 -3.822856 -1.572152,-7.692533 -3.252645 -1.412627,-8.494084 -5.509576 -2.207988,-8.367239 -4.63158 -1.335297,-8.356048 -5.532836 -0.9344234,-8.43383 -6.242725 -0.9527698,-8.8691 -5.486007 -2.034942,-8.760954 -4.648948 -1.211246,-8.701422 -5.51769 -0.8781312,-8.734218 -6.232889 -0.9392692,-9.288854 -5.511191 -1.829873,-9.21905 -4.67855 -1.327671,-9.103866 -5.050449 -1.12671,-9.086039 -5.564868 -1.144457,3.310,51  Main Camera (Points)
-3.27834 -7.186334 -1.737372,-3.688656 -7.094621 -1.011083,-3.953815 -6.757152 -0.6963566,-4.122412 -6.248807 -0.4867726,-4.234856 -5.755144 -0.2616252,-3.812576 -5.782142 -0.8047695,-3.97646 -4.922169 -0.3644097,-4.059003 -4.367614 0.002070367,-4.135199 -3.881391 0.3368523,-3.528049 -5.763065 -0.9770848,-3.455103 -5.524841 -0.3077621,-3.455103 -5.524841 -0.3077621,-3.339695 -6.554598 0.05323917,-3.287943 -5.834737 -1.079772,-3.164936 -5.782279 -0.3029196,-3.1248 -6.476785 0.03232282,-3.16443 -6.993185 0.1181027,-3.109726 -5.899013 -1.151857,-2.981894 -5.918178 -0.4905502,-2.943985 -6.414339 -0.2614037,-2.973927 -6.789384 -0.1853922,-8.933779 -7.78939 -2.263166,-8.312355 -7.539655 -1.799495,-7.838202 -6.841024 -1.568224,-7.759122 -6.061706 -1.353619,-7.992852 -5.485471 -1.225838,-8.126119 -5.623266 -2.309961,-7.948062 -4.504095 -1.944463,-7.792696 -3.835325 -1.646371,-7.686364 -3.264019 -1.492109,-8.494966 -5.540221 -2.242111,-8.359315 -4.649381 -1.394456,-8.355007 -5.548219 -1.000745,-8.434069 -6.278915 -1.002391,-8.869051 -5.518615 -2.067214,-8.757092 -4.686012 -1.254241,-8.702371 -5.552797 -0.9092309,-8.731805 -6.293925 -0.9512196,-9.287084 -5.553344 -1.861492,-9.219913 -4.701776 -1.366104,-9.103668 -5.026143 -1.158778,-9.078272 -5.523277 -1.162574,3.410,51  Main Camera (Points)
-4.315151 -6.358505 -1.084083,-4.600702 -5.825437 -0.4547254,-4.723107 -5.492757 0.06926137,-4.844741 -5.159699 0.466897,-4.894268 -4.93614 0.9398581,-4.377874 -5.810659 0.7696028,-4.193846 -5.498573 1.459842,-4.118744 -5.176651 1.908546,-4.119326 -4.932352 2.227178,-4.11641 -6.111589 0.7074499,-3.732355 -6.196191 1.609779,-3.732355 -6.196191 1.609779,-3.538315 -6.414012 2.368822,-3.928661 -6.417102 0.5934411,-3.540935 -6.636535 1.452116,-3.383375 -6.827676 1.828037,-3.39109 -6.939171 2.036224,-3.843498 -6.642504 0.4869344,-3.560331 -6.667863 1.221689,-3.425167 -6.699264 1.601805,-3.437584 -6.726882 1.872167,-8.949669 -7.811787 -2.253432,-8.347119 -7.605375 -1.753251,-7.871824 -6.917945 -1.499015,-7.763793 -6.123656 -1.257528,-7.971761 -5.524658 -1.114678,-8.149323 -5.642097 -2.296665,-7.967119 -4.517062 -1.917506,-7.81143 -3.854993 -1.624139,-7.705457 -3.273615 -1.470863,-8.512412 -5.559429 -2.237608,-8.369267 -4.667521 -1.354599,-8.362809 -5.614601 -0.9879868,-8.44753 -6.316936 -1.047941,-8.887801 -5.539471 -2.058188,-8.768149 -4.685485 -1.220469,-8.708741 -5.581066 -0.9097437,-8.74362 -6.279988 -0.99511,-9.31143 -5.574327 -1.848529,-9.24114 -4.725816 -1.32499,-9.123341 -5.105543 -1.126408,-9.103586 -5.607587 -1.152018,3.510,51  Main Camera (Points)
-4.315151 -6.358505 -1.084083,-4.600702 -5.825437 -0.4547254,-4.723107 -5.492757 0.06926137,-4.844741 -5.159699 0.466897,-4.894268 -4.93614 0.9398581,-4.377874 -5.810659 0.7696028,-4.193846 -5.498573 1.459842,-4.118744 -5.176651 1.908546,-4.119326 -4.932352 2.227178,-4.11641 -6.111589 0.7074499,-3.732355 -6.196191 1.609779,-3.732355 -6.196191 1.609779,-3.538315 -6.414012 2.368822,-3.928661 -6.417102 0.5934411,-3.540935 -6.636535 1.452116,-3.383375 -6.827676 1.828037,-3.39109 -6.939171 2.036224,-3.843498 -6.642504 0.4869344,-3.560331 -6.667863 1.221689,-3.425167 -6.699264 1.601805,-3.437584 -6.726882 1.872167,-8.963079 -7.805587 -2.273672,-8.341153 -7.59733 -1.786849,-7.858647 -6.936301 -1.536135,-7.751787 -6.165468 -1.301273,-7.974316 -5.567043 -1.164902,-8.147913 -5.639135 -2.295359,-7.977532 -4.51143 -1.931832,-7.824392 -3.836532 -1.636954,-7.719298 -3.267754 -1.477697,-8.516949 -5.561094 -2.237789,-8.388755 -4.675752 -1.379626,-8.385654 -5.582588 -0.9852846,-8.466043 -6.298404 -0.9968455,-8.893818 -5.539008 -2.06942,-8.78595 -4.711681 -1.246506,-8.727598 -5.581672 -0.9030924,-8.756108 -6.307117 -0.9518831,-9.318924 -5.56847 -1.869989,-9.252767 -4.730278 -1.353695,-9.13512 -5.101997 -1.138011,-9.110692 -5.622262 -1.143768,3.610,51  Main Camera (Points)
-4.781347 -5.096721 -6.519261,-4.445103 -4.962825 -6.311343,-4.258276 -4.830924 -6.217589,-4.180627 -4.541131 -6.119102,-4.096383 -4.196072 -5.969044,-4.448105 -4.972805 -6.646843,-4.300034 -5.367589 -6.727495,-4.253813 -5.578954 -6.59816,-4.220025 -5.848787 -6.476843,-4.670012 -5.020574 -6.749313,-4.590727 -5.392602 -6.786005,-4.590727 -5.392602 -6.786005,-4.454728 -5.765271 -6.240613,-4.883555 -4.991323 -6.8795,-4.877365 -5.217675 -6.87024,-4.934948 -5.229715 -6.575349,-4.961756 -5.245172 -6.418922,-5.088722 -4.893032 -7.003101,-5.200584 -5.056287 -6.974982,-5.299858 -4.981992 -6.877254,-5.371034 -4.925189 -6.841781,-8.954723 -7.820773 -2.267028,-8.344087 -7.617116 -1.770243,-7.874179 -6.932476 -1.525288,-7.776783 -6.144927 -1.295786,-7.99394 -5.557524 -1.165866,-8.166514 -5.64593 -2.292296,-7.994069 -4.506298 -1.92116,-7.83847 -3.834163 -1.631262,-7.734409 -3.257559 -1.483013,-8.531707 -5.569797 -2.234269,-8.399806 -4.653757 -1.366559,-8.390098 -5.580488 -0.9862798,-8.467572 -6.303997 -1.019571,-8.90862 -5.565544 -2.065146,-8.804006 -4.702089 -1.230052,-8.734789 -5.580597 -0.8941231,-8.752982 -6.303625 -0.9546517,-9.329949 -5.624668 -1.864175,-9.283896 -4.752397 -1.342105,-9.160477 -5.05915 -1.130686,-9.120881 -5.533144 -1.141202,3.710,51  Main Camera (Points)
-4.74931 -5.676667 -4.401052,-4.789394 -5.283166 -4.461488,-4.756886 -4.985637 -4.473141,-4.715532 -4.691577 -4.420198,-4.694843 -4.578828 -4.312126,-4.64006 -4.867771 -4.924733,-4.587076 -5.066661 -5.061775,-4.644539 -5.094594 -4.901648,-4.674482 -5.22649 -4.724108,-4.689077 -4.94429 -4.869983,-4.690482 -5.174765 -5.034379,-4.690482 -5.174765 -5.034379,-4.708325 -5.447988 -4.601331,-4.782238 -5.02809 -4.837541,-4.878668 -5.132638 -4.868112,-5.004395 -5.165442 -4.588596,-5.100687 -5.188184 -4.397183,-4.90691 -5.08411 -4.808581,-5.100619 -5.076618 -4.808104,-5.279276 -5.028128 -4.714135,-5.417866 -5.025014 -4.656088,-8.982667 -7.80723 -2.229582,-8.344021 -7.539472 -1.736535,-7.876192 -6.876557 -1.478876,-7.789695 -6.110553 -1.238711,-8.020707 -5.488243 -1.09995,-8.17867 -5.622573 -2.260072,-8.008175 -4.493971 -1.874988,-7.862844 -3.825879 -1.564724,-7.767897 -3.254755 -1.401466,-8.544696 -5.548146 -2.205343,-8.406261 -4.634202 -1.331981,-8.38811 -5.5676 -0.9348859,-8.466097 -6.315429 -0.9559388,-8.921675 -5.535883 -2.035611,-8.807305 -4.680399 -1.201733,-8.73894 -5.573183 -0.8647956,-8.763247 -6.320618 -0.922519,-9.345411 -5.582609 -1.831287,-9.28379 -4.740705 -1.301037,-9.163268 -5.110681 -1.086391,-9.132918 -5.641784 -1.093488,3.810,51  Main Camera (Points)
-4.74931 -5.676667 -4.401052,-4.789394 -5.283166 -4.461488,-4.756886 -4.985637 -4.473141,-4.715532 -4.691577 -4.420198,-4.694843 -4.578828 -4.312126,-4.64006 -4.867771 -4.924733,-4.587076 -5.066661 -5.061775,-4.644539 -5.094594 -4.901648,-4.674482 -5.22649 -4.724108,-4.689077 -4.94429 -4.869983,-4.690482 -5.174765 -5.034379,-4.690482 -5.174765 -5.034379,-4.708325 -5.447988 -4.601331,-4.782238 -5.02809 -4.837541,-4.878668 -5.132638 -4.868112,-5.004395 -5.165442 -4.588596,-5.100687 -5.188184 -4.397183,-4.90691 -5.08411 -4.808581,-5.100619 -5.076618 -4.808104,-5.279276 -5.028128 -4.714135,-5.417866 -5.025014 -4.656088,-8.977452 -7.808566 -2.225653,-8.381812 -7.599361 -1.75323,-7.892023 -6.917753 -1.4917,-7.774686 -6.122518 -1.24281,-8.014397 -5.53923 -1.100853,-8.194363 -5.631513 -2.255299,-8.013537 -4.493675 -1.848522,-7.870053 -3.82737 -1.533128,-7.77705 -3.245569 -1.372498,-8.555524 -5.545486 -2.188462,-8.407755 -4.630722 -1.302959,-8.390445 -5.568195 -0.9388928,-8.472908 -6.279389 -0.9908091,-8.931911 -5.536581 -2.006763,-8.812198 -4.664434 -1.177725,-8.742593 -5.557572 -0.8740321,-8.774871 -6.27537 -0.9539537,-9.357698 -5.594942 -1.795288,-9.292408 -4.721748 -1.279373,-9.164019 -5.088041 -1.085592,-9.134161 -5.596733 -1.111866,3.910,51  Main Camera (Points)
-4.74931 -5.676667 -4.401052,-4.789394 -5.283166 -4.461488,-4.756886 -4.985637 -4.473141,-4.715532 -4.691577 -4.420198,-4.694843 -4.578828 -4.312126,-4.64006 -4.867771 -4.924733,-4.587076 -5.066661 -5.061775,-4.644539 -5.094594 -4.901648,-4.674482 -5.22649 -4.724108,-4.689077 -4.94429 -4.869983,-4.690482 -5.174765 -5.034379,-4.690482 -5.174765 -5.034379,-4.708325 -5.447988 -4.601331,-4.782238 -5.02809 -4.837541,-4.878668 -5.132638 -4.868112,-5.004395 -5.165442 -4.588596,-5.100687 -5.188184 -4.397183,-4.90691 -5.08411 -4.808581,-5.100619 -5.076618 -4.808104,-5.279276 -5.028128 -4.714135,-5.417866 -5.025014 -4.656088,-8.981458 -7.79421 -2.250813,-8.36197 -7.570717 -1.748518,-7.883304 -6.885067 -1.49537,-7.788693 -6.105938 -1.265163,-8.018761 -5.499328 -1.137516,-8.177091 -5.613949 -2.256491,-8.009786 -4.480814 -1.856112,-7.868165 -3.821395 -1.53899,-7.773447 -3.243742 -1.376504,-8.546559 -5.541098 -2.203512,-8.412594 -4.628799 -1.318464,-8.400423 -5.563085 -0.9431107,-8.476578 -6.278982 -0.9791409,-8.923679 -5.531475 -2.03267,-8.810675 -4.672364 -1.193351,-8.747229 -5.569271 -0.8824235,-8.774938 -6.29301 -0.9573113,-9.348013 -5.579284 -1.826659,-9.283155 -4.722635 -1.303363,-9.161077 -5.118516 -1.107282,-9.132745 -5.651826 -1.129872,4.010,51  Main Camera (Points)
-4.74931 -5.676667 -4.401052,-4.789394 -5.283166 -4.461488,-4.756886 -4.985637 -4.473141,-4.715532 -4.691577 -4.420198,-4.694843 -4.578828 -4.312126,-4.64006 -4.867771 -4.924733,-4.587076 -5.066661 -5.061775,-4.644539 -5.094594 -4.901648,-4.674482 -5.22649 -4.724108,-4.689077 -4.94429 -4.869983,-4.690482 -5.174765 -5.034379,-4.690482 -5.174765 -5.034379,-4.708325 -5.447988 -4.601331,-4.782238 -5.02809 -4.837541,-4.878668 -5.132638 -4.868112,-5.004395 -5.165442 -4.588596,-5.100687 -5.188184 -4.397183,-4.90691 -5.08411 -4.808581,-5.100619 -5.076618 -4.808104,-5.279276 -5.028128 -4.714135,-5.417866 -5.025014 -4.656088,-8.979197 -7.826429 -2.266461,-8.385726 -7.602071 -1.793405,-7.902199 -6.910994 -1.545795,-7.784849 -6.129602 -1.308243,-8.012004 -5.527261 -1.172063,-8.202837 -5.649871 -2.307938,-8.021048 -4.510561 -1.92694,-7.875654 -3.836383 -1.629549,-7.77919 -3.25053 -1.471311,-8.559728 -5.574635 -2.239491,-8.401463 -4.645999 -1.363728,-8.376278 -5.576631 -0.9798502,-8.458538 -6.302742 -1.004744,-8.931837 -5.557388 -2.056835,-8.79956 -4.671592 -1.23243,-8.724126 -5.563699 -0.9142994,-8.753167 -6.293713 -0.9746537,-9.35629 -5.595977 -1.844282,-9.286367 -4.726737 -1.321919,-9.155763 -5.096154 -1.116593,-9.124882 -5.616397 -1.125635,4.110,51  Main Camera (Points)
-4.74931 -5.676667 -4.401052,-4.789394 -5.283166 -4.461488,-4.756886 -4.985637 -4.473141,-4.715532 -4.691577 -4.420198,-4.694843 -4.578828 -4.312126,-4.64006 -4.867771 -4.924733,-4.587076 -5.066661 -5.061775,-4.644539 -5.094594 -4.901648,-4.674482 -5.22649 -4.724108,-4.689077 -4.94429 -4.869983,-4.690482 -5.174765 -5.034379,-4.690482 -5.174765 -5.034379,-4.708325 -5.447988 -4.601331,-4.782238 -5.02809 -4.837541,-4.878668 -5.132638 -4.868112,-5.004395 -5.165442 -4.588596,-5.100687 -5.188184 -4.397183,-4.90691 -5.08411 -4.808581,-5.100619 -5.076618 -4.808104,-5.279276 -5.028128 -4.714135,-5.417866 -5.025014 -4.656088,-8.985592 -7.835376 -2.295981,-8.379229 -7.606863 -1.792156,-7.903042 -6.930871 -1.526974,-7.797469 -6.155147 -1.28084,-8.031425 -5.557497 -1.142724,-8.190784 -5.663486 -2.28674,-8.0156 -4.519177 -1.877926,-7.867619 -3.848753 -1.565199,-7.768955 -3.26939 -1.398582,-8.559809 -5.594404 -2.222422,-8.421762 -4.677472 -1.304698,-8.394791 -5.594144 -0.9046246,-8.467922 -6.305616 -0.9270942,-8.940737 -5.593599 -2.041936,-8.834516 -4.703407 -1.189006,-8.748691 -5.566019 -0.8471231,-8.763463 -6.283643 -0.8982793,-9.363232 -5.65592 -1.826299,-9.326172 -4.772899 -1.301563,-9.19616 -5.035127 -1.079853,-9.150765 -5.477733 -1.070973,4.210,51  Main Camera (Points)
-4.33824 -7.094431 -1.660407,-4.727969 -6.717926 -1.298227,-4.833595 -6.305945 -1.032492,-4.870472 -6.003219 -0.78778,-4.833397 -5.845182 -0.4078682,-4.30578 -5.50991 -0.9942165,-4.140791 -4.957674 -0.4765931,-4.016253 -4.576322 -0.1234564,-3.954847 -4.447937 -0.007410467,-4.039433 -5.625661 -0.959042,-3.627649 -5.551759 -0.118778,-3.627649 -5.551759 -0.118778,-3.418634 -6.663209 0.5778392,-3.876505 -5.81405 -0.8710553,-3.482908 -6.054384 -0.03179628,-3.277345 -6.724058 0.3594812,-3.248062 -7.254217 0.4406541,-3.765453 -5.951625 -0.8259404,-3.56374 -5.49632 -0.2870809,-3.514821 -5.241945 -0.08555657,-3.586577 -5.123879 0.03422433,-8.982344 -7.833689 -2.242806,-8.39278 -7.614903 -1.73206,-7.911245 -6.942081 -1.461974,-7.795623 -6.174906 -1.212627,-8.027109 -5.573213 -1.065121,-8.206179 -5.650989 -2.212419,-8.028895 -4.509061 -1.796842,-7.884288 -3.850606 -1.478326,-7.781999 -3.269104 -1.312045,-8.572756 -5.574918 -2.1506,-8.434669 -4.650441 -1.23644,-8.410929 -5.575118 -0.831049,-8.472223 -6.303684 -0.8470079,-8.952837 -5.572973 -1.974875,-8.843129 -4.679718 -1.117928,-8.763978 -5.544746 -0.7732856,-8.768147 -6.281053 -0.8216789,-9.373105 -5.642642 -1.764229,-9.342146 -4.744536 -1.232873,-9.216615 -4.987154 -1.005342,-9.164212 -5.42861 -0.9997468,4.310,51  Main Camera (Points)
-4.33824 -7.094431 -1.660407,-4.727969 -6.717926 -1.298227,-4.833595 -6.305945 -1.032492,-4.870472 -6.003219 -0.78778,-4.833397 -5.845182 -0.4078682,-4.30578 -5.50991 -0.9942165,-4.140791 -4.957674 -0.4765931,-4.016253 -4.576322 -0.1234564,-3.954847 -4.447937 -0.007410467,-4.039433 -5.625661 -0.959042,-3.627649 -5.551759 -0.118778,-3.627649 -5.551759 -0.118778,-3.418634 -6.663209 0.5778392,-3.876505 -5.81405 -0.8710553,-3.482908 -6.054384 -0.03179628,-3.277345 -6.724058 0.3594812,-3.248062 -7.254217 0.4406541,-3.765453 -5.951625 -0.8259404,-3.56374 -5.49632 -0.2870809,-3.514821 -5.241945 -0.08555657,-3.586577 -5.123879 0.03422433,-9.00815 -7.810187 -2.270962,-8.385866 -7.57355 -1.785897,-7.905257 -6.909384 -1.528261,-7.808476 -6.145687 -1.29142,-8.039738 -5.543171 -1.152961,-8.200778 -5.634287 -2.225344,-8.036503 -4.494644 -1.838085,-7.898335 -3.811347 -1.523437,-7.807261 -3.244123 -1.353461,-8.577499 -5.564228 -2.163191,-8.444971 -4.638855 -1.288733,-8.417493 -5.511158 -0.8661028,-8.484881 -6.243822 -0.8436303,-8.961887 -5.555318 -1.995847,-8.848931 -4.712781 -1.170385,-8.770471 -5.552169 -0.8132329,-8.784747 -6.285619 -0.8329459,-9.392978 -5.599548 -1.795765,-9.338069 -4.760929 -1.276441,-9.208049 -5.092348 -1.045205,-9.165407 -5.605775 -1.031331,4.410,51  Main Camera (Points)
-4.33824 -7.094431 -1.660407,-4.727969 -6.717926 -1.298227,-4.833595 -6.305945 -1.032492,-4.870472 -6.003219 -0.78778,-4.833397 -5.845182 -0.4078682,-4.30578 -5.50991 -0.9942165,-4.140791 -4.957674 -0.4765931,-4.016253 -4.576322 -0.1234564,-3.954847 -4.447937 -0.007410467,-4.039433 -5.625661 -0.959042,-3.627649 -5.551759 -0.118778,-3.627649 -5.551759 -0.118778,-3.418634 -6.663209 0.5778392,-3.876505 -5.81405 -0.8710553,-3.482908 -6.054384 -0.03179628,-3.277345 -6.724058 0.3594812,-3.248062 -7.254217 0.4406541,-3.765453 -5.951625 -0.8259404,-3.56374 -5.49632 -0.2870809,-3.514821 -5.241945 -0.08555657,-3.586577 -5.123879 0.03422433,-8.987938 -7.804346 -2.256323,-8.383076 -7.567968 -1.773685,-7.911011 -6.898022 -1.51754,-7.812118 -6.13392 -1.282614,-8.037766 -5.542078 -1.132886,-8.201774 -5.6373 -2.225648,-8.037635 -4.480666 -1.816879,-7.907068 -3.80479 -1.475024,-7.821512 -3.223763 -1.290027,-8.571291 -5.550537 -2.170578,-8.432512 -4.605912 -1.285743,-8.406873 -5.520964 -0.883435,-8.469854 -6.272047 -0.8826996,-8.956679 -5.533405 -2.005024,-8.836197 -4.664992 -1.178524,-8.763803 -5.541358 -0.8491385,-8.781143 -6.28878 -0.8965119,-9.390836 -5.579076 -1.808109,-9.330468 -4.716316 -1.279075,-9.199148 -5.118644 -1.066277,-9.158419 -5.684934 -1.073611,4.510,51  Main Camera (Points)
-4.33824 -7.094431 -1.660407,-4.727969 -6.717926 -1.298227,-4.833595 -6.305945 -1.032492,-4.870472 -6.003219 -0.78778,-4.833397 -5.845182 -0.4078682,-4.30578 -5.50991 -0.9942165,-4.140791 -4.957674 -0.4765931,-4.016253 -4.576322 -0.1234564,-3.954847 -4.447937 -0.007410467,-4.039433 -5.625661 -0.959042,-3.627649 -5.551759 -0.118778,-3.627649 -5.551759 -0.118778,-3.418634 -6.663209 0.5778392,-3.876505 -5.81405 -0.8710553,-3.482908 -6.054384 -0.03179628,-3.277345 -6.724058 0.3594812,-3.248062 -7.254217 0.4406541,-3.765453 -5.951625 -0.8259404,-3.56374 -5.49632 -0.2870809,-3.514821 -5.241945 -0.08555657,-3.586577 -5.123879 0.03422433,-9.004719 -7.858268 -2.226176,-8.400249 -7.631788 -1.735252,-7.928898 -6.959955 -1.464614,-7.814345 -6.20409 -1.215153,-8.004953 -5.594005 -1.056908,-8.226343 -5.670719 -2.15288,-8.049443 -4.515047 -1.727753,-7.910996 -3.839995 -1.386651,-7.809733 -3.251138 -1.198781,-8.593481 -5.596928 -2.094193,-8.444408 -4.634348 -1.186461,-8.406877 -5.544818 -0.763901,-8.461644 -6.29075 -0.7543161,-8.973604 -5.589611 -1.926749,-8.850102 -4.692222 -1.101787,-8.766944 -5.543743 -0.7638332,-8.773514 -6.274433 -0.7987951,-9.397499 -5.646053 -1.726681,-9.345916 -4.762844 -1.201037,-9.211799 -5.08612 -0.9706298,-9.161428 -5.596588 -0.9582283,4.610,51  Main Camera (Points)
-4.33824 -7.094431 -1.660407,-4.727969 -6.717926 -1.298227,-4.833595 -6.305945 -1.032492,-4.870472 -6.003219 -0.78778,-4.833397 -5.845182 -0.4078682,-4.30578 -5.50991 -0.9942165,-4.140791 -4.957674 -0.4765931,-4.016253 -4.576322 -0.1234564,-3.954847 -4.447937 -0.007410467,-4.039433 -5.625661 -0.959042,-3.627649 -5.551759 -0.118778,-3.627649 -5.551759 -0.118778,-3.418634 -6.663209 0.5778392,-3.876505 -5.81405 -0.8710553,-3.482908 -6.054384 -0.03179628,-3.277345 -6.724058 0.3594812,-3.248062 -7.254217 0.4406541,-3.765453 -5.951625 -0.8259404,-3.56374 -5.49632 -0.2870809,-3.514821 -5.241945 -0.08555657,-3.586577 -5.123879 0.03422433,-9.012778 -7.885374 -2.205495,-8.389669 -7.671745 -1.730505,-7.923521 -6.994451 -1.465942,-7.812144 -6.242985 -1.218889,-7.981068 -5.627919 -1.062289,-8.21737 -5.690629 -2.120837,-8.044557 -4.535502 -1.700912,-7.913011 -3.855831 -1.367831,-7.822651 -3.267071 -1.184679,-8.584993 -5.62198 -2.058652,-8.443171 -4.650427 -1.160287,-8.405019 -5.556089 -0.7313361,-8.462204 -6.300413 -0.7141398,-8.965907 -5.619747 -1.892534,-8.849871 -4.711052 -1.079409,-8.766588 -5.558933 -0.7392015,-8.775061 -6.284816 -0.7651198,-9.391626 -5.677629 -1.694781,-9.344336 -4.796648 -1.171708,-9.212469 -5.117588 -0.9348022,-9.164264 -5.622171 -0.9160894,4.710,51  Main Camera (Points)
-4.772504 -5.243138 -3.525692,-4.658585 -5.107016 -3.650083,-4.547144 -5.034478 -3.848568,-4.448488 -4.846607 -3.954482,-4.340038 -4.733778 -4.00181,-4.603596 -5.07263 -4.628786,-4.459285 -5.456832 -4.961763,-4.420311 -5.658596 -4.979985,-4.361788 -5.90485 -4.964035,-4.696011 -5.151134 -4.641162,-4.579691 -5.557465 -4.906612,-4.579691 -5.557465 -4.906612,-4.374424 -5.939495 -4.484896,-4.803286 -5.178993 -4.664251,-4.72608 -5.46911 -4.781579,-4.688185 -5.585339 -4.449514,-4.634872 -5.615039 -4.321158,-4.920385 -5.09682 -4.678508,-4.997145 -5.332647 -4.778324,-5.060923 -5.32788 -4.696962,-5.081144 -5.294204 -4.735755,-8.958094 -7.930311 -1.999292,-8.383701 -7.779907 -1.503986,-7.841679 -7.122472 -1.203562,-7.675653 -6.353503 -0.9184204,-7.874093 -5.746445 -0.6893495,-8.117231 -5.738785 -1.875548,-7.929912 -4.637208 -1.476805,-7.812229 -3.98278 -1.135957,-7.708363 -3.425656 -0.9163886,-8.486486 -5.619128 -1.802954,-8.32461 -4.672012 -0.933502,-8.306154 -5.514966 -0.4423641,-8.362387 -6.277186 -0.3260087,-8.8698 -5.622346 -1.628166,-8.740026 -4.741621 -0.8537418,-8.679912 -5.560169 -0.4368196,-8.675218 -6.32842 -0.3709403,-9.28606 -5.722288 -1.416944,-9.266246 -4.860029 -0.8726724,-9.157431 -4.918064 -0.5562406,-9.085213 -5.225651 -0.4424949,4.810,51  Main Camera (Points)
-4.772504 -5.243138 -3.525692,-4.658585 -5.107016 -3.650083,-4.547144 -5.034478 -3.848568,-4.448488 -4.846607 -3.954482,-4.340038 -4.733778 -4.00181,-4.603596 -5.07263 -4.628786,-4.459285 -5.456832 -4.961763,-4.420311 -5.658596 -4.979985,-4.361788 -5.90485 -4.964035,-4.696011 -5.151134 -4.641162,-4.579691 -5.557465 -4.906612,-4.579691 -5.557465 -4.906612,-4.374424 -5.939495 -4.484896,-4.803286 -5.178993 -4.664251,-4.72608 -5.46911 -4.781579,-4.688185 -5.585339 -4.449514,-4.634872 -5.615039 -4.321158,-4.920385 -5.09682 -4.678508,-4.997145 -5.332647 -4.778324,-5.060923 -5.32788 -4.696962,-5.081144 -5.294204 -4.735755,-8.900715 -8.00419 -2.039361,-8.32024 -7.903247 -1.595477,-7.733745 -7.297248 -1.364824,-7.521057 -6.54631 -1.129489,-7.666963 -5.885007 -0.9569265,-7.958671 -5.895944 -2.089238,-7.727336 -4.848344 -1.756303,-7.558722 -4.193565 -1.466329,-7.39154 -3.634159 -1.273886,-8.31576 -5.72277 -2.000204,-8.117908 -4.750577 -1.204531,-8.108002 -5.519137 -0.6770439,-8.183054 -6.250272 -0.5306603,-8.694658 -5.691251 -1.810701,-8.539813 -4.850348 -1.071331,-8.493628 -5.636988 -0.6089509,-8.512983 -6.38656 -0.50615,-9.117336 -5.75634 -1.58923,-9.074155 -4.977848 -1.0957,-8.962678 -5.001567 -0.7856103,-8.896515 -5.265556 -0.6736647,4.910,51  Main Camera (Points)
-4.772504 -5.243138 -3.525692,-4.658585 -5.107016 -3.650083,-4.547144 -5.034478 -3.848568,-4.448488 -4.846607 -3.954482,-4.340038 -4.733778 -4.00181,-4.603596 -5.07263 -4.628786,-4.459285 -5.456832 -4.961763,-4.420311 -5.658596 -4.979985,-4.361788 -5.90485 -4.964035,-4.696011 -5.151134 -4.641162,-4.579691 -5.557465 -4.906612,-4.579691 -5.557465 -4.906612,-4.374424 -5.939495 -4.484896,-4.803286 -5.178993 -4.664251,-4.72608 -5.46911 -4.781579,-4.688185 -5.585339 -4.449514,-4.634872 -5.615039 -4.321158,-4.920385 -5.09682 -4.678508,-4.997145 -5.332647 -4.778324,-5.060923 -5.32788 -4.696962,-5.081144 -5.294204 -4.735755,-8.856543 -7.99336 -2.036611,-8.271739 -7.887712 -1.604178,-7.689545 -7.281091 -1.399495,-7.472268 -6.531812 -1.194381,-7.579293 -5.861061 -1.059626,-7.886333 -5.898715 -2.10917,-7.639223 -4.923271 -1.801531,-7.464764 -4.27346 -1.520243,-7.299603 -3.7003 -1.333703,-8.2446 -5.717893 -2.030872,-8.051542 -4.753801 -1.304856,-8.034388 -5.490028 -0.781639,-8.11307 -6.21063 -0.6209497,-8.624262 -5.689193 -1.857008,-8.471611 -4.863391 -1.161667,-8.416188 -5.651226 -0.7028632,-8.440333 -6.409233 -0.5866841,-9.04992 -5.749893 -1.647591,-9.006688 -4.991594 -1.185743,-8.89346 -5.030626 -0.8908889,-8.839502 -5.308918 -0.7841351,5.010,51  Main Camera (Points)
-4.772504 -5.243138 -3.525692,-4.658585 -5.107016 -3.650083,-4.547144 -5.034478 -3.848568,-4.448488 -4.846607 -3.954482,-4.340038 -4.733778 -4.00181,-4.603596 -5.07263 -4.628786,-4.459285 -5.456832 -4.961763,-4.420311 -5.658596 -4.979985,-4.361788 -5.90485 -4.964035,-4.696011 -5.151134 -4.641162,-4.579691 -5.557465 -4.906612,-4.579691 -5.557465 -4.906612,-4.374424 -5.939495 -4.484896,-4.803286 -5.178993 -4.664251,-4.72608 -5.46911 -4.781579,-4.688185 -5.585339 -4.449514,-4.634872 -5.615039 -4.321158,-4.920385 -5.09682 -4.678508,-4.997145 -5.332647 -4.778324,-5.060923 -5.32788 -4.696962,-5.081144 -5.294204 -4.735755,-8.765806 -7.998352 -2.055553,-8.179737 -7.910594 -1.642916,-7.602146 -7.285638 -1.449137,-7.381869 -6.530414 -1.251419,-7.482739 -5.86153 -1.130958,-7.79017 -5.924465 -2.189011,-7.535331 -4.943319 -1.881118,-7.366482 -4.252615 -1.589034,-7.226451 -3.628865 -1.40399,-8.13583 -5.734395 -2.124306,-7.918418 -4.738208 -1.423212,-7.895494 -5.457023 -0.9290986,-7.983505 -6.160742 -0.8000689,-8.510442 -5.674904 -1.962538,-8.334469 -4.822182 -1.325883,-8.300047 -5.609375 -0.9275569,-8.356319 -6.351824 -0.8602208,-8.938856 -5.686687 -1.772813,-8.844234 -4.944942 -1.33765,-8.73148 -5.185016 -1.091307,-8.708003 -5.622398 -1.039311,5.110,51  Main Camera (Points)
-4.772504 -5.243138 -3.525692,-4.658585 -5.107016 -3.650083,-4.547144 -5.034478 -3.848568,-4.448488 -4.846607 -3.954482,-4.340038 -4.733778 -4.00181,-4.603596 -5.07263 -4.628786,-4.459285 -5.456832 -4.961763,-4.420311 -5.658596 -4.979985,-4.361788 -5.90485 -4.964035,-4.696011 -5.151134 -4.641162,-4.579691 -5.557465 -4.906612,-4.579691 -5.557465 -4.906612,-4.374424 -5.939495 -4.484896,-4.803286 -5.178993 -4.664251,-4.72608 -5.46911 -4.781579,-4.688185 -5.585339 -4.449514,-4.634872 -5.615039 -4.321158,-4.920385 -5.09682 -4.678508,-4.997145 -5.332647 -4.778324,-5.060923 -5.32788 -4.696962,-5.081144 -5.294204 -4.735755,-8.624083 -7.985639 -2.060567,-8.031893 -7.91088 -1.663411,-7.451825 -7.287405 -1.504483,-7.226521 -6.515873 -1.340382,-7.366136 -5.87188 -1.255272,-7.650431 -5.926092 -2.278971,-7.403753 -4.913062 -1.989337,-7.236239 -4.232997 -1.700263,-7.100485 -3.624088 -1.517051,-7.99611 -5.727019 -2.21807,-7.796323 -4.683391 -1.537594,-7.777287 -5.450923 -1.087949,-7.867211 -6.196083 -1.000996,-8.374305 -5.676174 -2.056894,-8.21697 -4.776926 -1.423107,-8.177451 -5.584743 -1.047315,-8.228354 -6.338844 -1.001765,-8.799379 -5.698034 -1.868467,-8.725821 -4.881124 -1.440993,-8.618398 -5.008186 -1.220007,-8.589334 -5.358789 -1.188041,5.210,51  Main Camera (Points)
-4.772504 -5.243138 -3.525692,-4.658585 -5.107016 -3.650083,-4.547144 -5.034478 -3.848568,-4.448488 -4.846607 -3.954482,-4.340038 -4.733778 -4.00181,-4.603596 -5.07263 -4.628786,-4.459285 -5.456832 -4.961763,-4.420311 -5.658596 -4.979985,-4.361788 -5.90485 -4.964035,-4.696011 -5.151134 -4.641162,-4.579691 -5.557465 -4.906612,-4.579691 -5.557465 -4.906612,-4.374424 -5.939495 -4.484896,-4.803286 -5.178993 -4.664251,-4.72608 -5.46911 -4.781579,-4.688185 -5.585339 -4.449514,-4.634872 -5.615039 -4.321158,-4.920385 -5.09682 -4.678508,-4.997145 -5.332647 -4.778324,-5.060923 -5.32788 -4.696962,-5.081144 -5.294204 -4.735755,-8.561296 -7.979271 -2.031939,-7.977706 -7.921552 -1.667544,-7.38892 -7.300691 -1.533066,-7.162663 -6.52824 -1.38992,-7.309542 -5.884506 -1.332353,-7.602917 -5.930393 -2.313105,-7.338591 -4.891408 -2.05404,-7.164461 -4.199543 -1.789329,-7.023229 -3.56492 -1.6164,-7.936543 -5.715929 -2.246476,-7.69879 -4.678876 -1.601459,-7.681414 -5.440419 -1.147855,-7.783604 -6.173885 -1.037745,-8.305977 -5.636346 -2.086442,-8.114982 -4.742572 -1.487009,-8.079567 -5.564258 -1.107682,-8.145929 -6.32624 -1.047084,-8.733105 -5.632486 -1.901768,-8.618994 -4.832106 -1.495333,-8.504187 -5.050739 -1.283158,-8.484105 -5.478891 -1.249252,5.310,51  Main Camera (Points)
-4.772504 -5.243138 -3.525692,-4.658585 -5.107016 -3.650083,-4.547144 -5.034478 -3.848568,-4.448488 -4.846607 -3.954482,-4.340038 -4.733778 -4.00181,-4.603596 -5.07263 -4.628786,-4.459285 -5.456832 -4.961763,-4.420311 -5.658596 -4.979985,-4.361788 -5.90485 -4.964035,-4.696011 -5.151134 -4.641162,-4.579691 -5.557465 -4.906612,-4.579691 -5.557465 -4.906612,-4.374424 -5.939495 -4.484896,-4.803286 -5.178993 -4.664251,-4.72608 -5.46911 -4.781579,-4.688185 -5.585339 -4.449514,-4.634872 -5.615039 -4.321158,-4.920385 -5.09682 -4.678508,-4.997145 -5.332647 -4.778324,-5.060923 -5.32788 -4.696962,-5.081144 -5.294204 -4.735755,-8.475076 -7.91978 -2.137722,-7.885955 -7.93116 -1.787306,-7.315697 -7.301418 -1.681866,-7.077329 -6.531555 -1.553344,-7.182474 -5.922815 -1.519778,-7.509662 -5.903818 -2.49108,-7.235606 -4.808714 -2.262618,-7.04687 -4.14591 -2.070919,-6.892143 -3.543518 -1.983105,-7.840717 -5.698854 -2.425353,-7.597321 -4.663778 -1.765775,-7.60203 -5.464473 -1.323416,-7.718689 -6.166 -1.288928,-8.203907 -5.617378 -2.272753,-8.012173 -4.698395 -1.691863,-7.981838 -5.528179 -1.351902,-8.041101 -6.250522 -1.341315,-8.609209 -5.605408 -2.095351,-8.521509 -4.763135 -1.768893,-8.414305 -4.731147 -1.614102,-8.37981 -4.893473 -1.641758,5.410,51  Main Camera (Points)
-3.186377 -7.972121 0.5343281,-3.919188 -7.749979 0.8044536,-4.525255 -7.365875 0.9655943,-4.983004 -7.02264 1.051271,-5.236666 -6.762029 1.129753,-4.133911 -6.017564 0.7471648,-4.258909 -5.130766 0.8007737,-4.34382 -4.593965 0.9189507,-4.377981 -4.219947 0.9859922,-3.761461 -5.766477 0.6372095,-3.896093 -4.665576 0.5863599,-3.896093 -4.665576 0.5863599,-4.0662 -3.79594 0.6990066,-3.414637 -5.712402 0.5495042,-3.509653 -4.68411 0.5402035,-3.636337 -4.100466 0.5968798,-3.713105 -3.701391 0.6786225,-3.091541 -5.81422 0.491564,-3.121511 -5.011449 0.4583326,-3.168122 -4.481946 0.4243758,-3.194939 -4.03642 0.4393079,-8.403693 -7.907259 -2.113642,-7.803289 -7.896621 -1.800572,-7.219024 -7.279354 -1.704493,-6.97455 -6.542684 -1.579234,-7.066071 -5.928356 -1.551301,-7.42815 -5.88908 -2.442747,-7.130076 -4.804682 -2.200598,-6.92299 -4.122893 -1.991102,-6.759768 -3.513278 -1.880772,-7.758989 -5.675909 -2.348267,-7.489277 -4.651189 -1.680694,-7.486722 -5.441513 -1.239684,-7.602905 -6.166114 -1.17481,-8.12145 -5.586026 -2.166706,-7.90309 -4.663002 -1.581072,-7.868941 -5.469867 -1.241944,-7.92982 -6.208385 -1.219552,-8.5325 -5.564262 -1.963866,-8.420155 -4.724752 -1.594822,-8.301085 -4.859087 -1.410495,-8.2676 -5.220876 -1.402664,5.510,51  Main Camera (Points)
-3.00303 -8.21571 0.7885129,-3.59483 -7.90887 0.8217059,-4.072086 -7.375827 0.7970983,-4.410994 -6.813293 0.8191112,-4.694645 -6.429018 0.8740337,-3.810465 -6.1695 0.5116752,-4.079427 -5.280164 0.5354883,-4.195389 -4.751707 0.5880696,-4.28973 -4.286952 0.6324551,-3.545328 -5.933094 0.5934536,-3.78219 -4.874561 0.6014975,-3.78219 -4.874561 0.6014975,-4.012029 -3.739408 0.7696052,-3.266903 -5.845457 0.7294098,-3.448095 -4.817661 0.6677588,-3.568317 -4.210523 0.7790622,-3.669357 -3.691975 0.8851174,-2.950785 -5.918567 0.7480065,-3.032048 -5.110313 0.8220573,-3.111986 -4.631946 0.9104804,-3.203033 -4.199299 0.9909639,-8.347048 -7.936353 -1.923319,-7.752405 -7.897218 -1.575233,-7.167469 -7.275518 -1.433269,-6.920075 -6.554611 -1.26708,-7.014341 -5.959655 -1.193233,-7.373947 -5.860265 -2.180869,-7.057762 -4.787563 -1.88695,-6.84595 -4.120958 -1.641801,-6.670103 -3.523773 -1.500655,-7.704899 -5.64159 -2.090572,-7.42293 -4.653387 -1.369667,-7.419492 -5.502125 -0.936868,-7.533198 -6.250073 -0.8884931,-8.07045 -5.549919 -1.908321,-7.83922 -4.634616 -1.297175,-7.803059 -5.480421 -0.9699203,-7.871281 -6.232538 -0.9620482,-8.485332 -5.545459 -1.699318,-8.360975 -4.693326 -1.296262,-8.237823 -4.867996 -1.088717,-8.211043 -5.256412 -1.060783,5.610,51  Main Camera (Points)
-3.028362 -8.221498 0.5914606,-3.660247 -7.889482 0.5996366,-4.117338 -7.338491 0.5319126,-4.436377 -6.773535 0.5320954,-4.722306 -6.427568 0.5746779,-3.830597 -6.216418 0.2319446,-4.093198 -5.281706 0.2758454,-4.214504 -4.722049 0.3514784,-4.306021 -4.254411 0.4028293,-3.555323 -6.000211 0.3290639,-3.778203 -4.896781 0.3639827,-3.778203 -4.896781 0.3639827,-4.003552 -3.7132 0.572962,-3.265319 -5.914658 0.4838856,-3.44039 -4.848951 0.5580009,-3.565281 -4.208208 0.6750891,-3.668777 -3.691179 0.7584245,-2.936735 -5.961867 0.6508253,-3.032622 -5.100046 0.7267216,-3.113997 -4.58183 0.8256948,-3.201679 -4.123239 0.8845243,-8.239944 -7.922526 -1.800781,-7.651393 -7.864799 -1.428302,-7.056947 -7.292472 -1.228046,-6.781487 -6.602758 -0.9903789,-6.850452 -5.979754 -0.8490608,-7.2091 -5.855854 -1.949999,-6.846802 -4.833316 -1.558235,-6.613106 -4.218247 -1.233036,-6.403959 -3.643573 -1.034165,-7.532434 -5.604486 -1.830084,-7.222994 -4.601997 -1.031947,-7.223516 -5.473473 -0.5842112,-7.338863 -6.219533 -0.5404692,-7.901253 -5.525082 -1.60833,-7.651203 -4.561878 -0.9583318,-7.605293 -5.334135 -0.6273268,-7.665755 -6.035188 -0.6090823,-8.32443 -5.567068 -1.35624,-8.228545 -4.739515 -0.9111475,-8.08738 -4.825066 -0.6713016,-8.037018 -5.177637 -0.6083599,5.710,51  Main Camera (Points)
-3.037853 -8.207624 0.5459345,-3.64916 -7.908921 0.5716734,-4.109754 -7.361896 0.5250554,-4.428682 -6.788837 0.5391756,-4.715571 -6.441253 0.5910265,-3.830057 -6.216741 0.2509929,-4.092249 -5.300678 0.2925745,-4.210098 -4.746568 0.3626206,-4.298888 -4.272621 0.4134473,-3.556444 -5.991535 0.3433512,-3.780667 -4.907497 0.3815317,-3.780667 -4.907497 0.3815317,-4.007737 -3.712891 0.5881048,-3.26497 -5.915136 0.4930996,-3.433272 -4.864288 0.5678996,-3.556402 -4.224126 0.68707,-3.662612 -3.702013 0.7778678,-2.935331 -5.988742 0.6566864,-3.020075 -5.147048 0.7321878,-3.097844 -4.636628 0.8363429,-3.185418 -4.183538 0.9077042,-8.141334 -7.78548 -1.588664,-7.520916 -7.747177 -1.228979,-6.915219 -7.217149 -1.04311,-6.614949 -6.546101 -0.8166616,-6.682224 -5.933129 -0.6746089,-7.023499 -5.715837 -1.830091,-6.637779 -4.736509 -1.485092,-6.389114 -4.124847 -1.166136,-6.185593 -3.538065 -0.9583341,-7.340206 -5.438076 -1.730909,-7.008124 -4.48439 -0.9946176,-7.04233 -5.387672 -0.5617456,-7.197331 -6.113179 -0.5223261,-7.703275 -5.314754 -1.526888,-7.428865 -4.380439 -0.912152,-7.416954 -5.223127 -0.5789808,-7.520471 -5.948322 -0.5695536,-8.131859 -5.311318 -1.296086,-7.989151 -4.526317 -0.8710752,-7.862614 -4.82131 -0.6435119,-7.852427 -5.32798 -0.5995159,5.810,51  Main Camera (Points)
-3.044028 -8.206161 0.4904627,-3.657619 -7.898331 0.4930759,-4.111157 -7.359483 0.4298776,-4.427776 -6.788583 0.4262948,-4.708574 -6.43361 0.4568308,-3.813871 -6.227331 0.1607001,-4.07715 -5.305362 0.1809069,-4.201729 -4.746252 0.2436979,-4.297995 -4.271123 0.2939574,-3.544422 -6.005707 0.2527444,-3.769814 -4.911779 0.2731013,-3.769814 -4.911779 0.2731013,-4.004791 -3.709159 0.4666814,-3.25948 -5.923359 0.3994485,-3.424881 -4.866093 0.4533488,-3.547796 -4.222158 0.5650457,-3.654198 -3.700305 0.6495773,-2.938626 -5.981272 0.5589028,-3.024593 -5.134891 0.6162528,-3.104116 -4.620548 0.7118382,-3.196264 -4.169199 0.7752426,-8.095281 -7.737772 -1.615505,-7.476825 -7.721418 -1.226498,-6.854715 -7.183704 -1.034269,-6.538663 -6.529677 -0.7977531,-6.596282 -5.925832 -0.6535645,-6.952897 -5.671748 -1.801504,-6.541585 -4.711172 -1.423942,-6.271303 -4.11292 -1.102207,-6.044234 -3.543664 -0.9011278,-7.271719 -5.403961 -1.712428,-6.926306 -4.483226 -0.9487556,-6.96996 -5.388814 -0.5058978,-7.127977 -6.093872 -0.4766105,-7.636475 -5.291076 -1.516472,-7.34856 -4.391147 -0.8619615,-7.347808 -5.255971 -0.5240505,-7.459779 -5.959434 -0.5314425,-8.06496 -5.29705 -1.288236,-7.902082 -4.520057 -0.8422019,-7.773099 -4.803146 -0.6040965,-7.765818 -5.263034 -0.5653193,5.910,51  Main Camera (Points)
-3.044028 -8.206161 0.4904627,-3.657619 -7.898331 0.4930759,-4.111157 -7.359483 0.4298776,-4.427776 -6.788583 0.4262948,-4.708574 -6.43361 0.4568308,-3.813871 -6.227331 0.1607001,-4.07715 -5.305362 0.1809069,-4.201729 -4.746252 0.2436979,-4.297995 -4.271123 0.2939574,-3.544422 -6.005707 0.2527444,-3.769814 -4.911779 0.2731013,-3.769814 -4.911779 0.2731013,-4.004791 -3.709159 0.4666814,-3.25948 -5.923359 0.3994485,-3.424881 -4.866093 0.4533488,-3.547796 -4.222158 0.5650457,-3.654198 -3.700305 0.6495773,-2.938626 -5.981272 0.5589028,-3.024593 -5.134891 0.6162528,-3.104116 -4.620548 0.7118382,-3.196264 -4.169199 0.7752426,-7.98009 -7.661468 -1.567442,-7.343513 -7.640563 -1.19414,-6.715937 -7.103883 -1.011381,-6.411692 -6.437593 -0.7878349,-6.499546 -5.871323 -0.655621,-6.808226 -5.586098 -1.744187,-6.374636 -4.618553 -1.333991,-6.081984 -4.08196 -1.028898,-5.852394 -3.555341 -0.8869737,-7.142315 -5.317626 -1.649918,-6.790692 -4.497531 -0.8324976,-6.874477 -5.509153 -0.4276047,-7.047695 -6.168615 -0.469483,-7.514686 -5.187345 -1.442686,-7.223243 -4.399927 -0.7139468,-7.263845 -5.366698 -0.4302769,-7.400284 -6.024651 -0.5176147,-7.952432 -5.151784 -1.211896,-7.751776 -4.383739 -0.7454129,-7.639462 -4.794301 -0.5657158,-7.662543 -5.242617 -0.6109309,6.010,51  Main Camera (Points)
-3.986061 -7.815892 -1.318458,-4.573627 -7.495347 -0.9800606,-4.936375 -6.992115 -0.7574694,-5.163863 -6.551528 -0.6442079,-5.229138 -6.255741 -0.5748297,-4.440958 -6.300706 -0.485196,-4.293873 -5.269669 -0.1552064,-4.274621 -4.654569 0.02281189,-4.26273 -4.155893 0.08541048,-4.078588 -6.2187 -0.6036201,-3.972137 -5.021849 -0.3451566,-3.972137 -5.021849 -0.3451566,-3.979458 -3.714105 0.0698384,-3.807817 -6.194831 -0.7320158,-3.747724 -5.058822 -0.5135501,-3.750607 -4.291745 -0.2586884,-3.779842 -3.706779 0.01111448,-3.636691 -6.205351 -0.8474478,-3.531241 -5.269533 -0.7685521,-3.481428 -4.69853 -0.6871502,-3.500113 -4.220148 -0.518024,-7.92114 -7.62384 -1.423611,-7.29519 -7.588193 -1.014702,-6.666706 -7.039741 -0.7718708,-6.365697 -6.378931 -0.4941647,-6.487313 -5.828453 -0.3033274,-6.731139 -5.503231 -1.526541,-6.29218 -4.57593 -1.124911,-5.992566 -4.04965 -0.8245769,-5.744511 -3.53705 -0.6709131,-7.072883 -5.238647 -1.430334,-6.738792 -4.457742 -0.6204686,-6.826728 -5.450969 -0.2132218,-6.995221 -6.112779 -0.2506208,-7.451736 -5.131172 -1.220898,-7.172695 -4.365676 -0.4991891,-7.207588 -5.312721 -0.2164007,-7.341299 -5.972027 -0.2896509,-7.891291 -5.122293 -0.9814058,-7.70086 -4.343038 -0.5224171,-7.579002 -4.721916 -0.3295552,-7.593678 -5.151857 -0.356133,6.110,51  Main Camera (Points)
-3.669439 -7.171279 -1.295453,-4.135082 -7.27391 -0.5780362,-4.419024 -7.089811 -0.0891462,-4.624435 -6.811468 0.2729885,-4.7964 -6.696037 0.6073695,-4.023945 -6.131362 0.03740066,-4.107636 -5.417112 0.4715727,-4.152509 -4.867726 0.7544605,-4.207991 -4.329271 0.939887,-3.74053 -5.830137 -0.1595027,-3.760676 -5.001495 0.3322497,-3.760676 -5.001495 0.3322497,-3.892445 -3.736276 0.8466775,-3.508566 -5.654563 -0.364201,-3.488413 -4.911144 0.01437646,-3.52951 -4.33148 0.2917395,-3.623911 -3.774844 0.5336797,-3.327637 -5.612257 -0.556185,-3.238493 -5.077737 -0.2825469,-3.199449 -4.56883 -0.1171047,-3.219618 -4.052064 0.05811459,-7.818808 -7.526424 -1.528071,-7.16258 -7.504197 -1.167004,-6.507076 -6.983911 -0.8877665,-6.221046 -6.385791 -0.5630759,-6.331134 -5.925497 -0.2970312,-6.54195 -5.499465 -1.573569,-6.064173 -4.609694 -1.185606,-5.747158 -4.110677 -0.9033582,-5.463266 -3.631189 -0.7377927,-6.888519 -5.207092 -1.411696,-6.512484 -4.477742 -0.6071115,-6.623954 -5.430211 -0.2048974,-6.81233 -6.081848 -0.2166561,-7.266513 -5.072333 -1.143449,-6.95162 -4.311843 -0.4423758,-7.005984 -5.225408 -0.1973886,-7.159668 -5.880289 -0.265653,-7.715015 -5.02885 -0.8442725,-7.498302 -4.210802 -0.3826339,-7.388856 -4.624759 -0.1831303,-7.433372 -5.107008 -0.1805212,6.210,51  Main Camera (Points)
-3.669439 -7.171279 -1.295453,-4.135082 -7.27391 -0.5780362,-4.419024 -7.089811 -0.0891462,-4.624435 -6.811468 0.2729885,-4.7964 -6.696037 0.6073695,-4.023945 -6.131362 0.03740066,-4.107636 -5.417112 0.4715727,-4.152509 -4.867726 0.7544605,-4.207991 -4.329271 0.939887,-3.74053 -5.830137 -0.1595027,-3.760676 -5.001495 0.3322497,-3.760676 -5.001495 0.3322497,-3.892445 -3.736276 0.8466775,-3.508566 -5.654563 -0.364201,-3.488413 -4.911144 0.01437646,-3.52951 -4.33148 0.2917395,-3.623911 -3.774844 0.5336797,-3.327637 -5.612257 -0.556185,-3.238493 -5.077737 -0.2825469,-3.199449 -4.56883 -0.1171047,-3.219618 -4.052064 0.05811459,-7.797669 -7.502004 -1.535561,-7.14016 -7.501573 -1.116947,-6.483418 -7.012842 -0.8149195,-6.177834 -6.396281 -0.4757893,-6.272981 -5.898702 -0.2076955,-6.487747 -5.510959 -1.588066,-6.003497 -4.617147 -1.15067,-5.676634 -4.123748 -0.8282264,-5.38714 -3.629987 -0.6485581,-6.827364 -5.199237 -1.475154,-6.452387 -4.472618 -0.641785,-6.605135 -5.491951 -0.2821316,-6.808818 -6.105075 -0.3747334,-7.205729 -5.028615 -1.240787,-6.896897 -4.296669 -0.5210115,-6.99495 -5.275712 -0.3376518,-7.1653 -5.870497 -0.4895563,-7.661492 -4.942621 -0.9735315,-7.42413 -4.175008 -0.5134753,-7.368721 -4.790056 -0.3796337,-7.457398 -5.32369 -0.4625758,6.310,51  Main Camera (Points)
-3.669439 -7.171279 -1.295453,-4.135082 -7.27391 -0.5780362,-4.419024 -7.089811 -0.0891462,-4.624435 -6.811468 0.2729885,-4.7964 -6.696037 0.6073695,-4.023945 -6.131362 0.03740066,-4.107636 -5.417112 0.4715727,-4.152509 -4.867726 0.7544605,-4.207991 -4.329271 0.939887,-3.74053 -5.830137 -0.1595027,-3.760676 -5.001495 0.3322497,-3.760676 -5.001495 0.3322497,-3.892445 -3.736276 0.8466775,-3.508566 -5.654563 -0.364201,-3.488413 -4.911144 0.01437646,-3.52951 -4.33148 0.2917395,-3.623911 -3.774844 0.5336797,-3.327637 -5.612257 -0.556185,-3.238493 -5.077737 -0.2825469,-3.199449 -4.56883 -0.1171047,-3.219618 -4.052064 0.05811459,-7.750993 -7.522369 -1.3895,-7.096001 -7.512075 -0.93829,-6.429595 -7.059062 -0.6085562,-6.091679 -6.49475 -0.2492608,-6.144947 -5.964485 0.04685903,-6.441678 -5.48039 -1.302791,-5.938934 -4.606996 -0.8116119,-5.595476 -4.161775 -0.4389222,-5.291725 -3.738544 -0.2173071,-6.788371 -5.177724 -1.204538,-6.392733 -4.488021 -0.3265498,-6.536548 -5.537426 0.0541538,-6.733421 -6.171114 -0.003821731,-7.176434 -5.015422 -0.9749977,-6.844475 -4.340238 -0.2135091,-6.925211 -5.332149 0.007810712,-7.09263 -5.933324 -0.1143472,-7.6472 -4.942659 -0.712261,-7.38999 -4.256238 -0.1870327,-7.322915 -4.880232 0.009088635,-7.398578 -5.406709 -0.01788449,6.410,51  Main Camera (Points)
-3.669439 -7.171279 -1.295453,-4.135082 -7.27391 -0.5780362,-4.419024 -7.089811 -0.0891462,-4.624435 -6.811468 0.2729885,-4.7964 -6.696037 0.6073695,-4.023945 -6.131362 0.03740066,-4.107636 -5.417112 0.4715727,-4.152509 -4.867726 0.7544605,-4.207991 -4.329271 0.939887,-3.74053 -5.830137 -0.1595027,-3.760676 -5.001495 0.3322497,-3.760676 -5.001495 0.3322497,-3.892445 -3.736276 0.8466775,-3.508566 -5.654563 -0.364201,-3.488413 -4.911144 0.01437646,-3.52951 -4.33148 0.2917395,-3.623911 -3.774844 0.5336797,-3.327637 -5.612257 -0.556185,-3.238493 -5.077737 -0.2825469,-3.199449 -4.56883 -0.1171047,-3.219618 -4.052064 0.05811459,-7.707885 -7.487985 -1.438103,-7.065428 -7.498991 -0.9516405,-6.394267 -7.074174 -0.5930436,-6.037074 -6.501604 -0.2143323,-6.118547 -5.946472 0.07245278,-6.408293 -5.472349 -1.306667,-5.901301 -4.599258 -0.7709044,-5.557125 -4.191902 -0.3992596,-5.248792 -3.80223 -0.2055553,-6.750014 -5.159708 -1.215596,-6.359284 -4.459612 -0.2922516,-6.519972 -5.509691 0.05095458,-6.705039 -6.100158 -0.05194426,-7.132451 -4.987915 -0.9886306,-6.807093 -4.285095 -0.1793634,-6.901703 -5.278087 0.02203858,-7.065216 -5.859693 -0.1290715,-7.601498 -4.910626 -0.7283319,-7.361561 -4.144531 -0.197391,-7.30834 -4.749605 -0.0127548,-7.383186 -5.268404 -0.05576837,6.510,51  Main Camera (Points)
-3.669439 -7.171279 -1.295453,-4.135082 -7.27391 -0.5780362,-4.419024 -7.089811 -0.0891462,-4.624435 -6.811468 0.2729885,-4.7964 -6.696037 0.6073695,-4.023945 -6.131362 0.03740066,-4.107636 -5.417112 0.4715727,-4.152509 -4.867726 0.7544605,-4.207991 -4.329271 0.939887,-3.74053 -5.830137 -0.1595027,-3.760676 -5.001495 0.3322497,-3.760676 -5.001495 0.3322497,-3.892445 -3.736276 0.8466775,-3.508566 -5.654563 -0.364201,-3.488413 -4.911144 0.01437646,-3.52951 -4.33148 0.2917395,-3.623911 -3.774844 0.5336797,-3.327637 -5.612257 -0.556185,-3.238493 -5.077737 -0.2825469,-3.199449 -4.56883 -0.1171047,-3.219618 -4.052064 0.05811459,-7.710702 -7.462549 -1.513669,-7.061275 -7.48702 -1.060441,-6.382456 -7.035314 -0.7383533,-6.030389 -6.461545 -0.385656,-6.105936 -5.949565 -0.1224203,-6.391609 -5.477028 -1.432768,-5.890157 -4.597205 -0.9086084,-5.538349 -4.192169 -0.5392877,-5.223249 -3.801032 -0.338594,-6.73422 -5.162333 -1.327342,-6.343943 -4.461411 -0.4010603,-6.507973 -5.510458 -0.04753232,-6.695547 -6.108978 -0.1425954,-7.12388 -4.976512 -1.089242,-6.791575 -4.252634 -0.285511,-6.893874 -5.242076 -0.0865854,-7.061662 -5.833205 -0.2343516,-7.603885 -4.876688 -0.8210148,-7.356194 -4.106481 -0.2872066,-7.311583 -4.717536 -0.09728134,-7.395215 -5.23797 -0.1373678,6.610,51  Main Camera (Points)
-3.669439 -7.171279 -1.295453,-4.135082 -7.27391 -0.5780362,-4.419024 -7.089811 -0.0891462,-4.624435 -6.811468 0.2729885,-4.7964 -6.696037 0.6073695,-4.023945 -6.131362 0.03740066,-4.107636 -5.417112 0.4715727,-4.152509 -4.867726 0.7544605,-4.207991 -4.329271 0.939887,-3.74053 -5.830137 -0.1595027,-3.760676 -5.001495 0.3322497,-3.760676 -5.001495 0.3322497,-3.892445 -3.736276 0.8466775,-3.508566 -5.654563 -0.364201,-3.488413 -4.911144 0.01437646,-3.52951 -4.33148 0.2917395,-3.623911 -3.774844 0.5336797,-3.327637 -5.612257 -0.556185,-3.238493 -5.077737 -0.2825469,-3.199449 -4.56883 -0.1171047,-3.219618 -4.052064 0.05811459,-7.684822 -7.440568 -1.441164,-7.027587 -7.467847 -0.9988021,-6.341089 -7.002887 -0.6900107,-5.997293 -6.393004 -0.3511723,-6.082931 -5.870375 -0.1055036,-6.379775 -5.419633 -1.423179,-5.883591 -4.552497 -0.8845484,-5.528374 -4.154114 -0.4995445,-5.207943 -3.76621 -0.288885,-6.725415 -5.106599 -1.315877,-6.339047 -4.437656 -0.402602,-6.529518 -5.51845 -0.08981538,-6.725762 -6.08533 -0.2108634,-7.114733 -4.913026 -1.060434,-6.78556 -4.232515 -0.2371989,-6.912009 -5.260086 -0.080755,-7.090405 -5.821704 -0.2645861,-7.601197 -4.804161 -0.7756637,-7.334062 -4.066383 -0.2246003,-7.307483 -4.74456 -0.05877531,-7.409886 -5.275956 -0.1230597,6.710,51  Main Camera (Points)
-3.669439 -7.171279 -1.295453,-4.135082 -7.27391 -0.5780362,-4.419024 -7.089811 -0.0891462,-4.624435 -6.811468 0.2729885,-4.7964 -6.696037 0.6073695,-4.023945 -6.131362 0.03740066,-4.107636 -5.417112 0.4715727,-4.152509 -4.867726 0.7544605,-4.207991 -4.329271 0.939887,-3.74053 -5.830137 -0.1595027,-3.760676 -5.001495 0.3322497,-3.760676 -5.001495 0.3322497,-3.892445 -3.736276 0.8466775,-3.508566 -5.654563 -0.364201,-3.488413 -4.911144 0.01437646,-3.52951 -4.33148 0.2917395,-3.623911 -3.774844 0.5336797,-3.327637 -5.612257 -0.556185,-3.238493 -5.077737 -0.2825469,-3.199449 -4.56883 -0.1171047,-3.219618 -4.052064 0.05811459,-7.644335 -7.405642 -1.466975,-6.993894 -7.435308 -0.9651925,-6.299197 -6.952855 -0.6324276,-5.970181 -6.317215 -0.2905822,-6.101627 -5.841367 -0.05591249,-6.369525 -5.375957 -1.321916,-5.873728 -4.481633 -0.7249796,-5.509161 -4.099376 -0.3097688,-5.184504 -3.714621 -0.09148753,-6.731554 -5.068787 -1.237811,-6.365152 -4.38444 -0.2364568,-6.552813 -5.487503 0.08395064,-6.736018 -6.041368 -0.05213678,-7.134692 -4.891027 -1.004253,-6.830651 -4.191217 -0.1227551,-6.951161 -5.222648 0.02353406,-7.111416 -5.777784 -0.1762159,-7.624471 -4.803068 -0.7372618,-7.38043 -4.020343 -0.1598264,-7.342689 -4.664945 -0.002936482,-7.42285 -5.172617 -0.0755434,6.810,51  Main Camera (Points)
-3.669439 -7.171279 -1.295453,-4.135082 -7.27391 -0.5780362,-4.419024 -7.089811 -0.0891462,-4.624435 -6.811468 0.2729885,-4.7964 -6.696037 0.6073695,-4.023945 -6.131362 0.03740066,-4.107636 -5.417112 0.4715727,-4.152509 -4.867726 0.7544605,-4.207991 -4.329271 0.939887,-3.74053 -5.830137 -0.1595027,-3.760676 -5.001495 0.3322497,-3.760676 -5.001495 0.3322497,-3.892445 -3.736276 0.8466775,-3.508566 -5.654563 -0.364201,-3.488413 -4.911144 0.01437646,-3.52951 -4.33148 0.2917395,-3.623911 -3.774844 0.5336797,-3.327637 -5.612257 -0.556185,-3.238493 -5.077737 -0.2825469,-3.199449 -4.56883 -0.1171047,-3.219618 -4.052064 0.05811459,-7.618574 -7.565418 -0.8517246,-6.95552 -7.363147 -0.5718014,-6.457455 -6.656444 -0.1612037,-6.228931 -6.103376 0.2892473,-6.164029 -5.796238 0.7661134,-6.465158 -5.410593 -0.1235938,-6.208853 -4.75947 0.6512282,-6.303062 -5.517215 1.165249,-6.499621 -6.136617 1.396111,-6.841807 -5.13265 0.008858263,-6.552728 -4.30395 0.7715408,-6.617969 -5.21187 1.113558,-6.762177 -5.803226 1.247797,-7.25505 -5.002443 0.2001784,-7.037038 -4.152854 0.7845076,-7.025237 -4.947215 0.9221568,-7.107701 -5.511125 0.990185,-7.712619 -4.960235 0.4280756,-7.555201 -4.125141 0.7444031,-7.461488 -4.530904 0.7704983,-7.460023 -4.955936 0.7795455,6.910,51  Main Camera (Points)
-5.227007 -4.243375 0.2113934,-5.154305 -3.628179 1.47547,-5.081041 -3.607194 2.247888,-4.970356 -3.797247 2.837342,-4.963518 -3.918417 3.461322,-5.075523 -4.95568 2.225545,-5.052534 -5.830467 2.855505,-4.927475 -6.14203 3.507542,-4.818651 -6.321194 3.992177,-5.098817 -5.657355 1.878037,-5.246405 -6.373659 2.546273,-5.246405 -6.373659 2.546273,-5.167454 -6.318843 3.722266,-5.120703 -5.972684 1.547413,-5.310118 -6.482997 2.198832,-5.411865 -6.321331 2.569916,-5.414534 -6.124534 2.770877,-5.144802 -5.958942 1.265697,-5.27803 -6.528577 1.755133,-5.35393 -6.442069 1.992975,-5.345797 -6.311622 2.11696,-7.491656 -7.274752 -1.713914,-6.891147 -7.399873 -1.143928,-6.186989 -6.958153 -0.7047671,-5.894978 -6.389537 -0.2740021,-6.056024 -5.999391 0.04955602,-6.255044 -5.333137 -1.329586,-5.754047 -4.398098 -0.7056285,-5.406151 -3.981018 -0.2960006,-5.089886 -3.552722 -0.06789875,-6.64783 -5.024263 -1.24566,-6.299336 -4.374589 -0.1797769,-6.473129 -5.470687 0.1186968,-6.639782 -6.041606 -0.02693987,-7.08442 -4.874326 -1.01028,-6.8011 -4.164795 -0.08231723,-6.897542 -5.189941 0.06319284,-7.030513 -5.764865 -0.1168671,-7.58988 -4.823491 -0.7403491,-7.394989 -4.019443 -0.1447343,-7.319006 -4.556622 -0.01285601,-7.358728 -4.994009 -0.08867967,7.010,51 2 Main Camera (Points)
-5.227007 -4.243375 0.2113934,-5.154305 -3.628179 1.47547,-5.081041 -3.607194 2.247888,-4.970356 -3.797247 2.837342,-4.963518 -3.918417 3.461322,-5.075523 -4.95568 2.225545,-5.052534 -5.830467 2.855505,-4.927475 -6.14203 3.507542,-4.818651 -6.321194 3.992177,-5.098817 -5.657355 1.878037,-5.246405 -6.373659 2.546273,-5.246405 -6.373659 2.546273,-5.167454 -6.318843 3.722266,-5.120703 -5.972684 1.547413,-5.310118 -6.482997 2.198832,-5.411865 -6.321331 2.569916,-5.414534 -6.124534 2.770877,-5.144802 -5.958942 1.265697,-5.27803 -6.528577 1.755133,-5.35393 -6.442069 1.992975,-5.345797 -6.311622 2.11696,-7.529737 -7.396335 -1.190998,-6.886357 -7.282823 -0.9067584,-6.392238 -6.675313 -0.5127361,-6.158026 -6.167889 -0.05150414,-6.009636 -5.823226 0.4587797,-6.314258 -5.324281 -0.8717155,-5.810616 -4.568305 -0.3837526,-5.4129 -4.146719 0.03849185,-5.090262 -3.748881 0.32277,-6.689476 -4.990874 -0.6847954,-6.303449 -4.312578 0.1432719,-6.418511 -5.297502 0.4955792,-6.59719 -5.971248 0.529835,-7.126285 -4.856429 -0.4220245,-6.818835 -4.102346 0.2590972,-6.88109 -5.040611 0.3916653,-7.020306 -5.64524 0.3277409,-7.635077 -4.802033 -0.1298149,-7.431797 -4.034608 0.2918251,-7.339318 -4.580188 0.3104566,-7.383636 -5.081663 0.2413378,7.110,51 2 Main Camera (Points)
-5.227007 -4.243375 0.2113934,-5.154305 -3.628179 1.47547,-5.081041 -3.607194 2.247888,-4.970356 -3.797247 2.837342,-4.963518 -3.918417 3.461322,-5.075523 -4.95568 2.225545,-5.052534 -5.830467 2.855505,-4.927475 -6.14203 3.507542,-4.818651 -6.321194 3.992177,-5.098817 -5.657355 1.878037,-5.246405 -6.373659 2.546273,-5.246405 -6.373659 2.546273,-5.167454 -6.318843 3.722266,-5.120703 -5.972684 1.547413,-5.310118 -6.482997 2.198832,-5.411865 -6.321331 2.569916,-5.414534 -6.124534 2.770877,-5.144802 -5.958942 1.265697,-5.27803 -6.528577 1.755133,-5.35393 -6.442069 1.992975,-5.345797 -6.311622 2.11696,-7.597649 -7.522537 -1.045462,-6.843803 -7.21735 -0.9205878,-6.383098 -6.683591 -0.5836271,-6.146055 -6.256255 -0.1452801,-5.960154 -5.937122 0.350912,-6.334394 -5.384309 -0.9010018,-5.899529 -4.584766 -0.4128464,-5.523734 -4.277359 0.0123961,-5.271004 -3.986771 0.2793499,-6.668793 -5.083655 -0.6509533,-6.255898 -4.298042 0.07630479,-6.337107 -5.2915 0.4250016,-6.526241 -5.95785 0.4943782,-7.076358 -4.939049 -0.3407931,-6.746315 -4.113115 0.2287433,-6.780941 -5.039486 0.3205872,-6.935152 -5.636196 0.2468965,-7.550932 -4.840692 -0.003158569,-7.338304 -3.923452 0.3214548,-7.215452 -4.444969 0.2897183,-7.258475 -4.977268 0.1717482,7.210,51 2 Main Camera (Points)
-3.369174 -8.639187 2.152942,-4.224128 -8.209707 1.8891,-4.756903 -7.707756 1.569699,-5.16155 -7.167724 1.238834,-5.374262 -6.76575 0.8367747,-4.119466 -6.372832 1.177673,-4.243713 -5.201471 0.7857811,-4.349798 -4.543321 0.5944225,-4.420287 -4.201013 0.4775534,-3.710114 -6.108057 1.148538,-3.797466 -4.738328 0.6839268,-3.797466 -4.738328 0.6839268,-4.038727 -3.789091 0.2435954,-3.35524 -6.021285 1.156639,-3.381744 -4.829328 0.7700588,-3.564844 -4.090018 0.6306657,-3.727299 -3.652289 0.5090013,-3.030003 -6.030019 1.147065,-3.017439 -5.067968 0.8354754,-3.107032 -4.516802 0.6243707,-3.221554 -4.114889 0.4440253,-7.460091 -7.296128 -1.121785,-6.80277 -7.331667 -0.6215444,-6.146042 -6.879371 -0.1691842,-5.837227 -6.322875 0.3043094,-5.910656 -5.880733 0.7302146,-6.09506 -5.282555 -0.7309285,-5.600943 -4.507146 -0.1087952,-5.247414 -4.061936 0.353779,-4.930042 -3.594068 0.6404449,-6.489341 -4.916972 -0.6215488,-6.14247 -4.340656 0.3096062,-6.316328 -5.414732 0.6586421,-6.493568 -5.994039 0.6340371,-6.940663 -4.74261 -0.3872546,-6.677969 -4.123567 0.3855033,-6.780144 -5.166712 0.5311683,-6.916403 -5.725257 0.4270664,-7.458971 -4.677608 -0.1140832,-7.284254 -4.03939 0.4176183,-7.220526 -4.739185 0.5060343,-7.266131 -5.261652 0.4278811,7.310,51 2 Main Camera (Points)
-3.369174 -8.639187 2.152942,-4.224128 -8.209707 1.8891,-4.756903 -7.707756 1.569699,-5.16155 -7.167724 1.238834,-5.374262 -6.76575 0.8367747,-4.119466 -6.372832 1.177673,-4.243713 -5.201471 0.7857811,-4.349798 -4.543321 0.5944225,-4.420287 -4.201013 0.4775534,-3.710114 -6.108057 1.148538,-3.797466 -4.738328 0.6839268,-3.797466 -4.738328 0.6839268,-4.038727 -3.789091 0.2435954,-3.35524 -6.021285 1.156639,-3.381744 -4.829328 0.7700588,-3.564844 -4.090018 0.6306657,-3.727299 -3.652289 0.5090013,-3.030003 -6.030019 1.147065,-3.017439 -5.067968 0.8354754,-3.107032 -4.516802 0.6243707,-3.221554 -4.114889 0.4440253,-7.364807 -7.217237 -1.543193,-6.733809 -7.319164 -1.08158,-6.037945 -6.864801 -0.6536738,-5.739616 -6.322039 -0.1924887,-5.901978 -5.909904 0.16881,-6.08229 -5.261295 -1.18908,-5.568118 -4.401972 -0.5854912,-5.196491 -3.996007 -0.2007434,-4.867314 -3.579416 0.03882468,-6.478009 -4.932609 -1.062554,-6.103074 -4.418745 -0.1025735,-6.287301 -5.490018 0.1377828,-6.485276 -5.997925 -0.002207994,-6.922084 -4.77019 -0.7969925,-6.618424 -4.196533 0.02600169,-6.737718 -5.190492 0.08337688,-6.905496 -5.687753 -0.1013237,-7.438916 -4.690701 -0.4983341,-7.217721 -4.028316 0.04299736,-7.170373 -4.700183 0.1209177,-7.252466 -5.169694 0.02968597,7.410,51 2 Main Camera (Points)
-2.910395 -8.091137 -0.06548914,-3.455578 -7.979177 0.01859552,-3.90543 -7.474262 0.007374108,-4.247742 -6.928825 0.0289044,-4.590084 -6.609432 0.09160158,-3.626875 -6.255831 -0.1813738,-3.886206 -5.355986 -0.07592508,-4.020708 -4.818452 0.03212842,-4.124697 -4.342726 0.1192109,-3.366497 -6.030834 -0.09440023,-3.585755 -4.980764 0.02306114,-3.585755 -4.980764 0.02306114,-3.809208 -3.751429 0.2684469,-3.089138 -5.97464 0.03819984,-3.251707 -4.964126 0.1489484,-3.38487 -4.325267 0.2847141,-3.492862 -3.780763 0.4041752,-2.78018 -6.081562 0.1911996,-2.865948 -5.245893 0.3038436,-2.949149 -4.726134 0.4420585,-3.038821 -4.253587 0.5479898,-7.452899 -7.224628 -1.341206,-6.787784 -7.249177 -0.7822438,-6.078649 -6.779119 -0.4215026,-5.782238 -6.171714 -0.07778978,-5.953656 -5.748398 0.171263,-6.146894 -5.183905 -1.068027,-5.674137 -4.344774 -0.4747655,-5.32554 -3.950336 -0.05917072,-5.008635 -3.584917 0.169578,-6.529918 -4.865827 -1.005843,-6.215703 -4.266195 -0.02253592,-6.409986 -5.353244 0.2975255,-6.5845 -5.962707 0.1850356,-6.945454 -4.689383 -0.8066449,-6.689651 -4.046665 0.06171274,-6.80453 -5.068178 0.2076497,-6.940912 -5.649972 0.01466489,-7.435363 -4.611397 -0.5639635,-7.240234 -3.853978 0.0001710653,-7.211757 -4.503921 0.1471328,-7.272621 -5.01021 0.07867491,7.510,51 2 Main Camera (Points)
-2.905521 -8.168028 0.1924827,-3.464569 -8.005688 0.2744904,-3.907581 -7.498149 0.2733803,-4.230343 -6.936906 0.3190407,-4.561769 -6.614833 0.4139339,-3.635281 -6.252513 0.06070617,-3.877419 -5.344009 0.1440435,-4.011076 -4.79175 0.2327411,-4.112445 -4.283123 0.312815,-3.375429 -6.035535 0.148054,-3.571513 -5.001014 0.2386957,-3.571513 -5.001014 0.2386957,-3.796832 -3.778208 0.4394627,-3.097462 -5.988904 0.284122,-3.242989 -4.981056 0.3834169,-3.365685 -4.353069 0.4998453,-3.464035 -3.81541 0.6033743,-2.786857 -6.100929 0.4434403,-2.863288 -5.275368 0.5467309,-2.944963 -4.768264 0.6774482,-3.032511 -4.303379 0.7741345,-7.519586 -7.298582 -1.389017,-6.82778 -7.30082 -0.8623348,-6.125592 -6.804548 -0.5285665,-5.838938 -6.158578 -0.2076626,-6.000097 -5.730175 0.01925826,-6.228105 -5.261258 -1.21198,-5.76221 -4.416471 -0.6638598,-5.425331 -4.021425 -0.2772138,-5.113522 -3.631195 -0.07074487,-6.604878 -4.939632 -1.149464,-6.272883 -4.28078 -0.2163666,-6.471184 -5.356174 0.07674193,-6.65213 -5.971122 -0.04212284,-7.003606 -4.755945 -0.94754,-6.73461 -4.055084 -0.1238486,-6.860147 -5.066944 0.005927086,-7.00902 -5.656206 -0.1856786,-7.481598 -4.664959 -0.7030256,-7.271318 -3.878579 -0.1807091,-7.250254 -4.505777 -0.04667985,-7.328767 -5.005394 -0.1136881,7.610,51 2 Main Camera (Points)
