TiagoOliveira98/Thesis-Project/Difficulty_1_NEW/Dual_Task/Unity_Project/DataLogging/JointData/Logs(1651331853)_ c  _Dual_Difficulty0.csv
WRIST,THUMB_CMC,THUMB_MCP,THUMB_IP,THUMB_TIP,INDEX_FINGER_MCP,INDEX_FINGER_PIP,INDEX_FINGER_DIP,INDEX_FINGER_TIP,MIDDLE_FINGER_MCP,MIDDLE_FINGER_PIP,MIDDLE_FINGER_DIP,MIDDLE_FINGER_TIP,RING_FINGER_MCP,RING_FINGER_PIP,RING_FINGER_DIP,RING_FINGER_TIP,PINKY_MCP,PINKY_PIP,PINKY_DIP,PINKY_TIP,WRIST2,THUMB_CMC2,THUMB_MCP2,THUMB_IP2,THUMB_TIP2,INDEX_FINGER_MCP2,INDEX_FINGER_PIP2,INDEX_FINGER_DIP2,INDEX_FINGER_TIP2,MIDDLE_FINGER_MCP2,MIDDLE_FINGER_PIP2,MIDDLE_FINGER_DIP2,MIDDLE_FINGER_TIP2,RING_FINGER_MCP2,RING_FINGER_PIP2,RING_FINGER_DIP2,RING_FINGER_TIP2,PINKY_MCP2,PINKY_PIP2,PINKY_DIP2,PINKY_TIP2,Timestamp,Event
-2.368042 -7.609115 7.244493E-05,-2.9337 -7.397771 0.2554651,-3.451336 -6.805698 0.4055199,-3.829588 -6.242421 0.557613,-4.157763 -5.910894 0.7365408,-3.118721 -5.296695 0.1297844,-3.332534 -4.359319 0.291215,-3.45146 -3.79022 0.4283336,-3.552787 -3.239692 0.5424077,-2.788612 -5.06533 0.1617461,-2.922935 -3.982029 0.3429725,-3.009047 -3.275054 0.5293601,-3.080189 -2.639653 0.6862098,-2.464975 -5.049892 0.2500123,-2.546797 -4.019899 0.4187023,-2.630194 -3.371174 0.6031381,-2.706079 -2.811629 0.7462675,-2.126736 -5.218776 0.3636031,-2.084245 -4.375989 0.5129971,-2.079365 -3.836815 0.6702895,-2.095372 -3.314756 0.8080109,-7.710871 -7.734876 0.0001896198,-7.141056 -7.439464 0.2601569,-6.628546 -6.766353 0.4099788,-6.266545 -6.093483 0.586133,-5.951487 -5.689268 0.7601138,-7.006855 -5.21363 0.1624683,-6.870496 -4.142562 0.2946668,-6.817398 -3.480702 0.4433014,-6.77729 -2.913475 0.5748905,-7.33121 -5.029722 0.1801496,-7.209849 -3.830122 0.288648,-7.138529 -3.075149 0.4954778,-7.081188 -2.408708 0.6899543,-7.655681 -5.088357 0.2252109,-7.588415 -3.970751 0.3281574,-7.52994 -3.296099 0.4840083,-7.472596 -2.701926 0.6320661,-7.991709 -5.346416 0.298518,-8.078775 -4.546281 0.4186112,-8.10731 -4.03623 0.5497763,-8.107475 -3.519683 0.652387,0.01667,0 0 0 0 0 0 True
-2.3739 -7.579965 -0.01101039,-2.932236 -7.377431 0.2408869,-3.443519 -6.784406 0.3925441,-3.811652 -6.210083 0.5505697,-4.138906 -5.868393 0.7348025,-3.109467 -5.271081 0.1112144,-3.326138 -4.341294 0.2730666,-3.443805 -3.783901 0.4146685,-3.546536 -3.23593 0.5282731,-2.779569 -5.03693 0.1498299,-2.915004 -3.948856 0.3330765,-3.001167 -3.23055 0.5262962,-3.074265 -2.58827 0.6879928,-2.457254 -5.017967 0.2422486,-2.533948 -3.981033 0.4121965,-2.615941 -3.31931 0.5978476,-2.693318 -2.753932 0.7442602,-2.12091 -5.186347 0.3609549,-2.075662 -4.33815 0.5069147,-2.067707 -3.785525 0.66628,-2.081693 -3.253557 0.810185,-7.71879 -7.730552 -0.0128872,-7.151866 -7.425292 0.2396182,-6.637763 -6.745609 0.3890172,-6.269211 -6.072525 0.5677134,-5.947311 -5.661331 0.7464294,-7.015512 -5.213403 0.1568086,-6.88212 -4.134563 0.299055,-6.826847 -3.470493 0.4560479,-6.784119 -2.898335 0.5917112,-7.336044 -5.030812 0.1841897,-7.215072 -3.832757 0.3087254,-7.14158 -3.076791 0.5215344,-7.079919 -2.403461 0.7211872,-7.660035 -5.088923 0.2390236,-7.592352 -3.964761 0.3535785,-7.530895 -3.279741 0.5142103,-7.468656 -2.672596 0.662237,-7.997218 -5.348429 0.3191308,-8.084211 -4.540884 0.4490914,-8.113302 -4.02385 0.5823113,-8.115078 -3.49966 0.6834545,0.05000,0 0 0 0 0 0 True
-2.3739 -7.579965 -0.01101039,-2.932236 -7.377431 0.2408869,-3.443519 -6.784406 0.3925441,-3.811652 -6.210083 0.5505697,-4.138906 -5.868393 0.7348025,-3.109467 -5.271081 0.1112144,-3.326138 -4.341294 0.2730666,-3.443805 -3.783901 0.4146685,-3.546536 -3.23593 0.5282731,-2.779569 -5.03693 0.1498299,-2.915004 -3.948856 0.3330765,-3.001167 -3.23055 0.5262962,-3.074265 -2.58827 0.6879928,-2.457254 -5.017967 0.2422486,-2.533948 -3.981033 0.4121965,-2.615941 -3.31931 0.5978476,-2.693318 -2.753932 0.7442602,-2.12091 -5.186347 0.3609549,-2.075662 -4.33815 0.5069147,-2.067707 -3.785525 0.66628,-2.081693 -3.253557 0.810185,-7.71879 -7.730552 -0.0128872,-7.151866 -7.425292 0.2396182,-6.637763 -6.745609 0.3890172,-6.269211 -6.072525 0.5677134,-5.947311 -5.661331 0.7464294,-7.015512 -5.213403 0.1568086,-6.88212 -4.134563 0.299055,-6.826847 -3.470493 0.4560479,-6.784119 -2.898335 0.5917112,-7.336044 -5.030812 0.1841897,-7.215072 -3.832757 0.3087254,-7.14158 -3.076791 0.5215344,-7.079919 -2.403461 0.7211872,-7.660035 -5.088923 0.2390236,-7.592352 -3.964761 0.3535785,-7.530895 -3.279741 0.5142103,-7.468656 -2.672596 0.662237,-7.997218 -5.348429 0.3191308,-8.084211 -4.540884 0.4490914,-8.113302 -4.02385 0.5823113,-8.115078 -3.49966 0.6834545,0.08333,0 0 0 0 0 0 True
-2.362224 -7.588841 0.01067397,-2.926667 -7.383415 0.2561932,-3.447504 -6.776236 0.3928171,-3.827145 -6.204696 0.5285946,-4.158709 -5.882474 0.6895938,-3.096909 -5.274721 0.1424149,-3.315977 -4.328076 0.3014928,-3.436984 -3.75065 0.4323561,-3.539436 -3.198394 0.5411942,-2.767907 -5.039817 0.1761021,-2.90669 -3.950493 0.3607662,-2.993848 -3.230947 0.5404996,-3.066056 -2.597193 0.6930779,-2.444995 -5.021364 0.265896,-2.529156 -3.983282 0.4403273,-2.612179 -3.316622 0.6225924,-2.687891 -2.748031 0.7657307,-2.108133 -5.191529 0.3771926,-2.064477 -4.347043 0.5312827,-2.055837 -3.80498 0.6882202,-2.065109 -3.282732 0.8289157,-7.722457 -7.713987 -0.001814281,-7.156593 -7.404675 0.2453455,-6.644412 -6.73224 0.3957971,-6.280821 -6.062718 0.5757135,-5.956671 -5.652385 0.7580597,-7.016187 -5.194549 0.1690733,-6.883874 -4.117377 0.3137486,-6.832116 -3.453115 0.4743696,-6.792299 -2.879593 0.6133902,-7.338685 -5.011692 0.20206,-7.215575 -3.81545 0.3295694,-7.145657 -3.059831 0.5465655,-7.084352 -2.383573 0.7529154,-7.663567 -5.068349 0.2589926,-7.593167 -3.944387 0.3748995,-7.53686 -3.256484 0.5437264,-7.476266 -2.639719 0.7014379,-8.00072 -5.327594 0.3411073,-8.084847 -4.520063 0.467358,-8.114791 -4.006385 0.5997248,-8.115225 -3.481429 0.7039427,0.11667,0 0 0 0 0 0 True
-2.362224 -7.588841 0.01067397,-2.926667 -7.383415 0.2561932,-3.447504 -6.776236 0.3928171,-3.827145 -6.204696 0.5285946,-4.158709 -5.882474 0.6895938,-3.096909 -5.274721 0.1424149,-3.315977 -4.328076 0.3014928,-3.436984 -3.75065 0.4323561,-3.539436 -3.198394 0.5411942,-2.767907 -5.039817 0.1761021,-2.90669 -3.950493 0.3607662,-2.993848 -3.230947 0.5404996,-3.066056 -2.597193 0.6930779,-2.444995 -5.021364 0.265896,-2.529156 -3.983282 0.4403273,-2.612179 -3.316622 0.6225924,-2.687891 -2.748031 0.7657307,-2.108133 -5.191529 0.3771926,-2.064477 -4.347043 0.5312827,-2.055837 -3.80498 0.6882202,-2.065109 -3.282732 0.8289157,-7.722457 -7.713987 -0.001814281,-7.156593 -7.404675 0.2453455,-6.644412 -6.73224 0.3957971,-6.280821 -6.062718 0.5757135,-5.956671 -5.652385 0.7580597,-7.016187 -5.194549 0.1690733,-6.883874 -4.117377 0.3137486,-6.832116 -3.453115 0.4743696,-6.792299 -2.879593 0.6133902,-7.338685 -5.011692 0.20206,-7.215575 -3.81545 0.3295694,-7.145657 -3.059831 0.5465655,-7.084352 -2.383573 0.7529154,-7.663567 -5.068349 0.2589926,-7.593167 -3.944387 0.3748995,-7.53686 -3.256484 0.5437264,-7.476266 -2.639719 0.7014379,-8.00072 -5.327594 0.3411073,-8.084847 -4.520063 0.467358,-8.114791 -4.006385 0.5997248,-8.115225 -3.481429 0.7039427,0.15000,0 0 0 0 0 0 True
-2.375713 -7.577041 0.0282746,-2.934796 -7.378699 0.2530053,-3.448717 -6.77235 0.3786866,-3.827566 -6.205311 0.510841,-4.157055 -5.882772 0.6688651,-3.102818 -5.253811 0.1092774,-3.328289 -4.316429 0.2526224,-3.453556 -3.750495 0.3723056,-3.560947 -3.207021 0.4712767,-2.775167 -5.019613 0.1523643,-2.913091 -3.934421 0.321369,-3.001835 -3.224027 0.4977496,-3.072686 -2.590307 0.6454335,-2.455589 -4.999021 0.252619,-2.540762 -3.964357 0.4172013,-2.627321 -3.301051 0.5991499,-2.70344 -2.730201 0.7407558,-2.121322 -5.166107 0.3729844,-2.076217 -4.319709 0.517004,-2.06732 -3.77835 0.6706088,-2.075221 -3.251015 0.8091097,-7.70067 -7.719833 0.004897377,-7.138043 -7.406745 0.255005,-6.633262 -6.724873 0.4040227,-6.272916 -6.059036 0.5859709,-5.95788 -5.6422 0.7739956,-7.019404 -5.186013 0.1639388,-6.882285 -4.113744 0.3031742,-6.821842 -3.453529 0.4647449,-6.776407 -2.881254 0.6074193,-7.336228 -5.012323 0.2005847,-7.213346 -3.816356 0.3198021,-7.139708 -3.057141 0.5379788,-7.079923 -2.383655 0.7400491,-7.656357 -5.079712 0.2654783,-7.589327 -3.957999 0.3790571,-7.529422 -3.265823 0.5472583,-7.469357 -2.655241 0.7043882,-7.990079 -5.349189 0.3560376,-8.07979 -4.54046 0.4878838,-8.1091 -4.017865 0.6234443,-8.11072 -3.491113 0.7277501,0.18333,0 0 0 0 0 0 True
-2.375713 -7.577041 0.0282746,-2.934796 -7.378699 0.2530053,-3.448717 -6.77235 0.3786866,-3.827566 -6.205311 0.510841,-4.157055 -5.882772 0.6688651,-3.102818 -5.253811 0.1092774,-3.328289 -4.316429 0.2526224,-3.453556 -3.750495 0.3723056,-3.560947 -3.207021 0.4712767,-2.775167 -5.019613 0.1523643,-2.913091 -3.934421 0.321369,-3.001835 -3.224027 0.4977496,-3.072686 -2.590307 0.6454335,-2.455589 -4.999021 0.252619,-2.540762 -3.964357 0.4172013,-2.627321 -3.301051 0.5991499,-2.70344 -2.730201 0.7407558,-2.121322 -5.166107 0.3729844,-2.076217 -4.319709 0.517004,-2.06732 -3.77835 0.6706088,-2.075221 -3.251015 0.8091097,-7.70067 -7.719833 0.004897377,-7.138043 -7.406745 0.255005,-6.633262 -6.724873 0.4040227,-6.272916 -6.059036 0.5859709,-5.95788 -5.6422 0.7739956,-7.019404 -5.186013 0.1639388,-6.882285 -4.113744 0.3031742,-6.821842 -3.453529 0.4647449,-6.776407 -2.881254 0.6074193,-7.336228 -5.012323 0.2005847,-7.213346 -3.816356 0.3198021,-7.139708 -3.057141 0.5379788,-7.079923 -2.383655 0.7400491,-7.656357 -5.079712 0.2654783,-7.589327 -3.957999 0.3790571,-7.529422 -3.265823 0.5472583,-7.469357 -2.655241 0.7043882,-7.990079 -5.349189 0.3560376,-8.07979 -4.54046 0.4878838,-8.1091 -4.017865 0.6234443,-8.11072 -3.491113 0.7277501,0.21667,0 0 0 0 0 0 True
-2.401312 -7.581724 -0.005055763,-2.962045 -7.378403 0.2136866,-3.471628 -6.77751 0.3361009,-3.838204 -6.216791 0.4666318,-4.158249 -5.88688 0.6168457,-3.11359 -5.266949 0.09259188,-3.343198 -4.32896 0.244982,-3.474709 -3.758838 0.3727558,-3.586102 -3.217069 0.471861,-2.787039 -5.033106 0.1428304,-2.922215 -3.933876 0.3325444,-3.01229 -3.216983 0.5162272,-3.081008 -2.582839 0.6629213,-2.469641 -5.012033 0.2482789,-2.54463 -3.96911 0.424416,-2.623442 -3.308685 0.6054201,-2.687975 -2.745474 0.7454378,-2.140354 -5.177986 0.3719191,-2.095955 -4.32766 0.5245647,-2.087688 -3.782859 0.6757083,-2.097083 -3.257948 0.807768,-7.686783 -7.73998 0.0166602,-7.132904 -7.407749 0.245217,-6.627953 -6.724287 0.3852496,-6.263779 -6.068407 0.5606164,-5.942719 -5.672912 0.7418519,-7.017188 -5.201452 0.1646026,-6.886724 -4.130437 0.3072449,-6.823735 -3.476994 0.4619345,-6.775054 -2.91565 0.5966063,-7.331032 -5.028589 0.221633,-7.210544 -3.841827 0.3496448,-7.131208 -3.083191 0.5605203,-7.064371 -2.413437 0.7570496,-7.649008 -5.094711 0.3035823,-7.579393 -3.98379 0.4317724,-7.514222 -3.285996 0.597012,-7.448507 -2.670081 0.7477154,-7.978353 -5.363412 0.4109142,-8.071498 -4.558366 0.5594196,-8.10189 -4.033628 0.6989656,-8.104218 -3.502923 0.8043424,0.25000,0 0 0 0 0 0 True
-2.398782 -7.586275 0.01012672,-2.958661 -7.372302 0.224142,-3.464552 -6.767217 0.3427558,-3.832907 -6.203565 0.4705536,-4.15362 -5.878416 0.6209037,-3.114379 -5.264843 0.0997616,-3.345412 -4.327539 0.2446209,-3.477701 -3.761409 0.3669327,-3.590128 -3.222346 0.4675145,-2.790214 -5.033744 0.151258,-2.926004 -3.935369 0.3307286,-3.016638 -3.224464 0.511516,-3.087735 -2.593305 0.6551342,-2.474487 -5.019294 0.257716,-2.551255 -3.971744 0.4261403,-2.634749 -3.309858 0.6042298,-2.705183 -2.745019 0.7429734,-2.144676 -5.193811 0.384175,-2.099127 -4.346856 0.5309174,-2.092849 -3.79947 0.6825595,-2.103091 -3.272647 0.8120562,-7.684488 -7.750564 0.001038755,-7.12619 -7.41859 0.2378629,-6.62361 -6.742549 0.3789123,-6.261082 -6.080118 0.5521728,-5.943842 -5.687582 0.7280821,-7.012049 -5.215076 0.1327998,-6.88509 -4.149312 0.270924,-6.824984 -3.498122 0.427296,-6.77744 -2.942985 0.5639124,-7.328406 -5.041728 0.1779167,-7.212336 -3.859601 0.3041337,-7.137276 -3.110197 0.5143418,-7.068575 -2.443705 0.7096487,-7.646637 -5.10247 0.2480832,-7.579266 -3.989193 0.3707964,-7.516083 -3.305669 0.529276,-7.445507 -2.698538 0.6686155,-7.974316 -5.364899 0.3454647,-8.069161 -4.57249 0.4839376,-8.106007 -4.056571 0.6141527,-8.109828 -3.527615 0.7100338,0.28333,0 0 0 0 0 0 True
-2.398782 -7.586275 0.01012672,-2.958661 -7.372302 0.224142,-3.464552 -6.767217 0.3427558,-3.832907 -6.203565 0.4705536,-4.15362 -5.878416 0.6209037,-3.114379 -5.264843 0.0997616,-3.345412 -4.327539 0.2446209,-3.477701 -3.761409 0.3669327,-3.590128 -3.222346 0.4675145,-2.790214 -5.033744 0.151258,-2.926004 -3.935369 0.3307286,-3.016638 -3.224464 0.511516,-3.087735 -2.593305 0.6551342,-2.474487 -5.019294 0.257716,-2.551255 -3.971744 0.4261403,-2.634749 -3.309858 0.6042298,-2.705183 -2.745019 0.7429734,-2.144676 -5.193811 0.384175,-2.099127 -4.346856 0.5309174,-2.092849 -3.79947 0.6825595,-2.103091 -3.272647 0.8120562,-7.684488 -7.750564 0.001038755,-7.12619 -7.41859 0.2378629,-6.62361 -6.742549 0.3789123,-6.261082 -6.080118 0.5521728,-5.943842 -5.687582 0.7280821,-7.012049 -5.215076 0.1327998,-6.88509 -4.149312 0.270924,-6.824984 -3.498122 0.427296,-6.77744 -2.942985 0.5639124,-7.328406 -5.041728 0.1779167,-7.212336 -3.859601 0.3041337,-7.137276 -3.110197 0.5143418,-7.068575 -2.443705 0.7096487,-7.646637 -5.10247 0.2480832,-7.579266 -3.989193 0.3707964,-7.516083 -3.305669 0.529276,-7.445507 -2.698538 0.6686155,-7.974316 -5.364899 0.3454647,-8.069161 -4.57249 0.4839376,-8.106007 -4.056571 0.6141527,-8.109828 -3.527615 0.7100338,0.31667,0 0 0 0 0 0 True
-2.391568 -7.594099 0.003711677,-2.957345 -7.383323 0.2138537,-3.469922 -6.776266 0.3166273,-3.83745 -6.206789 0.4296844,-4.154687 -5.8846 0.5603082,-3.11302 -5.27774 0.07022458,-3.338599 -4.339813 0.20792,-3.469016 -3.770297 0.3281316,-3.580489 -3.225162 0.4296582,-2.791348 -5.043289 0.1154849,-2.923971 -3.944343 0.2873648,-3.014026 -3.233075 0.466752,-3.085825 -2.601877 0.613466,-2.47791 -5.024147 0.2175288,-2.552328 -3.983254 0.3781982,-2.631253 -3.328258 0.5521644,-2.699627 -2.768933 0.6898904,-2.150589 -5.191174 0.3394213,-2.10426 -4.354803 0.4846818,-2.096965 -3.818059 0.6336042,-2.108181 -3.301511 0.7626582,-7.687529 -7.755861 -0.0001095503,-7.132259 -7.441221 0.2460344,-6.62887 -6.759353 0.3869186,-6.266221 -6.095676 0.5569748,-5.946882 -5.707529 0.7279545,-7.009953 -5.225517 0.1367842,-6.880469 -4.162195 0.2699009,-6.819096 -3.509597 0.4218615,-6.767919 -2.953719 0.5579814,-7.328086 -5.047531 0.1724664,-7.210085 -3.863654 0.2928413,-7.13684 -3.111289 0.5020986,-7.070294 -2.447423 0.6997199,-7.648252 -5.10761 0.2332017,-7.579543 -3.994344 0.3485056,-7.518989 -3.305453 0.5039713,-7.451541 -2.70099 0.6456217,-7.977898 -5.370271 0.3216527,-8.067375 -4.578571 0.4527514,-8.098662 -4.065177 0.5809966,-8.099165 -3.545351 0.676716,0.35000,0 0 0 0 0 0 True
-2.391568 -7.594099 0.003711677,-2.957345 -7.383323 0.2138537,-3.469922 -6.776266 0.3166273,-3.83745 -6.206789 0.4296844,-4.154687 -5.8846 0.5603082,-3.11302 -5.27774 0.07022458,-3.338599 -4.339813 0.20792,-3.469016 -3.770297 0.3281316,-3.580489 -3.225162 0.4296582,-2.791348 -5.043289 0.1154849,-2.923971 -3.944343 0.2873648,-3.014026 -3.233075 0.466752,-3.085825 -2.601877 0.613466,-2.47791 -5.024147 0.2175288,-2.552328 -3.983254 0.3781982,-2.631253 -3.328258 0.5521644,-2.699627 -2.768933 0.6898904,-2.150589 -5.191174 0.3394213,-2.10426 -4.354803 0.4846818,-2.096965 -3.818059 0.6336042,-2.108181 -3.301511 0.7626582,-7.687529 -7.755861 -0.0001095503,-7.132259 -7.441221 0.2460344,-6.62887 -6.759353 0.3869186,-6.266221 -6.095676 0.5569748,-5.946882 -5.707529 0.7279545,-7.009953 -5.225517 0.1367842,-6.880469 -4.162195 0.2699009,-6.819096 -3.509597 0.4218615,-6.767919 -2.953719 0.5579814,-7.328086 -5.047531 0.1724664,-7.210085 -3.863654 0.2928413,-7.13684 -3.111289 0.5020986,-7.070294 -2.447423 0.6997199,-7.648252 -5.10761 0.2332017,-7.579543 -3.994344 0.3485056,-7.518989 -3.305453 0.5039713,-7.451541 -2.70099 0.6456217,-7.977898 -5.370271 0.3216527,-8.067375 -4.578571 0.4527514,-8.098662 -4.065177 0.5809966,-8.099165 -3.545351 0.676716,0.38333,0 0 0 0 0 0 True
-2.390114 -7.614279 0.04456641,-2.951392 -7.416826 0.2715719,-3.465528 -6.803216 0.3858981,-3.834579 -6.229517 0.5111188,-4.147736 -5.89963 0.6553645,-3.115322 -5.290374 0.1145188,-3.339132 -4.352918 0.2565033,-3.465246 -3.78608 0.376606,-3.571874 -3.238432 0.4790164,-2.791197 -5.051799 0.1559522,-2.925315 -3.959018 0.3213148,-3.013137 -3.252037 0.4989779,-3.083239 -2.624779 0.6426075,-2.476872 -5.033359 0.2568742,-2.557124 -3.994006 0.4197491,-2.640872 -3.341612 0.5940723,-2.715034 -2.781782 0.7301674,-2.147971 -5.205476 0.3801993,-2.102225 -4.36714 0.5275094,-2.09514 -3.833601 0.6767962,-2.107359 -3.319392 0.8051505,-7.702559 -7.765036 -0.002228549,-7.140703 -7.458122 0.2254379,-6.632976 -6.77624 0.3596835,-6.269449 -6.110132 0.5269209,-5.946781 -5.73185 0.6966703,-7.015537 -5.23604 0.1303922,-6.887254 -4.170994 0.2584618,-6.829565 -3.521518 0.4044954,-6.784121 -2.966054 0.5344193,-7.336322 -5.058395 0.1729233,-7.220355 -3.868553 0.2853925,-7.147994 -3.116985 0.486126,-7.084969 -2.455757 0.6777191,-7.658743 -5.121674 0.2387298,-7.587982 -4.007301 0.3476878,-7.524097 -3.325637 0.4926492,-7.459667 -2.729709 0.6273128,-7.9921 -5.388345 0.3310961,-8.076759 -4.586731 0.4565344,-8.106213 -4.067272 0.5846629,-8.109365 -3.5438 0.6810001,0.41667,0 0 0 0 0 0 True
-2.390114 -7.614279 0.04456641,-2.951392 -7.416826 0.2715719,-3.465528 -6.803216 0.3858981,-3.834579 -6.229517 0.5111188,-4.147736 -5.89963 0.6553645,-3.115322 -5.290374 0.1145188,-3.339132 -4.352918 0.2565033,-3.465246 -3.78608 0.376606,-3.571874 -3.238432 0.4790164,-2.791197 -5.051799 0.1559522,-2.925315 -3.959018 0.3213148,-3.013137 -3.252037 0.4989779,-3.083239 -2.624779 0.6426075,-2.476872 -5.033359 0.2568742,-2.557124 -3.994006 0.4197491,-2.640872 -3.341612 0.5940723,-2.715034 -2.781782 0.7301674,-2.147971 -5.205476 0.3801993,-2.102225 -4.36714 0.5275094,-2.09514 -3.833601 0.6767962,-2.107359 -3.319392 0.8051505,-7.702559 -7.765036 -0.002228549,-7.140703 -7.458122 0.2254379,-6.632976 -6.77624 0.3596835,-6.269449 -6.110132 0.5269209,-5.946781 -5.73185 0.6966703,-7.015537 -5.23604 0.1303922,-6.887254 -4.170994 0.2584618,-6.829565 -3.521518 0.4044954,-6.784121 -2.966054 0.5344193,-7.336322 -5.058395 0.1729233,-7.220355 -3.868553 0.2853925,-7.147994 -3.116985 0.486126,-7.084969 -2.455757 0.6777191,-7.658743 -5.121674 0.2387298,-7.587982 -4.007301 0.3476878,-7.524097 -3.325637 0.4926492,-7.459667 -2.729709 0.6273128,-7.9921 -5.388345 0.3310961,-8.076759 -4.586731 0.4565344,-8.106213 -4.067272 0.5846629,-8.109365 -3.5438 0.6810001,0.45000,0 0 0 0 0 0 True
-2.384793 -7.63903 0.07873698,-2.945259 -7.42958 0.2995042,-3.452579 -6.817292 0.4192148,-3.812363 -6.229394 0.5568118,-4.119438 -5.861932 0.7169698,-3.099653 -5.295145 0.116011,-3.326159 -4.352466 0.2505772,-3.452719 -3.788976 0.3680331,-3.557702 -3.242726 0.4674095,-2.775688 -5.064128 0.1653452,-2.91309 -3.969514 0.3148156,-3.007906 -3.262969 0.4861804,-3.083603 -2.636241 0.6274724,-2.460785 -5.052623 0.2755406,-2.541683 -4.006986 0.4237999,-2.632264 -3.34589 0.5956326,-2.712635 -2.781255 0.7333521,-2.131608 -5.233184 0.4111524,-2.08626 -4.38694 0.5469345,-2.084061 -3.838886 0.6965938,-2.101215 -3.316174 0.8256205,-7.710915 -7.779418 0.003512526,-7.147042 -7.476097 0.2448698,-6.641765 -6.792013 0.388087,-6.283565 -6.124856 0.5622804,-5.964519 -5.739425 0.738606,-7.020186 -5.250871 0.1592662,-6.887122 -4.173255 0.2976629,-6.830432 -3.512868 0.4522055,-6.788116 -2.944496 0.5849051,-7.342443 -5.072526 0.1947265,-7.228285 -3.868349 0.3159167,-7.159632 -3.10416 0.5274695,-7.103173 -2.428213 0.7301434,-7.666992 -5.137983 0.2547724,-7.60308 -4.01668 0.3719642,-7.544765 -3.32146 0.5254729,-7.487738 -2.714103 0.6687337,-8.004336 -5.407856 0.3412746,-8.089455 -4.595098 0.4713365,-8.118031 -4.071847 0.6033133,-8.12259 -3.546376 0.7045329,0.48333,0 0 0 0 0 0 True
-2.384793 -7.63903 0.07873698,-2.945259 -7.42958 0.2995042,-3.452579 -6.817292 0.4192148,-3.812363 -6.229394 0.5568118,-4.119438 -5.861932 0.7169698,-3.099653 -5.295145 0.116011,-3.326159 -4.352466 0.2505772,-3.452719 -3.788976 0.3680331,-3.557702 -3.242726 0.4674095,-2.775688 -5.064128 0.1653452,-2.91309 -3.969514 0.3148156,-3.007906 -3.262969 0.4861804,-3.083603 -2.636241 0.6274724,-2.460785 -5.052623 0.2755406,-2.541683 -4.006986 0.4237999,-2.632264 -3.34589 0.5956326,-2.712635 -2.781255 0.7333521,-2.131608 -5.233184 0.4111524,-2.08626 -4.38694 0.5469345,-2.084061 -3.838886 0.6965938,-2.101215 -3.316174 0.8256205,-7.710915 -7.779418 0.003512526,-7.147042 -7.476097 0.2448698,-6.641765 -6.792013 0.388087,-6.283565 -6.124856 0.5622804,-5.964519 -5.739425 0.738606,-7.020186 -5.250871 0.1592662,-6.887122 -4.173255 0.2976629,-6.830432 -3.512868 0.4522055,-6.788116 -2.944496 0.5849051,-7.342443 -5.072526 0.1947265,-7.228285 -3.868349 0.3159167,-7.159632 -3.10416 0.5274695,-7.103173 -2.428213 0.7301434,-7.666992 -5.137983 0.2547724,-7.60308 -4.01668 0.3719642,-7.544765 -3.32146 0.5254729,-7.487738 -2.714103 0.6687337,-8.004336 -5.407856 0.3412746,-8.089455 -4.595098 0.4713365,-8.118031 -4.071847 0.6033133,-8.12259 -3.546376 0.7045329,0.51667,0 0 0 0 0 0 True
-2.377455 -7.613908 0.144092,-2.927262 -7.380675 0.3754074,-3.411501 -6.740413 0.5107301,-3.743939 -6.116245 0.664964,-4.066316 -5.726768 0.8551087,-3.083179 -5.243276 0.2091416,-3.306099 -4.300771 0.344491,-3.428701 -3.738815 0.4617249,-3.536512 -3.192575 0.5638927,-2.757103 -5.019509 0.2580052,-2.891957 -3.927972 0.4174117,-2.982864 -3.227154 0.5918661,-3.061724 -2.594939 0.7398556,-2.441451 -5.016356 0.3658938,-2.520449 -3.969202 0.5237589,-2.61113 -3.302764 0.7088304,-2.699611 -2.721453 0.8592091,-2.113402 -5.207809 0.499219,-2.067633 -4.36874 0.6446998,-2.061798 -3.811658 0.8098099,-2.074832 -3.274234 0.9560009,-7.728975 -7.790454 0.109626,-7.164236 -7.470851 0.3544526,-6.657384 -6.754501 0.5124545,-6.297491 -6.060001 0.7103361,-5.963027 -5.639122 0.9185572,-7.036295 -5.235404 0.2713727,-6.90921 -4.155221 0.4221083,-6.856295 -3.492418 0.5806015,-6.816435 -2.911682 0.7134641,-7.358341 -5.054765 0.321859,-7.248175 -3.852529 0.4513227,-7.181963 -3.090805 0.6637587,-7.121288 -2.415589 0.869567,-7.683313 -5.119814 0.3991274,-7.615622 -3.98616 0.5292543,-7.555281 -3.283295 0.7013797,-7.493288 -2.662792 0.8608869,-8.023802 -5.391947 0.5021882,-8.10347 -4.573332 0.6463286,-8.130477 -4.047693 0.7916639,-8.131466 -3.517044 0.9095238,0.55000,0 0 0 0 0 0 True
-2.377455 -7.613908 0.144092,-2.927262 -7.380675 0.3754074,-3.411501 -6.740413 0.5107301,-3.743939 -6.116245 0.664964,-4.066316 -5.726768 0.8551087,-3.083179 -5.243276 0.2091416,-3.306099 -4.300771 0.344491,-3.428701 -3.738815 0.4617249,-3.536512 -3.192575 0.5638927,-2.757103 -5.019509 0.2580052,-2.891957 -3.927972 0.4174117,-2.982864 -3.227154 0.5918661,-3.061724 -2.594939 0.7398556,-2.441451 -5.016356 0.3658938,-2.520449 -3.969202 0.5237589,-2.61113 -3.302764 0.7088304,-2.699611 -2.721453 0.8592091,-2.113402 -5.207809 0.499219,-2.067633 -4.36874 0.6446998,-2.061798 -3.811658 0.8098099,-2.074832 -3.274234 0.9560009,-7.728975 -7.790454 0.109626,-7.164236 -7.470851 0.3544526,-6.657384 -6.754501 0.5124545,-6.297491 -6.060001 0.7103361,-5.963027 -5.639122 0.9185572,-7.036295 -5.235404 0.2713727,-6.90921 -4.155221 0.4221083,-6.856295 -3.492418 0.5806015,-6.816435 -2.911682 0.7134641,-7.358341 -5.054765 0.321859,-7.248175 -3.852529 0.4513227,-7.181963 -3.090805 0.6637587,-7.121288 -2.415589 0.869567,-7.683313 -5.119814 0.3991274,-7.615622 -3.98616 0.5292543,-7.555281 -3.283295 0.7013797,-7.493288 -2.662792 0.8608869,-8.023802 -5.391947 0.5021882,-8.10347 -4.573332 0.6463286,-8.130477 -4.047693 0.7916639,-8.131466 -3.517044 0.9095238,0.58333,0 0 0 0 0 0 True
-2.334321 -7.56483 0.1452966,-2.887206 -7.323398 0.4016209,-3.367297 -6.671446 0.5436122,-3.6845 -6.025369 0.7040828,-4.002012 -5.600938 0.898796,-3.051207 -5.206214 0.2759114,-3.292351 -4.260017 0.4240624,-3.426723 -3.685796 0.5397651,-3.545519 -3.120887 0.6465092,-2.723398 -4.974271 0.3109808,-2.865601 -3.879434 0.477813,-2.95242 -3.173876 0.6597338,-3.022254 -2.53384 0.8125597,-2.408691 -4.965763 0.4084421,-2.489051 -3.919946 0.5770642,-2.575038 -3.239867 0.7774068,-2.652278 -2.645807 0.9451717,-2.080989 -5.155529 0.5257953,-2.031042 -4.296421 0.6853517,-2.020234 -3.728182 0.8680595,-2.025183 -3.187385 1.028509,-7.741531 -7.784904 0.1559269,-7.171271 -7.453524 0.3836301,-6.66719 -6.736814 0.5379846,-6.311737 -6.036542 0.7350447,-5.985352 -5.597606 0.9462568,-7.057033 -5.211429 0.2892436,-6.927675 -4.129922 0.4372246,-6.879735 -3.464546 0.5899987,-6.843272 -2.881143 0.7170666,-7.37973 -5.033424 0.3519722,-7.268291 -3.82485 0.4729033,-7.206904 -3.06635 0.6813633,-7.14996 -2.388542 0.8846636,-7.702761 -5.102247 0.4430431,-7.633584 -3.955543 0.5666835,-7.573348 -3.257308 0.7471915,-7.51135 -2.632165 0.9147518,-8.039989 -5.379038 0.5590349,-8.12028 -4.557134 0.7021494,-8.150348 -4.028291 0.8541692,-8.152433 -3.483141 0.981952,0.61667,0 0 0 0 0 0 True
-2.308276 -7.503485 0.2166579,-2.860062 -7.259767 0.471747,-3.336868 -6.589672 0.605407,-3.649655 -5.933289 0.7644108,-3.969433 -5.499038 0.9587113,-3.054549 -5.131981 0.3334919,-3.294064 -4.194641 0.506155,-3.423679 -3.619737 0.6316696,-3.536963 -3.046051 0.738887,-2.726772 -4.896471 0.375855,-2.873941 -3.827695 0.5628765,-2.970329 -3.145076 0.7525299,-3.051405 -2.512627 0.9045525,-2.407926 -4.892023 0.4848887,-2.494828 -3.868732 0.6759417,-2.588684 -3.223953 0.8909248,-2.676638 -2.642775 1.064202,-2.073389 -5.08568 0.6141877,-2.032925 -4.257984 0.7907755,-2.03725 -3.713012 0.989812,-2.061824 -3.182422 1.157468,-7.724069 -7.791149 0.1817508,-7.163499 -7.442788 0.4067514,-6.667515 -6.72174 0.5623791,-6.314943 -6.019035 0.7593054,-5.986759 -5.592418 0.9708167,-7.069378 -5.196512 0.3353497,-6.943056 -4.09696 0.4911163,-6.894685 -3.418844 0.6483245,-6.858633 -2.82403 0.7806911,-7.384109 -5.031295 0.4022088,-7.277996 -3.810685 0.5327048,-7.217685 -3.040688 0.7448446,-7.164836 -2.349796 0.9473198,-7.701915 -5.11152 0.4972147,-7.642097 -3.963148 0.6233666,-7.586743 -3.263252 0.7956278,-7.53203 -2.633026 0.9584949,-8.033644 -5.397518 0.6176448,-8.116261 -4.566307 0.7622144,-8.142242 -4.028207 0.9120788,-8.140837 -3.476443 1.034907,0.65000,0 0 0 0 0 0 True
-2.308276 -7.503485 0.2166579,-2.860062 -7.259767 0.471747,-3.336868 -6.589672 0.605407,-3.649655 -5.933289 0.7644108,-3.969433 -5.499038 0.9587113,-3.054549 -5.131981 0.3334919,-3.294064 -4.194641 0.506155,-3.423679 -3.619737 0.6316696,-3.536963 -3.046051 0.738887,-2.726772 -4.896471 0.375855,-2.873941 -3.827695 0.5628765,-2.970329 -3.145076 0.7525299,-3.051405 -2.512627 0.9045525,-2.407926 -4.892023 0.4848887,-2.494828 -3.868732 0.6759417,-2.588684 -3.223953 0.8909248,-2.676638 -2.642775 1.064202,-2.073389 -5.08568 0.6141877,-2.032925 -4.257984 0.7907755,-2.03725 -3.713012 0.989812,-2.061824 -3.182422 1.157468,-7.724069 -7.791149 0.1817508,-7.163499 -7.442788 0.4067514,-6.667515 -6.72174 0.5623791,-6.314943 -6.019035 0.7593054,-5.986759 -5.592418 0.9708167,-7.069378 -5.196512 0.3353497,-6.943056 -4.09696 0.4911163,-6.894685 -3.418844 0.6483245,-6.858633 -2.82403 0.7806911,-7.384109 -5.031295 0.4022088,-7.277996 -3.810685 0.5327048,-7.217685 -3.040688 0.7448446,-7.164836 -2.349796 0.9473198,-7.701915 -5.11152 0.4972147,-7.642097 -3.963148 0.6233666,-7.586743 -3.263252 0.7956278,-7.53203 -2.633026 0.9584949,-8.033644 -5.397518 0.6176448,-8.116261 -4.566307 0.7622144,-8.142242 -4.028207 0.9120788,-8.140837 -3.476443 1.034907,0.68333,0 0 0 0 0 0 True
-2.234899 -7.500043 0.3332438,-2.79655 -7.224874 0.6302346,-3.289276 -6.537331 0.772512,-3.5986 -5.845096 0.9459277,-3.942776 -5.391562 1.164326,-3.053021 -5.078062 0.433929,-3.307453 -4.160568 0.6136299,-3.454111 -3.596481 0.751189,-3.582022 -3.021772 0.8813457,-2.716687 -4.86816 0.4570161,-2.862153 -3.88128 0.6186776,-2.962569 -3.251611 0.7983793,-3.039572 -2.667352 0.949948,-2.383984 -4.891328 0.5555816,-2.45271 -3.969842 0.7154534,-2.530879 -3.385973 0.9374796,-2.60157 -2.866819 1.114983,-2.038604 -5.105171 0.6852758,-2.005271 -4.369182 0.8685738,-2.019255 -3.879533 1.074558,-2.046992 -3.402963 1.242201,-7.720989 -7.834173 0.2948106,-7.160551 -7.469626 0.4997075,-6.662699 -6.73784 0.6246514,-6.310165 -6.047092 0.7973384,-5.984436 -5.641052 0.9809921,-7.064141 -5.198385 0.3660616,-6.93009 -4.147879 0.4868669,-6.865291 -3.505992 0.6369093,-6.81414 -2.939477 0.7605583,-7.379893 -5.036319 0.4293315,-7.284581 -3.858051 0.5086246,-7.228395 -3.118927 0.7002199,-7.1794 -2.454404 0.87396,-7.692163 -5.112072 0.5246102,-7.643861 -3.992527 0.6154739,-7.5913 -3.301382 0.7703176,-7.534624 -2.680628 0.9118158,-8.015695 -5.386123 0.6434956,-8.090184 -4.551482 0.773579,-8.112378 -4.003811 0.9172898,-8.1052 -3.449009 1.026137,0.71667,0 0 0 0 0 0 True
-2.234899 -7.500043 0.3332438,-2.79655 -7.224874 0.6302346,-3.289276 -6.537331 0.772512,-3.5986 -5.845096 0.9459277,-3.942776 -5.391562 1.164326,-3.053021 -5.078062 0.433929,-3.307453 -4.160568 0.6136299,-3.454111 -3.596481 0.751189,-3.582022 -3.021772 0.8813457,-2.716687 -4.86816 0.4570161,-2.862153 -3.88128 0.6186776,-2.962569 -3.251611 0.7983793,-3.039572 -2.667352 0.949948,-2.383984 -4.891328 0.5555816,-2.45271 -3.969842 0.7154534,-2.530879 -3.385973 0.9374796,-2.60157 -2.866819 1.114983,-2.038604 -5.105171 0.6852758,-2.005271 -4.369182 0.8685738,-2.019255 -3.879533 1.074558,-2.046992 -3.402963 1.242201,-7.720989 -7.834173 0.2948106,-7.160551 -7.469626 0.4997075,-6.662699 -6.73784 0.6246514,-6.310165 -6.047092 0.7973384,-5.984436 -5.641052 0.9809921,-7.064141 -5.198385 0.3660616,-6.93009 -4.147879 0.4868669,-6.865291 -3.505992 0.6369093,-6.81414 -2.939477 0.7605583,-7.379893 -5.036319 0.4293315,-7.284581 -3.858051 0.5086246,-7.228395 -3.118927 0.7002199,-7.1794 -2.454404 0.87396,-7.692163 -5.112072 0.5246102,-7.643861 -3.992527 0.6154739,-7.5913 -3.301382 0.7703176,-7.534624 -2.680628 0.9118158,-8.015695 -5.386123 0.6434956,-8.090184 -4.551482 0.773579,-8.112378 -4.003811 0.9172898,-8.1052 -3.449009 1.026137,0.75000,0 0 0 0 0 0 True
-2.204748 -7.379827 0.1037287,-2.75422 -7.188146 0.5180116,-3.251972 -6.472547 0.6954941,-3.553313 -5.768446 0.879728,-3.88935 -5.257246 1.095141,-3.042418 -4.982849 0.2379379,-3.299473 -4.096649 0.4035124,-3.434018 -3.54045 0.6163107,-3.549056 -3.010128 0.8381925,-2.683259 -4.813812 0.2231848,-2.789488 -3.862553 0.5258138,-2.82642 -3.491325 0.912532,-2.82308 -3.441808 1.167721,-2.334639 -4.847509 0.2819875,-2.373894 -3.986423 0.5864335,-2.388579 -3.74368 1.045507,-2.385435 -3.822715 1.344801,-1.973373 -5.016933 0.3762935,-1.964985 -4.315334 0.679764,-1.971303 -4.12125 1.021017,-1.97438 -4.17344 1.265255,-7.720179 -7.875864 0.4405496,-7.152011 -7.477376 0.568548,-6.666889 -6.72225 0.6745386,-6.326882 -6.016527 0.8462321,-5.996514 -5.575275 1.038461,-7.062299 -5.174446 0.3775297,-6.935087 -4.148311 0.4552171,-6.862972 -3.519842 0.5773023,-6.796232 -2.966697 0.6708625,-7.386335 -5.032136 0.4709511,-7.308091 -3.910263 0.4852749,-7.243874 -3.246898 0.6272874,-7.182284 -2.680309 0.7460532,-7.700472 -5.108956 0.6035039,-7.677469 -4.030279 0.6451131,-7.620102 -3.416963 0.7739415,-7.550168 -2.884586 0.8845647,-8.018055 -5.372213 0.7550951,-8.092984 -4.550681 0.8486037,-8.108624 -4.021238 0.9718865,-8.090464 -3.494449 1.059805,0.78333,0 0 0 0 0 0 True
-2.204748 -7.379827 0.1037287,-2.75422 -7.188146 0.5180116,-3.251972 -6.472547 0.6954941,-3.553313 -5.768446 0.879728,-3.88935 -5.257246 1.095141,-3.042418 -4.982849 0.2379379,-3.299473 -4.096649 0.4035124,-3.434018 -3.54045 0.6163107,-3.549056 -3.010128 0.8381925,-2.683259 -4.813812 0.2231848,-2.789488 -3.862553 0.5258138,-2.82642 -3.491325 0.912532,-2.82308 -3.441808 1.167721,-2.334639 -4.847509 0.2819875,-2.373894 -3.986423 0.5864335,-2.388579 -3.74368 1.045507,-2.385435 -3.822715 1.344801,-1.973373 -5.016933 0.3762935,-1.964985 -4.315334 0.679764,-1.971303 -4.12125 1.021017,-1.97438 -4.17344 1.265255,-7.720179 -7.875864 0.4405496,-7.152011 -7.477376 0.568548,-6.666889 -6.72225 0.6745386,-6.326882 -6.016527 0.8462321,-5.996514 -5.575275 1.038461,-7.062299 -5.174446 0.3775297,-6.935087 -4.148311 0.4552171,-6.862972 -3.519842 0.5773023,-6.796232 -2.966697 0.6708625,-7.386335 -5.032136 0.4709511,-7.308091 -3.910263 0.4852749,-7.243874 -3.246898 0.6272874,-7.182284 -2.680309 0.7460532,-7.700472 -5.108956 0.6035039,-7.677469 -4.030279 0.6451131,-7.620102 -3.416963 0.7739415,-7.550168 -2.884586 0.8845647,-8.018055 -5.372213 0.7550951,-8.092984 -4.550681 0.8486037,-8.108624 -4.021238 0.9718865,-8.090464 -3.494449 1.059805,0.81667,0 0 0 0 0 0 True
-2.214508 -7.252617 -0.0287577,-2.736382 -7.084518 0.3700885,-3.217302 -6.352003 0.6008812,-3.510236 -5.637134 0.8170619,-3.821417 -5.154237 1.045349,-3.018183 -4.899957 0.2079271,-3.264894 -4.015726 0.4718597,-3.410357 -3.390279 0.7328978,-3.539761 -2.82384 0.9625574,-2.653533 -4.728 0.2259466,-2.758936 -3.665333 0.7311397,-2.749516 -3.693672 1.108415,-2.683219 -4.085639 1.254749,-2.302381 -4.759321 0.3098443,-2.340126 -3.783228 0.7243844,-2.362705 -3.847851 1.089039,-2.348201 -4.26704 1.24137,-1.930206 -4.962778 0.4319893,-1.908615 -4.178403 0.7667052,-1.955628 -4.18324 1.053133,-1.969158 -4.533325 1.2011,-7.739875 -7.83053 0.409142,-7.175049 -7.457708 0.5516551,-6.686483 -6.693756 0.6566529,-6.33339 -6.013842 0.8184999,-6.022312 -5.549351 0.9952427,-7.087024 -5.117259 0.2692156,-6.941662 -4.096473 0.3157074,-6.862747 -3.467458 0.4601875,-6.782321 -2.924889 0.5884061,-7.429442 -4.993434 0.362493,-7.384462 -3.95652 0.405694,-7.332219 -3.460934 0.5903335,-7.267807 -3.158226 0.7364256,-7.751847 -5.075443 0.5090926,-7.747932 -4.075416 0.555231,-7.675329 -3.562964 0.7186834,-7.57944 -3.183142 0.8537651,-8.068118 -5.329185 0.6818417,-8.133173 -4.572602 0.7432191,-8.138725 -4.07876 0.868282,-8.095455 -3.598215 0.9721941,0.85000,0 0 0 0 0 0 True
-2.214508 -7.252617 -0.0287577,-2.736382 -7.084518 0.3700885,-3.217302 -6.352003 0.6008812,-3.510236 -5.637134 0.8170619,-3.821417 -5.154237 1.045349,-3.018183 -4.899957 0.2079271,-3.264894 -4.015726 0.4718597,-3.410357 -3.390279 0.7328978,-3.539761 -2.82384 0.9625574,-2.653533 -4.728 0.2259466,-2.758936 -3.665333 0.7311397,-2.749516 -3.693672 1.108415,-2.683219 -4.085639 1.254749,-2.302381 -4.759321 0.3098443,-2.340126 -3.783228 0.7243844,-2.362705 -3.847851 1.089039,-2.348201 -4.26704 1.24137,-1.930206 -4.962778 0.4319893,-1.908615 -4.178403 0.7667052,-1.955628 -4.18324 1.053133,-1.969158 -4.533325 1.2011,-7.739875 -7.83053 0.409142,-7.175049 -7.457708 0.5516551,-6.686483 -6.693756 0.6566529,-6.33339 -6.013842 0.8184999,-6.022312 -5.549351 0.9952427,-7.087024 -5.117259 0.2692156,-6.941662 -4.096473 0.3157074,-6.862747 -3.467458 0.4601875,-6.782321 -2.924889 0.5884061,-7.429442 -4.993434 0.362493,-7.384462 -3.95652 0.405694,-7.332219 -3.460934 0.5903335,-7.267807 -3.158226 0.7364256,-7.751847 -5.075443 0.5090926,-7.747932 -4.075416 0.555231,-7.675329 -3.562964 0.7186834,-7.57944 -3.183142 0.8537651,-8.068118 -5.329185 0.6818417,-8.133173 -4.572602 0.7432191,-8.138725 -4.07876 0.868282,-8.095455 -3.598215 0.9721941,0.88333,0 0 0 0 0 0 True
-2.188408 -7.220125 -0.0007573511,-2.707064 -7.017702 0.4423846,-3.178742 -6.243074 0.6969501,-3.476667 -5.48308 0.9297234,-3.816463 -5.009741 1.168328,-2.992177 -4.838207 0.2476918,-3.240938 -3.971961 0.4972802,-3.362732 -3.368091 0.7373485,-3.466146 -2.773998 0.9574127,-2.617554 -4.686437 0.2615583,-2.687159 -3.659008 0.824443,-2.668406 -3.91617 1.198477,-2.617838 -4.370122 1.295817,-2.248422 -4.732036 0.3387623,-2.226095 -3.817117 0.7676728,-2.253726 -4.210852 1.051846,-2.272583 -4.733899 1.117694,-1.857629 -4.947513 0.4692087,-1.805008 -4.225536 0.8092083,-1.868143 -4.438352 1.015754,-1.919396 -4.881065 1.091764,-7.782136 -7.724271 0.2405301,-7.222947 -7.41211 0.4717739,-6.740649 -6.643184 0.5988203,-6.384791 -5.974603 0.764915,-6.064621 -5.517416 0.9142067,-7.105 -5.063027 0.1782625,-6.932719 -4.09123 0.2497814,-6.852627 -3.444875 0.4055011,-6.788877 -2.902371 0.5554295,-7.451666 -4.937698 0.2676211,-7.413765 -3.882105 0.5349879,-7.394203 -3.681423 0.8938918,-7.379572 -3.824968 1.138383,-7.769489 -5.04319 0.4048894,-7.796993 -4.053554 0.6441504,-7.743299 -3.814713 0.9854659,-7.687145 -3.896549 1.213017,-8.080321 -5.338165 0.5600955,-8.155798 -4.585018 0.8130526,-8.144379 -4.231279 1.084715,-8.094303 -4.104663 1.297732,0.91667,0 0 0 0 0 0 True
-2.188408 -7.220125 -0.0007573511,-2.707064 -7.017702 0.4423846,-3.178742 -6.243074 0.6969501,-3.476667 -5.48308 0.9297234,-3.816463 -5.009741 1.168328,-2.992177 -4.838207 0.2476918,-3.240938 -3.971961 0.4972802,-3.362732 -3.368091 0.7373485,-3.466146 -2.773998 0.9574127,-2.617554 -4.686437 0.2615583,-2.687159 -3.659008 0.824443,-2.668406 -3.91617 1.198477,-2.617838 -4.370122 1.295817,-2.248422 -4.732036 0.3387623,-2.226095 -3.817117 0.7676728,-2.253726 -4.210852 1.051846,-2.272583 -4.733899 1.117694,-1.857629 -4.947513 0.4692087,-1.805008 -4.225536 0.8092083,-1.868143 -4.438352 1.015754,-1.919396 -4.881065 1.091764,-7.782136 -7.724271 0.2405301,-7.222947 -7.41211 0.4717739,-6.740649 -6.643184 0.5988203,-6.384791 -5.974603 0.764915,-6.064621 -5.517416 0.9142067,-7.105 -5.063027 0.1782625,-6.932719 -4.09123 0.2497814,-6.852627 -3.444875 0.4055011,-6.788877 -2.902371 0.5554295,-7.451666 -4.937698 0.2676211,-7.413765 -3.882105 0.5349879,-7.394203 -3.681423 0.8938918,-7.379572 -3.824968 1.138383,-7.769489 -5.04319 0.4048894,-7.796993 -4.053554 0.6441504,-7.743299 -3.814713 0.9854659,-7.687145 -3.896549 1.213017,-8.080321 -5.338165 0.5600955,-8.155798 -4.585018 0.8130526,-8.144379 -4.231279 1.084715,-8.094303 -4.104663 1.297732,0.95000,0 0 0 0 0 0 True
-2.170286 -7.188844 0.08885875,-2.689563 -6.944277 0.5811704,-3.163052 -6.12682 0.8233099,-3.463065 -5.347967 1.051574,-3.787798 -4.797203 1.285712,-2.968529 -4.78121 0.4380663,-3.204535 -3.939196 0.7399977,-3.304514 -3.348644 1.027572,-3.37072 -2.769775 1.265263,-2.587619 -4.637902 0.4403615,-2.617319 -3.713596 1.14614,-2.565013 -4.368312 1.593026,-2.512835 -5.022956 1.750642,-2.21238 -4.697055 0.5005976,-2.153134 -3.881081 1.074602,-2.181697 -4.579488 1.374256,-2.20206 -5.234836 1.412438,-1.833766 -4.917718 0.6053445,-1.731588 -4.278692 1.045587,-1.805549 -4.654924 1.260773,-1.873668 -5.164546 1.312354,-7.802529 -7.608013 -0.02931895,-7.241125 -7.341834 0.2597325,-6.771144 -6.590585 0.4031316,-6.4135 -5.921073 0.5608089,-6.092031 -5.46249 0.6737004,-7.116158 -5.040163 -0.06401089,-6.925486 -4.086456 0.1054241,-6.841976 -3.386434 0.3046253,-6.79016 -2.783278 0.4782952,-7.453585 -4.901336 0.001521559,-7.428465 -3.738199 0.3979455,-7.383646 -3.906562 0.7481776,-7.36281 -4.346898 0.9233039,-7.779866 -4.970484 0.1318911,-7.808598 -3.886903 0.4673475,-7.737331 -4.095855 0.7484727,-7.703834 -4.589092 0.8792552,-8.113279 -5.228756 0.2829604,-8.199032 -4.37511 0.5880815,-8.137508 -4.265595 0.7779393,-8.081059 -4.518866 0.8946444,0.98333,0 0 0 0 0 0 True
-2.163308 -7.17451 0.1699765,-2.673017 -6.932292 0.7172179,-3.140783 -6.088632 0.951135,-3.41837 -5.280277 1.167039,-3.750612 -4.737637 1.404588,-2.992559 -4.767576 0.619567,-3.199285 -3.966222 0.9526925,-3.262882 -3.397012 1.246979,-3.291622 -2.840639 1.494062,-2.604664 -4.615215 0.5964373,-2.623741 -3.852857 1.335952,-2.549626 -4.592582 1.780967,-2.47895 -5.279068 1.953821,-2.215107 -4.66946 0.6368204,-2.167016 -4.052265 1.302018,-2.17748 -4.867252 1.58941,-2.177657 -5.55706 1.615637,-1.819256 -4.889741 0.7168272,-1.7244 -4.348903 1.237026,-1.804121 -4.846305 1.436335,-1.873545 -5.381071 1.472206,-7.863941 -7.595146 0.03587139,-7.301705 -7.287126 0.3059744,-6.836705 -6.506608 0.4196484,-6.479549 -5.821112 0.5724061,-6.183994 -5.345209 0.671161,-7.161102 -4.998067 -0.1086545,-6.988636 -4.013273 0.01295558,-6.90965 -3.338435 0.1472948,-6.86021 -2.723726 0.2732232,-7.481309 -4.875263 -0.04618729,-7.468588 -3.712699 0.3480922,-7.420012 -4.219574 0.6701053,-7.397548 -4.834661 0.7659857,-7.804144 -4.910445 0.07559007,-7.834932 -3.812996 0.40994,-7.753759 -4.37803 0.6752544,-7.714153 -5.046653 0.7316309,-8.150348 -5.100673 0.2106343,-8.210663 -4.214295 0.5427666,-8.100763 -4.437517 0.7381002,-8.014529 -4.937512 0.7893552,1.01667,0 0 0 0 0 0 True
-2.163308 -7.17451 0.1699765,-2.673017 -6.932292 0.7172179,-3.140783 -6.088632 0.951135,-3.41837 -5.280277 1.167039,-3.750612 -4.737637 1.404588,-2.992559 -4.767576 0.619567,-3.199285 -3.966222 0.9526925,-3.262882 -3.397012 1.246979,-3.291622 -2.840639 1.494062,-2.604664 -4.615215 0.5964373,-2.623741 -3.852857 1.335952,-2.549626 -4.592582 1.780967,-2.47895 -5.279068 1.953821,-2.215107 -4.66946 0.6368204,-2.167016 -4.052265 1.302018,-2.17748 -4.867252 1.58941,-2.177657 -5.55706 1.615637,-1.819256 -4.889741 0.7168272,-1.7244 -4.348903 1.237026,-1.804121 -4.846305 1.436335,-1.873545 -5.381071 1.472206,-7.863941 -7.595146 0.03587139,-7.301705 -7.287126 0.3059744,-6.836705 -6.506608 0.4196484,-6.479549 -5.821112 0.5724061,-6.183994 -5.345209 0.671161,-7.161102 -4.998067 -0.1086545,-6.988636 -4.013273 0.01295558,-6.90965 -3.338435 0.1472948,-6.86021 -2.723726 0.2732232,-7.481309 -4.875263 -0.04618729,-7.468588 -3.712699 0.3480922,-7.420012 -4.219574 0.6701053,-7.397548 -4.834661 0.7659857,-7.804144 -4.910445 0.07559007,-7.834932 -3.812996 0.40994,-7.753759 -4.37803 0.6752544,-7.714153 -5.046653 0.7316309,-8.150348 -5.100673 0.2106343,-8.210663 -4.214295 0.5427666,-8.100763 -4.437517 0.7381002,-8.014529 -4.937512 0.7893552,1.05000,0 0 0 0 0 0 True
-2.163923 -7.166913 0.07646833,-2.651738 -6.9244 0.6013202,-3.127531 -6.027808 0.8113585,-3.402631 -5.23084 1.014854,-3.733915 -4.75535 1.226459,-2.96459 -4.805633 0.6082049,-3.179424 -4.000576 1.017457,-3.240017 -3.45306 1.30915,-3.262775 -2.932085 1.553186,-2.578225 -4.64715 0.5921131,-2.587306 -4.030138 1.326135,-2.514735 -4.92554 1.625874,-2.456995 -5.621638 1.686213,-2.179161 -4.701665 0.644357,-2.144786 -4.21534 1.321845,-2.165393 -5.132196 1.483277,-2.182197 -5.797142 1.426033,-1.770463 -4.934259 0.7295936,-1.696119 -4.429452 1.253801,-1.777491 -5.03813 1.383398,-1.857233 -5.572921 1.367581,-7.864944 -7.561417 0.07174123,-7.312276 -7.223457 0.4097745,-6.877567 -6.439386 0.57927,-6.560468 -5.761803 0.7790169,-6.277481 -5.295418 0.9314551,-7.200012 -4.902338 0.06063749,-7.064245 -3.908694 0.2690901,-6.981977 -3.278334 0.4693268,-6.916856 -2.715555 0.620621,-7.527163 -4.824304 0.1120332,-7.542434 -3.699531 0.6200959,-7.488728 -4.301046 0.9724367,-7.469151 -4.961727 1.056266,-7.865543 -4.90291 0.2266388,-7.915452 -3.867912 0.6408153,-7.814068 -4.491165 0.8991428,-7.766337 -5.163998 0.9237711,-8.220762 -5.16043 0.356502,-8.287912 -4.332552 0.7537578,-8.166422 -4.611284 0.9626954,-8.073739 -5.121479 1.005196,1.08333,0 0 0 0 0 0 True
-2.163923 -7.166913 0.07646833,-2.651738 -6.9244 0.6013202,-3.127531 -6.027808 0.8113585,-3.402631 -5.23084 1.014854,-3.733915 -4.75535 1.226459,-2.96459 -4.805633 0.6082049,-3.179424 -4.000576 1.017457,-3.240017 -3.45306 1.30915,-3.262775 -2.932085 1.553186,-2.578225 -4.64715 0.5921131,-2.587306 -4.030138 1.326135,-2.514735 -4.92554 1.625874,-2.456995 -5.621638 1.686213,-2.179161 -4.701665 0.644357,-2.144786 -4.21534 1.321845,-2.165393 -5.132196 1.483277,-2.182197 -5.797142 1.426033,-1.770463 -4.934259 0.7295936,-1.696119 -4.429452 1.253801,-1.777491 -5.03813 1.383398,-1.857233 -5.572921 1.367581,-7.864944 -7.561417 0.07174123,-7.312276 -7.223457 0.4097745,-6.877567 -6.439386 0.57927,-6.560468 -5.761803 0.7790169,-6.277481 -5.295418 0.9314551,-7.200012 -4.902338 0.06063749,-7.064245 -3.908694 0.2690901,-6.981977 -3.278334 0.4693268,-6.916856 -2.715555 0.620621,-7.527163 -4.824304 0.1120332,-7.542434 -3.699531 0.6200959,-7.488728 -4.301046 0.9724367,-7.469151 -4.961727 1.056266,-7.865543 -4.90291 0.2266388,-7.915452 -3.867912 0.6408153,-7.814068 -4.491165 0.8991428,-7.766337 -5.163998 0.9237711,-8.220762 -5.16043 0.356502,-8.287912 -4.332552 0.7537578,-8.166422 -4.611284 0.9626954,-8.073739 -5.121479 1.005196,1.11667,0 0 0 0 0 0 True
-2.130291 -7.10971 -0.03588385,-2.625482 -6.896169 0.4966326,-3.119279 -6.003713 0.7079031,-3.39408 -5.218032 0.9125876,-3.716835 -4.732585 1.137726,-2.952383 -4.798187 0.5619906,-3.172024 -4.000556 1.054928,-3.207416 -3.500931 1.370802,-3.199883 -3.057899 1.610424,-2.554284 -4.638853 0.5435625,-2.553633 -4.1868 1.319493,-2.485722 -5.162099 1.575779,-2.439308 -5.856313 1.583254,-2.135694 -4.702167 0.5903025,-2.104166 -4.382638 1.304612,-2.12055 -5.355155 1.406558,-2.138253 -6.003449 1.319881,-1.717955 -4.919554 0.6695385,-1.654302 -4.528172 1.209314,-1.735877 -5.194671 1.307087,-1.81797 -5.719406 1.274082,-7.880865 -7.474814 0.09395321,-7.33486 -7.176876 0.450322,-6.91818 -6.384084 0.6189338,-6.600716 -5.691329 0.8163074,-6.318896 -5.24427 0.9543113,-7.236716 -4.795105 0.04018939,-7.092813 -3.809215 0.2795135,-7.02099 -3.183057 0.5282237,-6.968685 -2.616498 0.7021742,-7.562353 -4.728731 0.08620585,-7.561205 -3.598072 0.6472158,-7.51733 -4.286348 1.032343,-7.507846 -4.972232 1.08118,-7.900186 -4.81551 0.2008348,-7.945968 -3.774404 0.6526916,-7.855083 -4.481281 0.9044973,-7.812213 -5.150251 0.8868716,-8.253239 -5.091388 0.3327531,-8.313965 -4.295949 0.7392706,-8.198305 -4.660084 0.9211717,-8.10994 -5.182027 0.9169225,1.15000,0 0 0 0 0 0 True
-2.130291 -7.10971 -0.03588385,-2.625482 -6.896169 0.4966326,-3.119279 -6.003713 0.7079031,-3.39408 -5.218032 0.9125876,-3.716835 -4.732585 1.137726,-2.952383 -4.798187 0.5619906,-3.172024 -4.000556 1.054928,-3.207416 -3.500931 1.370802,-3.199883 -3.057899 1.610424,-2.554284 -4.638853 0.5435625,-2.553633 -4.1868 1.319493,-2.485722 -5.162099 1.575779,-2.439308 -5.856313 1.583254,-2.135694 -4.702167 0.5903025,-2.104166 -4.382638 1.304612,-2.12055 -5.355155 1.406558,-2.138253 -6.003449 1.319881,-1.717955 -4.919554 0.6695385,-1.654302 -4.528172 1.209314,-1.735877 -5.194671 1.307087,-1.81797 -5.719406 1.274082,-7.880865 -7.474814 0.09395321,-7.33486 -7.176876 0.450322,-6.91818 -6.384084 0.6189338,-6.600716 -5.691329 0.8163074,-6.318896 -5.24427 0.9543113,-7.236716 -4.795105 0.04018939,-7.092813 -3.809215 0.2795135,-7.02099 -3.183057 0.5282237,-6.968685 -2.616498 0.7021742,-7.562353 -4.728731 0.08620585,-7.561205 -3.598072 0.6472158,-7.51733 -4.286348 1.032343,-7.507846 -4.972232 1.08118,-7.900186 -4.81551 0.2008348,-7.945968 -3.774404 0.6526916,-7.855083 -4.481281 0.9044973,-7.812213 -5.150251 0.8868716,-8.253239 -5.091388 0.3327531,-8.313965 -4.295949 0.7392706,-8.198305 -4.660084 0.9211717,-8.10994 -5.182027 0.9169225,1.18333,0 0 0 0 0 0 True
-2.117512 -7.077241 0.1460558,-2.621265 -6.864879 0.6886952,-3.124668 -5.990512 0.9170513,-3.395174 -5.210805 1.134238,-3.725204 -4.725551 1.388891,-2.932973 -4.748138 0.8364818,-3.143773 -3.996086 1.384427,-3.174868 -3.508979 1.725179,-3.163895 -3.083141 1.964982,-2.528697 -4.570037 0.8061017,-2.525975 -4.316116 1.606256,-2.46071 -5.328838 1.831047,-2.411747 -6.041916 1.810928,-2.10497 -4.64722 0.8436235,-2.08237 -4.539694 1.607971,-2.096083 -5.544513 1.678812,-2.111633 -6.196979 1.559098,-1.687144 -4.871082 0.9105616,-1.626549 -4.59229 1.482813,-1.71032 -5.278373 1.567379,-1.793368 -5.785592 1.519525,-7.911372 -7.476905 0.09482263,-7.343425 -7.135017 0.4618425,-6.924032 -6.34491 0.6294207,-6.611676 -5.654579 0.8193716,-6.356688 -5.175716 0.9612004,-7.277802 -4.791335 0.06767183,-7.119301 -3.822409 0.3098044,-7.044953 -3.186739 0.558121,-7.000867 -2.612302 0.7477775,-7.600697 -4.729692 0.1083996,-7.599325 -3.619009 0.6509873,-7.548206 -4.26823 1.059701,-7.535082 -4.959083 1.154876,-7.934976 -4.811454 0.2149419,-7.986732 -3.78333 0.6896491,-7.889644 -4.452169 0.9943482,-7.83756 -5.147436 1.01807,-8.288825 -5.077421 0.3389128,-8.373833 -4.281159 0.7735824,-8.253893 -4.624431 0.9938726,-8.152906 -5.172895 1.018884,1.21667,0 0 0 0 0 0 True
-2.102927 -6.999481 0.2130778,-2.607053 -6.820167 0.7753968,-3.112926 -5.955108 1.03152,-3.380313 -5.186782 1.268173,-3.718781 -4.724783 1.560477,-2.913538 -4.704751 1.02836,-3.118389 -3.982055 1.6213,-3.134705 -3.526483 1.987326,-3.103012 -3.153024 2.247382,-2.506948 -4.507928 1.000864,-2.487422 -4.322478 1.844856,-2.430518 -5.346601 2.074644,-2.393024 -6.076143 2.060107,-2.076413 -4.580816 1.043012,-2.035497 -4.542251 1.83215,-2.054214 -5.561801 1.882523,-2.080382 -6.229366 1.757131,-1.657472 -4.805097 1.116824,-1.578024 -4.614352 1.725636,-1.660346 -5.345195 1.80903,-1.758348 -5.873247 1.763026,-7.921349 -7.442626 0.03071603,-7.357184 -7.150228 0.429055,-6.938111 -6.357362 0.621381,-6.625541 -5.650196 0.8364369,-6.352855 -5.15536 0.9979795,-7.295724 -4.782664 0.0314588,-7.145669 -3.792099 0.3108401,-7.072506 -3.154564 0.5780472,-7.029032 -2.568992 0.7627451,-7.618691 -4.713119 0.0638236,-7.60926 -3.586871 0.6542462,-7.555559 -4.28305 1.067407,-7.545538 -4.974662 1.130218,-7.953505 -4.791233 0.1649753,-8.000172 -3.752443 0.6701124,-7.900925 -4.451555 0.9681827,-7.854304 -5.137706 0.9634224,-8.309907 -5.050954 0.2834305,-8.387032 -4.226362 0.7216203,-8.26088 -4.572526 0.9286008,-8.163587 -5.11486 0.9221048,1.25000,0 0 0 0 0 0 True
-2.102927 -6.999481 0.2130778,-2.607053 -6.820167 0.7753968,-3.112926 -5.955108 1.03152,-3.380313 -5.186782 1.268173,-3.718781 -4.724783 1.560477,-2.913538 -4.704751 1.02836,-3.118389 -3.982055 1.6213,-3.134705 -3.526483 1.987326,-3.103012 -3.153024 2.247382,-2.506948 -4.507928 1.000864,-2.487422 -4.322478 1.844856,-2.430518 -5.346601 2.074644,-2.393024 -6.076143 2.060107,-2.076413 -4.580816 1.043012,-2.035497 -4.542251 1.83215,-2.054214 -5.561801 1.882523,-2.080382 -6.229366 1.757131,-1.657472 -4.805097 1.116824,-1.578024 -4.614352 1.725636,-1.660346 -5.345195 1.80903,-1.758348 -5.873247 1.763026,-7.921349 -7.442626 0.03071603,-7.357184 -7.150228 0.429055,-6.938111 -6.357362 0.621381,-6.625541 -5.650196 0.8364369,-6.352855 -5.15536 0.9979795,-7.295724 -4.782664 0.0314588,-7.145669 -3.792099 0.3108401,-7.072506 -3.154564 0.5780472,-7.029032 -2.568992 0.7627451,-7.618691 -4.713119 0.0638236,-7.60926 -3.586871 0.6542462,-7.555559 -4.28305 1.067407,-7.545538 -4.974662 1.130218,-7.953505 -4.791233 0.1649753,-8.000172 -3.752443 0.6701124,-7.900925 -4.451555 0.9681827,-7.854304 -5.137706 0.9634224,-8.309907 -5.050954 0.2834305,-8.387032 -4.226362 0.7216203,-8.26088 -4.572526 0.9286008,-8.163587 -5.11486 0.9221048,1.28333,0 0 0 0 0 0 True
-2.099656 -6.92117 0.5628778,-2.617988 -6.779018 1.153083,-3.120785 -5.923071 1.456741,-3.391069 -5.170259 1.727787,-3.751047 -4.702522 2.071283,-2.886437 -4.585237 1.463854,-3.072197 -3.963041 2.040971,-3.083863 -3.524154 2.383251,-3.053806 -3.168437 2.628906,-2.472795 -4.34597 1.434187,-2.460475 -4.417444 2.245537,-2.418021 -5.409257 2.464714,-2.383168 -6.130617 2.457037,-2.033828 -4.427163 1.472324,-2.010271 -4.684566 2.243094,-2.031329 -5.668466 2.329369,-2.061871 -6.314235 2.241264,-1.614665 -4.671432 1.541313,-1.567795 -4.754642 2.147493,-1.653187 -5.506124 2.247102,-1.75144 -6.017597 2.232535,-7.951766 -7.441617 0.02040107,-7.386869 -7.147581 0.4344698,-6.969314 -6.359252 0.6370944,-6.653222 -5.654611 0.8561187,-6.363944 -5.171129 1.03128,-7.299462 -4.794378 0.06035832,-7.14563 -3.816897 0.3548516,-7.073906 -3.178708 0.6333106,-7.032391 -2.591947 0.8289431,-7.622817 -4.718702 0.08485503,-7.609942 -3.608561 0.6854299,-7.560397 -4.296966 1.106304,-7.555029 -4.981681 1.179141,-7.959259 -4.787908 0.1788082,-8.006851 -3.767041 0.6938348,-7.907721 -4.476485 1.006157,-7.858846 -5.172661 1.012378,-8.320148 -5.038717 0.2914667,-8.401262 -4.236446 0.7400389,-8.275383 -4.595991 0.9643797,-8.176216 -5.147834 0.9714145,1.31667,0 0 0 0 0 0 True
-2.099656 -6.92117 0.5628778,-2.617988 -6.779018 1.153083,-3.120785 -5.923071 1.456741,-3.391069 -5.170259 1.727787,-3.751047 -4.702522 2.071283,-2.886437 -4.585237 1.463854,-3.072197 -3.963041 2.040971,-3.083863 -3.524154 2.383251,-3.053806 -3.168437 2.628906,-2.472795 -4.34597 1.434187,-2.460475 -4.417444 2.245537,-2.418021 -5.409257 2.464714,-2.383168 -6.130617 2.457037,-2.033828 -4.427163 1.472324,-2.010271 -4.684566 2.243094,-2.031329 -5.668466 2.329369,-2.061871 -6.314235 2.241264,-1.614665 -4.671432 1.541313,-1.567795 -4.754642 2.147493,-1.653187 -5.506124 2.247102,-1.75144 -6.017597 2.232535,-7.951766 -7.441617 0.02040107,-7.386869 -7.147581 0.4344698,-6.969314 -6.359252 0.6370944,-6.653222 -5.654611 0.8561187,-6.363944 -5.171129 1.03128,-7.299462 -4.794378 0.06035832,-7.14563 -3.816897 0.3548516,-7.073906 -3.178708 0.6333106,-7.032391 -2.591947 0.8289431,-7.622817 -4.718702 0.08485503,-7.609942 -3.608561 0.6854299,-7.560397 -4.296966 1.106304,-7.555029 -4.981681 1.179141,-7.959259 -4.787908 0.1788082,-8.006851 -3.767041 0.6938348,-7.907721 -4.476485 1.006157,-7.858846 -5.172661 1.012378,-8.320148 -5.038717 0.2914667,-8.401262 -4.236446 0.7400389,-8.275383 -4.595991 0.9643797,-8.176216 -5.147834 0.9714145,1.35000,0 0 0 0 0 0 True
-2.059377 -6.861022 0.4281303,-2.588671 -6.757576 1.06904,-3.09251 -5.923048 1.363998,-3.365319 -5.153809 1.606402,-3.730869 -4.658165 1.916655,-2.884595 -4.580884 1.356668,-3.063059 -3.946775 1.957018,-3.04718 -3.524125 2.303956,-2.987644 -3.210603 2.537086,-2.47085 -4.333727 1.302198,-2.439488 -4.40917 2.161623,-2.374913 -5.380488 2.401679,-2.341298 -6.099803 2.392347,-2.035491 -4.402621 1.319407,-1.987954 -4.703386 2.147085,-1.991146 -5.709813 2.2775,-2.022022 -6.401096 2.194867,-1.626956 -4.617454 1.368008,-1.560245 -4.827684 2.054818,-1.630672 -5.627912 2.190907,-1.734533 -6.18329 2.17933,-7.961581 -7.443108 -0.03310106,-7.393459 -7.179976 0.4254853,-6.970721 -6.384483 0.6565313,-6.647818 -5.683397 0.8973053,-6.346743 -5.195679 1.103543,-7.315249 -4.802001 0.03579506,-7.164627 -3.829 0.3408925,-7.093967 -3.188516 0.6223865,-7.057015 -2.585873 0.8140722,-7.637672 -4.735492 0.0492918,-7.611876 -3.670731 0.6882482,-7.562761 -4.392732 1.133484,-7.56034 -5.067546 1.211442,-7.972746 -4.802932 0.1385531,-8.006597 -3.806129 0.6949244,-7.905986 -4.537858 1.038168,-7.860114 -5.232822 1.048206,-8.339737 -5.047215 0.2477374,-8.412534 -4.249691 0.7253638,-8.285182 -4.62854 0.9694738,-8.190241 -5.182955 0.9754276,1.38333,0 0 0 0 0 0 True
-2.059377 -6.861022 0.4281303,-2.588671 -6.757576 1.06904,-3.09251 -5.923048 1.363998,-3.365319 -5.153809 1.606402,-3.730869 -4.658165 1.916655,-2.884595 -4.580884 1.356668,-3.063059 -3.946775 1.957018,-3.04718 -3.524125 2.303956,-2.987644 -3.210603 2.537086,-2.47085 -4.333727 1.302198,-2.439488 -4.40917 2.161623,-2.374913 -5.380488 2.401679,-2.341298 -6.099803 2.392347,-2.035491 -4.402621 1.319407,-1.987954 -4.703386 2.147085,-1.991146 -5.709813 2.2775,-2.022022 -6.401096 2.194867,-1.626956 -4.617454 1.368008,-1.560245 -4.827684 2.054818,-1.630672 -5.627912 2.190907,-1.734533 -6.18329 2.17933,-7.961581 -7.443108 -0.03310106,-7.393459 -7.179976 0.4254853,-6.970721 -6.384483 0.6565313,-6.647818 -5.683397 0.8973053,-6.346743 -5.195679 1.103543,-7.315249 -4.802001 0.03579506,-7.164627 -3.829 0.3408925,-7.093967 -3.188516 0.6223865,-7.057015 -2.585873 0.8140722,-7.637672 -4.735492 0.0492918,-7.611876 -3.670731 0.6882482,-7.562761 -4.392732 1.133484,-7.56034 -5.067546 1.211442,-7.972746 -4.802932 0.1385531,-8.006597 -3.806129 0.6949244,-7.905986 -4.537858 1.038168,-7.860114 -5.232822 1.048206,-8.339737 -5.047215 0.2477374,-8.412534 -4.249691 0.7253638,-8.285182 -4.62854 0.9694738,-8.190241 -5.182955 0.9754276,1.41667,0 0 0 0 0 0 True
-2.064388 -6.826454 0.6696724,-2.605219 -6.747631 1.29468,-3.09857 -5.937139 1.641084,-3.373392 -5.164054 1.929643,-3.763314 -4.670824 2.28315,-2.890096 -4.536448 1.673245,-3.04717 -3.945272 2.311812,-3.030125 -3.54984 2.680527,-2.965287 -3.261328 2.919547,-2.471019 -4.255458 1.630492,-2.435178 -4.496122 2.472598,-2.39462 -5.441839 2.703104,-2.376967 -6.078386 2.712401,-2.028874 -4.320642 1.644061,-1.984898 -4.817784 2.451554,-2.000875 -5.785514 2.56138,-2.041204 -6.395368 2.482066,-1.616543 -4.54639 1.693002,-1.539919 -4.906578 2.336841,-1.6153 -5.689922 2.447152,-1.727401 -6.187805 2.42571,-7.96738 -7.431581 -0.1094166,-7.407683 -7.17899 0.3799255,-6.988946 -6.395072 0.6272562,-6.663526 -5.711178 0.8761719,-6.363464 -5.230184 1.094223,-7.335683 -4.810082 0.03380218,-7.187681 -3.8422 0.3511845,-7.116544 -3.212958 0.6271867,-7.076597 -2.621032 0.8194484,-7.662686 -4.746343 0.03571109,-7.646791 -3.728178 0.7064233,-7.603354 -4.492889 1.141948,-7.595127 -5.181224 1.209974,-7.999822 -4.818822 0.1119188,-8.034807 -3.852301 0.701516,-7.936036 -4.608598 1.050683,-7.883049 -5.311753 1.061402,-8.361372 -5.066162 0.2076333,-8.436437 -4.298152 0.7050461,-8.312421 -4.67465 0.9618747,-8.215564 -5.210654 0.9744459,1.45000,0 0 0 0 0 0 True
-2.04749 -6.77992 0.717829,-2.600322 -6.717377 1.34673,-3.081839 -5.940713 1.712235,-3.330137 -5.205175 2.01126,-3.71715 -4.721411 2.382607,-2.85711 -4.505784 1.790145,-2.996455 -3.943074 2.390286,-2.975997 -3.560838 2.730641,-2.908278 -3.277551 2.968724,-2.436004 -4.218013 1.747901,-2.397342 -4.537748 2.548328,-2.35343 -5.475281 2.758447,-2.322254 -6.113695 2.787628,-2.000587 -4.287172 1.748407,-1.94762 -4.895961 2.535802,-1.947381 -5.858676 2.669388,-1.970939 -6.492317 2.613071,-1.589009 -4.524916 1.788149,-1.517325 -4.866904 2.417086,-1.587787 -5.61723 2.538953,-1.686543 -6.134136 2.539168,-7.96738 -7.431581 -0.1094166,-7.407683 -7.17899 0.3799255,-6.988946 -6.395072 0.6272562,-6.663526 -5.711178 0.8761719,-6.363464 -5.230184 1.094223,-7.335683 -4.810082 0.03380218,-7.187681 -3.8422 0.3511845,-7.116544 -3.212958 0.6271867,-7.076597 -2.621032 0.8194484,-7.662686 -4.746343 0.03571109,-7.646791 -3.728178 0.7064233,-7.603354 -4.492889 1.141948,-7.595127 -5.181224 1.209974,-7.999822 -4.818822 0.1119188,-8.034807 -3.852301 0.701516,-7.936036 -4.608598 1.050683,-7.883049 -5.311753 1.061402,-8.361372 -5.066162 0.2076333,-8.436437 -4.298152 0.7050461,-8.312421 -4.67465 0.9618747,-8.215564 -5.210654 0.9744459,1.48333,0 0 0 0 0 0 True
-2.04749 -6.77992 0.717829,-2.600322 -6.717377 1.34673,-3.081839 -5.940713 1.712235,-3.330137 -5.205175 2.01126,-3.71715 -4.721411 2.382607,-2.85711 -4.505784 1.790145,-2.996455 -3.943074 2.390286,-2.975997 -3.560838 2.730641,-2.908278 -3.277551 2.968724,-2.436004 -4.218013 1.747901,-2.397342 -4.537748 2.548328,-2.35343 -5.475281 2.758447,-2.322254 -6.113695 2.787628,-2.000587 -4.287172 1.748407,-1.94762 -4.895961 2.535802,-1.947381 -5.858676 2.669388,-1.970939 -6.492317 2.613071,-1.589009 -4.524916 1.788149,-1.517325 -4.866904 2.417086,-1.587787 -5.61723 2.538953,-1.686543 -6.134136 2.539168,-7.994675 -7.442455 -0.1515508,-7.443521 -7.186898 0.3505007,-7.023736 -6.408757 0.59401,-6.698821 -5.724273 0.8309172,-6.398554 -5.24147 1.04143,-7.361152 -4.832045 -0.008167684,-7.214003 -3.87499 0.3010802,-7.149666 -3.250284 0.5679272,-7.111681 -2.658569 0.7627091,-7.688657 -4.76864 -0.02254121,-7.688451 -3.79591 0.6432456,-7.659035 -4.572487 1.073731,-7.640711 -5.262578 1.135897,-8.025879 -4.840024 0.03850654,-8.079051 -3.914943 0.6240149,-7.993829 -4.691243 0.9824846,-7.925442 -5.39272 0.9927939,-8.381205 -5.0888 0.1222444,-8.470376 -4.349002 0.616935,-8.361774 -4.756721 0.8833256,-8.254189 -5.298045 0.8974869,1.51667,0 0 0 0 0 0 True
-2.030985 -6.700727 0.9460858,-2.592518 -6.640111 1.599169,-3.054828 -5.873167 2.026325,-3.29336 -5.162974 2.359408,-3.690713 -4.686708 2.766392,-2.81824 -4.45479 2.184515,-2.92872 -3.972446 2.804734,-2.913111 -3.62109 3.141838,-2.836582 -3.328872 3.378426,-2.391727 -4.126813 2.124407,-2.312088 -4.700932 2.90667,-2.316567 -5.625316 3.051173,-2.311253 -6.163305 3.059109,-1.94978 -4.214469 2.106721,-1.874709 -4.997776 2.835803,-1.927259 -5.895244 2.898578,-1.966595 -6.427537 2.8358,-1.545214 -4.48647 2.13488,-1.455333 -4.981225 2.718136,-1.557033 -5.704647 2.792928,-1.667277 -6.161588 2.794906,-8.035528 -7.41579 -0.142279,-7.483784 -7.177316 0.3689883,-7.059064 -6.388885 0.6116694,-6.723489 -5.700126 0.8468378,-6.418319 -5.227222 1.070964,-7.392492 -4.802963 0.0006608665,-7.251643 -3.853958 0.3115807,-7.19372 -3.236066 0.5828958,-7.161414 -2.647552 0.7780456,-7.724257 -4.739999 -0.01205212,-7.732977 -3.787561 0.6714411,-7.697555 -4.587556 1.119215,-7.671897 -5.293523 1.18121,-8.066386 -4.814914 0.04861799,-8.128814 -3.916581 0.6585087,-8.041508 -4.721159 1.031554,-7.966367 -5.431257 1.038132,-8.423599 -5.062281 0.1366051,-8.52097 -4.320756 0.6345761,-8.417537 -4.736761 0.8927824,-8.311117 -5.276083 0.8938134,1.55000,0 0 0 0 0 0 True
-2.030985 -6.700727 0.9460858,-2.592518 -6.640111 1.599169,-3.054828 -5.873167 2.026325,-3.29336 -5.162974 2.359408,-3.690713 -4.686708 2.766392,-2.81824 -4.45479 2.184515,-2.92872 -3.972446 2.804734,-2.913111 -3.62109 3.141838,-2.836582 -3.328872 3.378426,-2.391727 -4.126813 2.124407,-2.312088 -4.700932 2.90667,-2.316567 -5.625316 3.051173,-2.311253 -6.163305 3.059109,-1.94978 -4.214469 2.106721,-1.874709 -4.997776 2.835803,-1.927259 -5.895244 2.898578,-1.966595 -6.427537 2.8358,-1.545214 -4.48647 2.13488,-1.455333 -4.981225 2.718136,-1.557033 -5.704647 2.792928,-1.667277 -6.161588 2.794906,-8.035528 -7.41579 -0.142279,-7.483784 -7.177316 0.3689883,-7.059064 -6.388885 0.6116694,-6.723489 -5.700126 0.8468378,-6.418319 -5.227222 1.070964,-7.392492 -4.802963 0.0006608665,-7.251643 -3.853958 0.3115807,-7.19372 -3.236066 0.5828958,-7.161414 -2.647552 0.7780456,-7.724257 -4.739999 -0.01205212,-7.732977 -3.787561 0.6714411,-7.697555 -4.587556 1.119215,-7.671897 -5.293523 1.18121,-8.066386 -4.814914 0.04861799,-8.128814 -3.916581 0.6585087,-8.041508 -4.721159 1.031554,-7.966367 -5.431257 1.038132,-8.423599 -5.062281 0.1366051,-8.52097 -4.320756 0.6345761,-8.417537 -4.736761 0.8927824,-8.311117 -5.276083 0.8938134,1.58333,0 0 0 0 0 0 True
-2.007645 -6.710422 1.148075,-2.562258 -6.639692 1.887188,-3.026973 -5.866363 2.337453,-3.253678 -5.159643 2.679365,-3.646572 -4.669255 3.10657,-2.77515 -4.367399 2.420131,-2.887961 -3.90918 3.049343,-2.860079 -3.588111 3.402529,-2.775934 -3.330195 3.666681,-2.339254 -4.071506 2.332516,-2.280209 -4.566556 3.162073,-2.2766 -5.540498 3.351428,-2.267828 -6.154733 3.38533,-1.894959 -4.178644 2.29925,-1.826793 -4.879392 3.108055,-1.872434 -5.832104 3.197715,-1.915622 -6.431433 3.135627,-1.484932 -4.479923 2.310895,-1.399459 -4.86021 2.966801,-1.496606 -5.593976 3.074388,-1.603165 -6.076288 3.093138,-8.06931 -7.434942 -0.08621424,-7.512799 -7.187926 0.4644428,-7.091496 -6.406332 0.717294,-6.765012 -5.715546 0.9555224,-6.455196 -5.234792 1.18285,-7.426789 -4.806461 0.1119869,-7.298503 -3.86284 0.4612101,-7.245731 -3.252412 0.7465629,-7.214387 -2.657925 0.9358782,-7.770475 -4.743448 0.07800677,-7.790598 -3.82006 0.7990438,-7.762918 -4.636642 1.226446,-7.733744 -5.31002 1.256941,-8.12103 -4.822639 0.1246019,-8.187246 -3.943477 0.7677114,-8.105334 -4.743656 1.119339,-8.029831 -5.413987 1.101287,-8.48231 -5.077947 0.2036785,-8.585665 -4.347335 0.7047557,-8.488156 -4.754133 0.9625993,-8.384284 -5.262336 0.953683,1.61667,0 0 0 0 0 0 True
-2.007645 -6.710422 1.148075,-2.562258 -6.639692 1.887188,-3.026973 -5.866363 2.337453,-3.253678 -5.159643 2.679365,-3.646572 -4.669255 3.10657,-2.77515 -4.367399 2.420131,-2.887961 -3.90918 3.049343,-2.860079 -3.588111 3.402529,-2.775934 -3.330195 3.666681,-2.339254 -4.071506 2.332516,-2.280209 -4.566556 3.162073,-2.2766 -5.540498 3.351428,-2.267828 -6.154733 3.38533,-1.894959 -4.178644 2.29925,-1.826793 -4.879392 3.108055,-1.872434 -5.832104 3.197715,-1.915622 -6.431433 3.135627,-1.484932 -4.479923 2.310895,-1.399459 -4.86021 2.966801,-1.496606 -5.593976 3.074388,-1.603165 -6.076288 3.093138,-8.06931 -7.434942 -0.08621424,-7.512799 -7.187926 0.4644428,-7.091496 -6.406332 0.717294,-6.765012 -5.715546 0.9555224,-6.455196 -5.234792 1.18285,-7.426789 -4.806461 0.1119869,-7.298503 -3.86284 0.4612101,-7.245731 -3.252412 0.7465629,-7.214387 -2.657925 0.9358782,-7.770475 -4.743448 0.07800677,-7.790598 -3.82006 0.7990438,-7.762918 -4.636642 1.226446,-7.733744 -5.31002 1.256941,-8.12103 -4.822639 0.1246019,-8.187246 -3.943477 0.7677114,-8.105334 -4.743656 1.119339,-8.029831 -5.413987 1.101287,-8.48231 -5.077947 0.2036785,-8.585665 -4.347335 0.7047557,-8.488156 -4.754133 0.9625993,-8.384284 -5.262336 0.953683,1.65000,0 0 0 0 0 0 True
-2.000237 -6.728351 1.418652,-2.554742 -6.624508 2.113927,-3.015717 -5.816814 2.574932,-3.229944 -5.111089 2.941606,-3.625472 -4.603446 3.384973,-2.735711 -4.378564 2.738702,-2.826357 -3.914935 3.41564,-2.804035 -3.61306 3.793701,-2.718204 -3.393816 4.061743,-2.28858 -4.021811 2.653088,-2.186718 -4.727693 3.452168,-2.226238 -5.646476 3.567484,-2.253809 -6.140104 3.575385,-1.839962 -4.11886 2.633757,-1.757271 -5.002191 3.358141,-1.84002 -5.876425 3.358122,-1.897575 -6.348091 3.275935,-1.431935 -4.404626 2.655811,-1.324774 -4.855199 3.216098,-1.43657 -5.557739 3.254413,-1.545174 -5.986696 3.251666,-8.115789 -7.433609 -0.04782701,-7.553128 -7.190313 0.4948968,-7.133596 -6.405539 0.7460932,-6.804575 -5.702508 0.9830439,-6.493956 -5.208437 1.210344,-7.479845 -4.790718 0.1143064,-7.350073 -3.863296 0.4632998,-7.307268 -3.262624 0.7567783,-7.283975 -2.678855 0.9485155,-7.827034 -4.728075 0.08151901,-7.857767 -3.809535 0.7986084,-7.829349 -4.653804 1.218417,-7.791702 -5.345253 1.231447,-8.179338 -4.806552 0.1308889,-8.264154 -3.927832 0.765019,-8.177799 -4.769665 1.100105,-8.092614 -5.460574 1.062092,-8.535767 -5.062424 0.2119312,-8.646133 -4.340827 0.7021487,-8.549832 -4.784298 0.9449984,-8.44177 -5.308076 0.9143946,1.68333,0 0 0 0 0 0 True
-2.000237 -6.728351 1.418652,-2.554742 -6.624508 2.113927,-3.015717 -5.816814 2.574932,-3.229944 -5.111089 2.941606,-3.625472 -4.603446 3.384973,-2.735711 -4.378564 2.738702,-2.826357 -3.914935 3.41564,-2.804035 -3.61306 3.793701,-2.718204 -3.393816 4.061743,-2.28858 -4.021811 2.653088,-2.186718 -4.727693 3.452168,-2.226238 -5.646476 3.567484,-2.253809 -6.140104 3.575385,-1.839962 -4.11886 2.633757,-1.757271 -5.002191 3.358141,-1.84002 -5.876425 3.358122,-1.897575 -6.348091 3.275935,-1.431935 -4.404626 2.655811,-1.324774 -4.855199 3.216098,-1.43657 -5.557739 3.254413,-1.545174 -5.986696 3.251666,-8.115789 -7.433609 -0.04782701,-7.553128 -7.190313 0.4948968,-7.133596 -6.405539 0.7460932,-6.804575 -5.702508 0.9830439,-6.493956 -5.208437 1.210344,-7.479845 -4.790718 0.1143064,-7.350073 -3.863296 0.4632998,-7.307268 -3.262624 0.7567783,-7.283975 -2.678855 0.9485155,-7.827034 -4.728075 0.08151901,-7.857767 -3.809535 0.7986084,-7.829349 -4.653804 1.218417,-7.791702 -5.345253 1.231447,-8.179338 -4.806552 0.1308889,-8.264154 -3.927832 0.765019,-8.177799 -4.769665 1.100105,-8.092614 -5.460574 1.062092,-8.535767 -5.062424 0.2119312,-8.646133 -4.340827 0.7021487,-8.549832 -4.784298 0.9449984,-8.44177 -5.308076 0.9143946,1.71667,0 0 1 1 0 1 True
-1.965464 -6.747224 1.464224,-2.522591 -6.629735 2.23333,-2.986932 -5.839817 2.711308,-3.197853 -5.116991 3.099197,-3.589903 -4.59799 3.568121,-2.686317 -4.326906 2.781118,-2.795759 -3.837386 3.498751,-2.762454 -3.566206 3.901966,-2.674295 -3.4243 4.178563,-2.241263 -4.015008 2.676347,-2.17293 -4.605616 3.574846,-2.198877 -5.572202 3.755928,-2.223204 -6.121358 3.765621,-1.79433 -4.127042 2.653836,-1.720291 -4.87694 3.474271,-1.80277 -5.82467 3.51754,-1.875604 -6.369143 3.42479,-1.378981 -4.425371 2.67492,-1.259079 -4.74777 3.320243,-1.366911 -5.496665 3.413309,-1.486648 -5.973165 3.421651,-8.149087 -7.479011 -0.04793013,-7.584734 -7.229596 0.5036959,-7.167518 -6.448534 0.7633789,-6.850335 -5.734689 1.011845,-6.541341 -5.233049 1.243304,-7.526237 -4.824289 0.1226142,-7.411205 -3.89052 0.4768786,-7.375065 -3.289432 0.7674964,-7.35997 -2.703976 0.9497852,-7.876046 -4.77205 0.08532642,-7.91132 -3.843282 0.8132623,-7.876338 -4.682326 1.232317,-7.838953 -5.347816 1.236859,-8.231747 -4.856008 0.1349338,-8.31411 -3.961878 0.7838297,-8.218364 -4.787134 1.120639,-8.136439 -5.453256 1.076372,-8.592773 -5.11173 0.213558,-8.700282 -4.371425 0.6996587,-8.600998 -4.798147 0.9399409,-8.499374 -5.301603 0.904718,1.75000,0 0 1 1 0 1 True
-1.965464 -6.747224 1.464224,-2.522591 -6.629735 2.23333,-2.986932 -5.839817 2.711308,-3.197853 -5.116991 3.099197,-3.589903 -4.59799 3.568121,-2.686317 -4.326906 2.781118,-2.795759 -3.837386 3.498751,-2.762454 -3.566206 3.901966,-2.674295 -3.4243 4.178563,-2.241263 -4.015008 2.676347,-2.17293 -4.605616 3.574846,-2.198877 -5.572202 3.755928,-2.223204 -6.121358 3.765621,-1.79433 -4.127042 2.653836,-1.720291 -4.87694 3.474271,-1.80277 -5.82467 3.51754,-1.875604 -6.369143 3.42479,-1.378981 -4.425371 2.67492,-1.259079 -4.74777 3.320243,-1.366911 -5.496665 3.413309,-1.486648 -5.973165 3.421651,-8.149087 -7.479011 -0.04793013,-7.584734 -7.229596 0.5036959,-7.167518 -6.448534 0.7633789,-6.850335 -5.734689 1.011845,-6.541341 -5.233049 1.243304,-7.526237 -4.824289 0.1226142,-7.411205 -3.89052 0.4768786,-7.375065 -3.289432 0.7674964,-7.35997 -2.703976 0.9497852,-7.876046 -4.77205 0.08532642,-7.91132 -3.843282 0.8132623,-7.876338 -4.682326 1.232317,-7.838953 -5.347816 1.236859,-8.231747 -4.856008 0.1349338,-8.31411 -3.961878 0.7838297,-8.218364 -4.787134 1.120639,-8.136439 -5.453256 1.076372,-8.592773 -5.11173 0.213558,-8.700282 -4.371425 0.6996587,-8.600998 -4.798147 0.9399409,-8.499374 -5.301603 0.904718,1.78333,0 0 1 1 0 1 True
-1.942499 -6.79301 1.726431,-2.504612 -6.680244 2.498306,-2.990233 -5.868257 2.974157,-3.223588 -5.135383 3.351615,-3.598246 -4.610672 3.802685,-2.67623 -4.343285 3.097661,-2.769195 -3.885067 3.843137,-2.744368 -3.633762 4.308783,-2.681981 -3.510722 4.633296,-2.212737 -4.005622 3.000303,-2.147291 -4.606933 3.891816,-2.179722 -5.638536 4.058129,-2.203814 -6.249402 4.046004,-1.749785 -4.128221 2.979794,-1.694716 -4.846628 3.784987,-1.783944 -5.83918 3.803543,-1.855661 -6.417295 3.700777,-1.327495 -4.44017 3.004037,-1.233651 -4.855856 3.627864,-1.360009 -5.651083 3.684487,-1.491809 -6.123443 3.68852,-8.183596 -7.486318 -0.0906258,-7.62189 -7.240695 0.4766593,-7.20915 -6.472653 0.7577063,-6.89197 -5.766508 1.021416,-6.581114 -5.271214 1.275872,-7.560999 -4.853578 0.1134118,-7.444211 -3.910276 0.4985697,-7.412786 -3.310612 0.8176251,-7.398957 -2.73357 1.02967,-7.908758 -4.794006 0.08139549,-7.934361 -3.875117 0.829998,-7.902739 -4.719408 1.278302,-7.86865 -5.388158 1.308654,-8.268315 -4.871132 0.1384702,-8.343467 -3.975273 0.7951789,-8.253502 -4.795858 1.133208,-8.174597 -5.457186 1.094213,-8.642744 -5.123814 0.2276025,-8.753285 -4.383054 0.7294277,-8.655423 -4.816757 0.9688843,-8.553034 -5.335623 0.9402902,1.81667,0 0 1 1 0 1 True
-1.972776 -6.862623 1.561926,-2.524764 -6.691371 2.227541,-3.010169 -5.864679 2.663531,-3.256353 -5.154029 3.024436,-3.629311 -4.663627 3.466924,-2.698277 -4.431458 2.823903,-2.814137 -3.903439 3.530608,-2.792432 -3.617328 3.95492,-2.732369 -3.482686 4.255874,-2.236929 -4.088417 2.750366,-2.17421 -4.679458 3.593919,-2.204079 -5.661132 3.734184,-2.231148 -6.247344 3.718175,-1.778678 -4.205241 2.748645,-1.719026 -4.91942 3.494154,-1.803316 -5.860754 3.509883,-1.876208 -6.383613 3.427723,-1.359139 -4.488939 2.785861,-1.251379 -4.854629 3.337816,-1.365282 -5.614473 3.391159,-1.489291 -6.053102 3.406312,-8.212964 -7.495584 -0.04756369,-7.646234 -7.237133 0.5266132,-7.235991 -6.468229 0.8051424,-6.924716 -5.762595 1.072551,-6.600246 -5.275722 1.321139,-7.585215 -4.866119 0.1763078,-7.487176 -3.93426 0.570357,-7.456993 -3.361589 0.8662415,-7.439074 -2.793574 1.052788,-7.939581 -4.802986 0.1457107,-7.978731 -3.91696 0.9230777,-7.902739 -4.719408 1.321449,-7.86865 -5.388158 1.351801,-8.268315 -4.871132 0.181617,-8.343467 -3.975273 0.8383258,-8.253502 -4.795858 1.176355,-8.174597 -5.457186 1.13736,-8.642744 -5.123814 0.2707493,-8.753285 -4.383054 0.7725745,-8.655423 -4.816757 1.012031,-8.553034 -5.335623 0.9834371,1.85000,0 0 1 1 0 1 True
-1.972776 -6.862623 1.561926,-2.524764 -6.691371 2.227541,-3.010169 -5.864679 2.663531,-3.256353 -5.154029 3.024436,-3.629311 -4.663627 3.466924,-2.698277 -4.431458 2.823903,-2.814137 -3.903439 3.530608,-2.792432 -3.617328 3.95492,-2.732369 -3.482686 4.255874,-2.236929 -4.088417 2.750366,-2.17421 -4.679458 3.593919,-2.204079 -5.661132 3.734184,-2.231148 -6.247344 3.718175,-1.778678 -4.205241 2.748645,-1.719026 -4.91942 3.494154,-1.803316 -5.860754 3.509883,-1.876208 -6.383613 3.427723,-1.359139 -4.488939 2.785861,-1.251379 -4.854629 3.337816,-1.365282 -5.614473 3.391159,-1.489291 -6.053102 3.406312,-8.212964 -7.495584 -0.0852256,-7.646234 -7.237133 0.4889513,-7.235991 -6.468229 0.7674805,-6.924716 -5.762595 1.034889,-6.600246 -5.275722 1.283477,-7.585215 -4.866119 0.1386459,-7.487176 -3.93426 0.5326951,-7.456993 -3.361589 0.8285795,-7.439074 -2.793574 1.015126,-7.939581 -4.802986 0.1080488,-7.978731 -3.91696 0.8854158,-7.951454 -4.784275 1.310528,-7.917088 -5.43217 1.322298,-8.305634 -4.87919 0.1710087,-8.38889 -4.02662 0.8641309,-8.3017 -4.865118 1.202037,-8.22158 -5.514798 1.149801,-8.684302 -5.125009 0.2651522,-8.798697 -4.375738 0.7751651,-8.697441 -4.799175 1.018731,-8.589994 -5.309656 0.9871968,1.88333,0 0 1 1 0 1 True
-1.98737 -6.860543 1.456605,-2.540189 -6.693182 2.01159,-3.041206 -5.822246 2.411004,-3.30087 -5.100332 2.750139,-3.667191 -4.64849 3.161354,-2.710713 -4.494787 2.646907,-2.830987 -3.977996 3.320602,-2.843196 -3.668842 3.692908,-2.82683 -3.460587 3.935848,-2.250336 -4.103408 2.608042,-2.194033 -4.848783 3.370197,-2.231277 -5.751798 3.44647,-2.267579 -6.216502 3.406691,-1.801134 -4.200621 2.620983,-1.75706 -5.060577 3.277831,-1.839337 -5.927916 3.233599,-1.910912 -6.338754 3.146346,-1.39055 -4.461618 2.669323,-1.30016 -4.965033 3.131363,-1.418132 -5.700456 3.135046,-1.541716 -6.064565 3.123962,-8.236 -7.4923 -0.134826,-7.669978 -7.237842 0.4515131,-7.26501 -6.464818 0.7426493,-6.9547 -5.746585 1.018749,-6.628806 -5.254867 1.287143,-7.615362 -4.880975 0.1098219,-7.512609 -3.949171 0.516397,-7.488905 -3.366441 0.8354207,-7.478718 -2.79926 1.045125,-7.970002 -4.814251 0.07217234,-8.003259 -3.923681 0.8477398,-7.989341 -4.773622 1.290098,-7.961575 -5.426803 1.320345,-8.33794 -4.888372 0.1245832,-8.416708 -4.015247 0.7970823,-8.337602 -4.828638 1.130762,-8.260519 -5.473812 1.083225,-8.716872 -5.141267 0.2100397,-8.826512 -4.416744 0.7196393,-8.730532 -4.83675 0.9609736,-8.624737 -5.345319 0.9351312,1.91667,0 0 1 1 0 1 True
-1.98737 -6.860543 1.456605,-2.540189 -6.693182 2.01159,-3.041206 -5.822246 2.411004,-3.30087 -5.100332 2.750139,-3.667191 -4.64849 3.161354,-2.710713 -4.494787 2.646907,-2.830987 -3.977996 3.320602,-2.843196 -3.668842 3.692908,-2.82683 -3.460587 3.935848,-2.250336 -4.103408 2.608042,-2.194033 -4.848783 3.370197,-2.231277 -5.751798 3.44647,-2.267579 -6.216502 3.406691,-1.801134 -4.200621 2.620983,-1.75706 -5.060577 3.277831,-1.839337 -5.927916 3.233599,-1.910912 -6.338754 3.146346,-1.39055 -4.461618 2.669323,-1.30016 -4.965033 3.131363,-1.418132 -5.700456 3.135046,-1.541716 -6.064565 3.123962,-8.236 -7.4923 -0.134826,-7.669978 -7.237842 0.4515131,-7.26501 -6.464818 0.7426493,-6.9547 -5.746585 1.018749,-6.628806 -5.254867 1.287143,-7.615362 -4.880975 0.1098219,-7.512609 -3.949171 0.516397,-7.488905 -3.366441 0.8354207,-7.478718 -2.79926 1.045125,-7.970002 -4.814251 0.07217234,-8.003259 -3.923681 0.8477398,-7.989341 -4.773622 1.290098,-7.961575 -5.426803 1.320345,-8.33794 -4.888372 0.1245832,-8.416708 -4.015247 0.7970823,-8.337602 -4.828638 1.130762,-8.260519 -5.473812 1.083225,-8.716872 -5.141267 0.2100397,-8.826512 -4.416744 0.7196393,-8.730532 -4.83675 0.9609736,-8.624737 -5.345319 0.9351312,1.95000,0 0 1 1 0 1 True
-1.960567 -6.859447 1.443274,-2.506899 -6.644687 1.965261,-2.998329 -5.757936 2.315017,-3.276312 -5.03465 2.630955,-3.647038 -4.591058 3.054134,-2.693701 -4.36413 2.445832,-2.817808 -3.862119 3.085977,-2.822277 -3.540734 3.446405,-2.791504 -3.330687 3.689134,-2.250899 -4.041917 2.418801,-2.212648 -4.674451 3.173637,-2.241677 -5.608114 3.316368,-2.265906 -6.130325 3.301358,-1.801315 -4.157218 2.447849,-1.777729 -4.91724 3.109272,-1.859667 -5.820356 3.116582,-1.92233 -6.294906 3.047365,-1.386374 -4.458313 2.511809,-1.332665 -4.952037 2.98229,-1.457643 -5.700084 3.010902,-1.579855 -6.088832 2.989762,-8.264323 -7.481575 -0.1139691,-7.700084 -7.230222 0.4957833,-7.290204 -6.442831 0.7926254,-6.978699 -5.711741 1.070703,-6.644125 -5.213863 1.358672,-7.643909 -4.865959 0.1771184,-7.547854 -3.948589 0.5632797,-7.530533 -3.36284 0.8788956,-7.525568 -2.800483 1.095717,-8.005737 -4.799272 0.1224573,-8.051761 -3.930262 0.873412,-8.032269 -4.749362 1.334537,-7.99931 -5.401866 1.406744,-8.379892 -4.8761 0.151186,-8.468704 -4.026077 0.8075672,-8.391113 -4.820364 1.164828,-8.311439 -5.472101 1.150931,-8.763902 -5.124973 0.2144588,-8.88289 -4.420401 0.7107376,-8.792286 -4.814757 0.9564703,-8.686838 -5.304101 0.9490563,1.98333,0 0 1 1 0 1 True
-1.960567 -6.859447 1.443274,-2.506899 -6.644687 1.965261,-2.998329 -5.757936 2.315017,-3.276312 -5.03465 2.630955,-3.647038 -4.591058 3.054134,-2.693701 -4.36413 2.445832,-2.817808 -3.862119 3.085977,-2.822277 -3.540734 3.446405,-2.791504 -3.330687 3.689134,-2.250899 -4.041917 2.418801,-2.212648 -4.674451 3.173637,-2.241677 -5.608114 3.316368,-2.265906 -6.130325 3.301358,-1.801315 -4.157218 2.447849,-1.777729 -4.91724 3.109272,-1.859667 -5.820356 3.116582,-1.92233 -6.294906 3.047365,-1.386374 -4.458313 2.511809,-1.332665 -4.952037 2.98229,-1.457643 -5.700084 3.010902,-1.579855 -6.088832 2.989762,-8.264323 -7.481575 -0.1139691,-7.700084 -7.230222 0.4957833,-7.290204 -6.442831 0.7926254,-6.978699 -5.711741 1.070703,-6.644125 -5.213863 1.358672,-7.643909 -4.865959 0.1771184,-7.547854 -3.948589 0.5632797,-7.530533 -3.36284 0.8788956,-7.525568 -2.800483 1.095717,-8.005737 -4.799272 0.1224573,-8.051761 -3.930262 0.873412,-8.032269 -4.749362 1.334537,-7.99931 -5.401866 1.406744,-8.379892 -4.8761 0.151186,-8.468704 -4.026077 0.8075672,-8.391113 -4.820364 1.164828,-8.311439 -5.472101 1.150931,-8.763902 -5.124973 0.2144588,-8.88289 -4.420401 0.7107376,-8.792286 -4.814757 0.9564703,-8.686838 -5.304101 0.9490563,2.01667,0 0 1 1 0 1 True
-1.951332 -6.831296 1.331671,-2.490572 -6.635581 1.927168,-2.977671 -5.770086 2.273645,-3.253521 -5.039627 2.573822,-3.621675 -4.577739 2.9745,-2.680892 -4.341644 2.311945,-2.813606 -3.846101 2.947861,-2.810048 -3.517154 3.314839,-2.763252 -3.287839 3.57553,-2.250052 -4.0337 2.263489,-2.220304 -4.573091 3.061987,-2.238708 -5.517313 3.240824,-2.24824 -6.085374 3.239932,-1.811563 -4.143529 2.283439,-1.78827 -4.836296 2.99623,-1.857256 -5.774516 3.048591,-1.906437 -6.32765 2.983505,-1.403547 -4.433605 2.342019,-1.344424 -4.877042 2.881435,-1.453754 -5.642344 2.948974,-1.566111 -6.093153 2.943302,-8.303683 -7.443578 -0.2026653,-7.724155 -7.202432 0.4269066,-7.323322 -6.438232 0.741977,-7.015925 -5.698018 1.041012,-6.675991 -5.18247 1.352638,-7.688773 -4.856525 0.1305782,-7.591416 -3.929875 0.5282547,-7.580642 -3.348694 0.8411759,-7.588286 -2.781915 1.044111,-8.051511 -4.789148 0.0647133,-8.103995 -3.918467 0.8295865,-8.079485 -4.751028 1.273201,-8.040318 -5.39295 1.327687,-8.42714 -4.865156 0.08275646,-8.522275 -4.016792 0.7505418,-8.435216 -4.819696 1.095142,-8.34838 -5.452585 1.063882,-8.812531 -5.106823 0.1390688,-8.938505 -4.378442 0.6326125,-8.842788 -4.768487 0.8663032,-8.731811 -5.242702 0.8434116,2.05000,0 0 1 1 0 1 True
-1.951332 -6.831296 1.331671,-2.490572 -6.635581 1.927168,-2.977671 -5.770086 2.273645,-3.253521 -5.039627 2.573822,-3.621675 -4.577739 2.9745,-2.680892 -4.341644 2.311945,-2.813606 -3.846101 2.947861,-2.810048 -3.517154 3.314839,-2.763252 -3.287839 3.57553,-2.250052 -4.0337 2.263489,-2.220304 -4.573091 3.061987,-2.238708 -5.517313 3.240824,-2.24824 -6.085374 3.239932,-1.811563 -4.143529 2.283439,-1.78827 -4.836296 2.99623,-1.857256 -5.774516 3.048591,-1.906437 -6.32765 2.983505,-1.403547 -4.433605 2.342019,-1.344424 -4.877042 2.881435,-1.453754 -5.642344 2.948974,-1.566111 -6.093153 2.943302,-8.303683 -7.443578 -0.2026653,-7.724155 -7.202432 0.4269066,-7.323322 -6.438232 0.741977,-7.015925 -5.698018 1.041012,-6.675991 -5.18247 1.352638,-7.688773 -4.856525 0.1305782,-7.591416 -3.929875 0.5282547,-7.580642 -3.348694 0.8411759,-7.588286 -2.781915 1.044111,-8.051511 -4.789148 0.0647133,-8.103995 -3.918467 0.8295865,-8.079485 -4.751028 1.273201,-8.040318 -5.39295 1.327687,-8.42714 -4.865156 0.08275646,-8.522275 -4.016792 0.7505418,-8.435216 -4.819696 1.095142,-8.34838 -5.452585 1.063882,-8.812531 -5.106823 0.1390688,-8.938505 -4.378442 0.6326125,-8.842788 -4.768487 0.8663032,-8.731811 -5.242702 0.8434116,2.08333,0 0 1 1 0 1 True
-1.969131 -6.874753 1.141953,-2.525558 -6.676187 1.584929,-3.030125 -5.778833 1.873789,-3.320066 -5.049345 2.132792,-3.67239 -4.62684 2.474962,-2.722665 -4.440055 1.967233,-2.861367 -3.918426 2.487983,-2.874729 -3.549679 2.806487,-2.837148 -3.282379 3.049538,-2.288079 -4.101247 1.961258,-2.268153 -4.730138 2.618996,-2.284704 -5.612245 2.750713,-2.293097 -6.124326 2.74256,-1.854619 -4.205532 2.010242,-1.853135 -4.945735 2.578727,-1.908011 -5.803846 2.584879,-1.950351 -6.280477 2.531958,-1.454911 -4.474464 2.088309,-1.414598 -4.975098 2.499265,-1.517514 -5.69263 2.514196,-1.622617 -6.074769 2.495258,-8.348059 -7.427377 -0.2615705,-7.763958 -7.200614 0.4072,-7.347245 -6.423245 0.7510509,-7.053644 -5.688964 1.06335,-6.70588 -5.171381 1.397329,-7.735106 -4.86327 0.1626808,-7.658628 -3.924675 0.5704313,-7.648755 -3.359882 0.8475521,-7.657052 -2.807366 1.012136,-8.106321 -4.798486 0.08724999,-8.160251 -3.952537 0.8975036,-8.137177 -4.824678 1.293509,-8.107348 -5.466627 1.289473,-8.493924 -4.876507 0.1030392,-8.583138 -4.069608 0.830604,-8.500373 -4.901933 1.164417,-8.422129 -5.532794 1.102933,-8.900866 -5.108848 0.1579726,-9.023043 -4.371917 0.6653349,-8.936995 -4.752721 0.8987082,-8.842598 -5.210071 0.8678821,2.11667,0 0 1 1 0 1 True
-1.969131 -6.874753 1.141953,-2.525558 -6.676187 1.584929,-3.030125 -5.778833 1.873789,-3.320066 -5.049345 2.132792,-3.67239 -4.62684 2.474962,-2.722665 -4.440055 1.967233,-2.861367 -3.918426 2.487983,-2.874729 -3.549679 2.806487,-2.837148 -3.282379 3.049538,-2.288079 -4.101247 1.961258,-2.268153 -4.730138 2.618996,-2.284704 -5.612245 2.750713,-2.293097 -6.124326 2.74256,-1.854619 -4.205532 2.010242,-1.853135 -4.945735 2.578727,-1.908011 -5.803846 2.584879,-1.950351 -6.280477 2.531958,-1.454911 -4.474464 2.088309,-1.414598 -4.975098 2.499265,-1.517514 -5.69263 2.514196,-1.622617 -6.074769 2.495258,-8.348059 -7.427377 -0.2615705,-7.763958 -7.200614 0.4072,-7.347245 -6.423245 0.7510509,-7.053644 -5.688964 1.06335,-6.70588 -5.171381 1.397329,-7.735106 -4.86327 0.1626808,-7.658628 -3.924675 0.5704313,-7.648755 -3.359882 0.8475521,-7.657052 -2.807366 1.012136,-8.106321 -4.798486 0.08724999,-8.160251 -3.952537 0.8975036,-8.137177 -4.824678 1.293509,-8.107348 -5.466627 1.289473,-8.493924 -4.876507 0.1030392,-8.583138 -4.069608 0.830604,-8.500373 -4.901933 1.164417,-8.422129 -5.532794 1.102933,-8.900866 -5.108848 0.1579726,-9.023043 -4.371917 0.6653349,-8.936995 -4.752721 0.8987082,-8.842598 -5.210071 0.8678821,2.15000,0 0 1 1 0 1 True
-2.027985 -6.965978 0.6983122,-2.589937 -6.762922 1.018334,-3.093708 -5.864099 1.22239,-3.383628 -5.147401 1.426019,-3.731552 -4.762809 1.708789,-2.797058 -4.600166 1.339187,-2.946816 -4.033908 1.776482,-2.969422 -3.629494 2.048171,-2.940558 -3.333 2.266436,-2.36898 -4.286407 1.366961,-2.383527 -4.798696 1.944445,-2.3889 -5.648311 2.069566,-2.380357 -6.189237 2.069673,-1.948805 -4.39104 1.439625,-1.964447 -4.995147 1.958813,-2.004888 -5.820451 1.97236,-2.027294 -6.294021 1.923504,-1.560095 -4.645954 1.527521,-1.526055 -5.018227 1.91864,-1.618049 -5.678179 1.947108,-1.700134 -6.041383 1.927512,-8.376375 -7.43263 -0.3334892,-7.781938 -7.210701 0.3410069,-7.360188 -6.435284 0.6777562,-7.083453 -5.681037 0.9793488,-6.747335 -5.144046 1.296602,-7.755293 -4.894093 0.1302626,-7.702896 -3.961953 0.5827872,-7.703935 -3.424617 0.87538,-7.718917 -2.904744 1.036232,-8.140627 -4.827547 0.04042143,-8.223948 -4.004702 0.8811811,-8.185802 -4.923663 1.233782,-8.136468 -5.557722 1.181668,-8.534766 -4.912239 0.0439221,-8.65615 -4.134902 0.8074926,-8.566854 -4.995193 1.113783,-8.469221 -5.611541 1.0297,-8.939783 -5.144367 0.08895752,-9.085299 -4.408548 0.5876113,-8.99759 -4.773101 0.8096831,-8.890061 -5.204927 0.7641973,2.18333,0 0 1 1 0 1 True
-2.086449 -7.057991 0.1771785,-2.623851 -6.885471 0.5604739,-3.120407 -6.027561 0.7434276,-3.415004 -5.319285 0.9262257,-3.762079 -4.913833 1.190771,-2.871991 -4.768268 0.7288716,-3.04983 -4.149306 1.142946,-3.079681 -3.7294 1.39868,-3.059097 -3.413812 1.621946,-2.475809 -4.513513 0.7350072,-2.496337 -4.788812 1.353707,-2.460966 -5.68187 1.530718,-2.418451 -6.30264 1.535703,-2.076021 -4.608148 0.7943596,-2.085558 -4.977031 1.404614,-2.103294 -5.851808 1.47763,-2.105815 -6.409946 1.408453,-1.694609 -4.845506 0.8704869,-1.670115 -4.981835 1.374358,-1.743364 -5.644735 1.449741,-1.810455 -6.076913 1.421917,-8.391829 -7.447519 -0.278398,-7.800237 -7.199117 0.4595232,-7.388239 -6.466671 0.8419254,-7.166153 -5.710581 1.17116,-6.904855 -5.109295 1.511904,-7.773577 -4.911489 0.2905179,-7.725368 -3.999149 0.8019944,-7.726896 -3.465505 1.146662,-7.735569 -2.96065 1.340391,-8.170227 -4.841203 0.1943163,-8.256625 -4.030955 1.124133,-8.199011 -4.986131 1.514934,-8.13853 -5.658365 1.502086,-8.577444 -4.928873 0.2047035,-8.704922 -4.137001 1.025535,-8.595827 -5.016715 1.351283,-8.485077 -5.660463 1.298073,-8.996017 -5.152534 0.2530296,-9.174749 -4.392948 0.800249,-9.083819 -4.74957 1.061289,-8.964157 -5.198402 1.064516,2.21667,0 0 1 1 0 1 True
-2.086449 -7.057991 0.1771785,-2.623851 -6.885471 0.5604739,-3.120407 -6.027561 0.7434276,-3.415004 -5.319285 0.9262257,-3.762079 -4.913833 1.190771,-2.871991 -4.768268 0.7288716,-3.04983 -4.149306 1.142946,-3.079681 -3.7294 1.39868,-3.059097 -3.413812 1.621946,-2.475809 -4.513513 0.7350072,-2.496337 -4.788812 1.353707,-2.460966 -5.68187 1.530718,-2.418451 -6.30264 1.535703,-2.076021 -4.608148 0.7943596,-2.085558 -4.977031 1.404614,-2.103294 -5.851808 1.47763,-2.105815 -6.409946 1.408453,-1.694609 -4.845506 0.8704869,-1.670115 -4.981835 1.374358,-1.743364 -5.644735 1.449741,-1.810455 -6.076913 1.421917,-8.391829 -7.447519 -0.278398,-7.800237 -7.199117 0.4595232,-7.388239 -6.466671 0.8419254,-7.166153 -5.710581 1.17116,-6.904855 -5.109295 1.511904,-7.773577 -4.911489 0.2905179,-7.725368 -3.999149 0.8019944,-7.726896 -3.465505 1.146662,-7.735569 -2.96065 1.340391,-8.170227 -4.841203 0.1943163,-8.256625 -4.030955 1.124133,-8.199011 -4.986131 1.514934,-8.13853 -5.658365 1.502086,-8.577444 -4.928873 0.2047035,-8.704922 -4.137001 1.025535,-8.595827 -5.016715 1.351283,-8.485077 -5.660463 1.298073,-8.996017 -5.152534 0.2530296,-9.174749 -4.392948 0.800249,-9.083819 -4.74957 1.061289,-8.964157 -5.198402 1.064516,2.25000,0 0 1 1 0 1 True
-2.144918 -7.150569 -0.06926524,-2.657714 -6.994012 0.363037,-3.160206 -6.170616 0.5552125,-3.464042 -5.477867 0.7468711,-3.810526 -5.026811 1.000881,-2.910998 -4.890394 0.4472116,-3.120101 -4.255514 0.8886307,-3.158866 -3.831874 1.161713,-3.151673 -3.509786 1.393152,-2.539702 -4.671983 0.4519785,-2.584239 -4.819207 1.133038,-2.535836 -5.720586 1.355397,-2.483669 -6.369698 1.369118,-2.148125 -4.753728 0.5165758,-2.176811 -5.022403 1.191782,-2.18448 -5.901157 1.303879,-2.180151 -6.493362 1.240316,-1.76969 -4.973089 0.6034766,-1.775429 -5.077617 1.163602,-1.844474 -5.754366 1.277112,-1.911045 -6.224516 1.249301,-8.400154 -7.498384 -0.2488407,-7.824973 -7.194585 0.539758,-7.409654 -6.483798 0.9573212,-7.192089 -5.717952 1.322565,-6.970738 -5.092548 1.700303,-7.796079 -4.960644 0.4503621,-7.73756 -4.033248 1.01321,-7.752347 -3.490684 1.38035,-7.769484 -2.995861 1.585813,-8.20057 -4.909206 0.3565859,-8.289631 -4.055856 1.358584,-8.237614 -4.948272 1.820286,-8.189412 -5.652792 1.873576,-8.611709 -5.015512 0.3672162,-8.744048 -4.140409 1.233007,-8.619596 -4.961246 1.618691,-8.498878 -5.651227 1.608786,-9.023329 -5.245347 0.4209087,-9.249152 -4.454378 1.005607,-9.209196 -4.559824 1.335167,-9.128252 -4.823802 1.403212,2.28333,0 0 1 1 0 1 True
-2.144918 -7.150569 -0.06926524,-2.657714 -6.994012 0.363037,-3.160206 -6.170616 0.5552125,-3.464042 -5.477867 0.7468711,-3.810526 -5.026811 1.000881,-2.910998 -4.890394 0.4472116,-3.120101 -4.255514 0.8886307,-3.158866 -3.831874 1.161713,-3.151673 -3.509786 1.393152,-2.539702 -4.671983 0.4519785,-2.584239 -4.819207 1.133038,-2.535836 -5.720586 1.355397,-2.483669 -6.369698 1.369118,-2.148125 -4.753728 0.5165758,-2.176811 -5.022403 1.191782,-2.18448 -5.901157 1.303879,-2.180151 -6.493362 1.240316,-1.76969 -4.973089 0.6034766,-1.775429 -5.077617 1.163602,-1.844474 -5.754366 1.277112,-1.911045 -6.224516 1.249301,-8.400154 -7.498384 -0.2488407,-7.824973 -7.194585 0.539758,-7.409654 -6.483798 0.9573212,-7.192089 -5.717952 1.322565,-6.970738 -5.092548 1.700303,-7.796079 -4.960644 0.4503621,-7.73756 -4.033248 1.01321,-7.752347 -3.490684 1.38035,-7.769484 -2.995861 1.585813,-8.20057 -4.909206 0.3565859,-8.289631 -4.055856 1.358584,-8.237614 -4.948272 1.820286,-8.189412 -5.652792 1.873576,-8.611709 -5.015512 0.3672162,-8.744048 -4.140409 1.233007,-8.619596 -4.961246 1.618691,-8.498878 -5.651227 1.608786,-9.023329 -5.245347 0.4209087,-9.249152 -4.454378 1.005607,-9.209196 -4.559824 1.335167,-9.128252 -4.823802 1.403212,2.31667,0 0 1 1 0 1 True
-2.187196 -7.247112 -0.2718258,-2.649715 -7.100383 0.1784954,-3.166925 -6.288558 0.3824387,-3.486994 -5.600036 0.5864702,-3.820741 -5.159849 0.8404586,-2.968474 -5.049604 0.2763976,-3.167934 -4.38874 0.7697768,-3.205782 -3.951316 1.07754,-3.221499 -3.566772 1.317271,-2.600142 -4.83847 0.2809052,-2.63933 -4.807859 1.008896,-2.5833 -5.753242 1.198821,-2.548887 -6.386493 1.17967,-2.203703 -4.898386 0.3534912,-2.22841 -4.996753 1.071843,-2.249805 -5.927166 1.131099,-2.26929 -6.48834 1.025305,-1.819732 -5.102909 0.4444522,-1.828233 -5.087862 1.01049,-1.909321 -5.771148 1.09173,-1.987846 -6.202671 1.05017,-8.407772 -7.45139 -0.197054,-7.847864 -7.136018 0.6080614,-7.434488 -6.446089 1.053789,-7.220759 -5.731634 1.455895,-7.060122 -5.076045 1.882632,-7.808371 -4.892607 0.4965395,-7.75365 -3.972017 1.107984,-7.787913 -3.482769 1.520899,-7.83258 -3.052194 1.740577,-8.220748 -4.843658 0.3982264,-8.309216 -4.004507 1.45191,-8.257937 -4.932419 1.951789,-8.205839 -5.652236 2.00765,-8.634436 -4.961244 0.4103565,-8.75762 -4.136634 1.302381,-8.647923 -4.974882 1.680035,-8.535639 -5.658523 1.645268,-9.048058 -5.2105 0.4676164,-9.249238 -4.442096 1.121355,-9.156412 -4.74551 1.459751,-9.023245 -5.196601 1.504961,2.35000,0 0 1 1 0 1 True
-2.187196 -7.247112 -0.2718258,-2.649715 -7.100383 0.1784954,-3.166925 -6.288558 0.3824387,-3.486994 -5.600036 0.5864702,-3.820741 -5.159849 0.8404586,-2.968474 -5.049604 0.2763976,-3.167934 -4.38874 0.7697768,-3.205782 -3.951316 1.07754,-3.221499 -3.566772 1.317271,-2.600142 -4.83847 0.2809052,-2.63933 -4.807859 1.008896,-2.5833 -5.753242 1.198821,-2.548887 -6.386493 1.17967,-2.203703 -4.898386 0.3534912,-2.22841 -4.996753 1.071843,-2.249805 -5.927166 1.131099,-2.26929 -6.48834 1.025305,-1.819732 -5.102909 0.4444522,-1.828233 -5.087862 1.01049,-1.909321 -5.771148 1.09173,-1.987846 -6.202671 1.05017,-8.407772 -7.45139 -0.197054,-7.847864 -7.136018 0.6080614,-7.434488 -6.446089 1.053789,-7.220759 -5.731634 1.455895,-7.060122 -5.076045 1.882632,-7.808371 -4.892607 0.4965395,-7.75365 -3.972017 1.107984,-7.787913 -3.482769 1.520899,-7.83258 -3.052194 1.740577,-8.220748 -4.843658 0.3982264,-8.309216 -4.004507 1.45191,-8.257937 -4.932419 1.951789,-8.205839 -5.652236 2.00765,-8.634436 -4.961244 0.4103565,-8.75762 -4.136634 1.302381,-8.647923 -4.974882 1.680035,-8.535639 -5.658523 1.645268,-9.048058 -5.2105 0.4676164,-9.249238 -4.442096 1.121355,-9.156412 -4.74551 1.459751,-9.023245 -5.196601 1.504961,2.38333,0 0 1 1 0 1 True
-2.212898 -7.276086 -0.4332467,-2.69093 -7.102893 -0.05951393,-3.201984 -6.269149 0.0985896,-3.537045 -5.610792 0.2758881,-3.871153 -5.236415 0.4973217,-2.986533 -5.094709 -0.02172428,-3.205136 -4.458877 0.4469624,-3.26276 -4.021657 0.7435118,-3.294581 -3.626392 0.9598771,-2.635425 -4.891857 -0.002568513,-2.697789 -4.863946 0.6513578,-2.636219 -5.780648 0.8317112,-2.59078 -6.381182 0.8105607,-2.253507 -4.941267 0.07495332,-2.308609 -5.041049 0.712237,-2.312558 -5.952724 0.7769828,-2.311265 -6.493629 0.6930168,-1.873605 -5.139987 0.1718508,-1.916476 -5.095437 0.6736482,-1.985433 -5.764938 0.7520365,-2.038517 -6.199075 0.7077566,-8.392847 -7.352832 -0.3975502,-7.830386 -7.064052 0.4643469,-7.422169 -6.416643 0.9538878,-7.237221 -5.712478 1.374012,-7.160748 -5.056736 1.828221,-7.805131 -4.8927 0.4617112,-7.74448 -3.963835 1.151431,-7.781352 -3.508066 1.648729,-7.840011 -3.159542 1.91046,-8.224623 -4.837558 0.3310448,-8.317909 -4.025499 1.435907,-8.262123 -4.935018 1.965386,-8.201488 -5.67485 2.06466,-8.654002 -4.937749 0.3162755,-8.787203 -4.196068 1.27338,-8.682326 -5.044657 1.669263,-8.558308 -5.745025 1.648596,-9.08333 -5.146348 0.3379154,-9.292668 -4.374741 1.055212,-9.188332 -4.785575 1.418293,-9.034304 -5.352325 1.4755,2.41667,0 0 1 1 0 1 True
-2.212898 -7.276086 -0.4332467,-2.69093 -7.102893 -0.05951393,-3.201984 -6.269149 0.0985896,-3.537045 -5.610792 0.2758881,-3.871153 -5.236415 0.4973217,-2.986533 -5.094709 -0.02172428,-3.205136 -4.458877 0.4469624,-3.26276 -4.021657 0.7435118,-3.294581 -3.626392 0.9598771,-2.635425 -4.891857 -0.002568513,-2.697789 -4.863946 0.6513578,-2.636219 -5.780648 0.8317112,-2.59078 -6.381182 0.8105607,-2.253507 -4.941267 0.07495332,-2.308609 -5.041049 0.712237,-2.312558 -5.952724 0.7769828,-2.311265 -6.493629 0.6930168,-1.873605 -5.139987 0.1718508,-1.916476 -5.095437 0.6736482,-1.985433 -5.764938 0.7520365,-2.038517 -6.199075 0.7077566,-8.392847 -7.352832 -0.3975502,-7.830386 -7.064052 0.4643469,-7.422169 -6.416643 0.9538878,-7.237221 -5.712478 1.374012,-7.160748 -5.056736 1.828221,-7.805131 -4.8927 0.4617112,-7.74448 -3.963835 1.151431,-7.781352 -3.508066 1.648729,-7.840011 -3.159542 1.91046,-8.224623 -4.837558 0.3310448,-8.317909 -4.025499 1.435907,-8.262123 -4.935018 1.965386,-8.201488 -5.67485 2.06466,-8.654002 -4.937749 0.3162755,-8.787203 -4.196068 1.27338,-8.682326 -5.044657 1.669263,-8.558308 -5.745025 1.648596,-9.08333 -5.146348 0.3379154,-9.292668 -4.374741 1.055212,-9.188332 -4.785575 1.418293,-9.034304 -5.352325 1.4755,2.45000,0 0 1 1 0 1 True
-2.261198 -7.287519 -0.6215553,-2.723313 -7.10676 -0.2536099,-3.224407 -6.283733 -0.09039748,-3.558825 -5.645668 0.09167165,-3.895155 -5.275529 0.2996221,-3.018187 -5.137212 -0.2082655,-3.242271 -4.496852 0.2962421,-3.306456 -4.05685 0.610711,-3.346582 -3.651057 0.8264014,-2.666394 -4.95718 -0.1830101,-2.744524 -4.824981 0.5126498,-2.6871 -5.756944 0.7017907,-2.640814 -6.375886 0.6722938,-2.282385 -5.009737 -0.09497541,-2.350522 -5.015473 0.5599403,-2.356512 -5.938534 0.6122047,-2.355013 -6.484781 0.5142695,-1.898243 -5.214649 0.01114237,-1.942685 -5.085634 0.5025516,-2.014858 -5.74946 0.5683502,-2.0633 -6.197185 0.5113307,-8.379111 -7.354228 -0.4136188,-7.824513 -7.066244 0.4688168,-7.407598 -6.431859 0.9902569,-7.232292 -5.731314 1.436481,-7.231984 -5.094223 1.910719,-7.818708 -4.917615 0.4844803,-7.751191 -4.004774 1.256472,-7.77149 -3.557613 1.829707,-7.812797 -3.250082 2.139515,-8.243909 -4.855699 0.3612931,-8.336254 -4.04454 1.53073,-8.256537 -4.992891 2.055985,-8.180831 -5.72672 2.14462,-8.679465 -4.948561 0.3582233,-8.819934 -4.193738 1.372616,-8.702402 -5.0676 1.752897,-8.574653 -5.743621 1.701732,-9.113086 -5.142179 0.3920658,-9.336257 -4.309538 1.133666,-9.218909 -4.728985 1.47145,-9.056252 -5.296236 1.487637,2.48333,0 0 1 1 0 1 True
-2.286918 -7.282133 -0.7038856,-2.752975 -7.118783 -0.3467227,-3.245552 -6.292575 -0.194607,-3.577426 -5.657983 -0.02498955,-3.914961 -5.292974 0.1709081,-3.045269 -5.151962 -0.3255561,-3.272461 -4.512216 0.127143,-3.347037 -4.067666 0.40803,-3.397348 -3.655816 0.6057104,-2.697143 -4.970217 -0.3024372,-2.783281 -4.855228 0.3551081,-2.727453 -5.770578 0.5456511,-2.67761 -6.383647 0.5262703,-2.319005 -5.020025 -0.2210845,-2.396987 -5.044569 0.4083359,-2.400916 -5.95375 0.4778658,-2.392118 -6.499631 0.3950822,-1.940398 -5.224187 -0.1244392,-1.998038 -5.111257 0.3552116,-2.065616 -5.770916 0.4241339,-2.106682 -6.223182 0.3750266,-8.366796 -7.325874 -0.1862543,-7.822458 -7.042058 0.7245381,-7.391641 -6.444379 1.315811,-7.209186 -5.781223 1.832007,-7.274668 -5.175861 2.375708,-7.78969 -4.859497 0.8543932,-7.713338 -3.943431 1.755126,-7.75526 -3.605392 2.415567,-7.830867 -3.523019 2.771182,-8.235198 -4.808453 0.7364219,-8.328545 -4.046886 2.000042,-8.245709 -5.025007 2.571103,-8.167314 -5.779087 2.684398,-8.691457 -4.922672 0.7432158,-8.826793 -4.225229 1.812339,-8.710739 -5.118627 2.168545,-8.587356 -5.785533 2.106054,-9.143306 -5.145748 0.7932441,-9.374852 -4.319639 1.576949,-9.256718 -4.76686 1.907933,-9.092082 -5.336526 1.902674,2.51667,0 0 1 1 0 1 True
-2.286918 -7.282133 -0.7038856,-2.752975 -7.118783 -0.3467227,-3.245552 -6.292575 -0.194607,-3.577426 -5.657983 -0.02498955,-3.914961 -5.292974 0.1709081,-3.045269 -5.151962 -0.3255561,-3.272461 -4.512216 0.127143,-3.347037 -4.067666 0.40803,-3.397348 -3.655816 0.6057104,-2.697143 -4.970217 -0.3024372,-2.783281 -4.855228 0.3551081,-2.727453 -5.770578 0.5456511,-2.67761 -6.383647 0.5262703,-2.319005 -5.020025 -0.2210845,-2.396987 -5.044569 0.4083359,-2.400916 -5.95375 0.4778658,-2.392118 -6.499631 0.3950822,-1.940398 -5.224187 -0.1244392,-1.998038 -5.111257 0.3552116,-2.065616 -5.770916 0.4241339,-2.106682 -6.223182 0.3750266,-8.366796 -7.325874 -0.1862543,-7.822458 -7.042058 0.7245381,-7.391641 -6.444379 1.315811,-7.209186 -5.781223 1.832007,-7.274668 -5.175861 2.375708,-7.78969 -4.859497 0.8543932,-7.713338 -3.943431 1.755126,-7.75526 -3.605392 2.415567,-7.830867 -3.523019 2.771182,-8.235198 -4.808453 0.7364219,-8.328545 -4.046886 2.000042,-8.245709 -5.025007 2.571103,-8.167314 -5.779087 2.684398,-8.691457 -4.922672 0.7432158,-8.826793 -4.225229 1.812339,-8.710739 -5.118627 2.168545,-8.587356 -5.785533 2.106054,-9.143306 -5.145748 0.7932441,-9.374852 -4.319639 1.576949,-9.256718 -4.76686 1.907933,-9.092082 -5.336526 1.902674,2.55000,0 0 1 1 0 1 True
-2.301671 -7.294951 -0.7886738,-2.768694 -7.136266 -0.4337493,-3.271533 -6.324114 -0.2875676,-3.604403 -5.691106 -0.1242349,-3.935523 -5.316576 0.06504941,-3.074067 -5.198888 -0.4032749,-3.299891 -4.555028 0.04197824,-3.379013 -4.100877 0.3226123,-3.43836 -3.677497 0.5258027,-2.729506 -5.012978 -0.3774741,-2.818653 -4.877475 0.2712973,-2.756056 -5.780597 0.4486086,-2.703263 -6.395576 0.4199996,-2.354282 -5.058019 -0.2930769,-2.433685 -5.075246 0.336919,-2.433388 -5.972829 0.405688,-2.423668 -6.51789 0.3248235,-1.978194 -5.253397 -0.1946612,-2.0436 -5.159217 0.2807508,-2.110877 -5.813475 0.3496811,-2.152367 -6.252676 0.3049036,-8.341217 -7.287392 -0.1007196,-7.809621 -7.027203 0.8361247,-7.351579 -6.448329 1.463271,-7.153542 -5.799308 2.006736,-7.291097 -5.229431 2.567287,-7.80871 -4.864782 1.078273,-7.747477 -3.914037 2.077733,-7.711531 -3.654901 2.790106,-7.71034 -3.76621 3.16784,-8.265982 -4.804404 0.9793491,-8.339326 -4.130205 2.310328,-8.255013 -5.07517 2.929273,-8.184026 -5.823894 3.107913,-8.720655 -4.925954 1.000669,-8.828777 -4.295219 2.170632,-8.727813 -5.155935 2.585,-8.618435 -5.831653 2.573492,-9.168224 -5.165661 1.065991,-9.385973 -4.327815 1.884633,-9.282677 -4.693075 2.249825,-9.131165 -5.20812 2.300098,2.58333,0 0 1 1 0 1 True
