TiagoOliveira98/Thesis-Project/Difficulty_1_NEW/Dual_Task/Unity_Project/DataLogging/JointData/Logs(1651331337)_sss_Dual_Difficulty0.csv
WRIST,THUMB_CMC,THUMB_MCP,THUMB_IP,THUMB_TIP,INDEX_FINGER_MCP,INDEX_FINGER_PIP,INDEX_FINGER_DIP,INDEX_FINGER_TIP,MIDDLE_FINGER_MCP,MIDDLE_FINGER_PIP,MIDDLE_FINGER_DIP,MIDDLE_FINGER_TIP,RING_FINGER_MCP,RING_FINGER_PIP,RING_FINGER_DIP,RING_FINGER_TIP,PINKY_MCP,PINKY_PIP,PINKY_DIP,PINKY_TIP,WRIST2,THUMB_CMC2,THUMB_MCP2,THUMB_IP2,THUMB_TIP2,INDEX_FINGER_MCP2,INDEX_FINGER_PIP2,INDEX_FINGER_DIP2,INDEX_FINGER_TIP2,MIDDLE_FINGER_MCP2,MIDDLE_FINGER_PIP2,MIDDLE_FINGER_DIP2,MIDDLE_FINGER_TIP2,RING_FINGER_MCP2,RING_FINGER_PIP2,RING_FINGER_DIP2,RING_FINGER_TIP2,PINKY_MCP2,PINKY_PIP2,PINKY_DIP2,PINKY_TIP2,Timestamp,Event
-1.662433 -7.432589 0.0002508468,-2.247694 -7.235304 0.3076206,-2.795486 -6.631097 0.4707969,-3.202321 -6.074455 0.6117335,-3.555977 -5.813615 0.7765942,-2.416245 -5.089681 0.2626681,-2.612461 -4.113594 0.4595451,-2.709457 -3.504836 0.6209981,-2.781944 -2.925097 0.7506542,-2.055573 -4.849916 0.2683701,-2.159253 -3.706171 0.4867546,-2.214757 -2.951257 0.6956844,-2.253923 -2.297548 0.8578291,-1.704348 -4.844566 0.3255142,-1.749036 -3.767778 0.5449436,-1.803309 -3.072268 0.737281,-1.851364 -2.482751 0.8827716,-1.340246 -5.039405 0.4076582,-1.248023 -4.180126 0.6059261,-1.205183 -3.621099 0.7778768,-1.179507 -3.080192 0.9279762,-7.725388 -7.551721 0.0004522166,-7.14851 -7.25616 0.3083658,-6.621594 -6.617876 0.5122436,-6.24604 -5.997581 0.7417512,-5.935695 -5.571233 0.9773496,-7.014919 -5.02547 0.2480847,-6.889709 -3.92904 0.4484848,-6.850711 -3.239106 0.6400597,-6.822385 -2.635536 0.7857605,-7.347477 -4.842041 0.2841661,-7.227148 -3.617519 0.4478101,-7.163157 -2.84019 0.6909606,-7.110468 -2.154482 0.9034317,-7.6804 -4.903066 0.3514939,-7.60298 -3.754208 0.5174254,-7.550411 -3.035415 0.7183644,-7.491713 -2.401552 0.8892122,-8.032383 -5.171201 0.4531757,-8.101965 -4.329017 0.6138128,-8.120616 -3.782977 0.7634568,-8.10958 -3.239932 0.8943803,0.01667,0 0 0 0 0 0 True
-1.658932 -7.423051 0.01504634,-2.246611 -7.234308 0.3170545,-2.795425 -6.629533 0.4785846,-3.196143 -6.073687 0.6190405,-3.537621 -5.795963 0.7756859,-2.408313 -5.071842 0.2627938,-2.602325 -4.097757 0.4596705,-2.700521 -3.492556 0.6160987,-2.776699 -2.914927 0.7431529,-2.048752 -4.834497 0.2722392,-2.151543 -3.692359 0.4907643,-2.207012 -2.943388 0.6997715,-2.246801 -2.294342 0.8652214,-1.698946 -4.83167 0.3350039,-1.746035 -3.756305 0.5516537,-1.799432 -3.064882 0.7407184,-1.847528 -2.477737 0.8871964,-1.336235 -5.030303 0.422626,-1.240593 -4.17246 0.6158004,-1.195175 -3.618301 0.7850057,-1.169555 -3.078496 0.9356042,-7.706171 -7.545509 0.02108473,-7.141901 -7.257292 0.3190417,-6.623767 -6.600856 0.5233168,-6.250062 -5.983351 0.7575796,-5.930315 -5.576023 0.9987603,-7.012974 -5.00115 0.275031,-6.891352 -3.900487 0.4755512,-6.855558 -3.20544 0.6657667,-6.833291 -2.595329 0.8123506,-7.34231 -4.83003 0.3244353,-7.225083 -3.602156 0.4902799,-7.16546 -2.82487 0.7299169,-7.117429 -2.13517 0.9406339,-7.67342 -4.901803 0.4064242,-7.602274 -3.743307 0.5810335,-7.556483 -3.02056 0.7885326,-7.506058 -2.37504 0.9717306,-8.022687 -5.185623 0.5201246,-8.099955 -4.334891 0.6891437,-8.12575 -3.791825 0.8456181,-8.12282 -3.243464 0.9858973,0.05000,0 0 0 0 0 0 True
-1.658932 -7.423051 0.01504634,-2.246611 -7.234308 0.3170545,-2.795425 -6.629533 0.4785846,-3.196143 -6.073687 0.6190405,-3.537621 -5.795963 0.7756859,-2.408313 -5.071842 0.2627938,-2.602325 -4.097757 0.4596705,-2.700521 -3.492556 0.6160987,-2.776699 -2.914927 0.7431529,-2.048752 -4.834497 0.2722392,-2.151543 -3.692359 0.4907643,-2.207012 -2.943388 0.6997715,-2.246801 -2.294342 0.8652214,-1.698946 -4.83167 0.3350039,-1.746035 -3.756305 0.5516537,-1.799432 -3.064882 0.7407184,-1.847528 -2.477737 0.8871964,-1.336235 -5.030303 0.422626,-1.240593 -4.17246 0.6158004,-1.195175 -3.618301 0.7850057,-1.169555 -3.078496 0.9356042,-7.706171 -7.545509 0.02108473,-7.141901 -7.257292 0.3190417,-6.623767 -6.600856 0.5233168,-6.250062 -5.983351 0.7575796,-5.930315 -5.576023 0.9987603,-7.012974 -5.00115 0.275031,-6.891352 -3.900487 0.4755512,-6.855558 -3.20544 0.6657667,-6.833291 -2.595329 0.8123506,-7.34231 -4.83003 0.3244353,-7.225083 -3.602156 0.4902799,-7.16546 -2.82487 0.7299169,-7.117429 -2.13517 0.9406339,-7.67342 -4.901803 0.4064242,-7.602274 -3.743307 0.5810335,-7.556483 -3.02056 0.7885326,-7.506058 -2.37504 0.9717306,-8.022687 -5.185623 0.5201246,-8.099955 -4.334891 0.6891437,-8.12575 -3.791825 0.8456181,-8.12282 -3.243464 0.9858973,0.08333,0 0 0 0 0 0 True
-1.667286 -7.416374 0.03614157,-2.249069 -7.226636 0.3331475,-2.800173 -6.622709 0.491938,-3.207272 -6.069313 0.6332035,-3.549751 -5.801336 0.7900559,-2.411088 -5.058681 0.2527341,-2.608479 -4.083108 0.4377579,-2.704873 -3.477857 0.5872335,-2.778135 -2.907711 0.7131785,-2.054228 -4.818641 0.2653195,-2.159316 -3.679462 0.4714118,-2.216597 -2.931139 0.6776692,-2.26152 -2.283857 0.844313,-1.707787 -4.814968 0.3324924,-1.764037 -3.746386 0.5401641,-1.821604 -3.059747 0.7242477,-1.874949 -2.47648 0.8665786,-1.346844 -5.01397 0.4240127,-1.256985 -4.162135 0.6067453,-1.215607 -3.613368 0.7659053,-1.195736 -3.079077 0.9104087,-7.711297 -7.536198 0.02674854,-7.143072 -7.23695 0.3206975,-6.62664 -6.584655 0.5223439,-6.249804 -5.96467 0.7536314,-5.924105 -5.574674 0.9919828,-7.008471 -4.994598 0.2759655,-6.889755 -3.904169 0.4647949,-6.84931 -3.213172 0.6486196,-6.822081 -2.612559 0.7898303,-7.333455 -4.819892 0.319916,-7.215117 -3.613968 0.477491,-7.153358 -2.845047 0.7198179,-7.104906 -2.162277 0.9353786,-7.662633 -4.889457 0.3950032,-7.586406 -3.754716 0.5550772,-7.536148 -3.0503 0.7443473,-7.483763 -2.425562 0.9097401,-8.010378 -5.168561 0.5011828,-8.086065 -4.331399 0.6633227,-8.110158 -3.793487 0.8113263,-8.109372 -3.249173 0.942431,0.11667,0 0 0 0 0 0 True
-1.667286 -7.416374 0.03614157,-2.249069 -7.226636 0.3331475,-2.800173 -6.622709 0.491938,-3.207272 -6.069313 0.6332035,-3.549751 -5.801336 0.7900559,-2.411088 -5.058681 0.2527341,-2.608479 -4.083108 0.4377579,-2.704873 -3.477857 0.5872335,-2.778135 -2.907711 0.7131785,-2.054228 -4.818641 0.2653195,-2.159316 -3.679462 0.4714118,-2.216597 -2.931139 0.6776692,-2.26152 -2.283857 0.844313,-1.707787 -4.814968 0.3324924,-1.764037 -3.746386 0.5401641,-1.821604 -3.059747 0.7242477,-1.874949 -2.47648 0.8665786,-1.346844 -5.01397 0.4240127,-1.256985 -4.162135 0.6067453,-1.215607 -3.613368 0.7659053,-1.195736 -3.079077 0.9104087,-7.711297 -7.536198 0.02674854,-7.143072 -7.23695 0.3206975,-6.62664 -6.584655 0.5223439,-6.249804 -5.96467 0.7536314,-5.924105 -5.574674 0.9919828,-7.008471 -4.994598 0.2759655,-6.889755 -3.904169 0.4647949,-6.84931 -3.213172 0.6486196,-6.822081 -2.612559 0.7898303,-7.333455 -4.819892 0.319916,-7.215117 -3.613968 0.477491,-7.153358 -2.845047 0.7198179,-7.104906 -2.162277 0.9353786,-7.662633 -4.889457 0.3950032,-7.586406 -3.754716 0.5550772,-7.536148 -3.0503 0.7443473,-7.483763 -2.425562 0.9097401,-8.010378 -5.168561 0.5011828,-8.086065 -4.331399 0.6633227,-8.110158 -3.793487 0.8113263,-8.109372 -3.249173 0.942431,0.15000,0 0 0 0 0 0 True
-1.674337 -7.407161 0.01371873,-2.249226 -7.213823 0.3042961,-2.793311 -6.608266 0.4542602,-3.199619 -6.057854 0.5868002,-3.552042 -5.815612 0.7440171,-2.417008 -5.060945 0.2281619,-2.613501 -4.083322 0.4114976,-2.713097 -3.476398 0.5661793,-2.79086 -2.899782 0.69723,-2.06056 -4.815555 0.240235,-2.163737 -3.677166 0.4419632,-2.220916 -2.92939 0.6517391,-2.266262 -2.275966 0.8196057,-1.71139 -4.805792 0.306573,-1.764358 -3.743042 0.5126278,-1.822573 -3.060735 0.6962821,-1.875972 -2.482305 0.8406503,-1.347954 -5.001281 0.3975925,-1.253716 -4.151258 0.5863935,-1.209497 -3.598213 0.7511896,-1.185343 -3.057161 0.9015555,-7.704515 -7.525821 -0.0184781,-7.135179 -7.216516 0.2770567,-6.621106 -6.572406 0.4849961,-6.247955 -5.958644 0.7240679,-5.936152 -5.542517 0.971252,-7.015778 -4.989954 0.2293649,-6.892173 -3.889381 0.4299848,-6.851243 -3.200973 0.624994,-6.823756 -2.598756 0.7781747,-7.344504 -4.820234 0.2751993,-7.224461 -3.6 0.4389144,-7.159585 -2.82438 0.6801395,-7.104549 -2.136839 0.8956079,-7.676293 -4.887249 0.3551497,-7.602288 -3.730419 0.5202228,-7.554366 -3.005268 0.7272242,-7.501053 -2.364397 0.9089094,-8.027588 -5.160791 0.4661821,-8.102185 -4.312268 0.6265346,-8.124371 -3.762817 0.7769815,-8.118073 -3.21893 0.9137417,0.18333,0 0 0 0 0 0 True
-1.677413 -7.396009 -0.0006288385,-2.256776 -7.210664 0.2501786,-2.799837 -6.60477 0.3653672,-3.210586 -6.057649 0.4741295,-3.559433 -5.815038 0.6021434,-2.415972 -5.040693 0.1014825,-2.614473 -4.06738 0.2504958,-2.716143 -3.460462 0.3836143,-2.793633 -2.894803 0.5003059,-2.061442 -4.80162 0.1292834,-2.168111 -3.666918 0.2987138,-2.229166 -2.918009 0.4934866,-2.274563 -2.269602 0.6458357,-1.714337 -4.797727 0.2136,-1.774099 -3.733544 0.3996185,-1.835902 -3.046073 0.5707507,-1.889325 -2.46596 0.6995009,-1.351683 -4.998403 0.3219665,-1.259188 -4.150625 0.4926136,-1.21661 -3.600602 0.6440949,-1.192272 -3.060497 0.7776858,-7.702044 -7.533097 0.04059485,-7.137482 -7.208591 0.322183,-6.627367 -6.551177 0.5166005,-6.252323 -5.943079 0.7472686,-5.926188 -5.560224 0.9909278,-7.017902 -4.97293 0.2535621,-6.901931 -3.888103 0.435191,-6.862312 -3.203063 0.6248629,-6.833027 -2.603006 0.7774241,-7.348344 -4.806459 0.3039228,-7.234356 -3.598661 0.4557466,-7.171611 -2.824878 0.6974918,-7.117956 -2.139025 0.9138761,-7.680512 -4.878146 0.3853008,-7.605615 -3.737185 0.5415841,-7.554657 -3.017232 0.7318981,-7.498985 -2.382125 0.8964115,-8.028982 -5.159828 0.4997507,-8.104139 -4.316634 0.6565057,-8.125432 -3.773558 0.7962229,-8.120228 -3.230664 0.9198129,0.21667,0 0 0 0 0 0 True
-1.677413 -7.396009 -0.0006288385,-2.256776 -7.210664 0.2501786,-2.799837 -6.60477 0.3653672,-3.210586 -6.057649 0.4741295,-3.559433 -5.815038 0.6021434,-2.415972 -5.040693 0.1014825,-2.614473 -4.06738 0.2504958,-2.716143 -3.460462 0.3836143,-2.793633 -2.894803 0.5003059,-2.061442 -4.80162 0.1292834,-2.168111 -3.666918 0.2987138,-2.229166 -2.918009 0.4934866,-2.274563 -2.269602 0.6458357,-1.714337 -4.797727 0.2136,-1.774099 -3.733544 0.3996185,-1.835902 -3.046073 0.5707507,-1.889325 -2.46596 0.6995009,-1.351683 -4.998403 0.3219665,-1.259188 -4.150625 0.4926136,-1.21661 -3.600602 0.6440949,-1.192272 -3.060497 0.7776858,-7.702044 -7.533097 0.04059485,-7.137482 -7.208591 0.322183,-6.627367 -6.551177 0.5166005,-6.252323 -5.943079 0.7472686,-5.926188 -5.560224 0.9909278,-7.017902 -4.97293 0.2535621,-6.901931 -3.888103 0.435191,-6.862312 -3.203063 0.6248629,-6.833027 -2.603006 0.7774241,-7.348344 -4.806459 0.3039228,-7.234356 -3.598661 0.4557466,-7.171611 -2.824878 0.6974918,-7.117956 -2.139025 0.9138761,-7.680512 -4.878146 0.3853008,-7.605615 -3.737185 0.5415841,-7.554657 -3.017232 0.7318981,-7.498985 -2.382125 0.8964115,-8.028982 -5.159828 0.4997507,-8.104139 -4.316634 0.6565057,-8.125432 -3.773558 0.7962229,-8.120228 -3.230664 0.9198129,0.25000,0 0 0 0 0 0 True
-1.672756 -7.40229 -0.02201349,-2.247563 -7.213299 0.2388335,-2.786795 -6.627211 0.3621187,-3.188049 -6.084993 0.4753672,-3.527655 -5.838237 0.6114848,-2.411676 -5.054805 0.1162367,-2.613539 -4.078797 0.2729629,-2.714638 -3.472312 0.4145084,-2.788744 -2.902465 0.5386563,-2.058357 -4.816098 0.1395904,-2.1659 -3.670911 0.315604,-2.225747 -2.926841 0.5141882,-2.268373 -2.279617 0.6689911,-1.713064 -4.811498 0.2196101,-1.769712 -3.739172 0.4095616,-1.829598 -3.056633 0.5865509,-1.879526 -2.481712 0.7212873,-1.351616 -5.00947 0.3249979,-1.260384 -4.155264 0.503137,-1.220407 -3.60183 0.6614877,-1.198545 -3.064714 0.8000509,-7.691894 -7.540161 0.03564163,-7.128248 -7.215324 0.3116778,-6.619796 -6.563236 0.4958294,-6.246136 -5.956074 0.7146468,-5.914082 -5.599175 0.9447268,-7.012458 -4.976096 0.2335497,-6.898609 -3.892995 0.4022415,-6.85237 -3.206213 0.5777072,-6.815518 -2.609738 0.7175595,-7.339174 -4.813059 0.2797771,-7.227191 -3.606437 0.4252888,-7.165243 -2.828096 0.6629325,-7.115505 -2.140143 0.8741701,-7.667363 -4.892727 0.3549976,-7.593374 -3.763557 0.4971196,-7.539978 -3.053936 0.6712453,-7.484481 -2.428451 0.8224304,-8.011049 -5.180883 0.4657082,-8.085223 -4.345341 0.6173233,-8.106972 -3.806584 0.7552613,-8.106556 -3.261475 0.874016,0.28333,0 0 0 0 0 0 True
-1.672756 -7.40229 -0.02201349,-2.247563 -7.213299 0.2388335,-2.786795 -6.627211 0.3621187,-3.188049 -6.084993 0.4753672,-3.527655 -5.838237 0.6114848,-2.411676 -5.054805 0.1162367,-2.613539 -4.078797 0.2729629,-2.714638 -3.472312 0.4145084,-2.788744 -2.902465 0.5386563,-2.058357 -4.816098 0.1395904,-2.1659 -3.670911 0.315604,-2.225747 -2.926841 0.5141882,-2.268373 -2.279617 0.6689911,-1.713064 -4.811498 0.2196101,-1.769712 -3.739172 0.4095616,-1.829598 -3.056633 0.5865509,-1.879526 -2.481712 0.7212873,-1.351616 -5.00947 0.3249979,-1.260384 -4.155264 0.503137,-1.220407 -3.60183 0.6614877,-1.198545 -3.064714 0.8000509,-7.691894 -7.540161 0.03564163,-7.128248 -7.215324 0.3116778,-6.619796 -6.563236 0.4958294,-6.246136 -5.956074 0.7146468,-5.914082 -5.599175 0.9447268,-7.012458 -4.976096 0.2335497,-6.898609 -3.892995 0.4022415,-6.85237 -3.206213 0.5777072,-6.815518 -2.609738 0.7175595,-7.339174 -4.813059 0.2797771,-7.227191 -3.606437 0.4252888,-7.165243 -2.828096 0.6629325,-7.115505 -2.140143 0.8741701,-7.667363 -4.892727 0.3549976,-7.593374 -3.763557 0.4971196,-7.539978 -3.053936 0.6712453,-7.484481 -2.428451 0.8224304,-8.011049 -5.180883 0.4657082,-8.085223 -4.345341 0.6173233,-8.106972 -3.806584 0.7552613,-8.106556 -3.261475 0.874016,0.31667,0 0 0 0 0 0 True
-1.675823 -7.391554 -0.02330578,-2.249253 -7.20329 0.2454493,-2.790855 -6.610636 0.3793961,-3.197468 -6.064718 0.5030374,-3.544094 -5.804506 0.650413,-2.413246 -5.043458 0.1205073,-2.612803 -4.068082 0.2774384,-2.71489 -3.459275 0.4180312,-2.792111 -2.887208 0.5419336,-2.057687 -4.805311 0.1403287,-2.16503 -3.669849 0.3124717,-2.226454 -2.922035 0.5082958,-2.271027 -2.272735 0.6645551,-1.711015 -4.798435 0.2150664,-1.769201 -3.735928 0.39847,-1.832041 -3.048325 0.5717112,-1.884655 -2.466792 0.7067921,-1.349933 -4.992694 0.3144861,-1.257531 -4.142856 0.4853719,-1.217669 -3.589695 0.6406705,-1.194951 -3.051567 0.7797679,-7.689962 -7.546253 0.07196423,-7.122054 -7.228977 0.3566861,-6.61012 -6.574582 0.5503736,-6.241013 -5.950815 0.7793177,-5.912766 -5.571172 1.018935,-6.993848 -4.978722 0.2960643,-6.875458 -3.888004 0.4732192,-6.828898 -3.201032 0.6503405,-6.795012 -2.610075 0.7883731,-7.325104 -4.812549 0.3407845,-7.212973 -3.60317 0.4945718,-7.153402 -2.829124 0.7272434,-7.103697 -2.145148 0.9344587,-7.658563 -4.892212 0.4163086,-7.585854 -3.758817 0.5652941,-7.536787 -3.052839 0.7428057,-7.481757 -2.427063 0.8943772,-8.008601 -5.1805 0.5253448,-8.084565 -4.346465 0.6784884,-8.109572 -3.810812 0.8142631,-8.107285 -3.268361 0.932904,0.35000,0 0 0 0 0 0 True
-1.675823 -7.391554 -0.02330578,-2.249253 -7.20329 0.2454493,-2.790855 -6.610636 0.3793961,-3.197468 -6.064718 0.5030374,-3.544094 -5.804506 0.650413,-2.413246 -5.043458 0.1205073,-2.612803 -4.068082 0.2774384,-2.71489 -3.459275 0.4180312,-2.792111 -2.887208 0.5419336,-2.057687 -4.805311 0.1403287,-2.16503 -3.669849 0.3124717,-2.226454 -2.922035 0.5082958,-2.271027 -2.272735 0.6645551,-1.711015 -4.798435 0.2150664,-1.769201 -3.735928 0.39847,-1.832041 -3.048325 0.5717112,-1.884655 -2.466792 0.7067921,-1.349933 -4.992694 0.3144861,-1.257531 -4.142856 0.4853719,-1.217669 -3.589695 0.6406705,-1.194951 -3.051567 0.7797679,-7.689962 -7.546253 0.07196423,-7.122054 -7.228977 0.3566861,-6.61012 -6.574582 0.5503736,-6.241013 -5.950815 0.7793177,-5.912766 -5.571172 1.018935,-6.993848 -4.978722 0.2960643,-6.875458 -3.888004 0.4732192,-6.828898 -3.201032 0.6503405,-6.795012 -2.610075 0.7883731,-7.325104 -4.812549 0.3407845,-7.212973 -3.60317 0.4945718,-7.153402 -2.829124 0.7272434,-7.103697 -2.145148 0.9344587,-7.658563 -4.892212 0.4163086,-7.585854 -3.758817 0.5652941,-7.536787 -3.052839 0.7428057,-7.481757 -2.427063 0.8943772,-8.008601 -5.1805 0.5253448,-8.084565 -4.346465 0.6784884,-8.109572 -3.810812 0.8142631,-8.107285 -3.268361 0.932904,0.38333,0 0 0 0 0 0 True
-1.660728 -7.39362 0.003836648,-2.23419 -7.211935 0.259872,-2.774801 -6.608934 0.3805929,-3.177128 -6.058008 0.4920488,-3.520071 -5.798473 0.6268123,-2.405299 -5.041566 0.1250768,-2.603335 -4.073896 0.2823127,-2.70412 -3.466506 0.4238385,-2.777011 -2.892135 0.5465147,-2.051078 -4.799894 0.1528655,-2.154356 -3.665543 0.3268521,-2.213761 -2.912721 0.5237493,-2.254175 -2.259811 0.6758801,-1.703056 -4.7931 0.2354824,-1.754651 -3.721891 0.4213999,-1.814024 -3.026515 0.5982804,-1.863717 -2.44296 0.734536,-1.338013 -4.991693 0.3448922,-1.24465 -4.130167 0.5200548,-1.203977 -3.567974 0.6811936,-1.179742 -3.026352 0.8217438,-7.708815 -7.537469 0.05149574,-7.138263 -7.217844 0.3374296,-6.627182 -6.563768 0.5392525,-6.253627 -5.946908 0.777253,-5.932298 -5.544845 1.026648,-7.013506 -4.981704 0.276388,-6.887309 -3.895966 0.4708225,-6.843602 -3.210489 0.6659446,-6.814616 -2.613441 0.8168876,-7.342739 -4.810777 0.3294155,-7.222486 -3.595219 0.4920045,-7.157173 -2.820755 0.7351556,-7.104379 -2.133867 0.9488151,-7.673564 -4.879335 0.4149288,-7.600728 -3.730826 0.5745965,-7.551179 -3.01416 0.7654868,-7.497846 -2.380211 0.9319342,-8.021615 -5.155857 0.532357,-8.096341 -4.307785 0.6926669,-8.116291 -3.761212 0.8338292,-8.11088 -3.215452 0.9594933,0.41667,0 0 0 0 0 0 True
-1.660728 -7.39362 0.003836648,-2.23419 -7.211935 0.259872,-2.774801 -6.608934 0.3805929,-3.177128 -6.058008 0.4920488,-3.520071 -5.798473 0.6268123,-2.405299 -5.041566 0.1250768,-2.603335 -4.073896 0.2823127,-2.70412 -3.466506 0.4238385,-2.777011 -2.892135 0.5465147,-2.051078 -4.799894 0.1528655,-2.154356 -3.665543 0.3268521,-2.213761 -2.912721 0.5237493,-2.254175 -2.259811 0.6758801,-1.703056 -4.7931 0.2354824,-1.754651 -3.721891 0.4213999,-1.814024 -3.026515 0.5982804,-1.863717 -2.44296 0.734536,-1.338013 -4.991693 0.3448922,-1.24465 -4.130167 0.5200548,-1.203977 -3.567974 0.6811936,-1.179742 -3.026352 0.8217438,-7.708815 -7.537469 0.05149574,-7.138263 -7.217844 0.3374296,-6.627182 -6.563768 0.5392525,-6.253627 -5.946908 0.777253,-5.932298 -5.544845 1.026648,-7.013506 -4.981704 0.276388,-6.887309 -3.895966 0.4708225,-6.843602 -3.210489 0.6659446,-6.814616 -2.613441 0.8168876,-7.342739 -4.810777 0.3294155,-7.222486 -3.595219 0.4920045,-7.157173 -2.820755 0.7351556,-7.104379 -2.133867 0.9488151,-7.673564 -4.879335 0.4149288,-7.600728 -3.730826 0.5745965,-7.551179 -3.01416 0.7654868,-7.497846 -2.380211 0.9319342,-8.021615 -5.155857 0.532357,-8.096341 -4.307785 0.6926669,-8.116291 -3.761212 0.8338292,-8.11088 -3.215452 0.9594933,0.45000,0 0 0 0 0 0 True
-1.666532 -7.359004 -0.06135846,-2.241767 -7.179827 0.2141188,-2.785507 -6.578897 0.3561761,-3.197197 -6.026348 0.4837503,-3.544088 -5.761102 0.6273319,-2.403981 -5.022037 0.1034789,-2.600641 -4.044314 0.2737037,-2.700353 -3.433876 0.4174377,-2.77575 -2.863822 0.5389577,-2.050921 -4.785354 0.1203138,-2.150629 -3.643788 0.316523,-2.207011 -2.889656 0.5138783,-2.249327 -2.239107 0.6700904,-1.706691 -4.779308 0.1931191,-1.759634 -3.705963 0.3943719,-1.81634 -3.005126 0.5727342,-1.867077 -2.411737 0.7066615,-1.347103 -4.976204 0.2897344,-1.253055 -4.123516 0.463577,-1.20628 -3.568396 0.6149753,-1.177951 -3.028533 0.7509359,-7.70721 -7.534545 0.09227233,-7.139082 -7.223054 0.3890742,-6.6281 -6.562489 0.589102,-6.257442 -5.941379 0.823232,-5.938954 -5.5359 1.066247,-7.012368 -4.969154 0.3182577,-6.896149 -3.889263 0.5051161,-6.857257 -3.208335 0.6946621,-6.831198 -2.60923 0.8450316,-7.340704 -4.795757 0.3668662,-7.224789 -3.598617 0.5206124,-7.163199 -2.832325 0.7645963,-7.112703 -2.149344 0.9827884,-7.672752 -4.866086 0.448882,-7.599935 -3.732534 0.6036153,-7.549171 -3.023516 0.8006858,-7.493742 -2.393607 0.9730714,-8.023482 -5.146905 0.5645512,-8.098138 -4.309339 0.724077,-8.118388 -3.765319 0.8700944,-8.110861 -3.218493 0.9998321,0.48333,0 0 0 0 0 0 True
-1.666532 -7.359004 -0.06135846,-2.241767 -7.179827 0.2141188,-2.785507 -6.578897 0.3561761,-3.197197 -6.026348 0.4837503,-3.544088 -5.761102 0.6273319,-2.403981 -5.022037 0.1034789,-2.600641 -4.044314 0.2737037,-2.700353 -3.433876 0.4174377,-2.77575 -2.863822 0.5389577,-2.050921 -4.785354 0.1203138,-2.150629 -3.643788 0.316523,-2.207011 -2.889656 0.5138783,-2.249327 -2.239107 0.6700904,-1.706691 -4.779308 0.1931191,-1.759634 -3.705963 0.3943719,-1.81634 -3.005126 0.5727342,-1.867077 -2.411737 0.7066615,-1.347103 -4.976204 0.2897344,-1.253055 -4.123516 0.463577,-1.20628 -3.568396 0.6149753,-1.177951 -3.028533 0.7509359,-7.70721 -7.534545 0.09227233,-7.139082 -7.223054 0.3890742,-6.6281 -6.562489 0.589102,-6.257442 -5.941379 0.823232,-5.938954 -5.5359 1.066247,-7.012368 -4.969154 0.3182577,-6.896149 -3.889263 0.5051161,-6.857257 -3.208335 0.6946621,-6.831198 -2.60923 0.8450316,-7.340704 -4.795757 0.3668662,-7.224789 -3.598617 0.5206124,-7.163199 -2.832325 0.7645963,-7.112703 -2.149344 0.9827884,-7.672752 -4.866086 0.448882,-7.599935 -3.732534 0.6036153,-7.549171 -3.023516 0.8006858,-7.493742 -2.393607 0.9730714,-8.023482 -5.146905 0.5645512,-8.098138 -4.309339 0.724077,-8.118388 -3.765319 0.8700944,-8.110861 -3.218493 0.9998321,0.51667,0 0 0 0 0 0 True
-1.65783 -7.369598 -0.002854775,-2.237284 -7.180795 0.2547109,-2.778649 -6.588514 0.3795447,-3.17919 -6.040954 0.4967402,-3.519803 -5.778059 0.6363575,-2.403393 -5.015299 0.1181969,-2.599866 -4.052824 0.2704337,-2.699133 -3.44949 0.4079806,-2.772988 -2.880437 0.529116,-2.048386 -4.777526 0.140734,-2.15367 -3.649589 0.3059708,-2.214038 -2.912111 0.4931637,-2.255484 -2.273569 0.6383538,-1.703476 -4.770323 0.2198367,-1.75437 -3.705912 0.3967908,-1.813114 -3.020718 0.5658689,-1.861034 -2.446348 0.6932468,-1.342674 -4.965284 0.3252887,-1.248135 -4.108211 0.493685,-1.206437 -3.554226 0.6473966,-1.181143 -3.023315 0.7834428,-7.699557 -7.529954 0.0836511,-7.132091 -7.219969 0.3656465,-6.618935 -6.55943 0.5554703,-6.243424 -5.939502 0.7787939,-5.923578 -5.559253 1.013521,-7.008724 -4.957813 0.292916,-6.886506 -3.875253 0.4631927,-6.843656 -3.19302 0.6400005,-6.809263 -2.60175 0.7775159,-7.333965 -4.791965 0.3419975,-7.218846 -3.591051 0.4839609,-7.160645 -2.820261 0.7171068,-7.111164 -2.140097 0.9271615,-7.663513 -4.871941 0.4211937,-7.588941 -3.741748 0.5643585,-7.538225 -3.03339 0.7457336,-7.483429 -2.411397 0.9065107,-8.009613 -5.160812 0.5362413,-8.086615 -4.3277 0.6895728,-8.113378 -3.781673 0.8320625,-8.113334 -3.231739 0.9588401,0.55000,0 0 0 0 0 0 True
-1.667524 -7.35976 -0.05595247,-2.242852 -7.180509 0.2044855,-2.789482 -6.584268 0.3380115,-3.20563 -6.033534 0.4652371,-3.552748 -5.760454 0.6145862,-2.408969 -5.018865 0.05632491,-2.610444 -4.047578 0.2108417,-2.712265 -3.439291 0.348544,-2.787435 -2.878944 0.4704217,-2.057117 -4.782566 0.08092603,-2.163073 -3.654492 0.2476106,-2.224808 -2.908361 0.4369127,-2.269015 -2.267223 0.5884191,-1.713764 -4.776479 0.1633645,-1.772303 -3.722324 0.3416621,-1.833521 -3.033872 0.5068336,-1.886278 -2.456254 0.6315524,-1.3544 -4.970946 0.269774,-1.261312 -4.130998 0.4262846,-1.219316 -3.587691 0.565456,-1.195683 -3.064132 0.6908943,-7.697327 -7.546834 0.07333818,-7.131759 -7.222262 0.3650189,-6.619294 -6.568901 0.5617862,-6.242637 -5.948774 0.7894077,-5.917863 -5.563223 1.027951,-7.005049 -4.983949 0.2951556,-6.885562 -3.908074 0.4700169,-6.845014 -3.221498 0.6510001,-6.819026 -2.626789 0.795965,-7.329206 -4.812718 0.3374132,-7.211145 -3.616507 0.4862185,-7.150121 -2.848923 0.7259784,-7.103791 -2.165058 0.9397854,-7.657374 -4.883789 0.4108462,-7.582899 -3.762073 0.5571176,-7.530602 -3.062387 0.7367294,-7.478344 -2.44514 0.8941353,-8.003344 -5.165279 0.5194362,-8.083055 -4.336658 0.6711021,-8.107922 -3.801535 0.8076802,-8.108909 -3.262352 0.9285328,0.58333,0 0 0 0 0 0 True
-1.667524 -7.35976 -0.05595247,-2.242852 -7.180509 0.2044855,-2.789482 -6.584268 0.3380115,-3.20563 -6.033534 0.4652371,-3.552748 -5.760454 0.6145862,-2.408969 -5.018865 0.05632491,-2.610444 -4.047578 0.2108417,-2.712265 -3.439291 0.348544,-2.787435 -2.878944 0.4704217,-2.057117 -4.782566 0.08092603,-2.163073 -3.654492 0.2476106,-2.224808 -2.908361 0.4369127,-2.269015 -2.267223 0.5884191,-1.713764 -4.776479 0.1633645,-1.772303 -3.722324 0.3416621,-1.833521 -3.033872 0.5068336,-1.886278 -2.456254 0.6315524,-1.3544 -4.970946 0.269774,-1.261312 -4.130998 0.4262846,-1.219316 -3.587691 0.565456,-1.195683 -3.064132 0.6908943,-7.697327 -7.546834 0.07333818,-7.131759 -7.222262 0.3650189,-6.619294 -6.568901 0.5617862,-6.242637 -5.948774 0.7894077,-5.917863 -5.563223 1.027951,-7.005049 -4.983949 0.2951556,-6.885562 -3.908074 0.4700169,-6.845014 -3.221498 0.6510001,-6.819026 -2.626789 0.795965,-7.329206 -4.812718 0.3374132,-7.211145 -3.616507 0.4862185,-7.150121 -2.848923 0.7259784,-7.103791 -2.165058 0.9397854,-7.657374 -4.883789 0.4108462,-7.582899 -3.762073 0.5571176,-7.530602 -3.062387 0.7367294,-7.478344 -2.44514 0.8941353,-8.003344 -5.165279 0.5194362,-8.083055 -4.336658 0.6711021,-8.107922 -3.801535 0.8076802,-8.108909 -3.262352 0.9285328,0.61667,0 0 0 0 0 0 True
-1.661925 -7.40843 0.01408425,-2.238045 -7.213568 0.2560301,-2.779562 -6.60584 0.3683041,-3.184429 -6.053388 0.4777137,-3.53087 -5.79846 0.6142932,-2.417602 -5.050924 0.1076322,-2.61458 -4.082455 0.2563971,-2.71433 -3.473271 0.3923146,-2.789516 -2.90275 0.5152994,-2.065581 -4.812541 0.139847,-2.17152 -3.683942 0.3008922,-2.233742 -2.94218 0.491915,-2.28076 -2.299473 0.6448418,-1.721534 -4.802337 0.230421,-1.77989 -3.743429 0.4019637,-1.843414 -3.060462 0.5678868,-1.897727 -2.487945 0.6946707,-1.358465 -4.994424 0.3452417,-1.268485 -4.147693 0.5101789,-1.229231 -3.600852 0.6572496,-1.20825 -3.075948 0.7885413,-7.720591 -7.547772 0.02768621,-7.14654 -7.23066 0.3248181,-6.629743 -6.581555 0.5305343,-6.257617 -5.965625 0.768245,-5.939735 -5.557214 1.015082,-7.014737 -5.006553 0.2728313,-6.889834 -3.922676 0.4686263,-6.845648 -3.238542 0.6585766,-6.814775 -2.643414 0.8039735,-7.344011 -4.830697 0.317729,-7.224642 -3.622024 0.4849315,-7.160409 -2.850078 0.7290906,-7.107684 -2.164435 0.9423504,-7.675261 -4.895488 0.3952314,-7.600667 -3.75923 0.5568945,-7.548839 -3.046868 0.7488236,-7.491482 -2.418399 0.9150665,-8.025441 -5.168106 0.505067,-8.098793 -4.326896 0.6687774,-8.11869 -3.785749 0.8120836,-8.111652 -3.249992 0.9388315,0.65000,0 0 0 0 0 0 True
-1.661925 -7.40843 0.01408425,-2.238045 -7.213568 0.2560301,-2.779562 -6.60584 0.3683041,-3.184429 -6.053388 0.4777137,-3.53087 -5.79846 0.6142932,-2.417602 -5.050924 0.1076322,-2.61458 -4.082455 0.2563971,-2.71433 -3.473271 0.3923146,-2.789516 -2.90275 0.5152994,-2.065581 -4.812541 0.139847,-2.17152 -3.683942 0.3008922,-2.233742 -2.94218 0.491915,-2.28076 -2.299473 0.6448418,-1.721534 -4.802337 0.230421,-1.77989 -3.743429 0.4019637,-1.843414 -3.060462 0.5678868,-1.897727 -2.487945 0.6946707,-1.358465 -4.994424 0.3452417,-1.268485 -4.147693 0.5101789,-1.229231 -3.600852 0.6572496,-1.20825 -3.075948 0.7885413,-7.720591 -7.547772 0.02768621,-7.14654 -7.23066 0.3248181,-6.629743 -6.581555 0.5305343,-6.257617 -5.965625 0.768245,-5.939735 -5.557214 1.015082,-7.014737 -5.006553 0.2728313,-6.889834 -3.922676 0.4686263,-6.845648 -3.238542 0.6585766,-6.814775 -2.643414 0.8039735,-7.344011 -4.830697 0.317729,-7.224642 -3.622024 0.4849315,-7.160409 -2.850078 0.7290906,-7.107684 -2.164435 0.9423504,-7.675261 -4.895488 0.3952314,-7.600667 -3.75923 0.5568945,-7.548839 -3.046868 0.7488236,-7.491482 -2.418399 0.9150665,-8.025441 -5.168106 0.505067,-8.098793 -4.326896 0.6687774,-8.11869 -3.785749 0.8120836,-8.111652 -3.249992 0.9388315,0.68333,0 0 0 0 0 0 True
-1.682436 -7.423336 -0.02680364,-2.262923 -7.231268 0.2434382,-2.804457 -6.611684 0.3749517,-3.205139 -6.030653 0.4968597,-3.55064 -5.741919 0.6355656,-2.433687 -5.07258 0.09672702,-2.625228 -4.098224 0.2601727,-2.723474 -3.491405 0.3971502,-2.79677 -2.92699 0.5174844,-2.081116 -4.839601 0.1191669,-2.189108 -3.711191 0.2993269,-2.254243 -2.96327 0.4923422,-2.301235 -2.313357 0.652203,-1.738255 -4.830403 0.1998315,-1.797741 -3.772965 0.3887819,-1.857339 -3.087384 0.5557808,-1.90817 -2.503212 0.6835181,-1.377554 -5.021404 0.3074366,-1.291767 -4.182786 0.4756331,-1.251262 -3.647497 0.6210825,-1.228654 -3.125245 0.7521201,-7.729361 -7.568765 0.01888671,-7.162629 -7.250425 0.3108986,-6.650235 -6.59178 0.5092673,-6.279232 -5.966749 0.7408908,-5.960237 -5.55367 0.9835976,-7.033081 -5.029981 0.2374503,-6.904984 -3.94875 0.4305249,-6.856839 -3.263942 0.6183072,-6.822435 -2.663137 0.7635083,-7.363357 -4.850122 0.2829156,-7.241411 -3.644916 0.4405985,-7.176008 -2.870874 0.683201,-7.124354 -2.181406 0.8950086,-7.693626 -4.910295 0.3633048,-7.619552 -3.778331 0.5184597,-7.566529 -3.059989 0.7107462,-7.50848 -2.428655 0.8788602,-8.043101 -5.178968 0.4778541,-8.114851 -4.333696 0.6405202,-8.132019 -3.785602 0.7901069,-8.120144 -3.245254 0.9219823,0.71667,0 0 0 0 0 0 True
-1.682436 -7.423336 -0.02680364,-2.262923 -7.231268 0.2434382,-2.804457 -6.611684 0.3749517,-3.205139 -6.030653 0.4968597,-3.55064 -5.741919 0.6355656,-2.433687 -5.07258 0.09672702,-2.625228 -4.098224 0.2601727,-2.723474 -3.491405 0.3971502,-2.79677 -2.92699 0.5174844,-2.081116 -4.839601 0.1191669,-2.189108 -3.711191 0.2993269,-2.254243 -2.96327 0.4923422,-2.301235 -2.313357 0.652203,-1.738255 -4.830403 0.1998315,-1.797741 -3.772965 0.3887819,-1.857339 -3.087384 0.5557808,-1.90817 -2.503212 0.6835181,-1.377554 -5.021404 0.3074366,-1.291767 -4.182786 0.4756331,-1.251262 -3.647497 0.6210825,-1.228654 -3.125245 0.7521201,-7.729361 -7.568765 0.01888671,-7.162629 -7.250425 0.3108986,-6.650235 -6.59178 0.5092673,-6.279232 -5.966749 0.7408908,-5.960237 -5.55367 0.9835976,-7.033081 -5.029981 0.2374503,-6.904984 -3.94875 0.4305249,-6.856839 -3.263942 0.6183072,-6.822435 -2.663137 0.7635083,-7.363357 -4.850122 0.2829156,-7.241411 -3.644916 0.4405985,-7.176008 -2.870874 0.683201,-7.124354 -2.181406 0.8950086,-7.693626 -4.910295 0.3633048,-7.619552 -3.778331 0.5184597,-7.566529 -3.059989 0.7107462,-7.50848 -2.428655 0.8788602,-8.043101 -5.178968 0.4778541,-8.114851 -4.333696 0.6405202,-8.132019 -3.785602 0.7901069,-8.120144 -3.245254 0.9219823,0.75000,0 0 0 0 0 0 True
-1.672994 -7.44758 -0.000862375,-2.244936 -7.238355 0.2754444,-2.775199 -6.623577 0.4290535,-3.170979 -6.036882 0.5760516,-3.519518 -5.723587 0.7539808,-2.423286 -5.094437 0.1646359,-2.617178 -4.126259 0.3382342,-2.720695 -3.523702 0.4853227,-2.803973 -2.952892 0.6121411,-2.076332 -4.859918 0.1896061,-2.183445 -3.742006 0.3769434,-2.248883 -3.000601 0.5708733,-2.297386 -2.348112 0.7343228,-1.736838 -4.855721 0.2708153,-1.799826 -3.799867 0.4613377,-1.864968 -3.116594 0.6392563,-1.919971 -2.53207 0.7764042,-1.380547 -5.054622 0.3791256,-1.294328 -4.214489 0.5494754,-1.257756 -3.664054 0.7097595,-1.237844 -3.129683 0.8528842,-7.761427 -7.601512 0.06293485,-7.19297 -7.281648 0.3402895,-6.687116 -6.60665 0.52968,-6.325983 -5.964725 0.7573315,-5.997293 -5.558307 0.9935626,-7.058891 -5.05253 0.2665161,-6.936723 -3.970274 0.4466211,-6.889413 -3.288677 0.6242235,-6.855 -2.692196 0.7637841,-7.391334 -4.870095 0.320921,-7.272598 -3.666503 0.4689564,-7.205175 -2.89371 0.7087207,-7.151113 -2.208845 0.9208159,-7.723959 -4.937171 0.4094429,-7.647072 -3.805372 0.5565976,-7.588066 -3.08392 0.747777,-7.526063 -2.446821 0.915597,-8.076065 -5.216731 0.5266281,-8.141859 -4.372331 0.6892094,-8.155587 -3.828533 0.8432941,-8.144506 -3.286769 0.9786606,0.78333,0 0 0 0 0 0 True
-1.672994 -7.44758 -0.000862375,-2.244936 -7.238355 0.2754444,-2.775199 -6.623577 0.4290535,-3.170979 -6.036882 0.5760516,-3.519518 -5.723587 0.7539808,-2.423286 -5.094437 0.1646359,-2.617178 -4.126259 0.3382342,-2.720695 -3.523702 0.4853227,-2.803973 -2.952892 0.6121411,-2.076332 -4.859918 0.1896061,-2.183445 -3.742006 0.3769434,-2.248883 -3.000601 0.5708733,-2.297386 -2.348112 0.7343228,-1.736838 -4.855721 0.2708153,-1.799826 -3.799867 0.4613377,-1.864968 -3.116594 0.6392563,-1.919971 -2.53207 0.7764042,-1.380547 -5.054622 0.3791256,-1.294328 -4.214489 0.5494754,-1.257756 -3.664054 0.7097595,-1.237844 -3.129683 0.8528842,-7.761427 -7.601512 0.06293485,-7.19297 -7.281648 0.3402895,-6.687116 -6.60665 0.52968,-6.325983 -5.964725 0.7573315,-5.997293 -5.558307 0.9935626,-7.058891 -5.05253 0.2665161,-6.936723 -3.970274 0.4466211,-6.889413 -3.288677 0.6242235,-6.855 -2.692196 0.7637841,-7.391334 -4.870095 0.320921,-7.272598 -3.666503 0.4689564,-7.205175 -2.89371 0.7087207,-7.151113 -2.208845 0.9208159,-7.723959 -4.937171 0.4094429,-7.647072 -3.805372 0.5565976,-7.588066 -3.08392 0.747777,-7.526063 -2.446821 0.915597,-8.076065 -5.216731 0.5266281,-8.141859 -4.372331 0.6892094,-8.155587 -3.828533 0.8432941,-8.144506 -3.286769 0.9786606,0.81667,0 0 0 0 0 0 True
-1.674497 -7.514011 0.05570934,-2.23984 -7.29763 0.3332294,-2.757208 -6.633548 0.4662179,-3.116423 -5.984852 0.5975667,-3.464909 -5.610326 0.7610068,-2.433144 -5.131275 0.1912522,-2.630821 -4.151384 0.3478707,-2.738978 -3.539754 0.4739785,-2.822475 -2.945554 0.5944605,-2.085807 -4.909172 0.2153021,-2.194004 -3.804342 0.3843859,-2.265225 -3.067229 0.5760061,-2.310484 -2.416648 0.7490945,-1.748296 -4.90472 0.3008342,-1.805396 -3.858703 0.4685139,-1.869926 -3.171253 0.6648237,-1.917605 -2.576474 0.8259788,-1.395672 -5.09583 0.4128146,-1.320029 -4.252096 0.5756879,-1.290994 -3.705274 0.750495,-1.272741 -3.180805 0.9093487,-7.782489 -7.647506 0.09026766,-7.210639 -7.322422 0.340675,-6.724277 -6.608808 0.5318582,-6.383335 -5.94292 0.7657845,-6.069938 -5.48246 1.003118,-7.106366 -5.080579 0.2919291,-6.982206 -4.013705 0.4729529,-6.91786 -3.351065 0.6519162,-6.869019 -2.766979 0.7879394,-7.431823 -4.907929 0.3713952,-7.316407 -3.699176 0.5165622,-7.240746 -2.91878 0.7580578,-7.186164 -2.238712 0.9644311,-7.757896 -4.984832 0.4834847,-7.692224 -3.843794 0.6265402,-7.622003 -3.110396 0.8245824,-7.552997 -2.473452 0.999157,-8.106633 -5.272217 0.6220127,-8.163238 -4.394002 0.7919182,-8.164285 -3.823195 0.9568682,-8.142083 -3.271838 1.103682,0.85000,0 0 0 0 0 0 True
-1.626146 -7.567918 0.1856549,-2.21004 -7.314489 0.4860048,-2.710663 -6.609294 0.589672,-3.00322 -5.888278 0.7306601,-3.340814 -5.410827 0.9067811,-2.461132 -5.116452 0.1565899,-2.696106 -4.196558 0.2754769,-2.812314 -3.620684 0.3769262,-2.892652 -3.036616 0.4911332,-2.111001 -4.933239 0.1626729,-2.209216 -3.936277 0.2862595,-2.258891 -3.334236 0.4506535,-2.277789 -2.808825 0.5860502,-1.775249 -4.958087 0.2509184,-1.811522 -4.01322 0.3976383,-1.849397 -3.441276 0.6346411,-1.871937 -2.956456 0.807802,-1.430951 -5.156747 0.3753028,-1.38116 -4.430964 0.5613759,-1.368411 -3.973227 0.7731481,-1.361178 -3.54935 0.944944,-7.818739 -7.74681 0.4413337,-7.251651 -7.369119 0.6234703,-6.775084 -6.599547 0.7580891,-6.460801 -5.904218 0.9591704,-6.168953 -5.433593 1.18016,-7.180781 -5.033962 0.3883872,-7.064967 -4.027795 0.4750323,-6.987409 -3.428655 0.5964087,-6.912429 -2.917154 0.6935225,-7.513939 -4.886652 0.4695169,-7.431404 -3.810779 0.4879466,-7.362078 -3.176609 0.6372893,-7.291006 -2.666032 0.7592024,-7.829131 -4.967576 0.6026672,-7.792212 -3.917808 0.6494372,-7.731327 -3.283356 0.7881731,-7.655029 -2.751512 0.9063951,-8.15145 -5.246747 0.7621697,-8.205432 -4.425292 0.8683583,-8.201533 -3.883983 1.006585,-8.163777 -3.370533 1.126539,0.88333,0 0 0 0 0 0 True
-1.626146 -7.567918 0.1856549,-2.21004 -7.314489 0.4860048,-2.710663 -6.609294 0.589672,-3.00322 -5.888278 0.7306601,-3.340814 -5.410827 0.9067811,-2.461132 -5.116452 0.1565899,-2.696106 -4.196558 0.2754769,-2.812314 -3.620684 0.3769262,-2.892652 -3.036616 0.4911332,-2.111001 -4.933239 0.1626729,-2.209216 -3.936277 0.2862595,-2.258891 -3.334236 0.4506535,-2.277789 -2.808825 0.5860502,-1.775249 -4.958087 0.2509184,-1.811522 -4.01322 0.3976383,-1.849397 -3.441276 0.6346411,-1.871937 -2.956456 0.807802,-1.430951 -5.156747 0.3753028,-1.38116 -4.430964 0.5613759,-1.368411 -3.973227 0.7731481,-1.361178 -3.54935 0.944944,-7.818739 -7.74681 0.4413337,-7.251651 -7.369119 0.6234703,-6.775084 -6.599547 0.7580891,-6.460801 -5.904218 0.9591704,-6.168953 -5.433593 1.18016,-7.180781 -5.033962 0.3883872,-7.064967 -4.027795 0.4750323,-6.987409 -3.428655 0.5964087,-6.912429 -2.917154 0.6935225,-7.513939 -4.886652 0.4695169,-7.431404 -3.810779 0.4879466,-7.362078 -3.176609 0.6372893,-7.291006 -2.666032 0.7592024,-7.829131 -4.967576 0.6026672,-7.792212 -3.917808 0.6494372,-7.731327 -3.283356 0.7881731,-7.655029 -2.751512 0.9063951,-8.15145 -5.246747 0.7621697,-8.205432 -4.425292 0.8683583,-8.201533 -3.883983 1.006585,-8.163777 -3.370533 1.126539,0.91667,0 0 0 0 0 0 True
-1.649001 -7.547809 -0.2145069,-2.214413 -7.312768 0.0751932,-2.697754 -6.554386 0.2479288,-2.98987 -5.776544 0.4179229,-3.298571 -5.251874 0.5605016,-2.512408 -5.207864 -0.2153114,-2.768009 -4.289185 -0.01983675,-2.90582 -3.698138 0.1684007,-2.996042 -3.162802 0.3398722,-2.156077 -5.034056 -0.1748253,-2.235769 -3.838594 0.2989127,-2.255641 -4.022846 0.6353152,-2.207977 -4.513793 0.7200406,-1.814613 -5.015981 -0.07742716,-1.836964 -3.892808 0.3038442,-1.893732 -4.209099 0.5700872,-1.889925 -4.783374 0.6083225,-1.447514 -5.158934 0.05177024,-1.441251 -4.252357 0.3410217,-1.523818 -4.377855 0.5409102,-1.543493 -4.878335 0.6015012,-7.867877 -7.753477 0.4010394,-7.286 -7.385689 0.6060294,-6.824557 -6.581991 0.738389,-6.532176 -5.860922 0.9205778,-6.243782 -5.340728 1.126899,-7.210997 -5.044782 0.3506514,-7.070926 -4.049335 0.4445419,-7.006489 -3.430397 0.6068267,-6.943652 -2.876856 0.7339331,-7.5576 -4.905469 0.4316881,-7.495607 -3.896011 0.4967758,-7.449667 -3.355396 0.7220993,-7.394307 -2.977138 0.8979875,-7.884306 -4.973127 0.568,-7.862269 -3.972714 0.6377606,-7.815317 -3.407627 0.8306018,-7.743628 -2.956953 0.981882,-8.215714 -5.218898 0.7314942,-8.269244 -4.429314 0.8264735,-8.277678 -3.904996 0.965849,-8.23926 -3.388895 1.085971,0.95000,0 0 0 0 0 0 True
-1.649001 -7.547809 -0.2145069,-2.214413 -7.312768 0.0751932,-2.697754 -6.554386 0.2479288,-2.98987 -5.776544 0.4179229,-3.298571 -5.251874 0.5605016,-2.512408 -5.207864 -0.2153114,-2.768009 -4.289185 -0.01983675,-2.90582 -3.698138 0.1684007,-2.996042 -3.162802 0.3398722,-2.156077 -5.034056 -0.1748253,-2.235769 -3.838594 0.2989127,-2.255641 -4.022846 0.6353152,-2.207977 -4.513793 0.7200406,-1.814613 -5.015981 -0.07742716,-1.836964 -3.892808 0.3038442,-1.893732 -4.209099 0.5700872,-1.889925 -4.783374 0.6083225,-1.447514 -5.158934 0.05177024,-1.441251 -4.252357 0.3410217,-1.523818 -4.377855 0.5409102,-1.543493 -4.878335 0.6015012,-7.867877 -7.753477 0.4010394,-7.286 -7.385689 0.6060294,-6.824557 -6.581991 0.738389,-6.532176 -5.860922 0.9205778,-6.243782 -5.340728 1.126899,-7.210997 -5.044782 0.3506514,-7.070926 -4.049335 0.4445419,-7.006489 -3.430397 0.6068267,-6.943652 -2.876856 0.7339331,-7.5576 -4.905469 0.4316881,-7.495607 -3.896011 0.4967758,-7.449667 -3.355396 0.7220993,-7.394307 -2.977138 0.8979875,-7.884306 -4.973127 0.568,-7.862269 -3.972714 0.6377606,-7.815317 -3.407627 0.8306018,-7.743628 -2.956953 0.981882,-8.215714 -5.218898 0.7314942,-8.269244 -4.429314 0.8264735,-8.277678 -3.904996 0.965849,-8.23926 -3.388895 1.085971,0.98333,0 0 0 0 0 0 True
-1.666362 -7.625986 -0.04298752,-2.238139 -7.328758 0.2759016,-2.707377 -6.552429 0.435771,-3.02099 -5.764028 0.6002985,-3.355452 -5.205335 0.7363269,-2.579276 -5.24821 0.04312284,-2.82152 -4.412845 0.2621934,-2.954553 -3.822793 0.4757299,-3.077032 -3.197105 0.6501385,-2.219827 -5.074667 0.08127195,-2.302331 -4.073957 0.623791,-2.298583 -4.673173 0.933478,-2.270166 -5.231423 1.003797,-1.868862 -5.104551 0.1770224,-1.897539 -4.267944 0.6563049,-1.949183 -4.99533 0.8556281,-1.954643 -5.570426 0.8235906,-1.483071 -5.314317 0.2969021,-1.51699 -4.627923 0.6565368,-1.621525 -5.071687 0.8155338,-1.655446 -5.576023 0.8423433,-7.853155 -7.695034 0.1767934,-7.299647 -7.32896 0.3952149,-6.861045 -6.522983 0.5365656,-6.576126 -5.811306 0.7202681,-6.295309 -5.295957 0.9358345,-7.251154 -5.025541 0.113482,-7.109898 -4.045646 0.193958,-7.056052 -3.406393 0.3551931,-7.009083 -2.828331 0.4829198,-7.592262 -4.906227 0.173323,-7.52981 -3.929837 0.2087314,-7.492062 -3.392395 0.4036344,-7.450592 -2.988415 0.5595063,-7.915698 -4.973714 0.2842589,-7.893705 -3.995664 0.340349,-7.860794 -3.445597 0.5013953,-7.809999 -2.996806 0.6271943,-8.242706 -5.206298 0.4297453,-8.298822 -4.422939 0.4973015,-8.313766 -3.912978 0.6058407,-8.285742 -3.410148 0.6991422,1.01667,0 0 0 0 0 0 True
-1.666362 -7.625986 -0.04298752,-2.238139 -7.328758 0.2759016,-2.707377 -6.552429 0.435771,-3.02099 -5.764028 0.6002985,-3.355452 -5.205335 0.7363269,-2.579276 -5.24821 0.04312284,-2.82152 -4.412845 0.2621934,-2.954553 -3.822793 0.4757299,-3.077032 -3.197105 0.6501385,-2.219827 -5.074667 0.08127195,-2.302331 -4.073957 0.623791,-2.298583 -4.673173 0.933478,-2.270166 -5.231423 1.003797,-1.868862 -5.104551 0.1770224,-1.897539 -4.267944 0.6563049,-1.949183 -4.99533 0.8556281,-1.954643 -5.570426 0.8235906,-1.483071 -5.314317 0.2969021,-1.51699 -4.627923 0.6565368,-1.621525 -5.071687 0.8155338,-1.655446 -5.576023 0.8423433,-7.853155 -7.695034 0.1767934,-7.299647 -7.32896 0.3952149,-6.861045 -6.522983 0.5365656,-6.576126 -5.811306 0.7202681,-6.295309 -5.295957 0.9358345,-7.251154 -5.025541 0.113482,-7.109898 -4.045646 0.193958,-7.056052 -3.406393 0.3551931,-7.009083 -2.828331 0.4829198,-7.592262 -4.906227 0.173323,-7.52981 -3.929837 0.2087314,-7.492062 -3.392395 0.4036344,-7.450592 -2.988415 0.5595063,-7.915698 -4.973714 0.2842589,-7.893705 -3.995664 0.340349,-7.860794 -3.445597 0.5013953,-7.809999 -2.996806 0.6271943,-8.242706 -5.206298 0.4297453,-8.298822 -4.422939 0.4973015,-8.313766 -3.912978 0.6058407,-8.285742 -3.410148 0.6991422,1.05000,0 0 0 0 0 0 True
-1.723518 -7.523475 -0.2915024,-2.290262 -7.27316 0.07099336,-2.755871 -6.498249 0.2501603,-3.05453 -5.718949 0.4367906,-3.397931 -5.185112 0.5979428,-2.667636 -5.230099 -0.1426298,-2.918369 -4.448244 0.1963442,-3.051816 -3.892619 0.4843157,-3.169593 -3.338117 0.6919282,-2.309424 -5.057123 -0.09393178,-2.436672 -4.232452 0.6014937,-2.403643 -4.980623 0.9536465,-2.336291 -5.599931 1.016726,-1.93917 -5.0685 0.01649579,-2.006939 -4.437772 0.6473972,-2.037376 -5.297601 0.8306124,-2.012426 -5.903456 0.7749721,-1.529065 -5.242874 0.1615196,-1.566764 -4.637835 0.6313434,-1.666545 -5.195731 0.7821109,-1.695911 -5.735322 0.7686137,-7.856692 -7.625959 0.02623936,-7.290351 -7.279975 0.2700694,-6.84948 -6.500127 0.4344985,-6.564147 -5.789961 0.6329699,-6.283895 -5.26896 0.8483048,-7.251842 -5.014026 0.06150696,-7.085781 -4.04334 0.1759872,-7.022714 -3.410187 0.3650774,-6.974173 -2.820309 0.5117627,-7.598001 -4.88161 0.1163491,-7.515917 -3.904277 0.1618753,-7.474113 -3.370859 0.3743262,-7.437606 -2.954408 0.5512493,-7.923263 -4.945169 0.2177044,-7.896348 -3.96188 0.2745092,-7.864742 -3.42009 0.4438815,-7.814187 -2.974021 0.5854943,-8.247721 -5.179739 0.355647,-8.307114 -4.393896 0.4210329,-8.3061 -3.879896 0.5322555,-8.260028 -3.376588 0.6327659,1.08333,0 0 0 0 0 0 True
-1.723518 -7.523475 -0.2915024,-2.290262 -7.27316 0.07099336,-2.755871 -6.498249 0.2501603,-3.05453 -5.718949 0.4367906,-3.397931 -5.185112 0.5979428,-2.667636 -5.230099 -0.1426298,-2.918369 -4.448244 0.1963442,-3.051816 -3.892619 0.4843157,-3.169593 -3.338117 0.6919282,-2.309424 -5.057123 -0.09393178,-2.436672 -4.232452 0.6014937,-2.403643 -4.980623 0.9536465,-2.336291 -5.599931 1.016726,-1.93917 -5.0685 0.01649579,-2.006939 -4.437772 0.6473972,-2.037376 -5.297601 0.8306124,-2.012426 -5.903456 0.7749721,-1.529065 -5.242874 0.1615196,-1.566764 -4.637835 0.6313434,-1.666545 -5.195731 0.7821109,-1.695911 -5.735322 0.7686137,-7.856692 -7.625959 0.02623936,-7.290351 -7.279975 0.2700694,-6.84948 -6.500127 0.4344985,-6.564147 -5.789961 0.6329699,-6.283895 -5.26896 0.8483048,-7.251842 -5.014026 0.06150696,-7.085781 -4.04334 0.1759872,-7.022714 -3.410187 0.3650774,-6.974173 -2.820309 0.5117627,-7.598001 -4.88161 0.1163491,-7.515917 -3.904277 0.1618753,-7.474113 -3.370859 0.3743262,-7.437606 -2.954408 0.5512493,-7.923263 -4.945169 0.2177044,-7.896348 -3.96188 0.2745092,-7.864742 -3.42009 0.4438815,-7.814187 -2.974021 0.5854943,-8.247721 -5.179739 0.355647,-8.307114 -4.393896 0.4210329,-8.3061 -3.879896 0.5322555,-8.260028 -3.376588 0.6327659,1.11667,0 0 0 0 0 0 True
-1.804401 -7.40901 -0.4175741,-2.348718 -7.150909 -0.03444472,-2.819164 -6.373188 0.159566,-3.115231 -5.653237 0.364743,-3.469837 -5.207097 0.5484743,-2.728753 -5.162355 -0.0976443,-2.975072 -4.418125 0.347791,-3.10419 -3.908945 0.6746434,-3.220528 -3.401271 0.910695,-2.36177 -4.993114 -0.04856142,-2.463758 -4.311576 0.696008,-2.405457 -5.176677 0.9986851,-2.328869 -5.819913 1.041559,-1.977147 -5.019563 0.06308773,-2.021873 -4.527942 0.7313558,-2.03692 -5.461776 0.8348838,-2.012918 -6.056301 0.7547064,-1.564007 -5.218883 0.2092044,-1.580819 -4.704624 0.6993265,-1.661735 -5.336057 0.8076415,-1.692013 -5.850945 0.7759806,-7.84318 -7.578735 -0.0612072,-7.273675 -7.258201 0.2062755,-6.824149 -6.484738 0.3667587,-6.531217 -5.764322 0.5580394,-6.244427 -5.234743 0.7599981,-7.198792 -5.009851 -0.04874309,-7.031382 -4.065811 0.06283143,-6.977196 -3.450969 0.2468653,-6.932562 -2.864897 0.3878045,-7.542354 -4.862981 -0.001976687,-7.444595 -3.91514 0.04610497,-7.403927 -3.378619 0.2835221,-7.375307 -2.947387 0.4822707,-7.871676 -4.926555 0.09627873,-7.829935 -3.976388 0.1591565,-7.798493 -3.457471 0.3501109,-7.750752 -3.025134 0.5151488,-8.205369 -5.164032 0.2321211,-8.255294 -4.408058 0.3083789,-8.249152 -3.913452 0.4371356,-8.198967 -3.419121 0.5552586,1.15000,0 0 0 0 0 0 True
-1.881314 -7.28841 -0.3323969,-2.411578 -7.076557 0.06298891,-2.920632 -6.263288 0.2671984,-3.222201 -5.571408 0.4897243,-3.584388 -5.161228 0.7351249,-2.778539 -5.052482 0.1005264,-3.060955 -4.388462 0.5960528,-3.19735 -3.91537 0.9385368,-3.318857 -3.46356 1.186624,-2.406276 -4.861331 0.1573297,-2.530234 -4.383646 0.9208241,-2.474623 -5.322057 1.241941,-2.389094 -6.062521 1.294506,-2.00151 -4.881168 0.2706767,-2.082593 -4.573692 0.9639431,-2.089118 -5.513042 1.088514,-2.058826 -6.161404 1.030237,-1.565338 -5.071819 0.414574,-1.61198 -4.683132 0.9494499,-1.691238 -5.369607 1.051021,-1.726455 -5.929869 1.012733,-7.788789 -7.505357 -0.2279314,-7.22287 -7.221103 0.06106725,-6.777153 -6.447172 0.2352655,-6.47788 -5.744434 0.4276981,-6.179403 -5.215808 0.6212034,-7.149607 -4.977397 -0.1902815,-6.984597 -4.023926 -0.06773326,-6.925211 -3.389187 0.134072,-6.86842 -2.793404 0.2776833,-7.497009 -4.837116 -0.1470377,-7.431081 -3.883758 -0.02097212,-7.387026 -3.404487 0.2708617,-7.352582 -3.094807 0.4986094,-7.824799 -4.907466 -0.05119273,-7.803005 -3.99372 0.06619921,-7.762299 -3.553417 0.3028716,-7.713815 -3.24555 0.4980249,-8.149559 -5.138185 0.07840425,-8.183382 -4.398459 0.1669902,-8.164715 -3.948042 0.3164505,-8.105865 -3.51328 0.4557984,1.18333,0 0 0 0 0 0 True
-1.881314 -7.28841 -0.3323969,-2.411578 -7.076557 0.06298891,-2.920632 -6.263288 0.2671984,-3.222201 -5.571408 0.4897243,-3.584388 -5.161228 0.7351249,-2.778539 -5.052482 0.1005264,-3.060955 -4.388462 0.5960528,-3.19735 -3.91537 0.9385368,-3.318857 -3.46356 1.186624,-2.406276 -4.861331 0.1573297,-2.530234 -4.383646 0.9208241,-2.474623 -5.322057 1.241941,-2.389094 -6.062521 1.294506,-2.00151 -4.881168 0.2706767,-2.082593 -4.573692 0.9639431,-2.089118 -5.513042 1.088514,-2.058826 -6.161404 1.030237,-1.565338 -5.071819 0.414574,-1.61198 -4.683132 0.9494499,-1.691238 -5.369607 1.051021,-1.726455 -5.929869 1.012733,-7.788789 -7.505357 -0.2279314,-7.22287 -7.221103 0.06106725,-6.777153 -6.447172 0.2352655,-6.47788 -5.744434 0.4276981,-6.179403 -5.215808 0.6212034,-7.149607 -4.977397 -0.1902815,-6.984597 -4.023926 -0.06773326,-6.925211 -3.389187 0.134072,-6.86842 -2.793404 0.2776833,-7.497009 -4.837116 -0.1470377,-7.431081 -3.883758 -0.02097212,-7.387026 -3.404487 0.2708617,-7.352582 -3.094807 0.4986094,-7.824799 -4.907466 -0.05119273,-7.803005 -3.99372 0.06619921,-7.762299 -3.553417 0.3028716,-7.713815 -3.24555 0.4980249,-8.149559 -5.138185 0.07840425,-8.183382 -4.398459 0.1669902,-8.164715 -3.948042 0.3164505,-8.105865 -3.51328 0.4557984,1.21667,0 0 0 0 0 0 True
-1.948343 -7.160229 -0.3015039,-2.47314 -6.987941 0.09280387,-3.000286 -6.234176 0.3245763,-3.315983 -5.582948 0.556731,-3.668018 -5.189313 0.840572,-2.857141 -4.973224 0.2778612,-3.137107 -4.374307 0.8176415,-3.278416 -3.926982 1.174685,-3.408081 -3.532005 1.4292,-2.478163 -4.754398 0.3163206,-2.602803 -4.528757 1.035879,-2.523677 -5.462204 1.302854,-2.42886 -6.199223 1.349142,-2.060893 -4.770021 0.4065618,-2.144259 -4.778932 1.080513,-2.118522 -5.697129 1.173286,-2.08575 -6.307589 1.114183,-1.624714 -4.945136 0.5151734,-1.693153 -4.804763 1.041034,-1.749949 -5.526142 1.116613,-1.785562 -6.05333 1.072815,-7.781579 -7.491821 -0.2550919,-7.212731 -7.221054 0.02625996,-6.769307 -6.434433 0.188804,-6.465412 -5.748241 0.382035,-6.175887 -5.208844 0.5823979,-7.141584 -4.944908 -0.2793358,-6.975715 -4.013969 -0.2242524,-6.907859 -3.360438 -0.05900301,-6.849948 -2.748572 0.07828602,-7.491884 -4.830184 -0.2241225,-7.420788 -3.9004 -0.0912841,-7.37141 -3.492822 0.238587,-7.332988 -3.281727 0.4943174,-7.81561 -4.924059 -0.1241755,-7.79576 -4.030792 0.01267073,-7.74615 -3.64643 0.3236287,-7.683045 -3.455818 0.5654715,-8.131294 -5.167144 0.01157427,-8.148506 -4.458188 0.1143461,-8.118779 -4.039129 0.3172405,-8.044786 -3.705036 0.5080956,1.25000,0 0 0 0 0 0 True
-1.948343 -7.160229 -0.3015039,-2.47314 -6.987941 0.09280387,-3.000286 -6.234176 0.3245763,-3.315983 -5.582948 0.556731,-3.668018 -5.189313 0.840572,-2.857141 -4.973224 0.2778612,-3.137107 -4.374307 0.8176415,-3.278416 -3.926982 1.174685,-3.408081 -3.532005 1.4292,-2.478163 -4.754398 0.3163206,-2.602803 -4.528757 1.035879,-2.523677 -5.462204 1.302854,-2.42886 -6.199223 1.349142,-2.060893 -4.770021 0.4065618,-2.144259 -4.778932 1.080513,-2.118522 -5.697129 1.173286,-2.08575 -6.307589 1.114183,-1.624714 -4.945136 0.5151734,-1.693153 -4.804763 1.041034,-1.749949 -5.526142 1.116613,-1.785562 -6.05333 1.072815,-7.781579 -7.491821 -0.2550919,-7.212731 -7.221054 0.02625996,-6.769307 -6.434433 0.188804,-6.465412 -5.748241 0.382035,-6.175887 -5.208844 0.5823979,-7.141584 -4.944908 -0.2793358,-6.975715 -4.013969 -0.2242524,-6.907859 -3.360438 -0.05900301,-6.849948 -2.748572 0.07828602,-7.491884 -4.830184 -0.2241225,-7.420788 -3.9004 -0.0912841,-7.37141 -3.492822 0.238587,-7.332988 -3.281727 0.4943174,-7.81561 -4.924059 -0.1241755,-7.79576 -4.030792 0.01267073,-7.74615 -3.64643 0.3236287,-7.683045 -3.455818 0.5654715,-8.131294 -5.167144 0.01157427,-8.148506 -4.458188 0.1143461,-8.118779 -4.039129 0.3172405,-8.044786 -3.705036 0.5080956,1.28333,0 0 0 0 0 0 True
-2.013052 -7.068412 -0.1809088,-2.558355 -6.927623 0.2522959,-3.107149 -6.133363 0.4743747,-3.424797 -5.492314 0.6768749,-3.775852 -5.123285 0.9388213,-2.911242 -4.911323 0.5507778,-3.183584 -4.371574 1.122,-3.321119 -3.926942 1.482735,-3.438484 -3.52392 1.732942,-2.522679 -4.65968 0.5707475,-2.639194 -4.683221 1.285377,-2.564371 -5.613209 1.468354,-2.459015 -6.302307 1.457788,-2.088994 -4.693513 0.6473251,-2.162279 -4.888654 1.348658,-2.144657 -5.782037 1.417658,-2.119839 -6.375118 1.346107,-1.650735 -4.884722 0.7493546,-1.713522 -4.889117 1.315634,-1.773513 -5.598114 1.401744,-1.818154 -6.123195 1.379429,-7.775468 -7.41681 -0.3311588,-7.225898 -7.201339 0.02514842,-6.805293 -6.432366 0.2242813,-6.490012 -5.748384 0.4374261,-6.185048 -5.219582 0.6130904,-7.146572 -4.901796 -0.340038,-6.986901 -3.946025 -0.2476837,-6.917902 -3.215013 -0.0951875,-6.872104 -2.583882 0.04983956,-7.482991 -4.777435 -0.2935003,-7.459761 -3.674287 0.07249385,-7.428483 -3.849347 0.4333802,-7.415485 -4.285953 0.5979866,-7.8031 -4.853296 -0.1859616,-7.810299 -3.798448 0.1545668,-7.769929 -3.962142 0.4908709,-7.758096 -4.420273 0.6469218,-8.125098 -5.108076 -0.05345625,-8.175937 -4.284883 0.1972581,-8.122238 -4.07679 0.3902006,-8.075154 -4.203111 0.5214329,1.31667,0 0 0 0 0 0 True
-2.013052 -7.068412 -0.1809088,-2.558355 -6.927623 0.2522959,-3.107149 -6.133363 0.4743747,-3.424797 -5.492314 0.6768749,-3.775852 -5.123285 0.9388213,-2.911242 -4.911323 0.5507778,-3.183584 -4.371574 1.122,-3.321119 -3.926942 1.482735,-3.438484 -3.52392 1.732942,-2.522679 -4.65968 0.5707475,-2.639194 -4.683221 1.285377,-2.564371 -5.613209 1.468354,-2.459015 -6.302307 1.457788,-2.088994 -4.693513 0.6473251,-2.162279 -4.888654 1.348658,-2.144657 -5.782037 1.417658,-2.119839 -6.375118 1.346107,-1.650735 -4.884722 0.7493546,-1.713522 -4.889117 1.315634,-1.773513 -5.598114 1.401744,-1.818154 -6.123195 1.379429,-7.775468 -7.41681 -0.3311588,-7.225898 -7.201339 0.02514842,-6.805293 -6.432366 0.2242813,-6.490012 -5.748384 0.4374261,-6.185048 -5.219582 0.6130904,-7.146572 -4.901796 -0.340038,-6.986901 -3.946025 -0.2476837,-6.917902 -3.215013 -0.0951875,-6.872104 -2.583882 0.04983956,-7.482991 -4.777435 -0.2935003,-7.459761 -3.674287 0.07249385,-7.428483 -3.849347 0.4333802,-7.415485 -4.285953 0.5979866,-7.8031 -4.853296 -0.1859616,-7.810299 -3.798448 0.1545668,-7.769929 -3.962142 0.4908709,-7.758096 -4.420273 0.6469218,-8.125098 -5.108076 -0.05345625,-8.175937 -4.284883 0.1972581,-8.122238 -4.07679 0.3902006,-8.075154 -4.203111 0.5214329,1.35000,0 0 0 0 0 0 True
-2.001079 -6.921124 -0.1648102,-2.560432 -6.835626 0.3165445,-3.113569 -6.0834 0.5617143,-3.437201 -5.414792 0.7601246,-3.801671 -5.034723 1.029049,-2.939734 -4.855521 0.7442486,-3.212355 -4.338371 1.348649,-3.338772 -3.883129 1.727354,-3.441766 -3.475578 1.983243,-2.545974 -4.571431 0.7476773,-2.656065 -4.673849 1.496013,-2.572448 -5.596527 1.685508,-2.474131 -6.284533 1.690696,-2.102043 -4.592367 0.8033988,-2.165135 -4.874298 1.545647,-2.13939 -5.760375 1.629169,-2.122608 -6.377 1.571315,-1.66487 -4.783706 0.8798691,-1.709461 -4.957243 1.506969,-1.761091 -5.69947 1.607333,-1.816705 -6.258125 1.609503,-7.803843 -7.472318 -0.2087608,-7.251104 -7.22209 0.1620747,-6.826372 -6.425066 0.3473543,-6.515261 -5.729043 0.5584821,-6.243872 -5.176055 0.715575,-7.193462 -4.910858 -0.2198758,-7.042492 -3.917322 -0.08503092,-6.958527 -3.219294 0.05859506,-6.908691 -2.607287 0.1910696,-7.504461 -4.798258 -0.1964079,-7.493893 -3.636013 0.2375514,-7.424006 -4.181219 0.5854197,-7.400194 -4.798276 0.6585259,-7.822683 -4.846755 -0.1177144,-7.854538 -3.771688 0.2287454,-7.76391 -4.307353 0.5055132,-7.726997 -4.936085 0.5653678,-8.153724 -5.055032 -0.0157392,-8.21755 -4.215087 0.3108813,-8.102612 -4.337458 0.5048254,-8.014835 -4.746602 0.5558218,1.38333,0 0 0 0 0 0 True
-2.001079 -6.921124 -0.1648102,-2.560432 -6.835626 0.3165445,-3.113569 -6.0834 0.5617143,-3.437201 -5.414792 0.7601246,-3.801671 -5.034723 1.029049,-2.939734 -4.855521 0.7442486,-3.212355 -4.338371 1.348649,-3.338772 -3.883129 1.727354,-3.441766 -3.475578 1.983243,-2.545974 -4.571431 0.7476773,-2.656065 -4.673849 1.496013,-2.572448 -5.596527 1.685508,-2.474131 -6.284533 1.690696,-2.102043 -4.592367 0.8033988,-2.165135 -4.874298 1.545647,-2.13939 -5.760375 1.629169,-2.122608 -6.377 1.571315,-1.66487 -4.783706 0.8798691,-1.709461 -4.957243 1.506969,-1.761091 -5.69947 1.607333,-1.816705 -6.258125 1.609503,-7.803843 -7.472318 -0.2087608,-7.251104 -7.22209 0.1620747,-6.826372 -6.425066 0.3473543,-6.515261 -5.729043 0.5584821,-6.243872 -5.176055 0.715575,-7.193462 -4.910858 -0.2198758,-7.042492 -3.917322 -0.08503092,-6.958527 -3.219294 0.05859506,-6.908691 -2.607287 0.1910696,-7.504461 -4.798258 -0.1964079,-7.493893 -3.636013 0.2375514,-7.424006 -4.181219 0.5854197,-7.400194 -4.798276 0.6585259,-7.822683 -4.846755 -0.1177144,-7.854538 -3.771688 0.2287454,-7.76391 -4.307353 0.5055132,-7.726997 -4.936085 0.5653678,-8.153724 -5.055032 -0.0157392,-8.21755 -4.215087 0.3108813,-8.102612 -4.337458 0.5048254,-8.014835 -4.746602 0.5558218,1.41667,0 0 0 0 0 0 True
-2.00088 -6.796898 -0.4429024,-2.548742 -6.740603 0.1126121,-3.082622 -6.029539 0.3843858,-3.38092 -5.3479 0.5961889,-3.757922 -4.942916 0.8584739,-2.928643 -4.79825 0.5063732,-3.195274 -4.254241 1.096459,-3.30431 -3.788482 1.474133,-3.391294 -3.371656 1.733413,-2.544825 -4.547506 0.5011178,-2.651663 -4.436893 1.338644,-2.573882 -5.389918 1.590451,-2.481324 -6.133777 1.608157,-2.112918 -4.563636 0.5547728,-2.155025 -4.682594 1.382021,-2.131147 -5.623838 1.532313,-2.120384 -6.298698 1.482955,-1.688019 -4.751121 0.6303498,-1.677036 -4.813665 1.315096,-1.716703 -5.574295 1.461217,-1.772115 -6.161656 1.475508,-7.855138 -7.556584 -0.1190531,-7.276469 -7.25105 0.2471412,-6.849802 -6.455056 0.4301656,-6.553656 -5.739845 0.6380852,-6.287769 -5.193531 0.8012278,-7.216585 -4.958204 -0.117399,-7.072536 -3.96488 0.09738764,-6.994324 -3.291866 0.3062336,-6.947227 -2.684042 0.4706461,-7.536685 -4.859123 -0.08151901,-7.515862 -3.65966 0.4176958,-7.449261 -4.26169 0.7780991,-7.43839 -4.915855 0.8444649,-7.863363 -4.906053 0.01151535,-7.879042 -3.79426 0.4354532,-7.784902 -4.392904 0.719331,-7.755253 -5.058912 0.7596006,-8.207404 -5.117084 0.1213272,-8.252645 -4.247428 0.5072938,-8.129524 -4.475833 0.7222802,-8.045645 -4.968856 0.7691225,1.45000,0 0 0 0 0 0 True
-1.987202 -6.727365 -0.5808946,-2.50637 -6.711017 -0.01640284,-3.051228 -5.966873 0.2244898,-3.35456 -5.257345 0.4134673,-3.731024 -4.842516 0.6354573,-2.873499 -4.736436 0.3008727,-3.134067 -4.151031 0.8814416,-3.228497 -3.687393 1.237434,-3.291372 -3.27586 1.488276,-2.49668 -4.487869 0.300459,-2.570864 -4.351148 1.127452,-2.487261 -5.293773 1.377263,-2.39174 -6.053203 1.398978,-2.077794 -4.498611 0.3606983,-2.100181 -4.599487 1.177684,-2.071783 -5.563983 1.330858,-2.059236 -6.291925 1.274078,-1.668978 -4.679184 0.45366,-1.648802 -4.707202 1.145831,-1.685862 -5.464317 1.292233,-1.745671 -6.07604 1.292097,-7.855138 -7.556584 -0.1190531,-7.276469 -7.25105 0.2471412,-6.849802 -6.455056 0.4301656,-6.553656 -5.739845 0.6380852,-6.287769 -5.193531 0.8012278,-7.216585 -4.958204 -0.117399,-7.072536 -3.96488 0.09738764,-6.994324 -3.291866 0.3062336,-6.947227 -2.684042 0.4706461,-7.536685 -4.859123 -0.08151901,-7.515862 -3.65966 0.4176958,-7.449261 -4.26169 0.7780991,-7.43839 -4.915855 0.8444649,-7.863363 -4.906053 0.01151535,-7.879042 -3.79426 0.4354532,-7.784902 -4.392904 0.719331,-7.755253 -5.058912 0.7596006,-8.207404 -5.117084 0.1213272,-8.252645 -4.247428 0.5072938,-8.129524 -4.475833 0.7222802,-8.045645 -4.968856 0.7691225,1.48333,0 0 0 0 0 0 True
-1.987202 -6.727365 -0.5808946,-2.50637 -6.711017 -0.01640284,-3.051228 -5.966873 0.2244898,-3.35456 -5.257345 0.4134673,-3.731024 -4.842516 0.6354573,-2.873499 -4.736436 0.3008727,-3.134067 -4.151031 0.8814416,-3.228497 -3.687393 1.237434,-3.291372 -3.27586 1.488276,-2.49668 -4.487869 0.300459,-2.570864 -4.351148 1.127452,-2.487261 -5.293773 1.377263,-2.39174 -6.053203 1.398978,-2.077794 -4.498611 0.3606983,-2.100181 -4.599487 1.177684,-2.071783 -5.563983 1.330858,-2.059236 -6.291925 1.274078,-1.668978 -4.679184 0.45366,-1.648802 -4.707202 1.145831,-1.685862 -5.464317 1.292233,-1.745671 -6.07604 1.292097,-7.894992 -7.629335 -0.03924138,-7.303909 -7.286033 0.3332928,-6.884604 -6.482047 0.5187292,-6.584921 -5.742285 0.7333897,-6.320019 -5.173431 0.9099903,-7.240896 -5.000143 -0.1016003,-7.099387 -4.005729 0.1218101,-7.021708 -3.358423 0.3328963,-6.976764 -2.750885 0.4897045,-7.553993 -4.911336 -0.05765305,-7.527489 -3.750789 0.477322,-7.453364 -4.427934 0.8571499,-7.443943 -5.111475 0.9214382,-7.880901 -4.950901 0.04912541,-7.894108 -3.84291 0.5280893,-7.781985 -4.510124 0.828052,-7.751618 -5.216299 0.8412037,-8.233799 -5.156625 0.1762449,-8.26782 -4.290726 0.5941008,-8.132448 -4.576902 0.8085402,-8.049787 -5.102054 0.8333983,1.51667,0 0 0 0 0 0 True
-1.946815 -6.736503 -0.5095725,-2.45667 -6.724654 0.09594911,-2.990402 -5.988912 0.34508,-3.2973 -5.269971 0.5362508,-3.665205 -4.795831 0.7468621,-2.808679 -4.707762 0.3685004,-3.061283 -4.11613 0.9116533,-3.153028 -3.631644 1.251058,-3.211691 -3.200656 1.496594,-2.440831 -4.460521 0.3440115,-2.517729 -4.35774 1.146859,-2.440495 -5.286744 1.384813,-2.348738 -6.016214 1.408682,-2.032639 -4.473665 0.383342,-2.051863 -4.57723 1.183368,-2.026281 -5.547087 1.344539,-2.011825 -6.27531 1.288559,-1.630422 -4.646464 0.4619119,-1.598118 -4.637076 1.163489,-1.629572 -5.385507 1.324505,-1.679502 -6.018823 1.333139,-7.90343 -7.63902 -0.06709714,-7.320842 -7.289374 0.2782409,-6.901407 -6.470859 0.4387901,-6.592998 -5.730567 0.6411367,-6.314039 -5.189336 0.8101641,-7.254147 -5.016263 -0.1897566,-7.116829 -4.042577 0.03993724,-7.042467 -3.416361 0.271188,-6.996696 -2.817575 0.4446682,-7.560301 -4.929996 -0.1296185,-7.52284 -3.832786 0.436518,-7.445314 -4.552952 0.8596095,-7.43722 -5.24835 0.9522301,-7.88112 -4.964456 -0.01025022,-7.888896 -3.89073 0.4899786,-7.775808 -4.600063 0.8183401,-7.743577 -5.322341 0.8381706,-8.231628 -5.164937 0.1311341,-8.273202 -4.315361 0.5657883,-8.138175 -4.617193 0.7864736,-8.049992 -5.153776 0.8040975,1.55000,0 0 0 0 0 0 True
-1.946815 -6.736503 -0.5095725,-2.45667 -6.724654 0.09594911,-2.990402 -5.988912 0.34508,-3.2973 -5.269971 0.5362508,-3.665205 -4.795831 0.7468621,-2.808679 -4.707762 0.3685004,-3.061283 -4.11613 0.9116533,-3.153028 -3.631644 1.251058,-3.211691 -3.200656 1.496594,-2.440831 -4.460521 0.3440115,-2.517729 -4.35774 1.146859,-2.440495 -5.286744 1.384813,-2.348738 -6.016214 1.408682,-2.032639 -4.473665 0.383342,-2.051863 -4.57723 1.183368,-2.026281 -5.547087 1.344539,-2.011825 -6.27531 1.288559,-1.630422 -4.646464 0.4619119,-1.598118 -4.637076 1.163489,-1.629572 -5.385507 1.324505,-1.679502 -6.018823 1.333139,-7.90343 -7.63902 -0.06709714,-7.320842 -7.289374 0.2782409,-6.901407 -6.470859 0.4387901,-6.592998 -5.730567 0.6411367,-6.314039 -5.189336 0.8101641,-7.254147 -5.016263 -0.1897566,-7.116829 -4.042577 0.03993724,-7.042467 -3.416361 0.271188,-6.996696 -2.817575 0.4446682,-7.560301 -4.929996 -0.1296185,-7.52284 -3.832786 0.436518,-7.445314 -4.552952 0.8596095,-7.43722 -5.24835 0.9522301,-7.88112 -4.964456 -0.01025022,-7.888896 -3.89073 0.4899786,-7.775808 -4.600063 0.8183401,-7.743577 -5.322341 0.8381706,-8.231628 -5.164937 0.1311341,-8.273202 -4.315361 0.5657883,-8.138175 -4.617193 0.7864736,-8.049992 -5.153776 0.8040975,1.58333,0 0 0 0 0 0 True
-1.90182 -6.775732 -0.6089509,-2.398168 -6.765239 -0.02550745,-2.931969 -5.998502 0.2053659,-3.236139 -5.282277 0.3919075,-3.607169 -4.841464 0.6000924,-2.748023 -4.743711 0.2223193,-3.003136 -4.132602 0.7575785,-3.090067 -3.643637 1.093379,-3.138536 -3.221806 1.344399,-2.375974 -4.512317 0.2065108,-2.460024 -4.30233 0.9979008,-2.390269 -5.218541 1.226906,-2.303778 -5.976179 1.241342,-1.969074 -4.537295 0.2592816,-1.993558 -4.555999 1.05477,-1.973436 -5.524702 1.210087,-1.962961 -6.259323 1.149969,-1.56603 -4.716407 0.3462499,-1.540271 -4.665466 1.032258,-1.577337 -5.409041 1.182547,-1.628754 -6.019481 1.186476,-7.895721 -7.596524 -0.145435,-7.332924 -7.267683 0.2733228,-6.923347 -6.464118 0.4675441,-6.618484 -5.736614 0.6915309,-6.331325 -5.203969 0.8833102,-7.277816 -4.998149 -0.1562468,-7.135795 -4.053319 0.08662382,-7.064034 -3.441621 0.3025214,-7.019883 -2.860038 0.4664627,-7.588072 -4.905103 -0.1200406,-7.563698 -3.882498 0.4916971,-7.488524 -4.628759 0.9247147,-7.468116 -5.337648 1.016936,-7.915829 -4.932102 -0.01687528,-7.939053 -3.912774 0.5255365,-7.824939 -4.658651 0.8669741,-7.77536 -5.40413 0.883142,-8.270297 -5.115071 0.1085937,-8.3328 -4.271268 0.5559539,-8.199411 -4.567939 0.780224,-8.098074 -5.104448 0.7925041,1.61667,0 0 0 0 0 0 True
-1.90182 -6.775732 -0.6089509,-2.398168 -6.765239 -0.02550745,-2.931969 -5.998502 0.2053659,-3.236139 -5.282277 0.3919075,-3.607169 -4.841464 0.6000924,-2.748023 -4.743711 0.2223193,-3.003136 -4.132602 0.7575785,-3.090067 -3.643637 1.093379,-3.138536 -3.221806 1.344399,-2.375974 -4.512317 0.2065108,-2.460024 -4.30233 0.9979008,-2.390269 -5.218541 1.226906,-2.303778 -5.976179 1.241342,-1.969074 -4.537295 0.2592816,-1.993558 -4.555999 1.05477,-1.973436 -5.524702 1.210087,-1.962961 -6.259323 1.149969,-1.56603 -4.716407 0.3462499,-1.540271 -4.665466 1.032258,-1.577337 -5.409041 1.182547,-1.628754 -6.019481 1.186476,-7.895721 -7.596524 -0.145435,-7.332924 -7.267683 0.2733228,-6.923347 -6.464118 0.4675441,-6.618484 -5.736614 0.6915309,-6.331325 -5.203969 0.8833102,-7.277816 -4.998149 -0.1562468,-7.135795 -4.053319 0.08662382,-7.064034 -3.441621 0.3025214,-7.019883 -2.860038 0.4664627,-7.588072 -4.905103 -0.1200406,-7.563698 -3.882498 0.4916971,-7.488524 -4.628759 0.9247147,-7.468116 -5.337648 1.016936,-7.915829 -4.932102 -0.01687528,-7.939053 -3.912774 0.5255365,-7.824939 -4.658651 0.8669741,-7.77536 -5.40413 0.883142,-8.270297 -5.115071 0.1085937,-8.3328 -4.271268 0.5559539,-8.199411 -4.567939 0.780224,-8.098074 -5.104448 0.7925041,1.65000,0 0 0 0 0 0 True
-1.872485 -6.795406 -0.5109305,-2.372794 -6.754926 0.06494904,-2.899414 -5.982913 0.2906259,-3.191038 -5.264415 0.4700233,-3.550488 -4.810348 0.6695709,-2.698049 -4.713575 0.2926401,-2.941226 -4.100458 0.8248575,-3.015276 -3.618641 1.153203,-3.054605 -3.205794 1.396443,-2.323979 -4.487078 0.2756062,-2.396304 -4.324871 1.075765,-2.331754 -5.234729 1.316247,-2.255114 -5.977317 1.332838,-1.917298 -4.517076 0.3216265,-1.935422 -4.586797 1.104433,-1.919892 -5.546262 1.258887,-1.920027 -6.269573 1.202037,-1.516236 -4.707752 0.4010888,-1.493918 -4.674442 1.070575,-1.53394 -5.404205 1.221067,-1.592313 -6.000989 1.225861,-7.940035 -7.525741 -0.3801062,-7.371202 -7.263404 0.08823225,-6.955871 -6.474108 0.310469,-6.644515 -5.744485 0.5536332,-6.361613 -5.198637 0.7595725,-7.294868 -5.009183 -0.3295597,-7.15548 -4.047766 -0.06469396,-7.089761 -3.428672 0.1803141,-7.046676 -2.840371 0.3667548,-7.610192 -4.905206 -0.3123168,-7.5896 -3.899638 0.3348657,-7.53568 -4.659704 0.7873714,-7.516822 -5.351228 0.8813261,-7.944775 -4.918483 -0.2250364,-7.972953 -3.905493 0.3413997,-7.881726 -4.66509 0.6821393,-7.831884 -5.391374 0.687873,-8.306443 -5.082853 -0.1128653,-8.37855 -4.247692 0.3248599,-8.263644 -4.563634 0.5282856,-8.170222 -5.090154 0.5182073,1.68333,0 0 0 0 0 0 True
-1.82582 -6.789274 -0.5039058,-2.329877 -6.710504 0.042153,-2.849128 -5.903558 0.2427522,-3.135496 -5.176256 0.4058201,-3.481823 -4.717433 0.5988355,-2.645439 -4.680751 0.2304065,-2.875178 -4.04981 0.7613602,-2.946403 -3.569353 1.074479,-2.976151 -3.155879 1.304974,-2.266214 -4.456944 0.2224346,-2.316193 -4.291263 1.03851,-2.252305 -5.217367 1.280795,-2.173768 -5.934431 1.28688,-1.854068 -4.49629 0.2757302,-1.866292 -4.543054 1.05231,-1.858977 -5.520374 1.192464,-1.850863 -6.221733 1.134477,-1.45409 -4.702112 0.3644524,-1.439024 -4.66165 1.002019,-1.492892 -5.392203 1.146251,-1.543765 -5.961034 1.143197,-7.980169 -7.472201 -0.4244372,-7.406903 -7.231605 0.08501929,-6.984791 -6.424994 0.3304674,-6.671329 -5.69795 0.5914989,-6.390928 -5.143474 0.8239397,-7.337858 -4.963115 -0.2959331,-7.205741 -4.033829 -0.01041371,-7.145823 -3.431943 0.2520009,-7.105444 -2.850435 0.4436276,-7.65556 -4.866319 -0.2907926,-7.632579 -3.900729 0.4102607,-7.57256 -4.675569 0.8793547,-7.546308 -5.35015 0.9716034,-7.992833 -4.878658 -0.2158177,-8.017156 -3.895689 0.3919898,-7.913656 -4.660259 0.7571573,-7.854369 -5.379171 0.7626994,-8.354719 -5.031208 -0.112878,-8.4302 -4.207349 0.354819,-8.263644 -4.563634 0.483973,-8.170222 -5.090154 0.4738947,1.71667,0 0 0 0 0 0 True
-1.82582 -6.789274 -0.5039058,-2.329877 -6.710504 0.042153,-2.849128 -5.903558 0.2427522,-3.135496 -5.176256 0.4058201,-3.481823 -4.717433 0.5988355,-2.645439 -4.680751 0.2304065,-2.875178 -4.04981 0.7613602,-2.946403 -3.569353 1.074479,-2.976151 -3.155879 1.304974,-2.266214 -4.456944 0.2224346,-2.316193 -4.291263 1.03851,-2.252305 -5.217367 1.280795,-2.173768 -5.934431 1.28688,-1.854068 -4.49629 0.2757302,-1.866292 -4.543054 1.05231,-1.858977 -5.520374 1.192464,-1.850863 -6.221733 1.134477,-1.45409 -4.702112 0.3644524,-1.439024 -4.66165 1.002019,-1.492892 -5.392203 1.146251,-1.543765 -5.961034 1.143197,-7.980169 -7.472201 -0.4244372,-7.406903 -7.231605 0.08501929,-6.984791 -6.424994 0.3304674,-6.671329 -5.69795 0.5914989,-6.390928 -5.143474 0.8239397,-7.337858 -4.963115 -0.2959331,-7.205741 -4.033829 -0.01041371,-7.145823 -3.431943 0.2520009,-7.105444 -2.850435 0.4436276,-7.65556 -4.866319 -0.2907926,-7.632579 -3.900729 0.4102607,-7.57256 -4.675569 0.8793547,-7.546308 -5.35015 0.9716034,-7.992833 -4.878658 -0.2158177,-8.017156 -3.895689 0.3919898,-7.913656 -4.660259 0.7571573,-7.854369 -5.379171 0.7626994,-8.354719 -5.031208 -0.112878,-8.4302 -4.207349 0.354819,-8.305609 -4.541367 0.5829233,-8.204142 -5.080495 0.5837188,1.75000,0 0 0 0 0 0 True
-1.781515 -6.725251 -0.202451,-2.291152 -6.629097 0.366549,-2.79874 -5.815828 0.6231815,-3.084377 -5.072067 0.8328342,-3.437971 -4.622604 1.088157,-2.604358 -4.550587 0.6406354,-2.811161 -3.967811 1.194092,-2.864973 -3.502914 1.523226,-2.880904 -3.092907 1.769371,-2.220481 -4.333801 0.6247156,-2.244939 -4.276655 1.441424,-2.165782 -5.190116 1.722701,-2.086718 -5.86836 1.775218,-1.808773 -4.394233 0.6586356,-1.793246 -4.554735 1.442498,-1.777719 -5.505382 1.597713,-1.774649 -6.16082 1.552848,-1.413801 -4.629188 0.7303473,-1.378699 -4.738167 1.377216,-1.435071 -5.456162 1.527561,-1.500523 -5.974952 1.526705,-7.977209 -7.425006 -0.5182952,-7.408327 -7.214479 0.009509861,-6.989398 -6.415041 0.2628716,-6.685389 -5.681003 0.5265105,-6.400854 -5.114017 0.7625055,-7.347666 -4.947624 -0.3823375,-7.228764 -4.023103 -0.1007639,-7.176428 -3.428658 0.1548811,-7.142085 -2.844743 0.3476104,-7.667396 -4.844171 -0.3891856,-7.653503 -3.896727 0.3193365,-7.609763 -4.688472 0.8029591,-7.592073 -5.362491 0.9043516,-8.006503 -4.852921 -0.3286125,-8.042315 -3.886398 0.2879639,-7.951975 -4.663799 0.6658877,-7.890913 -5.382761 0.6760312,-8.36977 -5.005094 -0.2380401,-8.454833 -4.196274 0.2235265,-8.341866 -4.520387 0.452222,-8.242201 -5.044254 0.448823,1.78333,0 0 0 0 0 0 True
-1.781515 -6.725251 -0.202451,-2.291152 -6.629097 0.366549,-2.79874 -5.815828 0.6231815,-3.084377 -5.072067 0.8328342,-3.437971 -4.622604 1.088157,-2.604358 -4.550587 0.6406354,-2.811161 -3.967811 1.194092,-2.864973 -3.502914 1.523226,-2.880904 -3.092907 1.769371,-2.220481 -4.333801 0.6247156,-2.244939 -4.276655 1.441424,-2.165782 -5.190116 1.722701,-2.086718 -5.86836 1.775218,-1.808773 -4.394233 0.6586356,-1.793246 -4.554735 1.442498,-1.777719 -5.505382 1.597713,-1.774649 -6.16082 1.552848,-1.413801 -4.629188 0.7303473,-1.378699 -4.738167 1.377216,-1.435071 -5.456162 1.527561,-1.500523 -5.974952 1.526705,-7.977209 -7.425006 -0.5182952,-7.408327 -7.214479 0.009509861,-6.989398 -6.415041 0.2628716,-6.685389 -5.681003 0.5265105,-6.400854 -5.114017 0.7625055,-7.347666 -4.947624 -0.3823375,-7.228764 -4.023103 -0.1007639,-7.176428 -3.428658 0.1548811,-7.142085 -2.844743 0.3476104,-7.667396 -4.844171 -0.3891856,-7.653503 -3.896727 0.3193365,-7.609763 -4.688472 0.8029591,-7.592073 -5.362491 0.9043516,-8.006503 -4.852921 -0.3286125,-8.042315 -3.886398 0.2879639,-7.951975 -4.663799 0.6658877,-7.890913 -5.382761 0.6760312,-8.36977 -5.005094 -0.2380401,-8.454833 -4.196274 0.2235265,-8.341866 -4.520387 0.452222,-8.242201 -5.044254 0.448823,1.81667,0 0 0 0 0 0 True
-1.720471 -6.61049 -0.01413635,-2.262652 -6.512408 0.5799217,-2.768543 -5.761098 0.8912142,-3.055948 -5.050632 1.151838,-3.423275 -4.600374 1.478756,-2.578874 -4.461833 0.9629534,-2.775357 -3.921548 1.583068,-2.800965 -3.501938 1.94039,-2.783931 -3.167579 2.187533,-2.185536 -4.215313 0.9460539,-2.186418 -4.361644 1.796626,-2.114413 -5.307495 2.049625,-2.048366 -6.005962 2.076877,-1.758005 -4.26149 0.9786833,-1.723357 -4.649873 1.805748,-1.709032 -5.600481 1.948344,-1.713872 -6.275522 1.892122,-1.349684 -4.466432 1.045696,-1.296305 -4.735503 1.725227,-1.351325 -5.499355 1.871279,-1.430212 -6.061737 1.871646,-7.970731 -7.414571 -0.6177419,-7.397328 -7.23968 -0.06221688,-6.980217 -6.428903 0.2034339,-6.692842 -5.667978 0.4707059,-6.409358 -5.065868 0.7166021,-7.338524 -4.963771 -0.4584855,-7.21567 -4.041526 -0.1624501,-7.160931 -3.427635 0.1113123,-7.125454 -2.818053 0.3203274,-7.660336 -4.862983 -0.4790322,-7.654193 -3.89692 0.2405196,-7.601758 -4.674285 0.7339861,-7.57967 -5.343265 0.8436017,-8.001516 -4.873667 -0.4261077,-8.04531 -3.894482 0.2112072,-7.9489 -4.672105 0.59964,-7.885718 -5.395647 0.6140001,-8.366418 -5.026634 -0.343152,-8.451116 -4.224298 0.139169,-8.334092 -4.553778 0.3741804,-8.232043 -5.077754 0.3735881,1.85000,0 0 0 0 0 0 True
-1.720471 -6.61049 -0.01413635,-2.262652 -6.512408 0.5799217,-2.768543 -5.761098 0.8912142,-3.055948 -5.050632 1.151838,-3.423275 -4.600374 1.478756,-2.578874 -4.461833 0.9629534,-2.775357 -3.921548 1.583068,-2.800965 -3.501938 1.94039,-2.783931 -3.167579 2.187533,-2.185536 -4.215313 0.9460539,-2.186418 -4.361644 1.796626,-2.114413 -5.307495 2.049625,-2.048366 -6.005962 2.076877,-1.758005 -4.26149 0.9786833,-1.723357 -4.649873 1.805748,-1.709032 -5.600481 1.948344,-1.713872 -6.275522 1.892122,-1.349684 -4.466432 1.045696,-1.296305 -4.735503 1.725227,-1.351325 -5.499355 1.871279,-1.430212 -6.061737 1.871646,-7.970731 -7.414571 -0.6177419,-7.397328 -7.23968 -0.06221688,-6.980217 -6.428903 0.2034339,-6.692842 -5.667978 0.4707059,-6.409358 -5.065868 0.7166021,-7.338524 -4.963771 -0.4584855,-7.21567 -4.041526 -0.1624501,-7.160931 -3.427635 0.1113123,-7.125454 -2.818053 0.3203274,-7.660336 -4.862983 -0.4790322,-7.654193 -3.89692 0.2405196,-7.601758 -4.674285 0.7339861,-7.57967 -5.343265 0.8436017,-8.001516 -4.873667 -0.4261077,-8.04531 -3.894482 0.2112072,-7.9489 -4.672105 0.59964,-7.885718 -5.395647 0.6140001,-8.366418 -5.026634 -0.343152,-8.451116 -4.224298 0.139169,-8.334092 -4.553778 0.3741804,-8.232043 -5.077754 0.3735881,1.88333,0 0 0 0 0 0 True
-1.708735 -6.399442 0.2042549,-2.300731 -6.420082 0.6116808,-2.748494 -5.759803 1.082501,-2.996562 -5.087387 1.488749,-3.402885 -4.62414 1.895045,-2.555989 -4.506679 1.480622,-2.678625 -4.008956 2.152228,-2.713624 -3.634095 2.483153,-2.677643 -3.336034 2.683865,-2.12168 -4.103111 1.531661,-2.023723 -5.056743 2.239124,-2.04632 -5.805528 2.256775,-2.059872 -6.054869 2.229305,-1.663783 -4.202192 1.595094,-1.584767 -5.365158 2.111306,-1.660043 -5.996542 1.988326,-1.708569 -6.146039 1.891731,-1.267887 -4.463603 1.703853,-1.183758 -5.422418 2.024185,-1.313417 -5.978422 1.965773,-1.435395 -6.091587 1.932893,-7.952424 -7.384632 -0.7293139,-7.37185 -7.227481 -0.1515771,-6.959148 -6.446004 0.1323909,-6.669397 -5.693621 0.41942,-6.373176 -5.08502 0.6900709,-7.307261 -4.973899 -0.5429534,-7.190405 -4.048439 -0.2290668,-7.130351 -3.434229 0.05307639,-7.091547 -2.825643 0.2581724,-7.628656 -4.868192 -0.5698136,-7.619754 -3.889066 0.1700148,-7.556376 -4.673796 0.671131,-7.534414 -5.348953 0.7780633,-7.970299 -4.875794 -0.5175282,-8.012998 -3.898259 0.1490132,-7.909124 -4.685926 0.5549929,-7.847383 -5.419418 0.5717173,-8.335593 -5.017847 -0.4356028,-8.428373 -4.215021 0.06203407,-8.305252 -4.535234 0.3080865,-8.204385 -5.062845 0.3098091,1.91667,0 0 0 0 0 0 True
-1.708735 -6.399442 0.2042549,-2.300731 -6.420082 0.6116808,-2.748494 -5.759803 1.082501,-2.996562 -5.087387 1.488749,-3.402885 -4.62414 1.895045,-2.555989 -4.506679 1.480622,-2.678625 -4.008956 2.152228,-2.713624 -3.634095 2.483153,-2.677643 -3.336034 2.683865,-2.12168 -4.103111 1.531661,-2.023723 -5.056743 2.239124,-2.04632 -5.805528 2.256775,-2.059872 -6.054869 2.229305,-1.663783 -4.202192 1.595094,-1.584767 -5.365158 2.111306,-1.660043 -5.996542 1.988326,-1.708569 -6.146039 1.891731,-1.267887 -4.463603 1.703853,-1.183758 -5.422418 2.024185,-1.313417 -5.978422 1.965773,-1.435395 -6.091587 1.932893,-7.952424 -7.384632 -0.7293139,-7.37185 -7.227481 -0.1515771,-6.959148 -6.446004 0.1323909,-6.669397 -5.693621 0.41942,-6.373176 -5.08502 0.6900709,-7.307261 -4.973899 -0.5429534,-7.190405 -4.048439 -0.2290668,-7.130351 -3.434229 0.05307639,-7.091547 -2.825643 0.2581724,-7.628656 -4.868192 -0.5698136,-7.619754 -3.889066 0.1700148,-7.556376 -4.673796 0.671131,-7.534414 -5.348953 0.7780633,-7.970299 -4.875794 -0.5175282,-8.012998 -3.898259 0.1490132,-7.909124 -4.685926 0.5549929,-7.847383 -5.419418 0.5717173,-8.335593 -5.017847 -0.4356028,-8.428373 -4.215021 0.06203407,-8.305252 -4.535234 0.3080865,-8.204385 -5.062845 0.3098091,1.95000,0 0 0 0 0 0 True
-1.635395 -6.327568 0.2370914,-2.224846 -6.390553 0.8483406,-2.677562 -5.782575 1.337176,-2.921924 -5.126408 1.718312,-3.354272 -4.66194 2.150604,-2.514719 -4.381896 1.611914,-2.643645 -3.969503 2.294572,-2.639184 -3.635677 2.666564,-2.575339 -3.355798 2.913677,-2.082474 -4.041094 1.589525,-1.997567 -4.731269 2.39238,-2.022727 -5.59554 2.535272,-2.035975 -6.065067 2.553905,-1.62472 -4.129163 1.591403,-1.543625 -5.061512 2.284355,-1.611279 -5.862096 2.303047,-1.652449 -6.274315 2.233557,-1.214624 -4.397176 1.641494,-1.113401 -5.076779 2.183359,-1.213988 -5.754512 2.231875,-1.321004 -6.115396 2.220242,-7.927756 -7.385602 -0.8740553,-7.356548 -7.238828 -0.3208416,-6.941611 -6.450611 -0.06591451,-6.646721 -5.7014 0.192822,-6.349771 -5.102139 0.4365923,-7.296206 -5.013601 -0.7579443,-7.175234 -4.091482 -0.4338484,-7.105223 -3.480802 -0.1425686,-7.060192 -2.877805 0.06166595,-7.608228 -4.907045 -0.7806379,-7.590782 -3.919557 -0.0347926,-7.51249 -4.703655 0.461642,-7.484936 -5.380588 0.5552729,-7.94192 -4.913063 -0.7189858,-7.978683 -3.930921 -0.04499233,-7.861515 -4.719619 0.3596792,-7.796662 -5.452852 0.3669624,-8.297956 -5.049063 -0.6315677,-8.384896 -4.24543 -0.1213188,-8.249417 -4.562478 0.1294478,-8.141631 -5.093462 0.131626,1.98333,0 0 0 0 0 0 True
-1.600818 -6.322877 0.523136,-2.195447 -6.355491 1.15676,-2.666185 -5.768688 1.703212,-2.906831 -5.168865 2.131794,-3.311712 -4.735401 2.597861,-2.481015 -4.325513 1.994022,-2.572344 -3.966888 2.743265,-2.57473 -3.693916 3.152608,-2.525619 -3.401382 3.447676,-2.012466 -3.990125 1.969788,-1.884089 -4.765442 2.810082,-1.954447 -5.60105 2.98415,-2.00533 -6.004512 3.025775,-1.531941 -4.111189 1.968957,-1.451313 -5.213451 2.688477,-1.58275 -5.989277 2.661714,-1.667342 -6.297613 2.536578,-1.120069 -4.444503 2.020442,-1.040137 -5.229463 2.556361,-1.185147 -5.85603 2.526714,-1.31146 -6.094612 2.456561,-7.902246 -7.378558 -0.9692121,-7.324962 -7.261389 -0.4151077,-6.91118 -6.486865 -0.1622384,-6.616722 -5.742065 0.09399486,-6.325642 -5.1368 0.3348697,-7.268672 -5.04535 -0.8297624,-7.137769 -4.122129 -0.4983754,-7.068622 -3.508069 -0.2032522,-7.021248 -2.900897 0.001889884,-7.582015 -4.928393 -0.8542398,-7.565076 -3.948642 -0.1005249,-7.495532 -4.731018 0.392455,-7.465858 -5.400537 0.4802693,-7.918406 -4.922583 -0.7958023,-7.958073 -3.957924 -0.1155693,-7.848073 -4.749628 0.2860796,-7.777534 -5.475013 0.2881999,-8.273032 -5.048872 -0.7132189,-8.363957 -4.260767 -0.2035522,-8.236188 -4.587416 0.04162621,-8.125842 -5.108902 0.03757048,2.01667,0 0 0 0 0 0 True
-1.600818 -6.322877 0.523136,-2.195447 -6.355491 1.15676,-2.666185 -5.768688 1.703212,-2.906831 -5.168865 2.131794,-3.311712 -4.735401 2.597861,-2.481015 -4.325513 1.994022,-2.572344 -3.966888 2.743265,-2.57473 -3.693916 3.152608,-2.525619 -3.401382 3.447676,-2.012466 -3.990125 1.969788,-1.884089 -4.765442 2.810082,-1.954447 -5.60105 2.98415,-2.00533 -6.004512 3.025775,-1.531941 -4.111189 1.968957,-1.451313 -5.213451 2.688477,-1.58275 -5.989277 2.661714,-1.667342 -6.297613 2.536578,-1.120069 -4.444503 2.020442,-1.040137 -5.229463 2.556361,-1.185147 -5.85603 2.526714,-1.31146 -6.094612 2.456561,-7.902246 -7.378558 -0.9692121,-7.324962 -7.261389 -0.4151077,-6.91118 -6.486865 -0.1622384,-6.616722 -5.742065 0.09399486,-6.325642 -5.1368 0.3348697,-7.268672 -5.04535 -0.8297624,-7.137769 -4.122129 -0.4983754,-7.068622 -3.508069 -0.2032522,-7.021248 -2.900897 0.001889884,-7.582015 -4.928393 -0.8542398,-7.565076 -3.948642 -0.1005249,-7.495532 -4.731018 0.392455,-7.465858 -5.400537 0.4802693,-7.918406 -4.922583 -0.7958023,-7.958073 -3.957924 -0.1155693,-7.848073 -4.749628 0.2860796,-7.777534 -5.475013 0.2881999,-8.273032 -5.048872 -0.7132189,-8.363957 -4.260767 -0.2035522,-8.236188 -4.587416 0.04162621,-8.125842 -5.108902 0.03757048,2.05000,0 0 0 0 0 0 True
-1.598101 -6.449974 0.8259987,-2.167163 -6.401306 1.446737,-2.643946 -5.722272 1.977088,-2.887352 -5.105614 2.404341,-3.295449 -4.667105 2.877551,-2.413508 -4.330392 2.292819,-2.517616 -3.941723 3.068506,-2.519399 -3.673482 3.483424,-2.466563 -3.417526 3.745725,-1.932302 -4.008883 2.282456,-1.794176 -4.758194 3.122493,-1.8841 -5.627605 3.287995,-1.950586 -6.042125 3.327368,-1.451133 -4.15825 2.293577,-1.359878 -5.148571 3.013823,-1.512554 -5.952619 2.973157,-1.61309 -6.292127 2.83665,-1.036203 -4.499038 2.360757,-0.9441738 -5.165525 2.880606,-1.113775 -5.81733 2.849895,-1.257051 -6.098308 2.773889,-7.883351 -7.376367 -1.046165,-7.309982 -7.297527 -0.4690975,-6.895239 -6.520481 -0.2111174,-6.610353 -5.767229 0.04497111,-6.324001 -5.143554 0.2831697,-7.254699 -5.066152 -0.9066601,-7.127653 -4.131565 -0.5742278,-7.057381 -3.513283 -0.2815388,-7.004188 -2.893404 -0.08508867,-7.566498 -4.947525 -0.9405341,-7.551973 -3.973247 -0.1788427,-7.487172 -4.756505 0.311789,-7.453259 -5.419875 0.3980917,-7.905439 -4.943239 -0.8854825,-7.94245 -3.97986 -0.194312,-7.839029 -4.777095 0.2074975,-7.762889 -5.500021 0.2084088,-8.264177 -5.069441 -0.8047935,-8.35501 -4.280059 -0.2975597,-8.229839 -4.611137 -0.05554122,-8.117884 -5.134288 -0.05907404,2.08333,0 0 0 0 0 0 True
-1.598101 -6.449974 0.8259987,-2.167163 -6.401306 1.446737,-2.643946 -5.722272 1.977088,-2.887352 -5.105614 2.404341,-3.295449 -4.667105 2.877551,-2.413508 -4.330392 2.292819,-2.517616 -3.941723 3.068506,-2.519399 -3.673482 3.483424,-2.466563 -3.417526 3.745725,-1.932302 -4.008883 2.282456,-1.794176 -4.758194 3.122493,-1.8841 -5.627605 3.287995,-1.950586 -6.042125 3.327368,-1.451133 -4.15825 2.293577,-1.359878 -5.148571 3.013823,-1.512554 -5.952619 2.973157,-1.61309 -6.292127 2.83665,-1.036203 -4.499038 2.360757,-0.9441738 -5.165525 2.880606,-1.113775 -5.81733 2.849895,-1.257051 -6.098308 2.773889,-7.883351 -7.376367 -1.046165,-7.309982 -7.297527 -0.4690975,-6.895239 -6.520481 -0.2111174,-6.610353 -5.767229 0.04497111,-6.324001 -5.143554 0.2831697,-7.254699 -5.066152 -0.9066601,-7.127653 -4.131565 -0.5742278,-7.057381 -3.513283 -0.2815388,-7.004188 -2.893404 -0.08508867,-7.566498 -4.947525 -0.9405341,-7.551973 -3.973247 -0.1788427,-7.487172 -4.756505 0.311789,-7.453259 -5.419875 0.3980917,-7.905439 -4.943239 -0.8854825,-7.94245 -3.97986 -0.194312,-7.839029 -4.777095 0.2074975,-7.762889 -5.500021 0.2084088,-8.264177 -5.069441 -0.8047935,-8.35501 -4.280059 -0.2975597,-8.229839 -4.611137 -0.05554122,-8.117884 -5.134288 -0.05907404,2.11667,0 0 0 0 0 0 True
-1.600269 -6.588567 1.296066,-2.169718 -6.497348 2.023257,-2.601173 -5.821241 2.559811,-2.816998 -5.212327 2.98582,-3.224757 -4.71573 3.500133,-2.326689 -4.280316 2.788144,-2.445304 -3.841136 3.511968,-2.436091 -3.597656 3.953283,-2.369885 -3.43739 4.271326,-1.858824 -3.964286 2.718947,-1.76994 -4.707148 3.555579,-1.847924 -5.66513 3.719544,-1.88275 -6.221704 3.766134,-1.404214 -4.122027 2.68914,-1.343654 -5.084779 3.464005,-1.467492 -5.957789 3.491626,-1.536289 -6.431875 3.408745,-1.002498 -4.464457 2.712565,-0.9197168 -4.931713 3.298479,-1.063359 -5.602184 3.333405,-1.175582 -5.99276 3.320436,-7.892298 -7.395448 -1.016212,-7.325912 -7.319505 -0.4393449,-6.905684 -6.535718 -0.1859078,-6.621738 -5.776551 0.06191289,-6.330579 -5.160636 0.2925243,-7.271145 -5.078293 -0.8563381,-7.141009 -4.163064 -0.5234937,-7.073928 -3.550711 -0.2407487,-7.021876 -2.938324 -0.05180204,-7.583845 -4.957607 -0.8950554,-7.561117 -4.006587 -0.13606,-7.502707 -4.782106 0.3550999,-7.473154 -5.441576 0.4450312,-7.928059 -4.950818 -0.849821,-7.954475 -4.001678 -0.1679642,-7.86049 -4.795932 0.2354636,-7.790167 -5.514205 0.2396349,-8.291672 -5.077138 -0.7812595,-8.370558 -4.298743 -0.2791564,-8.252308 -4.628465 -0.03205609,-8.14425 -5.144731 -0.03398907,2.15000,0 0 1 1 0 1 True
-1.600269 -6.588567 1.296066,-2.169718 -6.497348 2.023257,-2.601173 -5.821241 2.559811,-2.816998 -5.212327 2.98582,-3.224757 -4.71573 3.500133,-2.326689 -4.280316 2.788144,-2.445304 -3.841136 3.511968,-2.436091 -3.597656 3.953283,-2.369885 -3.43739 4.271326,-1.858824 -3.964286 2.718947,-1.76994 -4.707148 3.555579,-1.847924 -5.66513 3.719544,-1.88275 -6.221704 3.766134,-1.404214 -4.122027 2.68914,-1.343654 -5.084779 3.464005,-1.467492 -5.957789 3.491626,-1.536289 -6.431875 3.408745,-1.002498 -4.464457 2.712565,-0.9197168 -4.931713 3.298479,-1.063359 -5.602184 3.333405,-1.175582 -5.99276 3.320436,-7.892298 -7.395448 -1.016212,-7.325912 -7.319505 -0.4393449,-6.905684 -6.535718 -0.1859078,-6.621738 -5.776551 0.06191289,-6.330579 -5.160636 0.2925243,-7.271145 -5.078293 -0.8563381,-7.141009 -4.163064 -0.5234937,-7.073928 -3.550711 -0.2407487,-7.021876 -2.938324 -0.05180204,-7.583845 -4.957607 -0.8950554,-7.561117 -4.006587 -0.13606,-7.502707 -4.782106 0.3550999,-7.473154 -5.441576 0.4450312,-7.928059 -4.950818 -0.849821,-7.954475 -4.001678 -0.1679642,-7.86049 -4.795932 0.2354636,-7.790167 -5.514205 0.2396349,-8.291672 -5.077138 -0.7812595,-8.370558 -4.298743 -0.2791564,-8.252308 -4.628465 -0.03205609,-8.14425 -5.144731 -0.03398907,2.18333,0 0 1 1 0 1 True
-1.616953 -6.690019 1.546421,-2.175471 -6.610505 2.296377,-2.606905 -5.893307 2.836945,-2.807691 -5.268836 3.259491,-3.185393 -4.767429 3.731292,-2.302665 -4.333104 3.102222,-2.401678 -3.922739 3.851752,-2.434838 -3.692565 4.321213,-2.429554 -3.55168 4.651163,-1.822228 -4.001003 3.008854,-1.784763 -4.747798 3.866061,-1.855546 -5.750439 3.957124,-1.879967 -6.347106 3.931936,-1.363629 -4.165348 2.973865,-1.344383 -5.074787 3.754737,-1.449847 -5.987092 3.752549,-1.503218 -6.485436 3.652045,-0.9585199 -4.512734 2.985081,-0.900816 -4.938015 3.588751,-1.03346 -5.644707 3.619498,-1.129827 -6.076239 3.638268,-7.936011 -7.42407 -0.9800013,-7.365265 -7.354677 -0.3885298,-6.939183 -6.566283 -0.1239691,-6.653234 -5.806865 0.131248,-6.358928 -5.195497 0.3743186,-7.301786 -5.101228 -0.7776613,-7.170962 -4.192487 -0.4587927,-7.10353 -3.581975 -0.1965419,-7.048999 -2.977606 -0.01416528,-7.613763 -4.9793 -0.8280627,-7.587788 -4.064155 -0.07974851,-7.548108 -4.834851 0.3974843,-7.52739 -5.485174 0.4798645,-7.960976 -4.972661 -0.796784,-7.983132 -4.047224 -0.1336532,-7.904472 -4.825673 0.2647593,-7.843456 -5.526989 0.2755306,-8.329859 -5.103539 -0.741161,-8.400879 -4.343618 -0.2536789,-8.29364 -4.671775 -0.001052737,-8.193403 -5.176914 0.004162252,2.21667,0 0 1 1 0 1 True
-1.616953 -6.690019 1.546421,-2.175471 -6.610505 2.296377,-2.606905 -5.893307 2.836945,-2.807691 -5.268836 3.259491,-3.185393 -4.767429 3.731292,-2.302665 -4.333104 3.102222,-2.401678 -3.922739 3.851752,-2.434838 -3.692565 4.321213,-2.429554 -3.55168 4.651163,-1.822228 -4.001003 3.008854,-1.784763 -4.747798 3.866061,-1.855546 -5.750439 3.957124,-1.879967 -6.347106 3.931936,-1.363629 -4.165348 2.973865,-1.344383 -5.074787 3.754737,-1.449847 -5.987092 3.752549,-1.503218 -6.485436 3.652045,-0.9585199 -4.512734 2.985081,-0.900816 -4.938015 3.588751,-1.03346 -5.644707 3.619498,-1.129827 -6.076239 3.638268,-7.936011 -7.42407 -0.9800013,-7.365265 -7.354677 -0.3885298,-6.939183 -6.566283 -0.1239691,-6.653234 -5.806865 0.131248,-6.358928 -5.195497 0.3743186,-7.301786 -5.101228 -0.7776613,-7.170962 -4.192487 -0.4587927,-7.10353 -3.581975 -0.1965419,-7.048999 -2.977606 -0.01416528,-7.613763 -4.9793 -0.8280627,-7.587788 -4.064155 -0.07974851,-7.548108 -4.834851 0.3974843,-7.52739 -5.485174 0.4798645,-7.960976 -4.972661 -0.796784,-7.983132 -4.047224 -0.1336532,-7.904472 -4.825673 0.2647593,-7.843456 -5.526989 0.2755306,-8.329859 -5.103539 -0.741161,-8.400879 -4.343618 -0.2536789,-8.29364 -4.671775 -0.001052737,-8.193403 -5.176914 0.004162252,2.25000,0 0 1 1 0 1 True
-1.604957 -6.787198 1.378568,-2.171335 -6.707241 2.05593,-2.626541 -5.951881 2.55814,-2.843105 -5.308101 2.96712,-3.213505 -4.809542 3.428205,-2.339599 -4.466596 2.829774,-2.44753 -4.032865 3.601422,-2.467308 -3.782707 4.096227,-2.447113 -3.680669 4.438746,-1.859911 -4.12196 2.775406,-1.824523 -4.808197 3.621047,-1.863927 -5.77865 3.720655,-1.883722 -6.382421 3.690173,-1.398108 -4.270091 2.772162,-1.377606 -5.140619 3.512979,-1.463025 -6.030284 3.504392,-1.523196 -6.513124 3.415965,-0.9880772 -4.58765 2.819109,-0.9358816 -5.184634 3.369492,-1.067208 -5.92699 3.399177,-1.188401 -6.30779 3.424133,-7.959587 -7.463386 -0.8825198,-7.39994 -7.402236 -0.2809863,-6.970754 -6.597587 -0.01649779,-6.682919 -5.847166 0.2375489,-6.381003 -5.245491 0.4863981,-7.329845 -5.11108 -0.6444721,-7.207447 -4.216523 -0.3181698,-7.141957 -3.622737 -0.0555802,-7.089445 -3.040547 0.1245543,-7.648038 -4.991312 -0.697981,-7.640453 -4.073687 0.04848635,-7.596502 -4.866945 0.4963862,-7.564936 -5.537328 0.555405,-7.997216 -4.995023 -0.6660709,-8.032599 -4.069763 0.005598485,-7.949878 -4.861623 0.3920017,-7.879849 -5.569911 0.3992668,-8.362952 -5.143778 -0.6084358,-8.440762 -4.386451 -0.1066839,-8.335789 -4.715589 0.1509709,-8.232243 -5.212582 0.1650103,2.28333,0 0 1 1 0 1 True
-1.604957 -6.787198 1.378568,-2.171335 -6.707241 2.05593,-2.626541 -5.951881 2.55814,-2.843105 -5.308101 2.96712,-3.213505 -4.809542 3.428205,-2.339599 -4.466596 2.829774,-2.44753 -4.032865 3.601422,-2.467308 -3.782707 4.096227,-2.447113 -3.680669 4.438746,-1.859911 -4.12196 2.775406,-1.824523 -4.808197 3.621047,-1.863927 -5.77865 3.720655,-1.883722 -6.382421 3.690173,-1.398108 -4.270091 2.772162,-1.377606 -5.140619 3.512979,-1.463025 -6.030284 3.504392,-1.523196 -6.513124 3.415965,-0.9880772 -4.58765 2.819109,-0.9358816 -5.184634 3.369492,-1.067208 -5.92699 3.399177,-1.188401 -6.30779 3.424133,-7.959587 -7.463386 -0.8825198,-7.39994 -7.402236 -0.2809863,-6.970754 -6.597587 -0.01649779,-6.682919 -5.847166 0.2375489,-6.381003 -5.245491 0.4863981,-7.329845 -5.11108 -0.6444721,-7.207447 -4.216523 -0.3181698,-7.141957 -3.622737 -0.0555802,-7.089445 -3.040547 0.1245543,-7.648038 -4.991312 -0.697981,-7.640453 -4.073687 0.04848635,-7.596502 -4.866945 0.4963862,-7.564936 -5.537328 0.555405,-7.997216 -4.995023 -0.6660709,-8.032599 -4.069763 0.005598485,-7.949878 -4.861623 0.3920017,-7.879849 -5.569911 0.3992668,-8.362952 -5.143778 -0.6084358,-8.440762 -4.386451 -0.1066839,-8.335789 -4.715589 0.1509709,-8.232243 -5.212582 0.1650103,2.31667,0 0 1 1 0 1 True
-1.600649 -6.908172 1.022053,-2.150543 -6.786109 1.636284,-2.619263 -6.02876 2.069723,-2.857764 -5.381958 2.423886,-3.228111 -4.932746 2.840443,-2.337487 -4.598725 2.274595,-2.461665 -4.117298 2.999551,-2.511341 -3.8463 3.473115,-2.527238 -3.710481 3.799268,-1.882327 -4.271621 2.240275,-1.874615 -4.824852 3.056769,-1.900159 -5.816066 3.170693,-1.912199 -6.456289 3.133811,-1.428721 -4.39741 2.262297,-1.429221 -5.164007 3.010446,-1.497972 -6.08933 3.028614,-1.553947 -6.612268 2.949358,-1.019442 -4.688307 2.32365,-0.9905567 -5.206175 2.873311,-1.112786 -5.958978 2.896527,-1.228817 -6.360639 2.906562,-8.000134 -7.503248 -0.8215261,-7.435359 -7.435434 -0.2051008,-7.012945 -6.638938 0.07511282,-6.72446 -5.89256 0.3441699,-6.417665 -5.297334 0.6143099,-7.363948 -5.131108 -0.5629147,-7.243976 -4.2453 -0.2323653,-7.180842 -3.668034 0.03776872,-7.124759 -3.102499 0.2253591,-7.68765 -5.014791 -0.6224093,-7.695023 -4.121156 0.1224593,-7.659084 -4.925059 0.5649242,-7.625768 -5.579771 0.6129977,-8.040352 -5.017816 -0.5943408,-8.084932 -4.108158 0.0759753,-8.007518 -4.903973 0.4630079,-7.939061 -5.598351 0.4672415,-8.411642 -5.168894 -0.538956,-8.492619 -4.409746 -0.04869288,-8.392768 -4.75275 0.2073798,-8.29263 -5.253682 0.2187314,2.35000,0 0 1 1 0 1 True
-1.577384 -6.987943 0.8229188,-2.1278 -6.843135 1.422762,-2.598545 -6.065265 1.813126,-2.85159 -5.39221 2.136748,-3.226606 -4.91994 2.550034,-2.322347 -4.655693 1.93714,-2.457757 -4.130958 2.613884,-2.492599 -3.827114 3.03484,-2.492068 -3.663014 3.328956,-1.882361 -4.355013 1.900232,-1.865692 -4.839857 2.727373,-1.884532 -5.820123 2.871518,-1.895395 -6.458322 2.833932,-1.43534 -4.477338 1.917871,-1.438368 -5.177419 2.675541,-1.515799 -6.10906 2.698874,-1.569033 -6.669922 2.621047,-1.033103 -4.760364 1.973736,-1.011031 -5.257541 2.547225,-1.137792 -6.015975 2.581494,-1.256096 -6.451036 2.584891,-8.051027 -7.520566 -0.8111118,-7.475463 -7.433221 -0.1943025,-7.048043 -6.639081 0.09989554,-6.760364 -5.890813 0.3796715,-6.457129 -5.303331 0.6569729,-7.392278 -5.148823 -0.5408446,-7.27574 -4.257089 -0.2258819,-7.221416 -3.670347 0.03584218,-7.176593 -3.102478 0.2197902,-7.719794 -5.032383 -0.6017781,-7.726755 -4.113163 0.1389831,-7.693041 -4.894725 0.5942547,-7.667056 -5.548864 0.6536639,-8.074801 -5.038375 -0.5809396,-8.119088 -4.101795 0.07838196,-8.039642 -4.868662 0.464407,-7.972099 -5.549701 0.4740939,-8.45048 -5.188859 -0.531657,-8.538944 -4.434152 -0.05452496,-8.439111 -4.752037 0.1998737,-8.340569 -5.228737 0.2195326,2.38333,0 0 1 1 0 1 True
-1.577384 -6.987943 0.8229188,-2.1278 -6.843135 1.422762,-2.598545 -6.065265 1.813126,-2.85159 -5.39221 2.136748,-3.226606 -4.91994 2.550034,-2.322347 -4.655693 1.93714,-2.457757 -4.130958 2.613884,-2.492599 -3.827114 3.03484,-2.492068 -3.663014 3.328956,-1.882361 -4.355013 1.900232,-1.865692 -4.839857 2.727373,-1.884532 -5.820123 2.871518,-1.895395 -6.458322 2.833932,-1.43534 -4.477338 1.917871,-1.438368 -5.177419 2.675541,-1.515799 -6.10906 2.698874,-1.569033 -6.669922 2.621047,-1.033103 -4.760364 1.973736,-1.011031 -5.257541 2.547225,-1.137792 -6.015975 2.581494,-1.256096 -6.451036 2.584891,-8.051027 -7.520566 -0.8111118,-7.475463 -7.433221 -0.1943025,-7.048043 -6.639081 0.09989554,-6.760364 -5.890813 0.3796715,-6.457129 -5.303331 0.6569729,-7.392278 -5.148823 -0.5408446,-7.27574 -4.257089 -0.2258819,-7.221416 -3.670347 0.03584218,-7.176593 -3.102478 0.2197902,-7.719794 -5.032383 -0.6017781,-7.726755 -4.113163 0.1389831,-7.693041 -4.894725 0.5942547,-7.667056 -5.548864 0.6536639,-8.074801 -5.038375 -0.5809396,-8.119088 -4.101795 0.07838196,-8.039642 -4.868662 0.464407,-7.972099 -5.549701 0.4740939,-8.45048 -5.188859 -0.531657,-8.538944 -4.434152 -0.05452496,-8.439111 -4.752037 0.1998737,-8.340569 -5.228737 0.2195326,2.41667,0 0 1 1 0 1 True
-1.55197 -7.00526 0.6896261,-2.091585 -6.848468 1.296248,-2.548393 -6.052795 1.656071,-2.805064 -5.387744 1.954829,-3.189129 -4.937442 2.354782,-2.270053 -4.692568 1.786461,-2.406868 -4.179565 2.401717,-2.426771 -3.87092 2.769912,-2.398439 -3.684368 3.037586,-1.842918 -4.399735 1.736573,-1.812936 -4.915826 2.514985,-1.832443 -5.854552 2.668052,-1.833736 -6.474676 2.663885,-1.415973 -4.51736 1.732555,-1.397633 -5.21618 2.464039,-1.46872 -6.128437 2.506425,-1.514081 -6.71483 2.432813,-1.030189 -4.804174 1.769331,-0.9885559 -5.18933 2.350892,-1.095354 -5.915784 2.409414,-1.196 -6.4032 2.411134,-8.065945 -7.493129 -0.7480538,-7.498082 -7.393434 -0.1555112,-7.072762 -6.599086 0.1279248,-6.780807 -5.842836 0.406319,-6.475714 -5.266096 0.6831971,-7.398664 -5.103121 -0.5486665,-7.283607 -4.228014 -0.2524856,-7.243343 -3.636156 0.02316505,-7.206584 -3.048298 0.22622,-7.733588 -4.982727 -0.5957389,-7.7559 -4.084584 0.1199862,-7.734585 -4.893514 0.5874088,-7.71402 -5.548984 0.6580938,-8.089923 -4.987195 -0.5616962,-8.152013 -4.06346 0.06274921,-8.07924 -4.850497 0.4325112,-8.014535 -5.530038 0.4344126,-8.462009 -5.140798 -0.4993911,-8.560619 -4.402661 -0.05178475,-8.469505 -4.741733 0.1735218,-8.380142 -5.217772 0.1685503,2.45000,0 0 1 1 0 1 True
-1.55197 -7.00526 0.6896261,-2.091585 -6.848468 1.296248,-2.548393 -6.052795 1.656071,-2.805064 -5.387744 1.954829,-3.189129 -4.937442 2.354782,-2.270053 -4.692568 1.786461,-2.406868 -4.179565 2.401717,-2.426771 -3.87092 2.769912,-2.398439 -3.684368 3.037586,-1.842918 -4.399735 1.736573,-1.812936 -4.915826 2.514985,-1.832443 -5.854552 2.668052,-1.833736 -6.474676 2.663885,-1.415973 -4.51736 1.732555,-1.397633 -5.21618 2.464039,-1.46872 -6.128437 2.506425,-1.514081 -6.71483 2.432813,-1.030189 -4.804174 1.769331,-0.9885559 -5.18933 2.350892,-1.095354 -5.915784 2.409414,-1.196 -6.4032 2.411134,-8.065945 -7.493129 -0.7480538,-7.498082 -7.393434 -0.1555112,-7.072762 -6.599086 0.1279248,-6.780807 -5.842836 0.406319,-6.475714 -5.266096 0.6831971,-7.398664 -5.103121 -0.5486665,-7.283607 -4.228014 -0.2524856,-7.243343 -3.636156 0.02316505,-7.206584 -3.048298 0.22622,-7.733588 -4.982727 -0.5957389,-7.7559 -4.084584 0.1199862,-7.734585 -4.893514 0.5874088,-7.71402 -5.548984 0.6580938,-8.089923 -4.987195 -0.5616962,-8.152013 -4.06346 0.06274921,-8.07924 -4.850497 0.4325112,-8.014535 -5.530038 0.4344126,-8.462009 -5.140798 -0.4993911,-8.560619 -4.402661 -0.05178475,-8.469505 -4.741733 0.1735218,-8.380142 -5.217772 0.1685503,2.48333,0 0 1 1 0 1 True
-1.504886 -7.028577 0.5927298,-2.062305 -6.876596 1.126574,-2.514731 -6.044143 1.44811,-2.771416 -5.369421 1.717602,-3.153538 -4.927774 2.085635,-2.25563 -4.700992 1.572709,-2.383573 -4.194234 2.123672,-2.39526 -3.867907 2.436245,-2.35338 -3.663334 2.667048,-1.830626 -4.422916 1.551165,-1.807722 -4.944269 2.274234,-1.818833 -5.839946 2.434814,-1.810279 -6.450333 2.443312,-1.410815 -4.538394 1.565295,-1.400057 -5.268607 2.240602,-1.447392 -6.152291 2.319229,-1.479479 -6.7432 2.282608,-1.027845 -4.815981 1.618238,-0.9951773 -5.278041 2.148482,-1.086602 -5.995071 2.218131,-1.179277 -6.4794 2.231164,-8.074797 -7.492902 -0.7995679,-7.505369 -7.399374 -0.1898338,-7.07702 -6.603826 0.1010265,-6.788389 -5.83837 0.3843209,-6.490694 -5.23421 0.6646173,-7.413517 -5.118301 -0.582836,-7.304341 -4.228233 -0.2781627,-7.260243 -3.635498 -0.0103156,-7.219244 -3.039971 0.1825888,-7.743587 -4.998195 -0.6322933,-7.752459 -4.082409 0.1026021,-7.72282 -4.873559 0.5885645,-7.703701 -5.518743 0.6740482,-8.09717 -4.998978 -0.6031221,-8.147585 -4.066527 0.05322242,-8.074432 -4.850173 0.4426482,-8.012815 -5.535872 0.4501243,-8.472551 -5.142243 -0.5454711,-8.568268 -4.387558 -0.07146972,-8.473916 -4.717237 0.1652182,-8.38448 -5.194993 0.1643787,2.51667,0 0 1 1 0 1 True
-1.504886 -7.028577 0.5927298,-2.062305 -6.876596 1.126574,-2.514731 -6.044143 1.44811,-2.771416 -5.369421 1.717602,-3.153538 -4.927774 2.085635,-2.25563 -4.700992 1.572709,-2.383573 -4.194234 2.123672,-2.39526 -3.867907 2.436245,-2.35338 -3.663334 2.667048,-1.830626 -4.422916 1.551165,-1.807722 -4.944269 2.274234,-1.818833 -5.839946 2.434814,-1.810279 -6.450333 2.443312,-1.410815 -4.538394 1.565295,-1.400057 -5.268607 2.240602,-1.447392 -6.152291 2.319229,-1.479479 -6.7432 2.282608,-1.027845 -4.815981 1.618238,-0.9951773 -5.278041 2.148482,-1.086602 -5.995071 2.218131,-1.179277 -6.4794 2.231164,-8.074797 -7.492902 -0.7995679,-7.505369 -7.399374 -0.1898338,-7.07702 -6.603826 0.1010265,-6.788389 -5.83837 0.3843209,-6.490694 -5.23421 0.6646173,-7.413517 -5.118301 -0.582836,-7.304341 -4.228233 -0.2781627,-7.260243 -3.635498 -0.0103156,-7.219244 -3.039971 0.1825888,-7.743587 -4.998195 -0.6322933,-7.752459 -4.082409 0.1026021,-7.72282 -4.873559 0.5885645,-7.703701 -5.518743 0.6740482,-8.09717 -4.998978 -0.6031221,-8.147585 -4.066527 0.05322242,-8.074432 -4.850173 0.4426482,-8.012815 -5.535872 0.4501243,-8.472551 -5.142243 -0.5454711,-8.568268 -4.387558 -0.07146972,-8.473916 -4.717237 0.1652182,-8.38448 -5.194993 0.1643787,2.55000,0 0 1 1 0 1 True
-1.493254 -6.98477 0.5431542,-2.029109 -6.870521 1.178753,-2.470136 -6.089475 1.556503,-2.706133 -5.419186 1.859665,-3.085239 -4.971122 2.255154,-2.202301 -4.722368 1.710408,-2.320041 -4.253652 2.323607,-2.327688 -3.950395 2.671118,-2.285624 -3.726854 2.91683,-1.787036 -4.453189 1.656899,-1.731772 -4.946867 2.421008,-1.744376 -5.857111 2.59519,-1.737511 -6.451024 2.609392,-1.370619 -4.576612 1.641291,-1.321647 -5.284171 2.384236,-1.376047 -6.177668 2.47512,-1.411434 -6.75958 2.423945,-0.9931817 -4.870769 1.66957,-0.9278083 -5.265144 2.266839,-1.022114 -5.962228 2.362985,-1.115192 -6.448772 2.377731,-8.055702 -7.475886 -0.886215,-7.485329 -7.36796 -0.2810169,-7.065955 -6.596651 0.01394129,-6.77704 -5.849481 0.3060063,-6.470337 -5.258007 0.6025207,-7.39003 -5.125408 -0.6838536,-7.287354 -4.23052 -0.3710126,-7.25105 -3.644157 -0.09223884,-7.215176 -3.06215 0.1074437,-7.723629 -5.005991 -0.724064,-7.743439 -4.073129 0.01630723,-7.716064 -4.849741 0.5084789,-7.697735 -5.496195 0.5979131,-8.079881 -5.006548 -0.6840655,-8.136844 -4.073701 -0.01327693,-8.065681 -4.856228 0.3909706,-8.00901 -5.555177 0.4065003,-8.456268 -5.148241 -0.6161953,-8.552841 -4.389163 -0.1322121,-8.457773 -4.720626 0.1104665,-8.373241 -5.210233 0.1105171,2.58333,0 0 1 1 0 1 True
