TiagoOliveira98/Thesis-Project/Difficulty_1_NEW/Dual_Task/Unity_Project/DataLogging/JointData/Logs(1651331087)_d_Dual_Difficulty0.csv
WRIST,THUMB_CMC,THUMB_MCP,THUMB_IP,THUMB_TIP,INDEX_FINGER_MCP,INDEX_FINGER_PIP,INDEX_FINGER_DIP,INDEX_FINGER_TIP,MIDDLE_FINGER_MCP,MIDDLE_FINGER_PIP,MIDDLE_FINGER_DIP,MIDDLE_FINGER_TIP,RING_FINGER_MCP,RING_FINGER_PIP,RING_FINGER_DIP,RING_FINGER_TIP,PINKY_MCP,PINKY_PIP,PINKY_DIP,PINKY_TIP,WRIST2,THUMB_CMC2,THUMB_MCP2,THUMB_IP2,THUMB_TIP2,INDEX_FINGER_MCP2,INDEX_FINGER_PIP2,INDEX_FINGER_DIP2,INDEX_FINGER_TIP2,MIDDLE_FINGER_MCP2,MIDDLE_FINGER_PIP2,MIDDLE_FINGER_DIP2,MIDDLE_FINGER_TIP2,RING_FINGER_MCP2,RING_FINGER_PIP2,RING_FINGER_DIP2,RING_FINGER_TIP2,PINKY_MCP2,PINKY_PIP2,PINKY_DIP2,PINKY_TIP2,Timestamp,Event
-1.894922 -7.087692 0.000239872,-2.45346 -6.985261 0.2837764,-2.989573 -6.46615 0.4349406,-3.392334 -5.978017 0.5705572,-3.743656 -5.763621 0.7361775,-2.681872 -4.973556 0.2433044,-2.89899 -4.074052 0.4245135,-3.014845 -3.50394 0.5686362,-3.102793 -2.972322 0.6850256,-2.357171 -4.70615 0.2491831,-2.50722 -3.6521 0.4415663,-2.59622 -2.941918 0.6190626,-2.663944 -2.335266 0.7638289,-2.02844 -4.665876 0.3032994,-2.11105 -3.66967 0.4949368,-2.186979 -3.02411 0.6562659,-2.255157 -2.4804 0.7816457,-1.680992 -4.818496 0.3831941,-1.6306 -4.019163 0.5593082,-1.610527 -3.501886 0.7111076,-1.606665 -2.996477 0.8419122,-7.63805 -7.253662 0.0002984443,-7.060821 -7.094776 0.2488348,-6.530069 -6.526668 0.4010039,-6.140182 -5.922276 0.5797735,-5.804003 -5.590375 0.779087,-6.755219 -4.953733 0.1212347,-6.54378 -3.993436 0.2436282,-6.45299 -3.361726 0.384536,-6.382097 -2.808596 0.5002561,-7.0534 -4.693861 0.1526023,-6.848695 -3.581264 0.2231126,-6.738944 -2.864543 0.4044428,-6.645336 -2.22537 0.5705777,-7.369802 -4.677173 0.2155326,-7.21539 -3.609613 0.3082774,-7.104699 -2.968964 0.4702683,-6.998225 -2.401977 0.6129378,-7.713519 -4.859218 0.3111235,-7.71451 -4.064443 0.4420576,-7.692209 -3.549892 0.5801046,-7.644319 -3.022002 0.6935672,0.01667,0 0 0 0 0 0 True
-1.893414 -7.089273 0.008956745,-2.453978 -6.989797 0.2832473,-2.993511 -6.475795 0.4303285,-3.398875 -5.985927 0.5610626,-3.748432 -5.767446 0.7279346,-2.696008 -4.975951 0.2286286,-2.918708 -4.07761 0.3943442,-3.034628 -3.506604 0.5310338,-3.120287 -2.977668 0.6468097,-2.371283 -4.70605 0.2356746,-2.524527 -3.656305 0.4097548,-2.612074 -2.946575 0.5814848,-2.675605 -2.345601 0.7248256,-2.041524 -4.669029 0.2917963,-2.12845 -3.675084 0.4673807,-2.205065 -3.025796 0.6286855,-2.271773 -2.484928 0.7550114,-1.690774 -4.829472 0.3716078,-1.641415 -4.030305 0.5360377,-1.620762 -3.516347 0.6840427,-1.615321 -3.021029 0.8122974,-7.635034 -7.249051 0.03979912,-7.057034 -7.081014 0.290016,-6.527991 -6.51055 0.443215,-6.136808 -5.912639 0.6221613,-5.801906 -5.570938 0.8194321,-6.755017 -4.933274 0.1447032,-6.544384 -3.977828 0.2611796,-6.456859 -3.347177 0.4029127,-6.389249 -2.789682 0.517211,-7.052167 -4.676041 0.1695721,-6.846929 -3.575769 0.2333538,-6.735415 -2.869643 0.4143862,-6.639673 -2.240865 0.5831527,-7.367196 -4.658693 0.2278785,-7.215496 -3.601096 0.3099912,-7.108301 -2.967609 0.47197,-7.004443 -2.411247 0.6153297,-7.707148 -4.83811 0.3183864,-7.712124 -4.054908 0.4366318,-7.690404 -3.5466 0.5705885,-7.641351 -3.030035 0.6825015,0.05000,0 0 0 0 0 0 True
-1.893414 -7.089273 0.008956745,-2.453978 -6.989797 0.2832473,-2.993511 -6.475795 0.4303285,-3.398875 -5.985927 0.5610626,-3.748432 -5.767446 0.7279346,-2.696008 -4.975951 0.2286286,-2.918708 -4.07761 0.3943442,-3.034628 -3.506604 0.5310338,-3.120287 -2.977668 0.6468097,-2.371283 -4.70605 0.2356746,-2.524527 -3.656305 0.4097548,-2.612074 -2.946575 0.5814848,-2.675605 -2.345601 0.7248256,-2.041524 -4.669029 0.2917963,-2.12845 -3.675084 0.4673807,-2.205065 -3.025796 0.6286855,-2.271773 -2.484928 0.7550114,-1.690774 -4.829472 0.3716078,-1.641415 -4.030305 0.5360377,-1.620762 -3.516347 0.6840427,-1.615321 -3.021029 0.8122974,-7.635034 -7.249051 0.03979912,-7.057034 -7.081014 0.290016,-6.527991 -6.51055 0.443215,-6.136808 -5.912639 0.6221613,-5.801906 -5.570938 0.8194321,-6.755017 -4.933274 0.1447032,-6.544384 -3.977828 0.2611796,-6.456859 -3.347177 0.4029127,-6.389249 -2.789682 0.517211,-7.052167 -4.676041 0.1695721,-6.846929 -3.575769 0.2333538,-6.735415 -2.869643 0.4143862,-6.639673 -2.240865 0.5831527,-7.367196 -4.658693 0.2278785,-7.215496 -3.601096 0.3099912,-7.108301 -2.967609 0.47197,-7.004443 -2.411247 0.6153297,-7.707148 -4.83811 0.3183864,-7.712124 -4.054908 0.4366318,-7.690404 -3.5466 0.5705885,-7.641351 -3.030035 0.6825015,0.08333,0 0 0 0 0 0 True
-1.899174 -7.089427 -0.004040404,-2.463193 -6.985909 0.2744027,-3.000694 -6.466426 0.4171198,-3.403461 -5.975353 0.5407005,-3.755678 -5.774616 0.6891707,-2.69595 -4.985652 0.2440158,-2.906846 -4.093271 0.4234286,-3.020494 -3.531909 0.5734536,-3.111418 -3.000304 0.698123,-2.368399 -4.710809 0.2476692,-2.516824 -3.664763 0.4390282,-2.605229 -2.963479 0.6199471,-2.674107 -2.349926 0.769945,-2.038539 -4.664424 0.2955963,-2.123949 -3.674789 0.481787,-2.201198 -3.042778 0.6380824,-2.26829 -2.506169 0.7606287,-1.689707 -4.809591 0.371947,-1.643959 -4.013528 0.5390989,-1.625438 -3.498333 0.6842194,-1.620486 -2.992088 0.814622,-7.638922 -7.250113 0.03869939,-7.063675 -7.085233 0.2927078,-6.530933 -6.509779 0.4385282,-6.138973 -5.910196 0.6079845,-5.809374 -5.573932 0.7955361,-6.759966 -4.932695 0.1388801,-6.553023 -3.968666 0.2507013,-6.465446 -3.337027 0.3905601,-6.396444 -2.781663 0.507733,-7.058179 -4.676382 0.1569668,-6.853271 -3.576274 0.2183542,-6.739979 -2.86612 0.4027462,-6.641525 -2.234418 0.577118,-7.372948 -4.658123 0.2087156,-7.218194 -3.604105 0.2878421,-7.108521 -2.969073 0.4505269,-7.00319 -2.413705 0.5959599,-7.712441 -4.836107 0.2934627,-7.716958 -4.059198 0.4070285,-7.695682 -3.555906 0.5365238,-7.648808 -3.04383 0.6475886,0.11667,0 0 0 0 0 0 True
-1.899174 -7.089427 -0.004040404,-2.463193 -6.985909 0.2744027,-3.000694 -6.466426 0.4171198,-3.403461 -5.975353 0.5407005,-3.755678 -5.774616 0.6891707,-2.69595 -4.985652 0.2440158,-2.906846 -4.093271 0.4234286,-3.020494 -3.531909 0.5734536,-3.111418 -3.000304 0.698123,-2.368399 -4.710809 0.2476692,-2.516824 -3.664763 0.4390282,-2.605229 -2.963479 0.6199471,-2.674107 -2.349926 0.769945,-2.038539 -4.664424 0.2955963,-2.123949 -3.674789 0.481787,-2.201198 -3.042778 0.6380824,-2.26829 -2.506169 0.7606287,-1.689707 -4.809591 0.371947,-1.643959 -4.013528 0.5390989,-1.625438 -3.498333 0.6842194,-1.620486 -2.992088 0.814622,-7.638922 -7.250113 0.03869939,-7.063675 -7.085233 0.2927078,-6.530933 -6.509779 0.4385282,-6.138973 -5.910196 0.6079845,-5.809374 -5.573932 0.7955361,-6.759966 -4.932695 0.1388801,-6.553023 -3.968666 0.2507013,-6.465446 -3.337027 0.3905601,-6.396444 -2.781663 0.507733,-7.058179 -4.676382 0.1569668,-6.853271 -3.576274 0.2183542,-6.739979 -2.86612 0.4027462,-6.641525 -2.234418 0.577118,-7.372948 -4.658123 0.2087156,-7.218194 -3.604105 0.2878421,-7.108521 -2.969073 0.4505269,-7.00319 -2.413705 0.5959599,-7.712441 -4.836107 0.2934627,-7.716958 -4.059198 0.4070285,-7.695682 -3.555906 0.5365238,-7.648808 -3.04383 0.6475886,0.15000,0 0 0 0 0 0 True
-1.910802 -7.092983 0.006977756,-2.469051 -6.978382 0.2771543,-2.999344 -6.461507 0.4231884,-3.402235 -5.973222 0.5535769,-3.756025 -5.769163 0.7122435,-2.694119 -4.976343 0.2389551,-2.907984 -4.080596 0.4174089,-3.024293 -3.519375 0.5644195,-3.117054 -2.991613 0.6844273,-2.370285 -4.708768 0.2544827,-2.517049 -3.65462 0.4487961,-2.604646 -2.94702 0.6293429,-2.674449 -2.333259 0.777028,-2.043026 -4.669036 0.3150959,-2.129145 -3.670105 0.5044178,-2.208503 -3.0279 0.6614327,-2.280105 -2.486722 0.7835466,-1.696418 -4.821877 0.4019285,-1.645878 -4.022077 0.5719685,-1.624318 -3.501226 0.717419,-1.61812 -2.992818 0.8470358,-7.630185 -7.269052 0.0323275,-7.053541 -7.108596 0.272327,-6.528271 -6.525081 0.4128526,-6.145268 -5.914505 0.5837594,-5.814489 -5.569469 0.7747526,-6.766785 -4.947406 0.1126913,-6.557297 -3.975867 0.2185835,-6.468811 -3.347641 0.3503843,-6.400088 -2.791533 0.4622635,-7.067 -4.692861 0.1411182,-6.862518 -3.581346 0.1963483,-6.744341 -2.871602 0.3728321,-6.643807 -2.241846 0.5382098,-7.383993 -4.675584 0.2035429,-7.229532 -3.611187 0.2848627,-7.116766 -2.97023 0.4519009,-7.008915 -2.410043 0.5986645,-7.72583 -4.856367 0.2973301,-7.737598 -4.069913 0.4170944,-7.718003 -3.559918 0.5547549,-7.671124 -3.042329 0.6665196,0.18333,0 0 0 0 0 0 True
-1.91201 -7.08502 -0.04884568,-2.476152 -6.984379 0.211871,-3.00942 -6.464651 0.3437459,-3.414973 -5.969348 0.4646789,-3.766466 -5.747041 0.6214749,-2.693775 -4.976381 0.1206502,-2.91673 -4.075138 0.2740287,-3.035341 -3.507183 0.4086455,-3.123178 -2.977163 0.5252758,-2.370991 -4.711298 0.1356453,-2.52383 -3.652809 0.2990792,-2.613828 -2.943712 0.4726972,-2.680414 -2.334394 0.6163201,-2.044725 -4.67177 0.1994936,-2.136908 -3.664651 0.3693415,-2.222322 -3.014829 0.5252206,-2.296461 -2.467845 0.6491094,-1.696139 -4.827192 0.2882439,-1.644894 -4.02156 0.4509127,-1.625064 -3.501935 0.5962623,-1.619249 -2.998851 0.7229149,-7.648508 -7.277267 0.08430129,-7.066298 -7.118704 0.3249152,-6.536706 -6.533311 0.4623975,-6.153718 -5.927157 0.6319092,-5.821639 -5.602109 0.8243626,-6.773664 -4.941965 0.1544555,-6.563495 -3.988568 0.255314,-6.470194 -3.366678 0.3855152,-6.397223 -2.82462 0.4972158,-7.078967 -4.686685 0.1785,-6.872303 -3.582244 0.2282189,-6.759186 -2.864804 0.4065102,-6.667588 -2.227891 0.571391,-7.398184 -4.670559 0.2329616,-7.24015 -3.611201 0.3001801,-7.129838 -2.972433 0.4538863,-7.029394 -2.413943 0.5901213,-7.741551 -4.852911 0.3218857,-7.740002 -4.060792 0.4256629,-7.715768 -3.547298 0.5544736,-7.669792 -3.020616 0.6595716,0.21667,0 0 0 0 0 0 True
-1.91201 -7.08502 -0.04884568,-2.476152 -6.984379 0.211871,-3.00942 -6.464651 0.3437459,-3.414973 -5.969348 0.4646789,-3.766466 -5.747041 0.6214749,-2.693775 -4.976381 0.1206502,-2.91673 -4.075138 0.2740287,-3.035341 -3.507183 0.4086455,-3.123178 -2.977163 0.5252758,-2.370991 -4.711298 0.1356453,-2.52383 -3.652809 0.2990792,-2.613828 -2.943712 0.4726972,-2.680414 -2.334394 0.6163201,-2.044725 -4.67177 0.1994936,-2.136908 -3.664651 0.3693415,-2.222322 -3.014829 0.5252206,-2.296461 -2.467845 0.6491094,-1.696139 -4.827192 0.2882439,-1.644894 -4.02156 0.4509127,-1.625064 -3.501935 0.5962623,-1.619249 -2.998851 0.7229149,-7.648508 -7.277267 0.08430129,-7.066298 -7.118704 0.3249152,-6.536706 -6.533311 0.4623975,-6.153718 -5.927157 0.6319092,-5.821639 -5.602109 0.8243626,-6.773664 -4.941965 0.1544555,-6.563495 -3.988568 0.255314,-6.470194 -3.366678 0.3855152,-6.397223 -2.82462 0.4972158,-7.078967 -4.686685 0.1785,-6.872303 -3.582244 0.2282189,-6.759186 -2.864804 0.4065102,-6.667588 -2.227891 0.571391,-7.398184 -4.670559 0.2329616,-7.24015 -3.611201 0.3001801,-7.129838 -2.972433 0.4538863,-7.029394 -2.413943 0.5901213,-7.741551 -4.852911 0.3218857,-7.740002 -4.060792 0.4256629,-7.715768 -3.547298 0.5544736,-7.669792 -3.020616 0.6595716,0.25000,0 0 0 0 0 0 True
-1.907215 -7.106247 -0.02839033,-2.467501 -6.9902 0.2250063,-2.998672 -6.473138 0.3531353,-3.40303 -5.991804 0.4698282,-3.754165 -5.78826 0.6229805,-2.696148 -4.994808 0.1475863,-2.919312 -4.089759 0.3088219,-3.039137 -3.518306 0.4499351,-3.127838 -2.986121 0.5730932,-2.374588 -4.72904 0.1667388,-2.529515 -3.66909 0.3377239,-2.619386 -2.957589 0.5178326,-2.685328 -2.344197 0.6649348,-2.047255 -4.687089 0.2340779,-2.140082 -3.683004 0.4084007,-2.222613 -3.035787 0.5665568,-2.294092 -2.491908 0.6926383,-1.697747 -4.837835 0.3267615,-1.648267 -4.037088 0.4942638,-1.624961 -3.520607 0.6390886,-1.616354 -3.016397 0.7681251,-7.656147 -7.311146 0.1407339,-7.074894 -7.144592 0.3804111,-6.542274 -6.559509 0.524254,-6.150868 -5.956604 0.7050539,-5.814624 -5.621824 0.9087802,-6.781253 -4.961951 0.2041437,-6.567481 -4.010694 0.3022732,-6.46836 -3.391477 0.4349745,-6.391434 -2.854389 0.5501696,-7.086653 -4.703873 0.2306067,-6.876466 -3.602058 0.2775552,-6.760729 -2.887924 0.4581757,-6.668215 -2.253863 0.6240736,-7.408385 -4.690074 0.2884127,-7.246581 -3.62912 0.3510042,-7.131306 -2.987514 0.5055852,-7.026144 -2.427061 0.6438549,-7.754025 -4.877032 0.3814999,-7.75421 -4.07912 0.487489,-7.725866 -3.562594 0.6202979,-7.673038 -3.037477 0.7295623,0.28333,0 0 0 0 0 0 True
-1.907215 -7.106247 -0.02839033,-2.467501 -6.9902 0.2250063,-2.998672 -6.473138 0.3531353,-3.40303 -5.991804 0.4698282,-3.754165 -5.78826 0.6229805,-2.696148 -4.994808 0.1475863,-2.919312 -4.089759 0.3088219,-3.039137 -3.518306 0.4499351,-3.127838 -2.986121 0.5730932,-2.374588 -4.72904 0.1667388,-2.529515 -3.66909 0.3377239,-2.619386 -2.957589 0.5178326,-2.685328 -2.344197 0.6649348,-2.047255 -4.687089 0.2340779,-2.140082 -3.683004 0.4084007,-2.222613 -3.035787 0.5665568,-2.294092 -2.491908 0.6926383,-1.697747 -4.837835 0.3267615,-1.648267 -4.037088 0.4942638,-1.624961 -3.520607 0.6390886,-1.616354 -3.016397 0.7681251,-7.656147 -7.311146 0.1407339,-7.074894 -7.144592 0.3804111,-6.542274 -6.559509 0.524254,-6.150868 -5.956604 0.7050539,-5.814624 -5.621824 0.9087802,-6.781253 -4.961951 0.2041437,-6.567481 -4.010694 0.3022732,-6.46836 -3.391477 0.4349745,-6.391434 -2.854389 0.5501696,-7.086653 -4.703873 0.2306067,-6.876466 -3.602058 0.2775552,-6.760729 -2.887924 0.4581757,-6.668215 -2.253863 0.6240736,-7.408385 -4.690074 0.2884127,-7.246581 -3.62912 0.3510042,-7.131306 -2.987514 0.5055852,-7.026144 -2.427061 0.6438549,-7.754025 -4.877032 0.3814999,-7.75421 -4.07912 0.487489,-7.725866 -3.562594 0.6202979,-7.673038 -3.037477 0.7295623,0.31667,0 0 0 0 0 0 True
-1.917503 -7.113041 -0.01825768,-2.477633 -7.00785 0.2408276,-3.010429 -6.484138 0.3691697,-3.411845 -5.990955 0.4858307,-3.762275 -5.777551 0.6329376,-2.703439 -4.998957 0.1639706,-2.921616 -4.09921 0.3247297,-3.039187 -3.532653 0.4621256,-3.129489 -3.000904 0.5801951,-2.37934 -4.73221 0.1816094,-2.528513 -3.6741 0.3553189,-2.617428 -2.960602 0.5371937,-2.685377 -2.347064 0.6893803,-2.050747 -4.691759 0.2477212,-2.140635 -3.687563 0.4259016,-2.222294 -3.038014 0.5843308,-2.293913 -2.492856 0.7115102,-1.701307 -4.847379 0.339205,-1.65013 -4.044099 0.5062875,-1.62694 -3.523064 0.6521902,-1.619015 -3.015971 0.7828775,-7.658952 -7.325696 0.1494177,-7.0708 -7.162271 0.3900917,-6.543552 -6.578799 0.5342191,-6.161839 -5.967048 0.7099782,-5.829397 -5.626831 0.9063393,-6.778248 -4.978501 0.2414,-6.568049 -4.022786 0.3479831,-6.472904 -3.398845 0.4834461,-6.398039 -2.85746 0.6027715,-7.084505 -4.717899 0.2635023,-6.874415 -3.60985 0.3204153,-6.762934 -2.894395 0.5022286,-6.672778 -2.258413 0.6706665,-7.408046 -4.702865 0.3147524,-7.243231 -3.633826 0.381839,-7.13104 -2.988432 0.5374428,-7.030191 -2.421871 0.6763116,-7.759781 -4.889427 0.3992465,-7.746764 -4.097359 0.5087624,-7.71629 -3.583804 0.641425,-7.662769 -3.057596 0.7509311,0.35000,0 0 0 0 0 0 True
-1.917503 -7.113041 -0.01825768,-2.477633 -7.00785 0.2408276,-3.010429 -6.484138 0.3691697,-3.411845 -5.990955 0.4858307,-3.762275 -5.777551 0.6329376,-2.703439 -4.998957 0.1639706,-2.921616 -4.09921 0.3247297,-3.039187 -3.532653 0.4621256,-3.129489 -3.000904 0.5801951,-2.37934 -4.73221 0.1816094,-2.528513 -3.6741 0.3553189,-2.617428 -2.960602 0.5371937,-2.685377 -2.347064 0.6893803,-2.050747 -4.691759 0.2477212,-2.140635 -3.687563 0.4259016,-2.222294 -3.038014 0.5843308,-2.293913 -2.492856 0.7115102,-1.701307 -4.847379 0.339205,-1.65013 -4.044099 0.5062875,-1.62694 -3.523064 0.6521902,-1.619015 -3.015971 0.7828775,-7.658952 -7.325696 0.1494177,-7.0708 -7.162271 0.3900917,-6.543552 -6.578799 0.5342191,-6.161839 -5.967048 0.7099782,-5.829397 -5.626831 0.9063393,-6.778248 -4.978501 0.2414,-6.568049 -4.022786 0.3479831,-6.472904 -3.398845 0.4834461,-6.398039 -2.85746 0.6027715,-7.084505 -4.717899 0.2635023,-6.874415 -3.60985 0.3204153,-6.762934 -2.894395 0.5022286,-6.672778 -2.258413 0.6706665,-7.408046 -4.702865 0.3147524,-7.243231 -3.633826 0.381839,-7.13104 -2.988432 0.5374428,-7.030191 -2.421871 0.6763116,-7.759781 -4.889427 0.3992465,-7.746764 -4.097359 0.5087624,-7.71629 -3.583804 0.641425,-7.662769 -3.057596 0.7509311,0.38333,0 0 0 0 0 0 True
-1.916094 -7.108948 -0.04028885,-2.476444 -7.006736 0.2118789,-3.007837 -6.48653 0.3353619,-3.406284 -5.999286 0.4484689,-3.753833 -5.790441 0.5925486,-2.701989 -5.002311 0.1303393,-2.918901 -4.100553 0.2884634,-3.03758 -3.535316 0.4284586,-3.129883 -3.00404 0.546968,-2.378178 -4.73394 0.1518307,-2.525522 -3.67428 0.3252988,-2.614826 -2.965378 0.507896,-2.68468 -2.350837 0.6565347,-2.050762 -4.689641 0.2215295,-2.139341 -3.682299 0.4007863,-2.220573 -3.033941 0.5588195,-2.292862 -2.487471 0.6847965,-1.701545 -4.838052 0.3162967,-1.650846 -4.031843 0.4839563,-1.628608 -3.51131 0.6306547,-1.62126 -3.003916 0.7594596,-7.655114 -7.320147 0.1559653,-7.066822 -7.160772 0.3877107,-6.542003 -6.580957 0.5298873,-6.161362 -5.968385 0.7026812,-5.836193 -5.617809 0.8945479,-6.775778 -4.968133 0.2337763,-6.564727 -4.005792 0.3345875,-6.470188 -3.382789 0.4649777,-6.39557 -2.846546 0.5770973,-7.080998 -4.709842 0.2575141,-6.875182 -3.59155 0.3098014,-6.766796 -2.877571 0.4833069,-6.676915 -2.247633 0.6434251,-7.403819 -4.696823 0.3108511,-7.24464 -3.621058 0.3747497,-7.137285 -2.975524 0.527961,-7.03691 -2.409987 0.6662974,-7.753652 -4.885036 0.396923,-7.744444 -4.092754 0.5014747,-7.718213 -3.580522 0.6343894,-7.665558 -3.057251 0.7435445,0.41667,0 0 0 0 0 0 True
-1.916094 -7.108948 -0.04028885,-2.476444 -7.006736 0.2118789,-3.007837 -6.48653 0.3353619,-3.406284 -5.999286 0.4484689,-3.753833 -5.790441 0.5925486,-2.701989 -5.002311 0.1303393,-2.918901 -4.100553 0.2884634,-3.03758 -3.535316 0.4284586,-3.129883 -3.00404 0.546968,-2.378178 -4.73394 0.1518307,-2.525522 -3.67428 0.3252988,-2.614826 -2.965378 0.507896,-2.68468 -2.350837 0.6565347,-2.050762 -4.689641 0.2215295,-2.139341 -3.682299 0.4007863,-2.220573 -3.033941 0.5588195,-2.292862 -2.487471 0.6847965,-1.701545 -4.838052 0.3162967,-1.650846 -4.031843 0.4839563,-1.628608 -3.51131 0.6306547,-1.62126 -3.003916 0.7594596,-7.655114 -7.320147 0.1559653,-7.066822 -7.160772 0.3877107,-6.542003 -6.580957 0.5298873,-6.161362 -5.968385 0.7026812,-5.836193 -5.617809 0.8945479,-6.775778 -4.968133 0.2337763,-6.564727 -4.005792 0.3345875,-6.470188 -3.382789 0.4649777,-6.39557 -2.846546 0.5770973,-7.080998 -4.709842 0.2575141,-6.875182 -3.59155 0.3098014,-6.766796 -2.877571 0.4833069,-6.676915 -2.247633 0.6434251,-7.403819 -4.696823 0.3108511,-7.24464 -3.621058 0.3747497,-7.137285 -2.975524 0.527961,-7.03691 -2.409987 0.6662974,-7.753652 -4.885036 0.396923,-7.744444 -4.092754 0.5014747,-7.718213 -3.580522 0.6343894,-7.665558 -3.057251 0.7435445,0.45000,0 0 0 0 0 0 True
-1.90154 -7.10564 -0.02661463,-2.458308 -7.008861 0.2411476,-2.990057 -6.48834 0.3783216,-3.390739 -6.00041 0.5032128,-3.744352 -5.789782 0.6646103,-2.69389 -5.00277 0.1737715,-2.910278 -4.105117 0.3449603,-3.027077 -3.539636 0.4994524,-3.116339 -3.002469 0.6286513,-2.370412 -4.730361 0.1932649,-2.518553 -3.674169 0.3801594,-2.60601 -2.967489 0.5702642,-2.67378 -2.345281 0.7228813,-2.042543 -4.686073 0.2595212,-2.13407 -3.679707 0.445207,-2.215872 -3.036605 0.6099944,-2.288323 -2.489487 0.7422027,-1.691382 -4.834973 0.3527744,-1.643827 -4.031366 0.5264792,-1.624454 -3.510323 0.6769736,-1.620097 -3.001519 0.8108779,-7.672262 -7.305711 0.1523744,-7.080872 -7.146463 0.3973805,-6.548347 -6.552167 0.5433347,-6.159834 -5.93663 0.7175871,-5.834411 -5.589394 0.9103543,-6.777925 -4.961388 0.2315004,-6.56226 -4.001319 0.3296113,-6.470767 -3.369526 0.4582475,-6.402003 -2.822446 0.5664641,-7.084042 -4.699282 0.2455626,-6.873563 -3.58938 0.291955,-6.767024 -2.874464 0.4592857,-6.67867 -2.23925 0.6141908,-7.404998 -4.675319 0.2880431,-7.247863 -3.6063 0.3458936,-7.139419 -2.97297 0.4933072,-7.037742 -2.418167 0.6262134,-7.749477 -4.846328 0.3665386,-7.747276 -4.059985 0.4649892,-7.723933 -3.551183 0.5891219,-7.67423 -3.025744 0.6943156,0.48333,0 0 0 0 0 0 True
-1.901206 -7.116823 0.01606343,-2.456451 -7.014071 0.2826367,-2.989361 -6.472263 0.413318,-3.396702 -5.97403 0.5297177,-3.751728 -5.772192 0.6762363,-2.688411 -5.000396 0.2256849,-2.904432 -4.100133 0.4004645,-3.022215 -3.532701 0.5440235,-3.115355 -2.999071 0.665497,-2.367364 -4.728982 0.2406418,-2.514478 -3.673704 0.4326144,-2.603715 -2.960659 0.6166784,-2.674706 -2.341171 0.7663843,-2.042058 -4.685307 0.3026809,-2.138202 -3.684702 0.4942143,-2.225004 -3.037063 0.6515779,-2.302402 -2.489281 0.7743981,-1.694287 -4.837808 0.3903796,-1.645451 -4.033077 0.565766,-1.624599 -3.510829 0.7117037,-1.618248 -3.000459 0.8408701,-7.664715 -7.2921 0.1720314,-7.070449 -7.128162 0.4160365,-6.53927 -6.546052 0.5647312,-6.155914 -5.93258 0.7392546,-5.827995 -5.584943 0.934619,-6.77114 -4.942621 0.2774913,-6.55673 -3.978549 0.3802236,-6.464029 -3.349312 0.5089811,-6.39189 -2.804693 0.6177976,-7.081899 -4.679632 0.2882624,-6.867043 -3.567505 0.3423449,-6.759615 -2.851104 0.5159026,-6.66975 -2.21323 0.6806659,-7.40808 -4.663167 0.3226623,-7.243081 -3.592599 0.3893195,-7.136434 -2.952154 0.5409833,-7.033325 -2.395176 0.6795403,-7.757472 -4.843473 0.3904558,-7.748736 -4.049778 0.4927157,-7.722156 -3.538778 0.625995,-7.665789 -3.013433 0.7396802,0.51667,0 0 0 0 0 0 True
-1.901206 -7.116823 0.01606343,-2.456451 -7.014071 0.2826367,-2.989361 -6.472263 0.413318,-3.396702 -5.97403 0.5297177,-3.751728 -5.772192 0.6762363,-2.688411 -5.000396 0.2256849,-2.904432 -4.100133 0.4004645,-3.022215 -3.532701 0.5440235,-3.115355 -2.999071 0.665497,-2.367364 -4.728982 0.2406418,-2.514478 -3.673704 0.4326144,-2.603715 -2.960659 0.6166784,-2.674706 -2.341171 0.7663843,-2.042058 -4.685307 0.3026809,-2.138202 -3.684702 0.4942143,-2.225004 -3.037063 0.6515779,-2.302402 -2.489281 0.7743981,-1.694287 -4.837808 0.3903796,-1.645451 -4.033077 0.565766,-1.624599 -3.510829 0.7117037,-1.618248 -3.000459 0.8408701,-7.664715 -7.2921 0.1720314,-7.070449 -7.128162 0.4160365,-6.53927 -6.546052 0.5647312,-6.155914 -5.93258 0.7392546,-5.827995 -5.584943 0.934619,-6.77114 -4.942621 0.2774913,-6.55673 -3.978549 0.3802236,-6.464029 -3.349312 0.5089811,-6.39189 -2.804693 0.6177976,-7.081899 -4.679632 0.2882624,-6.867043 -3.567505 0.3423449,-6.759615 -2.851104 0.5159026,-6.66975 -2.21323 0.6806659,-7.40808 -4.663167 0.3226623,-7.243081 -3.592599 0.3893195,-7.136434 -2.952154 0.5409833,-7.033325 -2.395176 0.6795403,-7.757472 -4.843473 0.3904558,-7.748736 -4.049778 0.4927157,-7.722156 -3.538778 0.625995,-7.665789 -3.013433 0.7396802,0.55000,0 0 0 0 0 0 True
-1.900265 -7.121845 0.01611055,-2.45603 -7.013071 0.2765468,-2.987345 -6.477663 0.4057405,-3.389532 -5.98353 0.5211311,-3.742898 -5.781987 0.6701593,-2.691698 -5.003463 0.2098971,-2.911341 -4.098472 0.3777175,-3.031832 -3.529974 0.5178193,-3.126125 -2.995084 0.6371046,-2.369452 -4.733562 0.2294783,-2.517347 -3.67228 0.4167398,-2.606071 -2.957708 0.6025153,-2.676054 -2.33648 0.7544211,-2.042555 -4.691144 0.2963624,-2.140217 -3.688157 0.4881094,-2.226542 -3.038872 0.6485189,-2.301954 -2.490212 0.7751329,-1.693312 -4.843862 0.3880585,-1.645789 -4.039831 0.5642221,-1.626332 -3.520187 0.7126356,-1.622245 -3.011813 0.8457391,-7.656088 -7.309339 0.1765338,-7.062658 -7.133313 0.4060227,-6.533226 -6.546775 0.5492194,-6.144527 -5.92773 0.7235597,-5.81536 -5.570325 0.9162828,-6.76608 -4.955144 0.2570256,-6.54922 -4.00132 0.3620374,-6.453047 -3.377594 0.4955646,-6.378431 -2.83393 0.6082439,-7.073576 -4.695108 0.283354,-6.860002 -3.586873 0.3393751,-6.751467 -2.870748 0.5181512,-6.663215 -2.229525 0.6791716,-7.396398 -4.681803 0.3362425,-7.23235 -3.613118 0.4069875,-7.121222 -2.965591 0.5622071,-7.017836 -2.397333 0.702927,-7.744637 -4.868248 0.4210551,-7.736212 -4.070062 0.5343296,-7.709167 -3.545942 0.6728267,-7.655131 -3.008724 0.7891934,0.58333,0 0 0 0 0 0 True
-1.900265 -7.121845 0.01611055,-2.45603 -7.013071 0.2765468,-2.987345 -6.477663 0.4057405,-3.389532 -5.98353 0.5211311,-3.742898 -5.781987 0.6701593,-2.691698 -5.003463 0.2098971,-2.911341 -4.098472 0.3777175,-3.031832 -3.529974 0.5178193,-3.126125 -2.995084 0.6371046,-2.369452 -4.733562 0.2294783,-2.517347 -3.67228 0.4167398,-2.606071 -2.957708 0.6025153,-2.676054 -2.33648 0.7544211,-2.042555 -4.691144 0.2963624,-2.140217 -3.688157 0.4881094,-2.226542 -3.038872 0.6485189,-2.301954 -2.490212 0.7751329,-1.693312 -4.843862 0.3880585,-1.645789 -4.039831 0.5642221,-1.626332 -3.520187 0.7126356,-1.622245 -3.011813 0.8457391,-7.656088 -7.309339 0.1765338,-7.062658 -7.133313 0.4060227,-6.533226 -6.546775 0.5492194,-6.144527 -5.92773 0.7235597,-5.81536 -5.570325 0.9162828,-6.76608 -4.955144 0.2570256,-6.54922 -4.00132 0.3620374,-6.453047 -3.377594 0.4955646,-6.378431 -2.83393 0.6082439,-7.073576 -4.695108 0.283354,-6.860002 -3.586873 0.3393751,-6.751467 -2.870748 0.5181512,-6.663215 -2.229525 0.6791716,-7.396398 -4.681803 0.3362425,-7.23235 -3.613118 0.4069875,-7.121222 -2.965591 0.5622071,-7.017836 -2.397333 0.702927,-7.744637 -4.868248 0.4210551,-7.736212 -4.070062 0.5343296,-7.709167 -3.545942 0.6728267,-7.655131 -3.008724 0.7891934,0.61667,0 0 0 0 0 0 True
-1.896484 -7.132331 0.01725824,-2.45316 -7.020116 0.2881805,-2.983414 -6.491088 0.4281999,-3.384916 -5.99895 0.5549508,-3.735498 -5.78115 0.7141207,-2.684162 -5.009969 0.233502,-2.904282 -4.104566 0.4079005,-3.023398 -3.537897 0.5504455,-3.115376 -3.004369 0.6709474,-2.362493 -4.745035 0.2513059,-2.513285 -3.681538 0.4448741,-2.602818 -2.966274 0.6334954,-2.67149 -2.345945 0.7887766,-2.037823 -4.703769 0.3172065,-2.138123 -3.693207 0.5133871,-2.22507 -3.040229 0.6795066,-2.300474 -2.489986 0.8098755,-1.691887 -4.854921 0.4075877,-1.642532 -4.045243 0.5840003,-1.621149 -3.518659 0.7371259,-1.614401 -3.005377 0.872606,-7.66304 -7.315868 0.2085557,-7.06997 -7.161135 0.4518296,-6.533526 -6.564485 0.5910463,-6.144539 -5.934761 0.7584465,-5.81447 -5.577232 0.9355926,-6.762585 -4.96198 0.2920535,-6.545648 -4.010614 0.3924143,-6.448221 -3.383435 0.5212754,-6.37172 -2.838837 0.6327291,-7.068568 -4.694552 0.3063425,-6.855517 -3.590597 0.3575139,-6.748696 -2.87529 0.5342625,-6.660259 -2.23686 0.6980139,-7.390658 -4.675121 0.3484836,-7.22573 -3.605846 0.4125097,-7.117308 -2.96378 0.5675914,-7.014287 -2.400464 0.7092558,-7.739407 -4.858486 0.4235101,-7.729238 -4.071495 0.5307301,-7.70459 -3.55964 0.6661743,-7.652331 -3.032581 0.7826971,0.65000,0 0 0 0 0 0 True
-1.896484 -7.132331 0.01725824,-2.45316 -7.020116 0.2881805,-2.983414 -6.491088 0.4281999,-3.384916 -5.99895 0.5549508,-3.735498 -5.78115 0.7141207,-2.684162 -5.009969 0.233502,-2.904282 -4.104566 0.4079005,-3.023398 -3.537897 0.5504455,-3.115376 -3.004369 0.6709474,-2.362493 -4.745035 0.2513059,-2.513285 -3.681538 0.4448741,-2.602818 -2.966274 0.6334954,-2.67149 -2.345945 0.7887766,-2.037823 -4.703769 0.3172065,-2.138123 -3.693207 0.5133871,-2.22507 -3.040229 0.6795066,-2.300474 -2.489986 0.8098755,-1.691887 -4.854921 0.4075877,-1.642532 -4.045243 0.5840003,-1.621149 -3.518659 0.7371259,-1.614401 -3.005377 0.872606,-7.66304 -7.315868 0.2085557,-7.06997 -7.161135 0.4518296,-6.533526 -6.564485 0.5910463,-6.144539 -5.934761 0.7584465,-5.81447 -5.577232 0.9355926,-6.762585 -4.96198 0.2920535,-6.545648 -4.010614 0.3924143,-6.448221 -3.383435 0.5212754,-6.37172 -2.838837 0.6327291,-7.068568 -4.694552 0.3063425,-6.855517 -3.590597 0.3575139,-6.748696 -2.87529 0.5342625,-6.660259 -2.23686 0.6980139,-7.390658 -4.675121 0.3484836,-7.22573 -3.605846 0.4125097,-7.117308 -2.96378 0.5675914,-7.014287 -2.400464 0.7092558,-7.739407 -4.858486 0.4235101,-7.729238 -4.071495 0.5307301,-7.70459 -3.55964 0.6661743,-7.652331 -3.032581 0.7826971,0.68333,0 0 0 0 0 0 True
-1.904932 -7.132553 0.02424351,-2.46109 -7.030757 0.2874999,-2.993323 -6.502955 0.4291782,-3.393677 -6.001632 0.5559497,-3.743505 -5.778919 0.712014,-2.702631 -5.011496 0.23211,-2.917479 -4.099636 0.397656,-3.033277 -3.528665 0.5343958,-3.119694 -2.998805 0.6517156,-2.379292 -4.743907 0.2484736,-2.524529 -3.675587 0.4347458,-2.610119 -2.957126 0.6183756,-2.674479 -2.33794 0.7732581,-2.051863 -4.70288 0.3119255,-2.148872 -3.690729 0.4996988,-2.231567 -3.032955 0.6621152,-2.303849 -2.478825 0.7902087,-1.700851 -4.856493 0.3965678,-1.650684 -4.050483 0.5637534,-1.626027 -3.530045 0.7083343,-1.61716 -3.025322 0.8376519,-7.651157 -7.323253 0.2018512,-7.058582 -7.148805 0.4472843,-6.528946 -6.551746 0.5879406,-6.138073 -5.933265 0.7527829,-5.808294 -5.584785 0.9321597,-6.763845 -4.957722 0.2846296,-6.54963 -3.99853 0.3798696,-6.454452 -3.36387 0.509438,-6.377125 -2.809148 0.6232412,-7.071478 -4.700193 0.2882543,-6.858642 -3.592101 0.3391839,-6.749913 -2.87939 0.5188628,-6.65941 -2.237715 0.6881396,-7.394232 -4.683773 0.3176526,-7.231417 -3.619026 0.3754742,-7.121778 -2.985174 0.5244719,-7.017949 -2.429539 0.6625591,-7.741064 -4.863965 0.3807148,-7.733097 -4.074304 0.4795098,-7.707512 -3.566087 0.6088181,-7.655169 -3.043394 0.7238066,0.71667,0 0 0 0 0 0 True
-1.904932 -7.132553 0.02424351,-2.46109 -7.030757 0.2874999,-2.993323 -6.502955 0.4291782,-3.393677 -6.001632 0.5559497,-3.743505 -5.778919 0.712014,-2.702631 -5.011496 0.23211,-2.917479 -4.099636 0.397656,-3.033277 -3.528665 0.5343958,-3.119694 -2.998805 0.6517156,-2.379292 -4.743907 0.2484736,-2.524529 -3.675587 0.4347458,-2.610119 -2.957126 0.6183756,-2.674479 -2.33794 0.7732581,-2.051863 -4.70288 0.3119255,-2.148872 -3.690729 0.4996988,-2.231567 -3.032955 0.6621152,-2.303849 -2.478825 0.7902087,-1.700851 -4.856493 0.3965678,-1.650684 -4.050483 0.5637534,-1.626027 -3.530045 0.7083343,-1.61716 -3.025322 0.8376519,-7.651157 -7.323253 0.2018512,-7.058582 -7.148805 0.4472843,-6.528946 -6.551746 0.5879406,-6.138073 -5.933265 0.7527829,-5.808294 -5.584785 0.9321597,-6.763845 -4.957722 0.2846296,-6.54963 -3.99853 0.3798696,-6.454452 -3.36387 0.509438,-6.377125 -2.809148 0.6232412,-7.071478 -4.700193 0.2882543,-6.858642 -3.592101 0.3391839,-6.749913 -2.87939 0.5188628,-6.65941 -2.237715 0.6881396,-7.394232 -4.683773 0.3176526,-7.231417 -3.619026 0.3754742,-7.121778 -2.985174 0.5244719,-7.017949 -2.429539 0.6625591,-7.741064 -4.863965 0.3807148,-7.733097 -4.074304 0.4795098,-7.707512 -3.566087 0.6088181,-7.655169 -3.043394 0.7238066,0.75000,0 0 0 0 0 0 True
-1.916414 -7.137477 0.02308582,-2.473216 -7.027254 0.2837157,-2.997886 -6.497718 0.421361,-3.394532 -6.000455 0.5464408,-3.740017 -5.785118 0.7010512,-2.701488 -5.012889 0.2267586,-2.925388 -4.108663 0.3968002,-3.044281 -3.544816 0.5373316,-3.135784 -3.016076 0.6588027,-2.379114 -4.746852 0.2467247,-2.529404 -3.679195 0.4336558,-2.616562 -2.965921 0.6221491,-2.682618 -2.348985 0.7797618,-2.0541 -4.706193 0.3129933,-2.153147 -3.697379 0.4985006,-2.237584 -3.049263 0.6603934,-2.310478 -2.504648 0.7905146,-1.706877 -4.85787 0.4031128,-1.658179 -4.055845 0.568294,-1.634948 -3.537517 0.7119704,-1.627996 -3.033669 0.8419183,-7.666577 -7.323776 0.1799579,-7.074641 -7.164304 0.4408224,-6.537121 -6.562521 0.5892799,-6.148703 -5.933261 0.7625114,-5.82518 -5.574165 0.9488449,-6.772665 -4.972524 0.2768168,-6.557539 -4.013217 0.38018,-6.460907 -3.384163 0.5115503,-6.386845 -2.838401 0.6250383,-7.077359 -4.709817 0.2814746,-6.861094 -3.601342 0.3383881,-6.749392 -2.881836 0.5183297,-6.657263 -2.235005 0.6855449,-7.395755 -4.687954 0.3152511,-7.230412 -3.617281 0.3780829,-7.114633 -2.975415 0.5319781,-7.00532 -2.411179 0.6745813,-7.738548 -4.863795 0.3847635,-7.730613 -4.078129 0.4850965,-7.703263 -3.571016 0.613513,-7.649575 -3.048666 0.7263926,0.78333,0 0 0 0 0 0 True
-1.910819 -7.142683 0.03708266,-2.46667 -7.039386 0.2727023,-2.99393 -6.50275 0.393914,-3.3894 -6.003084 0.5074036,-3.730696 -5.785553 0.6514443,-2.706011 -5.013049 0.1757793,-2.931767 -4.111507 0.3227285,-3.054227 -3.546172 0.4549849,-3.144728 -3.021849 0.5734318,-2.387342 -4.746018 0.2040109,-2.538414 -3.68557 0.3686646,-2.630193 -2.973125 0.5487974,-2.697758 -2.362415 0.6998056,-2.063225 -4.706066 0.2810566,-2.163872 -3.698371 0.4527163,-2.250042 -3.040003 0.6118572,-2.324355 -2.489629 0.7406842,-1.714002 -4.864115 0.3804407,-1.664522 -4.060662 0.5370107,-1.639974 -3.540863 0.676169,-1.630448 -3.039523 0.8034712,-7.671989 -7.317209 0.2081321,-7.074483 -7.161884 0.4699629,-6.540575 -6.565732 0.6169263,-6.151733 -5.937643 0.7859232,-5.824505 -5.57686 0.9654229,-6.769075 -4.961858 0.2962392,-6.556076 -4.000049 0.3896821,-6.463561 -3.367857 0.5179118,-6.391254 -2.81489 0.6281124,-7.077862 -4.695397 0.2905687,-6.867333 -3.585723 0.3330872,-6.757909 -2.88097 0.5006102,-6.664167 -2.249456 0.6585205,-7.401213 -4.667755 0.3145836,-7.237785 -3.596605 0.3707005,-7.127374 -2.970016 0.5201499,-7.020888 -2.420383 0.6545488,-7.747783 -4.835002 0.3723607,-7.734987 -4.05277 0.4646226,-7.71228 -3.550532 0.588339,-7.663166 -3.028822 0.695886,0.81667,0 0 0 0 0 0 True
-1.910819 -7.142683 0.03708266,-2.46667 -7.039386 0.2727023,-2.99393 -6.50275 0.393914,-3.3894 -6.003084 0.5074036,-3.730696 -5.785553 0.6514443,-2.706011 -5.013049 0.1757793,-2.931767 -4.111507 0.3227285,-3.054227 -3.546172 0.4549849,-3.144728 -3.021849 0.5734318,-2.387342 -4.746018 0.2040109,-2.538414 -3.68557 0.3686646,-2.630193 -2.973125 0.5487974,-2.697758 -2.362415 0.6998056,-2.063225 -4.706066 0.2810566,-2.163872 -3.698371 0.4527163,-2.250042 -3.040003 0.6118572,-2.324355 -2.489629 0.7406842,-1.714002 -4.864115 0.3804407,-1.664522 -4.060662 0.5370107,-1.639974 -3.540863 0.676169,-1.630448 -3.039523 0.8034712,-7.671989 -7.317209 0.2081321,-7.074483 -7.161884 0.4699629,-6.540575 -6.565732 0.6169263,-6.151733 -5.937643 0.7859232,-5.824505 -5.57686 0.9654229,-6.769075 -4.961858 0.2962392,-6.556076 -4.000049 0.3896821,-6.463561 -3.367857 0.5179118,-6.391254 -2.81489 0.6281124,-7.077862 -4.695397 0.2905687,-6.867333 -3.585723 0.3330872,-6.757909 -2.88097 0.5006102,-6.664167 -2.249456 0.6585205,-7.401213 -4.667755 0.3145836,-7.237785 -3.596605 0.3707005,-7.127374 -2.970016 0.5201499,-7.020888 -2.420383 0.6545488,-7.747783 -4.835002 0.3723607,-7.734987 -4.05277 0.4646226,-7.71228 -3.550532 0.588339,-7.663166 -3.028822 0.695886,0.85000,0 0 0 0 0 0 True
-1.904215 -7.133282 -0.007248446,-2.461799 -7.02478 0.2521255,-2.991326 -6.50291 0.3872149,-3.387951 -6.00955 0.5078356,-3.733704 -5.786509 0.6596785,-2.701868 -5.023521 0.1856074,-2.922343 -4.114866 0.3543993,-3.040604 -3.550651 0.5004888,-3.13307 -3.015584 0.6275328,-2.378841 -4.752695 0.2035597,-2.529518 -3.687177 0.388687,-2.616128 -2.977293 0.5820139,-2.68398 -2.356792 0.7427832,-2.052609 -4.706062 0.2692823,-2.157652 -3.700441 0.4565546,-2.243732 -3.056321 0.6244648,-2.320106 -2.512029 0.7597756,-1.704535 -4.850108 0.358628,-1.657399 -4.048606 0.5257427,-1.635328 -3.532643 0.6741868,-1.630446 -3.027667 0.8096311,-7.67441 -7.322423 0.2134058,-7.078967 -7.153183 0.4511176,-6.547858 -6.558129 0.598639,-6.160488 -5.93601 0.7770702,-5.832041 -5.574174 0.9693035,-6.777795 -4.958095 0.283723,-6.564731 -3.986547 0.3819782,-6.475306 -3.355346 0.5095274,-6.406164 -2.803113 0.6171395,-7.087918 -4.697434 0.2987937,-6.876534 -3.584471 0.3467035,-6.764935 -2.876827 0.515072,-6.670681 -2.247541 0.6704838,-7.414183 -4.6773 0.3413833,-7.252699 -3.604389 0.4026895,-7.138619 -2.971739 0.5520731,-7.030246 -2.421539 0.6829039,-7.763257 -4.852991 0.4165325,-7.75352 -4.05886 0.5194923,-7.725855 -3.545858 0.6470604,-7.671701 -3.02091 0.7518877,0.88333,0 0 0 0 0 0 True
-1.904215 -7.133282 -0.007248446,-2.461799 -7.02478 0.2521255,-2.991326 -6.50291 0.3872149,-3.387951 -6.00955 0.5078356,-3.733704 -5.786509 0.6596785,-2.701868 -5.023521 0.1856074,-2.922343 -4.114866 0.3543993,-3.040604 -3.550651 0.5004888,-3.13307 -3.015584 0.6275328,-2.378841 -4.752695 0.2035597,-2.529518 -3.687177 0.388687,-2.616128 -2.977293 0.5820139,-2.68398 -2.356792 0.7427832,-2.052609 -4.706062 0.2692823,-2.157652 -3.700441 0.4565546,-2.243732 -3.056321 0.6244648,-2.320106 -2.512029 0.7597756,-1.704535 -4.850108 0.358628,-1.657399 -4.048606 0.5257427,-1.635328 -3.532643 0.6741868,-1.630446 -3.027667 0.8096311,-7.67441 -7.322423 0.2134058,-7.078967 -7.153183 0.4511176,-6.547858 -6.558129 0.598639,-6.160488 -5.93601 0.7770702,-5.832041 -5.574174 0.9693035,-6.777795 -4.958095 0.283723,-6.564731 -3.986547 0.3819782,-6.475306 -3.355346 0.5095274,-6.406164 -2.803113 0.6171395,-7.087918 -4.697434 0.2987937,-6.876534 -3.584471 0.3467035,-6.764935 -2.876827 0.515072,-6.670681 -2.247541 0.6704838,-7.414183 -4.6773 0.3413833,-7.252699 -3.604389 0.4026895,-7.138619 -2.971739 0.5520731,-7.030246 -2.421539 0.6829039,-7.763257 -4.852991 0.4165325,-7.75352 -4.05886 0.5194923,-7.725855 -3.545858 0.6470604,-7.671701 -3.02091 0.7518877,0.91667,0 0 0 0 0 0 True
-1.891531 -7.142978 0.0295651,-2.450389 -7.030899 0.2947868,-2.984322 -6.498697 0.4339892,-3.386793 -5.99479 0.5587794,-3.743643 -5.773338 0.7199051,-2.698927 -5.025423 0.2333214,-2.914275 -4.120037 0.4089426,-3.031105 -3.55114 0.5566704,-3.124454 -3.013745 0.6814752,-2.374686 -4.754247 0.2506116,-2.522098 -3.696514 0.4396212,-2.609732 -2.983354 0.6279563,-2.678128 -2.361578 0.7835408,-2.046202 -4.708683 0.3160373,-2.145127 -3.70693 0.5054247,-2.230217 -3.060405 0.6713532,-2.305449 -2.511958 0.799923,-1.695473 -4.857483 0.4069516,-1.649792 -4.055344 0.582996,-1.631581 -3.536347 0.7345139,-1.6288 -3.029278 0.8687159,-7.678721 -7.332212 0.2221431,-7.090014 -7.169048 0.4546326,-6.561229 -6.563844 0.6042821,-6.174226 -5.932174 0.7862629,-5.848484 -5.564813 0.9862365,-6.789516 -4.962673 0.2946433,-6.575569 -3.999395 0.3993695,-6.482319 -3.369153 0.5314018,-6.409823 -2.819784 0.641043,-7.097535 -4.703901 0.3188828,-6.885632 -3.585742 0.3723491,-6.773193 -2.865415 0.5418495,-6.681649 -2.224759 0.6964166,-7.422886 -4.689593 0.3726137,-7.262056 -3.607904 0.439568,-7.147649 -2.966986 0.5903706,-7.042608 -2.408711 0.725062,-7.772475 -4.874675 0.4594308,-7.763059 -4.070013 0.5651609,-7.734073 -3.551844 0.6961936,-7.679979 -3.023397 0.8055812,0.95000,0 0 0 0 0 0 True
-1.891531 -7.142978 0.0295651,-2.450389 -7.030899 0.2947868,-2.984322 -6.498697 0.4339892,-3.386793 -5.99479 0.5587794,-3.743643 -5.773338 0.7199051,-2.698927 -5.025423 0.2333214,-2.914275 -4.120037 0.4089426,-3.031105 -3.55114 0.5566704,-3.124454 -3.013745 0.6814752,-2.374686 -4.754247 0.2506116,-2.522098 -3.696514 0.4396212,-2.609732 -2.983354 0.6279563,-2.678128 -2.361578 0.7835408,-2.046202 -4.708683 0.3160373,-2.145127 -3.70693 0.5054247,-2.230217 -3.060405 0.6713532,-2.305449 -2.511958 0.799923,-1.695473 -4.857483 0.4069516,-1.649792 -4.055344 0.582996,-1.631581 -3.536347 0.7345139,-1.6288 -3.029278 0.8687159,-7.678721 -7.332212 0.2221431,-7.090014 -7.169048 0.4546326,-6.561229 -6.563844 0.6042821,-6.174226 -5.932174 0.7862629,-5.848484 -5.564813 0.9862365,-6.789516 -4.962673 0.2946433,-6.575569 -3.999395 0.3993695,-6.482319 -3.369153 0.5314018,-6.409823 -2.819784 0.641043,-7.097535 -4.703901 0.3188828,-6.885632 -3.585742 0.3723491,-6.773193 -2.865415 0.5418495,-6.681649 -2.224759 0.6964166,-7.422886 -4.689593 0.3726137,-7.262056 -3.607904 0.439568,-7.147649 -2.966986 0.5903706,-7.042608 -2.408711 0.725062,-7.772475 -4.874675 0.4594308,-7.763059 -4.070013 0.5651609,-7.734073 -3.551844 0.6961936,-7.679979 -3.023397 0.8055812,0.98333,0 0 0 0 0 0 True
-1.891801 -7.16237 0.05411845,-2.443289 -7.053878 0.337033,-2.976848 -6.514245 0.488456,-3.379678 -6.002936 0.6224077,-3.731848 -5.773407 0.7873948,-2.683848 -5.040809 0.2992017,-2.902367 -4.139413 0.4882206,-3.019829 -3.572174 0.6421502,-3.113715 -3.034088 0.7697123,-2.361347 -4.766917 0.3070267,-2.512316 -3.705357 0.5112174,-2.60023 -2.990465 0.7048911,-2.66896 -2.365125 0.8641025,-2.036715 -4.719999 0.3624978,-2.139201 -3.712634 0.5628896,-2.22557 -3.065876 0.7348775,-2.301682 -2.516813 0.8664408,-1.689798 -4.86581 0.4431747,-1.64814 -4.056825 0.6260328,-1.63134 -3.536932 0.7825909,-1.629561 -3.031493 0.9202194,-7.692252 -7.34546 0.2301054,-7.099734 -7.178546 0.4662851,-6.56732 -6.577859 0.610762,-6.177172 -5.949965 0.7883226,-5.854006 -5.577899 0.9804657,-6.796926 -4.977329 0.298476,-6.583687 -4.022178 0.4033502,-6.486787 -3.39252 0.5368397,-6.409437 -2.846109 0.6520696,-7.10346 -4.716447 0.3245825,-6.889946 -3.608026 0.3830554,-6.779272 -2.884274 0.5661885,-6.688593 -2.236623 0.7322633,-7.427832 -4.703607 0.3818263,-7.266873 -3.637277 0.4511798,-7.153262 -2.991322 0.6067029,-7.046185 -2.426235 0.7494607,-7.778269 -4.892145 0.4715301,-7.77027 -4.098978 0.5886074,-7.742888 -3.580259 0.7284082,-7.687424 -3.051981 0.8473556,1.01667,0 0 0 0 0 0 True
-1.901096 -7.178991 0.07751457,-2.45041 -7.069793 0.353269,-2.981687 -6.524045 0.5080432,-3.386137 -6.012323 0.6485024,-3.743937 -5.774805 0.8244888,-2.69475 -5.042699 0.3005487,-2.910244 -4.128753 0.4809584,-3.026136 -3.554763 0.6254194,-3.115786 -3.019395 0.7479487,-2.370381 -4.775291 0.3175938,-2.514803 -3.703733 0.5121554,-2.598976 -2.979603 0.699735,-2.664198 -2.353773 0.8533095,-2.044176 -4.733637 0.3815379,-2.140858 -3.718713 0.5779499,-2.226882 -3.058506 0.7461032,-2.303867 -2.500528 0.8751276,-1.695806 -4.888522 0.4701598,-1.648949 -4.075531 0.6464093,-1.628863 -3.551178 0.7956773,-1.62586 -3.045433 0.925454,-7.686057 -7.370414 0.2354847,-7.09774 -7.193294 0.467113,-6.564937 -6.596546 0.6129119,-6.173544 -5.969504 0.7914447,-5.846619 -5.598865 0.9880647,-6.798691 -4.997779 0.3226098,-6.583169 -4.034547 0.4359162,-6.486916 -3.398296 0.5712825,-6.410804 -2.842726 0.6879396,-7.106041 -4.738838 0.3542086,-6.891837 -3.621747 0.4222138,-6.778819 -2.890686 0.6121217,-6.68402 -2.236032 0.7859057,-7.430942 -4.730748 0.412482,-7.270057 -3.654762 0.4916982,-7.156754 -3.002622 0.6540636,-7.047363 -2.435146 0.800673,-7.780003 -4.924806 0.5018713,-7.775367 -4.121788 0.623027,-7.74965 -3.596696 0.7636783,-7.693362 -3.065157 0.8798628,1.05000,0 0 0 0 0 0 True
-1.901096 -7.178991 0.07751457,-2.45041 -7.069793 0.353269,-2.981687 -6.524045 0.5080432,-3.386137 -6.012323 0.6485024,-3.743937 -5.774805 0.8244888,-2.69475 -5.042699 0.3005487,-2.910244 -4.128753 0.4809584,-3.026136 -3.554763 0.6254194,-3.115786 -3.019395 0.7479487,-2.370381 -4.775291 0.3175938,-2.514803 -3.703733 0.5121554,-2.598976 -2.979603 0.699735,-2.664198 -2.353773 0.8533095,-2.044176 -4.733637 0.3815379,-2.140858 -3.718713 0.5779499,-2.226882 -3.058506 0.7461032,-2.303867 -2.500528 0.8751276,-1.695806 -4.888522 0.4701598,-1.648949 -4.075531 0.6464093,-1.628863 -3.551178 0.7956773,-1.62586 -3.045433 0.925454,-7.686057 -7.370414 0.2354847,-7.09774 -7.193294 0.467113,-6.564937 -6.596546 0.6129119,-6.173544 -5.969504 0.7914447,-5.846619 -5.598865 0.9880647,-6.798691 -4.997779 0.3226098,-6.583169 -4.034547 0.4359162,-6.486916 -3.398296 0.5712825,-6.410804 -2.842726 0.6879396,-7.106041 -4.738838 0.3542086,-6.891837 -3.621747 0.4222138,-6.778819 -2.890686 0.6121217,-6.68402 -2.236032 0.7859057,-7.430942 -4.730748 0.412482,-7.270057 -3.654762 0.4916982,-7.156754 -3.002622 0.6540636,-7.047363 -2.435146 0.800673,-7.780003 -4.924806 0.5018713,-7.775367 -4.121788 0.623027,-7.74965 -3.596696 0.7636783,-7.693362 -3.065157 0.8798628,1.08333,0 0 0 0 0 0 True
-1.898437 -7.179672 0.09776883,-2.447179 -7.070655 0.3596948,-2.976347 -6.531381 0.5061947,-3.379839 -6.026855 0.6394192,-3.736873 -5.803724 0.8092348,-2.698372 -5.039064 0.3063766,-2.920076 -4.125152 0.4779599,-3.03773 -3.556401 0.6221272,-3.126311 -3.025562 0.744825,-2.375645 -4.770608 0.3274631,-2.523913 -3.698688 0.5152366,-2.609784 -2.979491 0.7069218,-2.675157 -2.358076 0.865609,-2.049016 -4.73175 0.3944343,-2.147402 -3.714496 0.5856602,-2.232084 -3.055424 0.7611191,-2.307012 -2.50089 0.8983361,-1.70029 -4.892055 0.4851268,-1.657218 -4.082355 0.657963,-1.637964 -3.559393 0.8098858,-1.633628 -3.052518 0.9429727,-7.68782 -7.354749 0.1796219,-7.090424 -7.184825 0.4246737,-6.561216 -6.596066 0.5795358,-6.171299 -5.961141 0.7599104,-5.840639 -5.588676 0.9624214,-6.791304 -5.005409 0.30638,-6.568533 -4.036758 0.4319705,-6.473446 -3.395813 0.570915,-6.400913 -2.836821 0.6877117,-7.100474 -4.742681 0.3279811,-6.877777 -3.613333 0.40963,-6.766706 -2.878742 0.5982405,-6.674904 -2.223091 0.7700255,-7.42703 -4.727808 0.3763431,-7.26276 -3.645187 0.4665158,-7.149029 -2.997149 0.6285257,-7.040935 -2.432643 0.7738646,-7.778847 -4.911867 0.4557864,-7.764631 -4.109866 0.5876107,-7.738188 -3.589177 0.7286191,-7.682446 -3.059256 0.845415,1.11667,0 0 0 0 0 0 True
-1.898437 -7.179672 0.09776883,-2.447179 -7.070655 0.3596948,-2.976347 -6.531381 0.5061947,-3.379839 -6.026855 0.6394192,-3.736873 -5.803724 0.8092348,-2.698372 -5.039064 0.3063766,-2.920076 -4.125152 0.4779599,-3.03773 -3.556401 0.6221272,-3.126311 -3.025562 0.744825,-2.375645 -4.770608 0.3274631,-2.523913 -3.698688 0.5152366,-2.609784 -2.979491 0.7069218,-2.675157 -2.358076 0.865609,-2.049016 -4.73175 0.3944343,-2.147402 -3.714496 0.5856602,-2.232084 -3.055424 0.7611191,-2.307012 -2.50089 0.8983361,-1.70029 -4.892055 0.4851268,-1.657218 -4.082355 0.657963,-1.637964 -3.559393 0.8098858,-1.633628 -3.052518 0.9429727,-7.68782 -7.354749 0.1796219,-7.090424 -7.184825 0.4246737,-6.561216 -6.596066 0.5795358,-6.171299 -5.961141 0.7599104,-5.840639 -5.588676 0.9624214,-6.791304 -5.005409 0.30638,-6.568533 -4.036758 0.4319705,-6.473446 -3.395813 0.570915,-6.400913 -2.836821 0.6877117,-7.100474 -4.742681 0.3279811,-6.877777 -3.613333 0.40963,-6.766706 -2.878742 0.5982405,-6.674904 -2.223091 0.7700255,-7.42703 -4.727808 0.3763431,-7.26276 -3.645187 0.4665158,-7.149029 -2.997149 0.6285257,-7.040935 -2.432643 0.7738646,-7.778847 -4.911867 0.4557864,-7.764631 -4.109866 0.5876107,-7.738188 -3.589177 0.7286191,-7.682446 -3.059256 0.845415,1.15000,0 0 0 0 0 0 True
-1.897005 -7.179897 0.07967377,-2.449975 -7.065511 0.3479434,-2.98509 -6.528001 0.5009022,-3.390335 -6.019184 0.6390526,-3.743754 -5.789548 0.808757,-2.69972 -5.044845 0.3011827,-2.923463 -4.12582 0.4739429,-3.042727 -3.558908 0.6130018,-3.135153 -3.032113 0.7304886,-2.375996 -4.777324 0.3179729,-2.527587 -3.700584 0.5068913,-2.616108 -2.982005 0.6924489,-2.683994 -2.361532 0.8473482,-2.049683 -4.736869 0.3810545,-2.151648 -3.719623 0.5723528,-2.237429 -3.065353 0.7386441,-2.31282 -2.512842 0.8676466,-1.702577 -4.890608 0.46764,-1.66052 -4.084584 0.6381724,-1.639987 -3.567358 0.7853572,-1.635298 -3.065164 0.9144283,-7.685662 -7.372117 0.2541523,-7.088986 -7.199475 0.4840958,-6.556334 -6.598367 0.6259619,-6.166196 -5.963439 0.7976827,-5.84153 -5.586223 0.9845747,-6.794916 -4.994984 0.3288513,-6.57859 -4.038204 0.4294956,-6.481407 -3.410367 0.5605096,-6.403553 -2.864391 0.6747968,-7.105216 -4.734211 0.3492266,-6.888242 -3.618658 0.4026093,-6.773618 -2.894469 0.5835072,-6.677745 -2.247081 0.7513493,-7.432055 -4.724517 0.3968005,-7.26659 -3.651817 0.4584215,-7.150993 -3.007241 0.6091319,-7.039767 -2.447803 0.7489592,-7.781564 -4.91665 0.4750886,-7.770416 -4.118346 0.5841766,-7.741278 -3.598877 0.7176157,-7.682086 -3.074072 0.8322874,1.18333,0 0 0 0 0 0 True
-1.897005 -7.179897 0.07967377,-2.449975 -7.065511 0.3479434,-2.98509 -6.528001 0.5009022,-3.390335 -6.019184 0.6390526,-3.743754 -5.789548 0.808757,-2.69972 -5.044845 0.3011827,-2.923463 -4.12582 0.4739429,-3.042727 -3.558908 0.6130018,-3.135153 -3.032113 0.7304886,-2.375996 -4.777324 0.3179729,-2.527587 -3.700584 0.5068913,-2.616108 -2.982005 0.6924489,-2.683994 -2.361532 0.8473482,-2.049683 -4.736869 0.3810545,-2.151648 -3.719623 0.5723528,-2.237429 -3.065353 0.7386441,-2.31282 -2.512842 0.8676466,-1.702577 -4.890608 0.46764,-1.66052 -4.084584 0.6381724,-1.639987 -3.567358 0.7853572,-1.635298 -3.065164 0.9144283,-7.685662 -7.372117 0.2541523,-7.088986 -7.199475 0.4840958,-6.556334 -6.598367 0.6259619,-6.166196 -5.963439 0.7976827,-5.84153 -5.586223 0.9845747,-6.794916 -4.994984 0.3288513,-6.57859 -4.038204 0.4294956,-6.481407 -3.410367 0.5605096,-6.403553 -2.864391 0.6747968,-7.105216 -4.734211 0.3492266,-6.888242 -3.618658 0.4026093,-6.773618 -2.894469 0.5835072,-6.677745 -2.247081 0.7513493,-7.432055 -4.724517 0.3968005,-7.26659 -3.651817 0.4584215,-7.150993 -3.007241 0.6091319,-7.039767 -2.447803 0.7489592,-7.781564 -4.91665 0.4750886,-7.770416 -4.118346 0.5841766,-7.741278 -3.598877 0.7176157,-7.682086 -3.074072 0.8322874,1.21667,0 0 0 0 0 0 True
-1.908402 -7.180505 0.1038817,-2.45938 -7.068534 0.3691065,-2.991121 -6.531818 0.5185013,-3.391082 -6.018905 0.6536706,-3.740388 -5.778183 0.8186827,-2.706958 -5.035655 0.3144186,-2.925489 -4.12205 0.4887842,-3.044979 -3.55584 0.6323955,-3.140971 -3.022884 0.7511699,-2.383992 -4.769323 0.3332835,-2.532039 -3.699177 0.5246446,-2.620252 -2.984876 0.7133283,-2.689869 -2.366091 0.8727146,-2.057959 -4.727899 0.3996743,-2.15975 -3.718412 0.5954225,-2.246062 -3.061901 0.7656489,-2.322924 -2.505744 0.8972326,-1.709645 -4.880002 0.4890795,-1.665835 -4.075931 0.6610682,-1.645829 -3.558822 0.810133,-1.642595 -3.057682 0.9428098,-7.688563 -7.373052 0.2486961,-7.093554 -7.197828 0.4863605,-6.562 -6.597478 0.6460941,-6.177635 -5.958519 0.8355508,-5.850845 -5.568456 1.043459,-6.795206 -4.999864 0.3630836,-6.580238 -4.033182 0.4902855,-6.484648 -3.392666 0.6360545,-6.412061 -2.836967 0.7589136,-7.103924 -4.74006 0.3955446,-6.885931 -3.616381 0.4716047,-6.770507 -2.876519 0.659586,-6.67517 -2.211929 0.8354057,-7.432507 -4.729761 0.4562044,-7.268808 -3.6478 0.5391247,-7.149958 -2.997334 0.6996033,-7.038668 -2.427263 0.8477037,-7.78798 -4.91797 0.5481966,-7.766471 -4.110178 0.671257,-7.732687 -3.586925 0.8073325,-7.672435 -3.053618 0.9265649,1.25000,0 0 0 0 0 0 True
-1.908402 -7.180505 0.1038817,-2.45938 -7.068534 0.3691065,-2.991121 -6.531818 0.5185013,-3.391082 -6.018905 0.6536706,-3.740388 -5.778183 0.8186827,-2.706958 -5.035655 0.3144186,-2.925489 -4.12205 0.4887842,-3.044979 -3.55584 0.6323955,-3.140971 -3.022884 0.7511699,-2.383992 -4.769323 0.3332835,-2.532039 -3.699177 0.5246446,-2.620252 -2.984876 0.7133283,-2.689869 -2.366091 0.8727146,-2.057959 -4.727899 0.3996743,-2.15975 -3.718412 0.5954225,-2.246062 -3.061901 0.7656489,-2.322924 -2.505744 0.8972326,-1.709645 -4.880002 0.4890795,-1.665835 -4.075931 0.6610682,-1.645829 -3.558822 0.810133,-1.642595 -3.057682 0.9428098,-7.688563 -7.373052 0.2486961,-7.093554 -7.197828 0.4863605,-6.562 -6.597478 0.6460941,-6.177635 -5.958519 0.8355508,-5.850845 -5.568456 1.043459,-6.795206 -4.999864 0.3630836,-6.580238 -4.033182 0.4902855,-6.484648 -3.392666 0.6360545,-6.412061 -2.836967 0.7589136,-7.103924 -4.74006 0.3955446,-6.885931 -3.616381 0.4716047,-6.770507 -2.876519 0.659586,-6.67517 -2.211929 0.8354057,-7.432507 -4.729761 0.4562044,-7.268808 -3.6478 0.5391247,-7.149958 -2.997334 0.6996033,-7.038668 -2.427263 0.8477037,-7.78798 -4.91797 0.5481966,-7.766471 -4.110178 0.671257,-7.732687 -3.586925 0.8073325,-7.672435 -3.053618 0.9265649,1.28333,0 0 0 0 0 0 True
-1.907181 -7.167929 0.09296236,-2.463361 -7.053651 0.3674775,-2.996766 -6.520278 0.5260408,-3.398937 -6.009021 0.6671128,-3.75465 -5.774328 0.8373954,-2.711402 -5.028972 0.3268403,-2.926368 -4.111538 0.5008205,-3.043185 -3.547641 0.6414657,-3.137385 -3.022846 0.7588691,-2.386027 -4.762362 0.340548,-2.533922 -3.68876 0.5332675,-2.620341 -2.972043 0.7193009,-2.690176 -2.349915 0.8753396,-2.058715 -4.721986 0.4004071,-2.160034 -3.709114 0.5948256,-2.244646 -3.0552 0.7638541,-2.320787 -2.501208 0.8937487,-1.71077 -4.874521 0.4844469,-1.668432 -4.067955 0.6557921,-1.649105 -3.549375 0.8065256,-1.64673 -3.044443 0.9395385,-7.696457 -7.364257 0.2791155,-7.097763 -7.193798 0.4952006,-6.566544 -6.583969 0.6411326,-6.18028 -5.939958 0.8196866,-5.852983 -5.554018 1.016667,-6.800107 -4.98295 0.354723,-6.583453 -4.014623 0.4583532,-6.491533 -3.385322 0.5916841,-6.417427 -2.836908 0.7019569,-7.110573 -4.720779 0.38823,-6.896526 -3.59719 0.4346924,-6.784758 -2.86973 0.6065212,-6.689296 -2.219222 0.7709961,-7.439901 -4.709276 0.4491298,-7.278165 -3.624805 0.5057203,-7.164751 -2.98013 0.6534051,-7.056052 -2.417177 0.7906175,-7.793001 -4.897129 0.539289,-7.774538 -4.083151 0.6433474,-7.744701 -3.559749 0.772129,-7.686878 -3.028781 0.8831845,1.31667,0 0 0 0 0 0 True
-1.903631 -7.167325 0.07032532,-2.460438 -7.049154 0.3506004,-2.99651 -6.521301 0.5116984,-3.401676 -6.012959 0.6552485,-3.754629 -5.777606 0.8295629,-2.706373 -5.037605 0.3235994,-2.928106 -4.119848 0.5110099,-3.046418 -3.553968 0.6610184,-3.142312 -3.023982 0.7840848,-2.382958 -4.770549 0.3370643,-2.537107 -3.693838 0.5430509,-2.622886 -2.975258 0.7397944,-2.69283 -2.350503 0.9037912,-2.056968 -4.730277 0.3966947,-2.164555 -3.714763 0.6038998,-2.249553 -3.06303 0.7812539,-2.327162 -2.510874 0.9172561,-1.710089 -4.884359 0.4788126,-1.670723 -4.077685 0.6622501,-1.649105 -3.549375 0.7838457,-1.64673 -3.044443 0.9168586,-7.696457 -7.364257 0.2791155,-7.097763 -7.193798 0.4952006,-6.566544 -6.583969 0.6411326,-6.18028 -5.939958 0.8196866,-5.852983 -5.554018 1.016667,-6.800107 -4.98295 0.354723,-6.583453 -4.014623 0.4583532,-6.491533 -3.385322 0.5916841,-6.417427 -2.836908 0.7019569,-7.110573 -4.720779 0.38823,-6.896526 -3.59719 0.4346924,-6.784758 -2.86973 0.6065212,-6.689296 -2.219222 0.7709961,-7.439901 -4.709276 0.4491298,-7.278165 -3.624805 0.5057203,-7.164751 -2.98013 0.6534051,-7.056052 -2.417177 0.7906175,-7.793001 -4.897129 0.539289,-7.774538 -4.083151 0.6433474,-7.744701 -3.559749 0.772129,-7.686878 -3.028781 0.8831845,1.35000,0 0 0 0 0 0 True
-1.903631 -7.167325 0.07032532,-2.460438 -7.049154 0.3506004,-2.99651 -6.521301 0.5116984,-3.401676 -6.012959 0.6552485,-3.754629 -5.777606 0.8295629,-2.706373 -5.037605 0.3235994,-2.928106 -4.119848 0.5110099,-3.046418 -3.553968 0.6610184,-3.142312 -3.023982 0.7840848,-2.382958 -4.770549 0.3370643,-2.537107 -3.693838 0.5430509,-2.622886 -2.975258 0.7397944,-2.69283 -2.350503 0.9037912,-2.056968 -4.730277 0.3966947,-2.164555 -3.714763 0.6038998,-2.249553 -3.06303 0.7812539,-2.327162 -2.510874 0.9172561,-1.710089 -4.884359 0.4788126,-1.670723 -4.077685 0.6622501,-1.65115 -3.56146 0.8167704,-1.649037 -3.058814 0.9513069,-7.697953 -7.376092 0.2731048,-7.103852 -7.195074 0.499933,-6.576796 -6.594222 0.6482935,-6.191895 -5.955137 0.8322234,-5.869426 -5.560457 1.033917,-6.810333 -4.990297 0.3351386,-6.596992 -4.020622 0.4384819,-6.499773 -3.385777 0.5739003,-6.423282 -2.83236 0.6896256,-7.11563 -4.733114 0.3699465,-6.903205 -3.608247 0.4196579,-6.788613 -2.876009 0.6015015,-6.694507 -2.22503 0.7677961,-7.441248 -4.724086 0.4354379,-7.282871 -3.64262 0.4970636,-7.166148 -2.992944 0.6552216,-7.055848 -2.430936 0.798672,-7.793245 -4.913323 0.5333923,-7.77844 -4.101253 0.6472493,-7.746296 -3.575094 0.7868631,-7.685489 -3.047241 0.903677,1.38333,0 0 0 0 0 0 True
-1.907816 -7.188548 0.0993984,-2.461717 -7.070858 0.3678865,-2.997598 -6.537492 0.5215911,-3.402306 -6.027396 0.6602397,-3.754858 -5.784156 0.8310663,-2.707834 -5.050257 0.3247939,-2.929881 -4.135819 0.5095643,-3.049047 -3.566388 0.6582391,-3.1427 -3.031329 0.7811269,-2.385121 -4.780725 0.3463115,-2.539364 -3.70949 0.5470916,-2.626808 -2.986831 0.7393119,-2.695275 -2.361188 0.8995085,-2.05922 -4.740428 0.4144179,-2.165547 -3.72562 0.617883,-2.251071 -3.070257 0.7914985,-2.327643 -2.516903 0.9256857,-1.712941 -4.897125 0.5075059,-1.675141 -4.088678 0.6877295,-1.657974 -3.566787 0.8427394,-1.657053 -3.059006 0.9782361,-7.697528 -7.402748 0.3032163,-7.113728 -7.224144 0.523797,-6.587565 -6.620703 0.6713045,-6.203538 -5.986707 0.8558116,-5.881355 -5.603662 1.061462,-6.817133 -5.009443 0.3764187,-6.599838 -4.048988 0.4859716,-6.502932 -3.419074 0.6263403,-6.424815 -2.870406 0.746125,-7.12188 -4.750295 0.4196202,-6.90812 -3.6318 0.4797338,-6.794012 -2.900749 0.6715518,-6.699471 -2.246761 0.8443641,-7.446866 -4.7431 0.4930847,-7.287049 -3.668259 0.5660945,-7.172762 -3.009708 0.7281122,-7.062943 -2.436309 0.8761399,-7.800069 -4.937694 0.5974337,-7.788808 -4.123447 0.7194955,-7.761166 -3.591948 0.8612177,-7.703635 -3.058729 0.978675,1.41667,0 0 0 0 0 0 True
-1.907816 -7.188548 0.0993984,-2.461717 -7.070858 0.3678865,-2.997598 -6.537492 0.5215911,-3.402306 -6.027396 0.6602397,-3.754858 -5.784156 0.8310663,-2.707834 -5.050257 0.3247939,-2.929881 -4.135819 0.5095643,-3.049047 -3.566388 0.6582391,-3.1427 -3.031329 0.7811269,-2.385121 -4.780725 0.3463115,-2.539364 -3.70949 0.5470916,-2.626808 -2.986831 0.7393119,-2.695275 -2.361188 0.8995085,-2.05922 -4.740428 0.4144179,-2.165547 -3.72562 0.617883,-2.251071 -3.070257 0.7914985,-2.327643 -2.516903 0.9256857,-1.712941 -4.897125 0.5075059,-1.675141 -4.088678 0.6877295,-1.657974 -3.566787 0.8427394,-1.657053 -3.059006 0.9782361,-7.697528 -7.402748 0.3032163,-7.113728 -7.224144 0.523797,-6.587565 -6.620703 0.6713045,-6.203538 -5.986707 0.8558116,-5.881355 -5.603662 1.061462,-6.817133 -5.009443 0.3764187,-6.599838 -4.048988 0.4859716,-6.502932 -3.419074 0.6263403,-6.424815 -2.870406 0.746125,-7.12188 -4.750295 0.4196202,-6.90812 -3.6318 0.4797338,-6.794012 -2.900749 0.6715518,-6.699471 -2.246761 0.8443641,-7.446866 -4.7431 0.4930847,-7.287049 -3.668259 0.5660945,-7.172762 -3.009708 0.7281122,-7.062943 -2.436309 0.8761399,-7.800069 -4.937694 0.5974337,-7.788808 -4.123447 0.7194955,-7.761166 -3.591948 0.8612177,-7.703635 -3.058729 0.978675,1.45000,0 0 0 0 0 0 True
-1.908185 -7.196357 0.1107941,-2.457446 -7.071374 0.3814431,-2.987892 -6.544174 0.532395,-3.387415 -6.045292 0.670127,-3.740129 -5.815065 0.8385126,-2.701324 -5.053797 0.3373382,-2.922652 -4.148834 0.522027,-3.042503 -3.584494 0.6799503,-3.137781 -3.045365 0.813659,-2.381352 -4.784601 0.3597155,-2.53672 -3.716702 0.5613597,-2.624057 -3.002528 0.7661063,-2.693778 -2.373261 0.9358727,-2.057001 -4.744136 0.4279827,-2.16457 -3.733997 0.6297312,-2.250371 -3.088129 0.8081378,-2.326954 -2.536584 0.9491757,-1.710378 -4.899363 0.5209962,-1.669069 -4.098006 0.701912,-1.649967 -3.581425 0.8564293,-1.64706 -3.075285 0.9953736,-7.699187 -7.43131 0.3088597,-7.114697 -7.24106 0.5284652,-6.590432 -6.633113 0.6742395,-6.213748 -6.001545 0.8597804,-5.892672 -5.618623 1.062851,-6.825789 -5.026529 0.3825353,-6.613798 -4.051786 0.4999771,-6.515771 -3.415277 0.6448839,-6.437856 -2.860559 0.7661883,-7.130979 -4.775852 0.4309439,-6.919693 -3.655109 0.500635,-6.805772 -2.916934 0.6975787,-6.715037 -2.260673 0.8744231,-7.455043 -4.774372 0.5110983,-7.29735 -3.700019 0.5895032,-7.183331 -3.036597 0.7583653,-7.078433 -2.461543 0.9113219,-7.807222 -4.973564 0.6208364,-7.792594 -4.162426 0.7500545,-7.761719 -3.632682 0.896683,-7.704924 -3.100393 1.018473,1.48333,0 0 0 0 0 0 True
-1.908185 -7.196357 0.1107941,-2.457446 -7.071374 0.3814431,-2.987892 -6.544174 0.532395,-3.387415 -6.045292 0.670127,-3.740129 -5.815065 0.8385126,-2.701324 -5.053797 0.3373382,-2.922652 -4.148834 0.522027,-3.042503 -3.584494 0.6799503,-3.137781 -3.045365 0.813659,-2.381352 -4.784601 0.3597155,-2.53672 -3.716702 0.5613597,-2.624057 -3.002528 0.7661063,-2.693778 -2.373261 0.9358727,-2.057001 -4.744136 0.4279827,-2.16457 -3.733997 0.6297312,-2.250371 -3.088129 0.8081378,-2.326954 -2.536584 0.9491757,-1.710378 -4.899363 0.5209962,-1.669069 -4.098006 0.701912,-1.649967 -3.581425 0.8564293,-1.64706 -3.075285 0.9953736,-7.699187 -7.43131 0.3088597,-7.114697 -7.24106 0.5284652,-6.590432 -6.633113 0.6742395,-6.213748 -6.001545 0.8597804,-5.892672 -5.618623 1.062851,-6.825789 -5.026529 0.3825353,-6.613798 -4.051786 0.4999771,-6.515771 -3.415277 0.6448839,-6.437856 -2.860559 0.7661883,-7.130979 -4.775852 0.4309439,-6.919693 -3.655109 0.500635,-6.805772 -2.916934 0.6975787,-6.715037 -2.260673 0.8744231,-7.455043 -4.774372 0.5110983,-7.29735 -3.700019 0.5895032,-7.183331 -3.036597 0.7583653,-7.078433 -2.461543 0.9113219,-7.807222 -4.973564 0.6208364,-7.792594 -4.162426 0.7500545,-7.761719 -3.632682 0.896683,-7.704924 -3.100393 1.018473,1.51667,0 0 0 0 0 0 True
-1.901541 -7.211543 0.1189824,-2.453372 -7.101364 0.3842814,-2.988257 -6.552873 0.5270145,-3.390063 -6.032621 0.65626,-3.740452 -5.795213 0.8162243,-2.703117 -5.066759 0.3392571,-2.927915 -4.149782 0.5187815,-3.047485 -3.577686 0.6651389,-3.138126 -3.039213 0.7890019,-2.380154 -4.797727 0.3606149,-2.533477 -3.721378 0.5584459,-2.622097 -2.998713 0.7557248,-2.690311 -2.373004 0.9178283,-2.053144 -4.755853 0.4280868,-2.160163 -3.733947 0.6271135,-2.2481 -3.076109 0.8037881,-2.325547 -2.520423 0.9414374,-1.703492 -4.910308 0.5193667,-1.66503 -4.096255 0.6962777,-1.648154 -3.576675 0.8482149,-1.647281 -3.075171 0.9806516,-7.71543 -7.432494 0.2816679,-7.123258 -7.24677 0.5002325,-6.597418 -6.648139 0.6446893,-6.219843 -6.017576 0.8292845,-5.906813 -5.632413 1.02522,-6.831799 -5.03836 0.3409072,-6.620714 -4.057432 0.4515146,-6.524863 -3.422976 0.5968083,-6.448706 -2.873977 0.7196962,-7.137043 -4.786311 0.3828905,-6.928272 -3.658714 0.4424994,-6.81705 -2.921669 0.6317571,-6.726439 -2.26255 0.8060718,-7.462261 -4.783718 0.455322,-7.307961 -3.703417 0.5212371,-7.19774 -3.043949 0.6831211,-7.092934 -2.467247 0.8331644,-7.814555 -4.98005 0.5588864,-7.802588 -4.174291 0.6733294,-7.773475 -3.645101 0.8156717,-7.715764 -3.108774 0.9389325,1.55000,0 0 0 0 0 0 True
-1.901541 -7.211543 0.1189824,-2.453372 -7.101364 0.3842814,-2.988257 -6.552873 0.5270145,-3.390063 -6.032621 0.65626,-3.740452 -5.795213 0.8162243,-2.703117 -5.066759 0.3392571,-2.927915 -4.149782 0.5187815,-3.047485 -3.577686 0.6651389,-3.138126 -3.039213 0.7890019,-2.380154 -4.797727 0.3606149,-2.533477 -3.721378 0.5584459,-2.622097 -2.998713 0.7557248,-2.690311 -2.373004 0.9178283,-2.053144 -4.755853 0.4280868,-2.160163 -3.733947 0.6271135,-2.2481 -3.076109 0.8037881,-2.325547 -2.520423 0.9414374,-1.703492 -4.910308 0.5193667,-1.66503 -4.096255 0.6962777,-1.648154 -3.576675 0.8482149,-1.647281 -3.075171 0.9806516,-7.71543 -7.432494 0.2816679,-7.123258 -7.24677 0.5002325,-6.597418 -6.648139 0.6446893,-6.219843 -6.017576 0.8292845,-5.906813 -5.632413 1.02522,-6.831799 -5.03836 0.3409072,-6.620714 -4.057432 0.4515146,-6.524863 -3.422976 0.5968083,-6.448706 -2.873977 0.7196962,-7.137043 -4.786311 0.3828905,-6.928272 -3.658714 0.4424994,-6.81705 -2.921669 0.6317571,-6.726439 -2.26255 0.8060718,-7.462261 -4.783718 0.455322,-7.307961 -3.703417 0.5212371,-7.19774 -3.043949 0.6831211,-7.092934 -2.467247 0.8331644,-7.814555 -4.98005 0.5588864,-7.802588 -4.174291 0.6733294,-7.773475 -3.645101 0.8156717,-7.715764 -3.108774 0.9389325,1.58333,0 0 0 0 0 0 True
-1.902762 -7.212234 0.1261089,-2.455101 -7.107458 0.3928513,-2.991016 -6.566175 0.5419031,-3.390833 -6.047966 0.6759145,-3.737448 -5.804407 0.8374983,-2.704594 -5.065029 0.3449396,-2.928956 -4.146201 0.5197165,-3.047667 -3.577077 0.66381,-3.138136 -3.043464 0.7846954,-2.381293 -4.795998 0.3644519,-2.534708 -3.713562 0.5582032,-2.622073 -2.991993 0.752816,-2.68995 -2.369805 0.9151328,-2.05427 -4.753402 0.4306924,-2.162278 -3.728042 0.6258172,-2.249447 -3.068592 0.7990884,-2.326697 -2.513202 0.9351687,-1.705182 -4.905387 0.5209303,-1.666344 -4.091662 0.6918327,-1.64841 -3.569673 0.8400456,-1.646695 -3.066799 0.9702149,-7.70627 -7.436062 0.2990364,-7.115437 -7.241687 0.5107999,-6.59073 -6.642982 0.6512291,-6.210945 -6.009498 0.8300046,-5.89575 -5.624768 1.02135,-6.833112 -5.033536 0.3564708,-6.621787 -4.053541 0.4632331,-6.525458 -3.420907 0.6049976,-6.447163 -2.870782 0.7285888,-7.137834 -4.782697 0.4015375,-6.930552 -3.650601 0.4566761,-6.818547 -2.916154 0.6457131,-6.725076 -2.261174 0.8208704,-7.4624 -4.78144 0.4759124,-7.312932 -3.704023 0.5402241,-7.203361 -3.046937 0.7025105,-7.096822 -2.475172 0.8511373,-7.812399 -4.979356 0.5803127,-7.804734 -4.169528 0.6930301,-7.778311 -3.6399 0.8338193,-7.721203 -3.109485 0.9537285,1.61667,0 0 0 0 0 0 True
-1.902762 -7.212234 0.1261089,-2.455101 -7.107458 0.3928513,-2.991016 -6.566175 0.5419031,-3.390833 -6.047966 0.6759145,-3.737448 -5.804407 0.8374983,-2.704594 -5.065029 0.3449396,-2.928956 -4.146201 0.5197165,-3.047667 -3.577077 0.66381,-3.138136 -3.043464 0.7846954,-2.381293 -4.795998 0.3644519,-2.534708 -3.713562 0.5582032,-2.622073 -2.991993 0.752816,-2.68995 -2.369805 0.9151328,-2.05427 -4.753402 0.4306924,-2.162278 -3.728042 0.6258172,-2.249447 -3.068592 0.7990884,-2.326697 -2.513202 0.9351687,-1.705182 -4.905387 0.5209303,-1.666344 -4.091662 0.6918327,-1.64841 -3.569673 0.8400456,-1.646695 -3.066799 0.9702149,-7.70627 -7.436062 0.2990364,-7.115437 -7.241687 0.5107999,-6.59073 -6.642982 0.6512291,-6.210945 -6.009498 0.8300046,-5.89575 -5.624768 1.02135,-6.833112 -5.033536 0.3564708,-6.621787 -4.053541 0.4632331,-6.525458 -3.420907 0.6049976,-6.447163 -2.870782 0.7285888,-7.137834 -4.782697 0.4015375,-6.930552 -3.650601 0.4566761,-6.818547 -2.916154 0.6457131,-6.725076 -2.261174 0.8208704,-7.4624 -4.78144 0.4759124,-7.312932 -3.704023 0.5402241,-7.203361 -3.046937 0.7025105,-7.096822 -2.475172 0.8511373,-7.812399 -4.979356 0.5803127,-7.804734 -4.169528 0.6930301,-7.778311 -3.6399 0.8338193,-7.721203 -3.109485 0.9537285,1.65000,0 0 0 0 0 0 True
-1.902031 -7.232514 0.1552295,-2.451572 -7.109485 0.4265483,-2.98522 -6.570325 0.58188,-3.38486 -6.056898 0.7237976,-3.734383 -5.817733 0.8995706,-2.698429 -5.075504 0.3922836,-2.926672 -4.152883 0.5677048,-3.047609 -3.577493 0.7089283,-3.138517 -3.03786 0.8314169,-2.376514 -4.808834 0.4120457,-2.534748 -3.727532 0.6052463,-2.623459 -3.005427 0.7973458,-2.691529 -2.38729 0.9570167,-2.050971 -4.767571 0.4789793,-2.159488 -3.736326 0.6717346,-2.247507 -3.072679 0.8471708,-2.326719 -2.515531 0.987008,-1.702672 -4.923278 0.5692261,-1.665079 -4.101575 0.746352,-1.644871 -3.574353 0.8998413,-1.64177 -3.069008 1.035885,-7.71512 -7.438814 0.2684804,-7.120877 -7.239074 0.497805,-6.595903 -6.645004 0.6497572,-6.216008 -6.013535 0.8369316,-5.898262 -5.623374 1.034553,-6.830881 -5.048661 0.3603854,-6.617564 -4.06726 0.4811609,-6.520021 -3.428583 0.6257305,-6.442286 -2.873746 0.7468488,-7.135009 -4.798254 0.40119,-6.925112 -3.669356 0.4779994,-6.811211 -2.931879 0.6713127,-6.716707 -2.271728 0.8435977,-7.458715 -4.79561 0.471741,-7.303603 -3.710002 0.5554591,-7.190609 -3.049634 0.7238973,-7.083499 -2.471923 0.8752725,-7.809637 -4.990507 0.5724115,-7.798312 -4.184978 0.7026848,-7.768312 -3.653397 0.8510401,-7.71053 -3.115296 0.9761012,1.68333,0 0 0 0 0 0 True
-1.902988 -7.21627 0.121445,-2.456021 -7.095548 0.3913472,-2.988748 -6.570056 0.5523897,-3.387985 -6.062006 0.6987756,-3.733823 -5.810356 0.8733919,-2.698193 -5.06257 0.3477939,-2.925912 -4.135942 0.5143278,-3.047651 -3.566289 0.6524312,-3.14001 -3.034893 0.7718609,-2.378475 -4.801277 0.3646165,-2.53726 -3.719703 0.5500878,-2.627589 -3.004568 0.7397525,-2.695863 -2.387289 0.9005721,-2.055233 -4.762126 0.4282201,-2.161749 -3.736143 0.616338,-2.246217 -3.078166 0.7950435,-2.320367 -2.520408 0.9374379,-1.711205 -4.91537 0.5145597,-1.672931 -4.102722 0.6818587,-1.65173 -3.58492 0.8332335,-1.645206 -3.082167 0.9678305,-7.707047 -7.419319 0.2692763,-7.110678 -7.219751 0.4990895,-6.588046 -6.624416 0.6556513,-6.211325 -5.993942 0.8467721,-5.891742 -5.597801 1.052324,-6.823236 -5.033586 0.3773826,-6.605764 -4.062256 0.5092902,-6.508982 -3.435247 0.6610957,-6.433253 -2.886661 0.7835199,-7.131135 -4.778574 0.4197345,-6.922887 -3.647311 0.4967295,-6.812963 -2.913183 0.6920663,-6.721393 -2.257724 0.8700747,-7.457942 -4.774229 0.4928402,-7.308432 -3.690721 0.5796272,-7.199665 -3.03368 0.7477059,-7.094071 -2.45857 0.8961523,-7.811578 -4.966468 0.5958457,-7.801066 -4.154678 0.7246015,-7.77233 -3.625951 0.8693926,-7.712763 -3.092645 0.9887203,1.71667,0 0 0 0 0 0 True
-1.902988 -7.21627 0.121445,-2.456021 -7.095548 0.3913472,-2.988748 -6.570056 0.5523897,-3.387985 -6.062006 0.6987756,-3.733823 -5.810356 0.8733919,-2.698193 -5.06257 0.3477939,-2.925912 -4.135942 0.5143278,-3.047651 -3.566289 0.6524312,-3.14001 -3.034893 0.7718609,-2.378475 -4.801277 0.3646165,-2.53726 -3.719703 0.5500878,-2.627589 -3.004568 0.7397525,-2.695863 -2.387289 0.9005721,-2.055233 -4.762126 0.4282201,-2.161749 -3.736143 0.616338,-2.246217 -3.078166 0.7950435,-2.320367 -2.520408 0.9374379,-1.711205 -4.91537 0.5145597,-1.672931 -4.102722 0.6818587,-1.65173 -3.58492 0.8332335,-1.645206 -3.082167 0.9678305,-7.707047 -7.419319 0.2692763,-7.110678 -7.219751 0.4990895,-6.588046 -6.624416 0.6556513,-6.211325 -5.993942 0.8467721,-5.891742 -5.597801 1.052324,-6.823236 -5.033586 0.3773826,-6.605764 -4.062256 0.5092902,-6.508982 -3.435247 0.6610957,-6.433253 -2.886661 0.7835199,-7.131135 -4.778574 0.4197345,-6.922887 -3.647311 0.4967295,-6.812963 -2.913183 0.6920663,-6.721393 -2.257724 0.8700747,-7.457942 -4.774229 0.4928402,-7.308432 -3.690721 0.5796272,-7.199665 -3.03368 0.7477059,-7.094071 -2.45857 0.8961523,-7.811578 -4.966468 0.5958457,-7.801066 -4.154678 0.7246015,-7.77233 -3.625951 0.8693926,-7.712763 -3.092645 0.9887203,1.75000,0 0 0 0 0 0 True
-1.891666 -7.209033 0.1219667,-2.443136 -7.089422 0.3947514,-2.975572 -6.566972 0.5512643,-3.37559 -6.064006 0.6933165,-3.725335 -5.82798 0.8670474,-2.6945 -5.063877 0.3571873,-2.917615 -4.14302 0.5342823,-3.037113 -3.579074 0.6850605,-3.133438 -3.042697 0.8143247,-2.374525 -4.796593 0.377295,-2.530488 -3.718914 0.5768234,-2.619474 -3.006383 0.7815492,-2.692279 -2.377644 0.9547198,-2.049058 -4.753944 0.4447585,-2.161894 -3.734275 0.644452,-2.250103 -3.083834 0.8279133,-2.329858 -2.527943 0.9750611,-1.701816 -4.903995 0.5350913,-1.663732 -4.08958 0.7126159,-1.646497 -3.572433 0.8677719,-1.645941 -3.066309 1.007523,-7.704145 -7.398926 0.2421192,-7.105536 -7.199054 0.4722204,-6.580461 -6.615339 0.6245006,-6.199898 -5.98536 0.8102278,-5.890053 -5.580326 1.00728,-6.8238 -5.017234 0.3293432,-6.599926 -4.044853 0.4504277,-6.498931 -3.41522 0.5986118,-6.420625 -2.867698 0.7206745,-7.127441 -4.764983 0.3671805,-6.912752 -3.632507 0.4327097,-6.801888 -2.897886 0.6230466,-6.709304 -2.24663 0.7970808,-7.451234 -4.759586 0.4352002,-7.297974 -3.673591 0.5147008,-7.190672 -3.009801 0.6838943,-7.084508 -2.43416 0.835349,-7.803216 -4.951104 0.5334963,-7.792955 -4.136369 0.6575356,-7.765366 -3.597889 0.8030685,-7.706869 -3.058589 0.9260814,1.78333,0 0 0 0 0 0 True
-1.891666 -7.209033 0.1219667,-2.443136 -7.089422 0.3947514,-2.975572 -6.566972 0.5512643,-3.37559 -6.064006 0.6933165,-3.725335 -5.82798 0.8670474,-2.6945 -5.063877 0.3571873,-2.917615 -4.14302 0.5342823,-3.037113 -3.579074 0.6850605,-3.133438 -3.042697 0.8143247,-2.374525 -4.796593 0.377295,-2.530488 -3.718914 0.5768234,-2.619474 -3.006383 0.7815492,-2.692279 -2.377644 0.9547198,-2.049058 -4.753944 0.4447585,-2.161894 -3.734275 0.644452,-2.250103 -3.083834 0.8279133,-2.329858 -2.527943 0.9750611,-1.701816 -4.903995 0.5350913,-1.663732 -4.08958 0.7126159,-1.646497 -3.572433 0.8677719,-1.645941 -3.066309 1.007523,-7.704145 -7.398926 0.2421192,-7.105536 -7.199054 0.4722204,-6.580461 -6.615339 0.6245006,-6.199898 -5.98536 0.8102278,-5.890053 -5.580326 1.00728,-6.8238 -5.017234 0.3293432,-6.599926 -4.044853 0.4504277,-6.498931 -3.41522 0.5986118,-6.420625 -2.867698 0.7206745,-7.127441 -4.764983 0.3671805,-6.912752 -3.632507 0.4327097,-6.801888 -2.897886 0.6230466,-6.709304 -2.24663 0.7970808,-7.451234 -4.759586 0.4352002,-7.297974 -3.673591 0.5147008,-7.190672 -3.009801 0.6838943,-7.084508 -2.43416 0.835349,-7.803216 -4.951104 0.5334963,-7.792955 -4.136369 0.6575356,-7.765366 -3.597889 0.8030685,-7.706869 -3.058589 0.9260814,1.81667,0 0 0 0 0 0 True
-1.903973 -7.207859 0.1207265,-2.451834 -7.091168 0.3936722,-2.983016 -6.556217 0.5585337,-3.379766 -6.043432 0.7077616,-3.726737 -5.78828 0.8842277,-2.694428 -5.062364 0.3827318,-2.918617 -4.139112 0.5678108,-3.039575 -3.57381 0.715219,-3.134723 -3.041331 0.8360242,-2.372461 -4.796052 0.4038062,-2.525363 -3.712827 0.6137061,-2.615052 -2.994142 0.8118868,-2.686422 -2.366363 0.9788734,-2.04846 -4.750869 0.4700943,-2.154923 -3.725001 0.6770203,-2.24448 -3.065599 0.8535674,-2.324466 -2.504014 0.9925662,-1.704153 -4.897974 0.5580328,-1.663075 -4.078995 0.7347414,-1.64284 -3.553394 0.8853218,-1.638507 -3.043304 1.021067,-7.697918 -7.399192 0.1961967,-7.103792 -7.204118 0.436689,-6.579129 -6.610076 0.5953686,-6.19228 -5.983169 0.7847978,-5.868649 -5.588689 0.9899457,-6.816658 -5.03376 0.308829,-6.590079 -4.06167 0.4448549,-6.49073 -3.430837 0.5999908,-6.414195 -2.876944 0.7263993,-7.121362 -4.780099 0.3483347,-6.903291 -3.650311 0.434314,-6.788814 -2.908967 0.637591,-6.695185 -2.247257 0.8172452,-7.443989 -4.774486 0.4174411,-7.286287 -3.685934 0.5140457,-7.174263 -3.018672 0.6875026,-7.068439 -2.438853 0.8399721,-7.794897 -4.966168 0.5172083,-7.780427 -4.144222 0.66066,-7.748171 -3.604443 0.8098174,-7.689818 -3.06361 0.930669,1.85000,0 0 0 0 0 0 True
-1.903973 -7.207859 0.1207265,-2.451834 -7.091168 0.3936722,-2.983016 -6.556217 0.5585337,-3.379766 -6.043432 0.7077616,-3.726737 -5.78828 0.8842277,-2.694428 -5.062364 0.3827318,-2.918617 -4.139112 0.5678108,-3.039575 -3.57381 0.715219,-3.134723 -3.041331 0.8360242,-2.372461 -4.796052 0.4038062,-2.525363 -3.712827 0.6137061,-2.615052 -2.994142 0.8118868,-2.686422 -2.366363 0.9788734,-2.04846 -4.750869 0.4700943,-2.154923 -3.725001 0.6770203,-2.24448 -3.065599 0.8535674,-2.324466 -2.504014 0.9925662,-1.704153 -4.897974 0.5580328,-1.663075 -4.078995 0.7347414,-1.64284 -3.553394 0.8853218,-1.638507 -3.043304 1.021067,-7.697918 -7.399192 0.1961967,-7.103792 -7.204118 0.436689,-6.579129 -6.610076 0.5953686,-6.19228 -5.983169 0.7847978,-5.868649 -5.588689 0.9899457,-6.816658 -5.03376 0.308829,-6.590079 -4.06167 0.4448549,-6.49073 -3.430837 0.5999908,-6.414195 -2.876944 0.7263993,-7.121362 -4.780099 0.3483347,-6.903291 -3.650311 0.434314,-6.788814 -2.908967 0.637591,-6.695185 -2.247257 0.8172452,-7.443989 -4.774486 0.4174411,-7.286287 -3.685934 0.5140457,-7.174263 -3.018672 0.6875026,-7.068439 -2.438853 0.8399721,-7.794897 -4.966168 0.5172083,-7.780427 -4.144222 0.66066,-7.748171 -3.604443 0.8098174,-7.689818 -3.06361 0.930669,1.88333,0 0 0 0 0 0 True
-1.893934 -7.207416 0.1482219,-2.444037 -7.088109 0.4247283,-2.980338 -6.546606 0.5810961,-3.380725 -6.036016 0.7206944,-3.729701 -5.796802 0.8902892,-2.694178 -5.050918 0.3894811,-2.91845 -4.129553 0.559857,-3.039824 -3.557832 0.7000101,-3.133016 -3.025217 0.821386,-2.371415 -4.786226 0.4035265,-2.527317 -3.711446 0.5941721,-2.61806 -2.994493 0.7833165,-2.687641 -2.372337 0.9405476,-2.045413 -4.746114 0.4649094,-2.151702 -3.726062 0.6567425,-2.238773 -3.068049 0.8321021,-2.316021 -2.508876 0.9697217,-1.697888 -4.898142 0.5487576,-1.662707 -4.082405 0.7218663,-1.647022 -3.565036 0.8715692,-1.649066 -3.064565 1.004911,-7.688592 -7.401184 0.232928,-7.094091 -7.205505 0.4624452,-6.573877 -6.617433 0.6141726,-6.196664 -5.992954 0.8006062,-5.881037 -5.598168 0.9995787,-6.810793 -5.024614 0.3229214,-6.586327 -4.058763 0.4484618,-6.487167 -3.429847 0.603122,-6.41093 -2.875192 0.7328387,-7.114888 -4.769482 0.3623494,-6.903523 -3.647765 0.4295849,-6.788179 -2.905207 0.6322045,-6.694841 -2.24492 0.8186267,-7.440446 -4.763628 0.4327143,-7.286079 -3.682198 0.5094776,-7.173653 -3.016864 0.6804078,-7.068892 -2.439349 0.8346854,-7.795882 -4.953222 0.53374,-7.776114 -4.13659 0.6580637,-7.73838 -3.601095 0.801087,-7.676022 -3.064248 0.9186218,1.91667,0 0 0 0 0 0 True
-1.893934 -7.207416 0.1482219,-2.444037 -7.088109 0.4247283,-2.980338 -6.546606 0.5810961,-3.380725 -6.036016 0.7206944,-3.729701 -5.796802 0.8902892,-2.694178 -5.050918 0.3894811,-2.91845 -4.129553 0.559857,-3.039824 -3.557832 0.7000101,-3.133016 -3.025217 0.821386,-2.371415 -4.786226 0.4035265,-2.527317 -3.711446 0.5941721,-2.61806 -2.994493 0.7833165,-2.687641 -2.372337 0.9405476,-2.045413 -4.746114 0.4649094,-2.151702 -3.726062 0.6567425,-2.238773 -3.068049 0.8321021,-2.316021 -2.508876 0.9697217,-1.697888 -4.898142 0.5487576,-1.662707 -4.082405 0.7218663,-1.647022 -3.565036 0.8715692,-1.649066 -3.064565 1.004911,-7.688592 -7.401184 0.232928,-7.094091 -7.205505 0.4624452,-6.573877 -6.617433 0.6141726,-6.196664 -5.992954 0.8006062,-5.881037 -5.598168 0.9995787,-6.810793 -5.024614 0.3229214,-6.586327 -4.058763 0.4484618,-6.487167 -3.429847 0.603122,-6.41093 -2.875192 0.7328387,-7.114888 -4.769482 0.3623494,-6.903523 -3.647765 0.4295849,-6.788179 -2.905207 0.6322045,-6.694841 -2.24492 0.8186267,-7.440446 -4.763628 0.4327143,-7.286079 -3.682198 0.5094776,-7.173653 -3.016864 0.6804078,-7.068892 -2.439349 0.8346854,-7.795882 -4.953222 0.53374,-7.776114 -4.13659 0.6580637,-7.73838 -3.601095 0.801087,-7.676022 -3.064248 0.9186218,1.95000,0 0 0 0 0 0 True
-1.889169 -7.20642 0.1481795,-2.43962 -7.088508 0.4295366,-2.973223 -6.559071 0.5905057,-3.370775 -6.053607 0.7337058,-3.716835 -5.813414 0.9033273,-2.687634 -5.053904 0.4006578,-2.911811 -4.136629 0.5830902,-3.029792 -3.572404 0.7328963,-3.122704 -3.039555 0.8588672,-2.366066 -4.786758 0.4185175,-2.521835 -3.710341 0.6211353,-2.609797 -2.993543 0.82117,-2.68003 -2.367527 0.9896113,-2.041192 -4.746507 0.4839757,-2.15099 -3.727649 0.6852872,-2.238103 -3.074259 0.8655358,-2.31673 -2.517928 1.008895,-1.695129 -4.900568 0.5731115,-1.654412 -4.087757 0.7508628,-1.636043 -3.566522 0.9051409,-1.635077 -3.059293 1.044544,-7.685385 -7.417657 0.2482373,-7.099138 -7.22809 0.4670787,-6.577463 -6.627155 0.6129417,-6.200371 -6.001997 0.797164,-5.880315 -5.614226 0.9949812,-6.813704 -5.032363 0.3230335,-6.591155 -4.071107 0.4514326,-6.490101 -3.442211 0.608329,-6.412413 -2.886098 0.7378556,-7.114569 -4.780757 0.3757322,-6.905501 -3.659973 0.4456547,-6.787216 -2.912168 0.6504905,-6.692982 -2.244877 0.8359988,-7.437463 -4.775766 0.4617458,-7.286003 -3.697813 0.5472361,-7.171932 -3.029827 0.7201334,-7.065298 -2.445995 0.8761302,-7.792027 -4.965953 0.5782541,-7.776001 -4.141786 0.7128963,-7.739534 -3.598941 0.8609512,-7.67903 -3.051919 0.9807653,1.98333,0 0 0 0 0 0 True
-1.885344 -7.227006 0.168293,-2.430452 -7.104285 0.4445963,-2.96303 -6.562992 0.6038921,-3.366441 -6.050848 0.7471669,-3.720781 -5.814424 0.9277812,-2.683842 -5.070776 0.4138479,-2.909228 -4.150699 0.5930563,-3.027145 -3.57747 0.7409705,-3.117587 -3.037169 0.8684047,-2.361691 -4.800537 0.4311711,-2.516742 -3.723686 0.6280835,-2.604909 -3.003322 0.8263112,-2.674432 -2.37589 0.9926954,-2.036215 -4.757871 0.4953077,-2.145514 -3.732625 0.6903126,-2.233997 -3.074771 0.8695927,-2.31286 -2.516842 1.010485,-1.688177 -4.913084 0.5824702,-1.65138 -4.093064 0.7613377,-1.632982 -3.568715 0.9156991,-1.630549 -3.060623 1.052892,-7.68831 -7.421041 0.2332319,-7.098545 -7.225574 0.464448,-6.576992 -6.630056 0.615451,-6.200427 -6.01165 0.8016239,-5.883413 -5.626655 1.000917,-6.814416 -5.044216 0.3280852,-6.587326 -4.084007 0.4578504,-6.486259 -3.458896 0.6174598,-6.409777 -2.905387 0.7472961,-7.117824 -4.789012 0.3718361,-6.908439 -3.66488 0.4437404,-6.790179 -2.920565 0.6509607,-6.695762 -2.257736 0.8383421,-7.440819 -4.777179 0.448724,-7.289229 -3.695819 0.5324397,-7.177056 -3.028621 0.7083942,-7.072638 -2.447896 0.8668426,-7.794484 -4.957809 0.5564042,-7.783968 -4.13464 0.6870444,-7.751017 -3.592901 0.8329644,-7.693242 -3.047458 0.9514471,2.01667,0 0 0 0 0 0 True
-1.885344 -7.227006 0.168293,-2.430452 -7.104285 0.4445963,-2.96303 -6.562992 0.6038921,-3.366441 -6.050848 0.7471669,-3.720781 -5.814424 0.9277812,-2.683842 -5.070776 0.4138479,-2.909228 -4.150699 0.5930563,-3.027145 -3.57747 0.7409705,-3.117587 -3.037169 0.8684047,-2.361691 -4.800537 0.4311711,-2.516742 -3.723686 0.6280835,-2.604909 -3.003322 0.8263112,-2.674432 -2.37589 0.9926954,-2.036215 -4.757871 0.4953077,-2.145514 -3.732625 0.6903126,-2.233997 -3.074771 0.8695927,-2.31286 -2.516842 1.010485,-1.688177 -4.913084 0.5824702,-1.65138 -4.093064 0.7613377,-1.632982 -3.568715 0.9156991,-1.630549 -3.060623 1.052892,-7.68831 -7.421041 0.2332319,-7.098545 -7.225574 0.464448,-6.576992 -6.630056 0.615451,-6.200427 -6.01165 0.8016239,-5.883413 -5.626655 1.000917,-6.814416 -5.044216 0.3280852,-6.587326 -4.084007 0.4578504,-6.486259 -3.458896 0.6174598,-6.409777 -2.905387 0.7472961,-7.117824 -4.789012 0.3718361,-6.908439 -3.66488 0.4437404,-6.790179 -2.920565 0.6509607,-6.695762 -2.257736 0.8383421,-7.440819 -4.777179 0.448724,-7.289229 -3.695819 0.5324397,-7.177056 -3.028621 0.7083942,-7.072638 -2.447896 0.8668426,-7.794484 -4.957809 0.5564042,-7.783968 -4.13464 0.6870444,-7.751017 -3.592901 0.8329644,-7.693242 -3.047458 0.9514471,2.05000,0 0 0 0 0 0 True
-1.888 -7.239406 0.1561417,-2.438993 -7.121528 0.4282196,-2.97285 -6.577642 0.5835487,-3.369829 -6.058564 0.7224399,-3.717157 -5.8113 0.891084,-2.679884 -5.08007 0.3953143,-2.905271 -4.154044 0.567533,-3.025238 -3.581189 0.7071819,-3.116073 -3.044689 0.8267586,-2.356729 -4.814098 0.410418,-2.511658 -3.72982 0.6032448,-2.601809 -3.009185 0.7936478,-2.671206 -2.389732 0.9512297,-2.032122 -4.772992 0.4723478,-2.136891 -3.743151 0.6651759,-2.225031 -3.082153 0.837093,-2.302094 -2.525671 0.973275,-1.686445 -4.925687 0.5581028,-1.648668 -4.103442 0.7320105,-1.631257 -3.578884 0.88232,-1.629714 -3.07663 1.014672,-7.693341 -7.433305 0.2141353,-7.104856 -7.244673 0.4457588,-6.579303 -6.647882 0.5963171,-6.201228 -6.026021 0.7831142,-5.888696 -5.63354 0.9814421,-6.820682 -5.061497 0.3040472,-6.594714 -4.09678 0.4383077,-6.492518 -3.468558 0.600184,-6.413875 -2.911432 0.7357379,-7.12407 -4.80656 0.3515837,-6.913398 -3.681749 0.42926,-6.795816 -2.932168 0.6418751,-6.703761 -2.262543 0.8336433,-7.446605 -4.795031 0.4323822,-7.293674 -3.713872 0.5225707,-7.18127 -3.042715 0.6978842,-7.076631 -2.456422 0.8567591,-7.799597 -4.976997 0.5430536,-7.783529 -4.143685 0.6793683,-7.750314 -3.595505 0.8260344,-7.693169 -3.043384 0.9462147,2.08333,0 0 0 0 0 0 True
-1.888 -7.239406 0.1561417,-2.438993 -7.121528 0.4282196,-2.97285 -6.577642 0.5835487,-3.369829 -6.058564 0.7224399,-3.717157 -5.8113 0.891084,-2.679884 -5.08007 0.3953143,-2.905271 -4.154044 0.567533,-3.025238 -3.581189 0.7071819,-3.116073 -3.044689 0.8267586,-2.356729 -4.814098 0.410418,-2.511658 -3.72982 0.6032448,-2.601809 -3.009185 0.7936478,-2.671206 -2.389732 0.9512297,-2.032122 -4.772992 0.4723478,-2.136891 -3.743151 0.6651759,-2.225031 -3.082153 0.837093,-2.302094 -2.525671 0.973275,-1.686445 -4.925687 0.5581028,-1.648668 -4.103442 0.7320105,-1.631257 -3.578884 0.88232,-1.629714 -3.07663 1.014672,-7.693341 -7.433305 0.2141353,-7.104856 -7.244673 0.4457588,-6.579303 -6.647882 0.5963171,-6.201228 -6.026021 0.7831142,-5.888696 -5.63354 0.9814421,-6.820682 -5.061497 0.3040472,-6.594714 -4.09678 0.4383077,-6.492518 -3.468558 0.600184,-6.413875 -2.911432 0.7357379,-7.12407 -4.80656 0.3515837,-6.913398 -3.681749 0.42926,-6.795816 -2.932168 0.6418751,-6.703761 -2.262543 0.8336433,-7.446605 -4.795031 0.4323822,-7.293674 -3.713872 0.5225707,-7.18127 -3.042715 0.6978842,-7.076631 -2.456422 0.8567591,-7.799597 -4.976997 0.5430536,-7.783529 -4.143685 0.6793683,-7.750314 -3.595505 0.8260344,-7.693169 -3.043384 0.9462147,2.11667,0 0 0 0 0 0 True
-1.895754 -7.259506 0.1794713,-2.442745 -7.13629 0.4372685,-2.975089 -6.589449 0.5815408,-3.369508 -6.066621 0.7122425,-3.714789 -5.818832 0.8734953,-2.686081 -5.086746 0.3898541,-2.910178 -4.16312 0.5546428,-3.031534 -3.590526 0.6880817,-3.123376 -3.052824 0.8038267,-2.364611 -4.825318 0.4131131,-2.517389 -3.744745 0.5978848,-2.6078 -3.026513 0.7858296,-2.67415 -2.409768 0.9434097,-2.040915 -4.783705 0.4833237,-2.143669 -3.756754 0.6677448,-2.227973 -3.095081 0.8369547,-2.298616 -2.53775 0.9754733,-1.694957 -4.935365 0.5762933,-1.65781 -4.112711 0.7406838,-1.638041 -3.58708 0.8894473,-1.63225 -3.081105 1.022379,-7.690479 -7.428879 0.2187538,-7.09929 -7.238873 0.4537063,-6.57949 -6.642553 0.6092237,-6.206717 -6.016847 0.7992751,-5.899403 -5.613788 1.000403,-6.818014 -5.057146 0.3105007,-6.590268 -4.108108 0.4426712,-6.488791 -3.488166 0.6046609,-6.411604 -2.93613 0.7375882,-7.121764 -4.800504 0.353184,-6.915768 -3.677692 0.4238928,-6.798915 -2.934278 0.631937,-6.704556 -2.26963 0.8191942,-7.443886 -4.785207 0.4291313,-7.297956 -3.705426 0.5093952,-7.185596 -3.040487 0.6809703,-7.079375 -2.459746 0.8345954,-7.795611 -4.961353 0.5369021,-7.783323 -4.130271 0.664276,-7.75079 -3.584222 0.8066511,-7.692472 -3.037211 0.9188974,2.15000,0 0 0 0 0 0 True
-1.895754 -7.259506 0.1794713,-2.442745 -7.13629 0.4372685,-2.975089 -6.589449 0.5815408,-3.369508 -6.066621 0.7122425,-3.714789 -5.818832 0.8734953,-2.686081 -5.086746 0.3898541,-2.910178 -4.16312 0.5546428,-3.031534 -3.590526 0.6880817,-3.123376 -3.052824 0.8038267,-2.364611 -4.825318 0.4131131,-2.517389 -3.744745 0.5978848,-2.6078 -3.026513 0.7858296,-2.67415 -2.409768 0.9434097,-2.040915 -4.783705 0.4833237,-2.143669 -3.756754 0.6677448,-2.227973 -3.095081 0.8369547,-2.298616 -2.53775 0.9754733,-1.694957 -4.935365 0.5762933,-1.65781 -4.112711 0.7406838,-1.638041 -3.58708 0.8894473,-1.63225 -3.081105 1.022379,-7.690479 -7.428879 0.2187538,-7.09929 -7.238873 0.4537063,-6.57949 -6.642553 0.6092237,-6.206717 -6.016847 0.7992751,-5.899403 -5.613788 1.000403,-6.818014 -5.057146 0.3105007,-6.590268 -4.108108 0.4426712,-6.488791 -3.488166 0.6046609,-6.411604 -2.93613 0.7375882,-7.121764 -4.800504 0.353184,-6.915768 -3.677692 0.4238928,-6.798915 -2.934278 0.631937,-6.704556 -2.26963 0.8191942,-7.443886 -4.785207 0.4291313,-7.297956 -3.705426 0.5093952,-7.185596 -3.040487 0.6809703,-7.079375 -2.459746 0.8345954,-7.795611 -4.961353 0.5369021,-7.783323 -4.130271 0.664276,-7.75079 -3.584222 0.8066511,-7.692472 -3.037211 0.9188974,2.18333,0 0 0 0 0 0 True
-1.897303 -7.256813 0.1875431,-2.445024 -7.138528 0.4494646,-2.975948 -6.593746 0.6042949,-3.374113 -6.078873 0.7462441,-3.720462 -5.830579 0.9199694,-2.688305 -5.081831 0.3975479,-2.916449 -4.154945 0.5601047,-3.041435 -3.580516 0.69839,-3.134541 -3.043808 0.8165846,-2.365455 -4.820024 0.4201141,-2.520063 -3.735717 0.601764,-2.611787 -3.015024 0.7903497,-2.681387 -2.397348 0.9483098,-2.040861 -4.779302 0.4903118,-2.144082 -3.752312 0.673147,-2.231288 -3.085956 0.8488421,-2.307431 -2.524909 0.9882117,-1.69613 -4.931785 0.5837698,-1.656189 -4.111301 0.7485285,-1.638655 -3.589545 0.8944378,-1.637979 -3.090872 1.02474,-7.687694 -7.429637 0.2241935,-7.095143 -7.229333 0.4434975,-6.580395 -6.631122 0.597286,-6.211033 -6.004053 0.7886603,-5.901317 -5.601608 0.9951178,-6.825409 -5.047874 0.2981231,-6.605762 -4.083078 0.4258071,-6.507655 -3.46163 0.5846912,-6.429278 -2.912132 0.7156324,-7.129562 -4.796931 0.3492194,-6.926094 -3.672812 0.4170642,-6.810467 -2.932968 0.619971,-6.715382 -2.277348 0.8003204,-7.45218 -4.787139 0.4331104,-7.307819 -3.708329 0.5138149,-7.198204 -3.043529 0.6850401,-7.091658 -2.466178 0.8350754,-7.802902 -4.970457 0.5462034,-7.795804 -4.142026 0.674265,-7.767232 -3.594773 0.8185369,-7.710195 -3.04669 0.9311773,2.21667,0 0 0 0 0 0 True
-1.879714 -7.235258 0.1508536,-2.432572 -7.108852 0.4276849,-2.964106 -6.582946 0.5921282,-3.359804 -6.070612 0.7422689,-3.707005 -5.817089 0.9221931,-2.674209 -5.073986 0.394026,-2.901261 -4.150649 0.5652263,-3.024012 -3.588276 0.7095786,-3.122482 -3.056217 0.8345332,-2.355985 -4.813815 0.4132424,-2.515217 -3.736415 0.6136274,-2.608891 -3.025478 0.8132812,-2.683334 -2.400488 0.9800667,-2.033565 -4.775407 0.4804571,-2.144362 -3.750151 0.6782612,-2.233967 -3.091548 0.8647957,-2.313147 -2.526735 1.012395,-1.688947 -4.927518 0.5700455,-1.652516 -4.105489 0.7467743,-1.638121 -3.581392 0.905203,-1.639134 -3.07205 1.046194,-7.699849 -7.407928 0.1731154,-7.113287 -7.207172 0.3975098,-6.596191 -6.613565 0.5560576,-6.223263 -5.992788 0.7534133,-5.919211 -5.587752 0.9639521,-6.839216 -5.041036 0.2622225,-6.620271 -4.071393 0.3968226,-6.523501 -3.446628 0.5557735,-6.445032 -2.893116 0.6830931,-7.139853 -4.791381 0.314495,-6.937645 -3.657395 0.3967826,-6.822884 -2.913335 0.6008236,-6.724136 -2.24635 0.7861419,-7.459972 -4.783847 0.4003437,-7.321298 -3.691945 0.4889923,-7.214475 -3.016737 0.6666639,-7.108011 -2.420382 0.8224459,-7.809641 -4.970565 0.5153893,-7.806754 -4.136398 0.6493052,-7.778551 -3.586795 0.7988094,-7.721213 -3.032871 0.9172837,2.25000,0 0 0 0 0 0 True
-1.879714 -7.235258 0.1508536,-2.432572 -7.108852 0.4276849,-2.964106 -6.582946 0.5921282,-3.359804 -6.070612 0.7422689,-3.707005 -5.817089 0.9221931,-2.674209 -5.073986 0.394026,-2.901261 -4.150649 0.5652263,-3.024012 -3.588276 0.7095786,-3.122482 -3.056217 0.8345332,-2.355985 -4.813815 0.4132424,-2.515217 -3.736415 0.6136274,-2.608891 -3.025478 0.8132812,-2.683334 -2.400488 0.9800667,-2.033565 -4.775407 0.4804571,-2.144362 -3.750151 0.6782612,-2.233967 -3.091548 0.8647957,-2.313147 -2.526735 1.012395,-1.688947 -4.927518 0.5700455,-1.652516 -4.105489 0.7467743,-1.638121 -3.581392 0.905203,-1.639134 -3.07205 1.046194,-7.699849 -7.407928 0.1731154,-7.113287 -7.207172 0.3975098,-6.596191 -6.613565 0.5560576,-6.223263 -5.992788 0.7534133,-5.919211 -5.587752 0.9639521,-6.839216 -5.041036 0.2622225,-6.620271 -4.071393 0.3968226,-6.523501 -3.446628 0.5557735,-6.445032 -2.893116 0.6830931,-7.139853 -4.791381 0.314495,-6.937645 -3.657395 0.3967826,-6.822884 -2.913335 0.6008236,-6.724136 -2.24635 0.7861419,-7.459972 -4.783847 0.4003437,-7.321298 -3.691945 0.4889923,-7.214475 -3.016737 0.6666639,-7.108011 -2.420382 0.8224459,-7.809641 -4.970565 0.5153893,-7.806754 -4.136398 0.6493052,-7.778551 -3.586795 0.7988094,-7.721213 -3.032871 0.9172837,2.28333,0 0 0 0 0 0 True
-1.889373 -7.220825 0.1532996,-2.441016 -7.111074 0.4242423,-2.968217 -6.572736 0.5792013,-3.355196 -6.049821 0.7174996,-3.698353 -5.789767 0.8804005,-2.678472 -5.061317 0.3991157,-2.897568 -4.136901 0.5766537,-3.019033 -3.576026 0.719785,-3.114681 -3.041133 0.8374835,-2.356185 -4.797374 0.4207315,-2.503841 -3.714663 0.6273328,-2.594654 -2.998991 0.8271261,-2.666987 -2.367009 0.9937248,-2.032074 -4.756181 0.4873785,-2.135844 -3.731296 0.6916465,-2.227574 -3.073081 0.8724605,-2.307254 -2.51033 1.015902,-1.686194 -4.906816 0.5774723,-1.645111 -4.08814 0.7510211,-1.628098 -3.562049 0.9051138,-1.626226 -3.051078 1.045255,-7.700255 -7.407897 0.1700743,-7.113848 -7.215754 0.3981253,-6.596172 -6.613101 0.5492462,-6.227349 -5.986418 0.7359009,-5.916899 -5.596839 0.9321009,-6.844918 -5.044765 0.2749667,-6.623798 -4.079114 0.4156685,-6.524045 -3.458079 0.5763914,-6.446476 -2.9024 0.7033851,-7.148537 -4.791179 0.3233201,-6.944556 -3.654947 0.4113759,-6.82638 -2.901452 0.6200762,-6.728694 -2.231961 0.8082727,-7.468573 -4.780009 0.4047059,-7.329741 -3.693439 0.499465,-7.222313 -3.015062 0.6747912,-7.118392 -2.422307 0.8325254,-7.817476 -4.963306 0.5147151,-7.811703 -4.123975 0.652245,-7.781001 -3.578049 0.8015094,-7.724301 -3.034177 0.9191362,2.31667,0 0 0 0 0 0 True
-1.889373 -7.220825 0.1532996,-2.441016 -7.111074 0.4242423,-2.968217 -6.572736 0.5792013,-3.355196 -6.049821 0.7174996,-3.698353 -5.789767 0.8804005,-2.678472 -5.061317 0.3991157,-2.897568 -4.136901 0.5766537,-3.019033 -3.576026 0.719785,-3.114681 -3.041133 0.8374835,-2.356185 -4.797374 0.4207315,-2.503841 -3.714663 0.6273328,-2.594654 -2.998991 0.8271261,-2.666987 -2.367009 0.9937248,-2.032074 -4.756181 0.4873785,-2.135844 -3.731296 0.6916465,-2.227574 -3.073081 0.8724605,-2.307254 -2.51033 1.015902,-1.686194 -4.906816 0.5774723,-1.645111 -4.08814 0.7510211,-1.628098 -3.562049 0.9051138,-1.626226 -3.051078 1.045255,-7.700255 -7.407897 0.1700743,-7.113848 -7.215754 0.3981253,-6.596172 -6.613101 0.5492462,-6.227349 -5.986418 0.7359009,-5.916899 -5.596839 0.9321009,-6.844918 -5.044765 0.2749667,-6.623798 -4.079114 0.4156685,-6.524045 -3.458079 0.5763914,-6.446476 -2.9024 0.7033851,-7.148537 -4.791179 0.3233201,-6.944556 -3.654947 0.4113759,-6.82638 -2.901452 0.6200762,-6.728694 -2.231961 0.8082727,-7.468573 -4.780009 0.4047059,-7.329741 -3.693439 0.499465,-7.222313 -3.015062 0.6747912,-7.118392 -2.422307 0.8325254,-7.817476 -4.963306 0.5147151,-7.811703 -4.123975 0.652245,-7.781001 -3.578049 0.8015094,-7.724301 -3.034177 0.9191362,2.35000,0 0 0 0 0 0 True
-1.883496 -7.216699 0.1795351,-2.431257 -7.103828 0.4586496,-2.959403 -6.560672 0.6187042,-3.353271 -6.037677 0.761743,-3.702988 -5.783237 0.9403328,-2.675296 -5.048534 0.4211934,-2.898085 -4.119325 0.5891332,-3.019821 -3.546485 0.7275846,-3.112997 -3.009482 0.8474916,-2.350642 -4.784551 0.4369036,-2.502495 -3.702999 0.6274899,-2.59481 -2.985918 0.8163058,-2.666284 -2.361278 0.975042,-2.02413 -4.744408 0.5003735,-2.127888 -3.719905 0.6921287,-2.220655 -3.056663 0.8689276,-2.301076 -2.490462 1.010325,-1.676299 -4.900052 0.5871392,-1.637947 -4.079238 0.7603823,-1.625001 -3.553011 0.9131926,-1.628303 -3.045903 1.050214,-7.703736 -7.406148 0.170933,-7.116332 -7.207805 0.4136704,-6.597566 -6.611915 0.5690557,-6.225375 -5.989238 0.7586553,-5.922444 -5.583254 0.9560469,-6.852479 -5.035358 0.2601561,-6.631058 -4.062599 0.3901661,-6.529881 -3.43984 0.5526233,-6.451074 -2.887003 0.6833512,-7.157337 -4.786565 0.2962832,-6.958104 -3.652443 0.3704077,-6.84394 -2.909219 0.5735122,-6.749047 -2.24859 0.7569773,-7.477661 -4.778244 0.3675831,-7.339161 -3.691205 0.4488325,-7.233273 -3.020744 0.6169861,-7.130276 -2.432702 0.7692034,-7.825664 -4.962396 0.4714001,-7.82135 -4.130529 0.5972419,-7.792215 -3.58628 0.7404726,-7.736509 -3.043602 0.8554242,2.38333,0 0 0 0 0 0 True
-1.883496 -7.216699 0.1795351,-2.431257 -7.103828 0.4586496,-2.959403 -6.560672 0.6187042,-3.353271 -6.037677 0.761743,-3.702988 -5.783237 0.9403328,-2.675296 -5.048534 0.4211934,-2.898085 -4.119325 0.5891332,-3.019821 -3.546485 0.7275846,-3.112997 -3.009482 0.8474916,-2.350642 -4.784551 0.4369036,-2.502495 -3.702999 0.6274899,-2.59481 -2.985918 0.8163058,-2.666284 -2.361278 0.975042,-2.02413 -4.744408 0.5003735,-2.127888 -3.719905 0.6921287,-2.220655 -3.056663 0.8689276,-2.301076 -2.490462 1.010325,-1.676299 -4.900052 0.5871392,-1.637947 -4.079238 0.7603823,-1.625001 -3.553011 0.9131926,-1.628303 -3.045903 1.050214,-7.703736 -7.406148 0.170933,-7.116332 -7.207805 0.4136704,-6.597566 -6.611915 0.5690557,-6.225375 -5.989238 0.7586553,-5.922444 -5.583254 0.9560469,-6.852479 -5.035358 0.2601561,-6.631058 -4.062599 0.3901661,-6.529881 -3.43984 0.5526233,-6.451074 -2.887003 0.6833512,-7.157337 -4.786565 0.2962832,-6.958104 -3.652443 0.3704077,-6.84394 -2.909219 0.5735122,-6.749047 -2.24859 0.7569773,-7.477661 -4.778244 0.3675831,-7.339161 -3.691205 0.4488325,-7.233273 -3.020744 0.6169861,-7.130276 -2.432702 0.7692034,-7.825664 -4.962396 0.4714001,-7.82135 -4.130529 0.5972419,-7.792215 -3.58628 0.7404726,-7.736509 -3.043602 0.8554242,2.41667,0 0 0 0 0 0 True
-1.881551 -7.222457 0.1587135,-2.429567 -7.101728 0.4194779,-2.965155 -6.556264 0.567476,-3.366263 -6.037305 0.7027922,-3.721596 -5.793275 0.8755594,-2.675766 -5.058628 0.3691125,-2.900783 -4.133831 0.5332255,-3.02269 -3.562752 0.6698374,-3.115942 -3.023805 0.7868237,-2.353647 -4.7947 0.3895922,-2.504658 -3.71345 0.5733237,-2.592783 -2.997277 0.7646173,-2.659959 -2.377738 0.9249588,-2.029142 -4.751197 0.4574061,-2.131004 -3.727311 0.639442,-2.215241 -3.069075 0.8134925,-2.287449 -2.513623 0.9534373,-1.68257 -4.899389 0.5470656,-1.645734 -4.082447 0.7146139,-1.627469 -3.561474 0.8640102,-1.623753 -3.062646 0.9960715,-7.690379 -7.426971 0.1849398,-7.113494 -7.221756 0.4178268,-6.600786 -6.62368 0.5758123,-6.228297 -6.002324 0.7726717,-5.916672 -5.598808 0.9838163,-6.854791 -5.045255 0.2604482,-6.639079 -4.060016 0.3946395,-6.536812 -3.429857 0.5602883,-6.456611 -2.874556 0.6922566,-7.153084 -4.801593 0.3137236,-6.95894 -3.664577 0.3976187,-6.845204 -2.918764 0.6033693,-6.750374 -2.258052 0.7866938,-7.468626 -4.796619 0.403089,-7.331183 -3.707386 0.4992048,-7.223658 -3.030534 0.675156,-7.120171 -2.43959 0.831489,-7.81341 -4.98555 0.5249035,-7.807652 -4.147581 0.6654686,-7.777095 -3.597624 0.8170035,-7.722247 -3.048463 0.936945,2.45000,0 0 0 0 0 0 True
-1.881551 -7.222457 0.1587135,-2.429567 -7.101728 0.4194779,-2.965155 -6.556264 0.567476,-3.366263 -6.037305 0.7027922,-3.721596 -5.793275 0.8755594,-2.675766 -5.058628 0.3691125,-2.900783 -4.133831 0.5332255,-3.02269 -3.562752 0.6698374,-3.115942 -3.023805 0.7868237,-2.353647 -4.7947 0.3895922,-2.504658 -3.71345 0.5733237,-2.592783 -2.997277 0.7646173,-2.659959 -2.377738 0.9249588,-2.029142 -4.751197 0.4574061,-2.131004 -3.727311 0.639442,-2.215241 -3.069075 0.8134925,-2.287449 -2.513623 0.9534373,-1.68257 -4.899389 0.5470656,-1.645734 -4.082447 0.7146139,-1.627469 -3.561474 0.8640102,-1.623753 -3.062646 0.9960715,-7.690379 -7.426971 0.1849398,-7.113494 -7.221756 0.4178268,-6.600786 -6.62368 0.5758123,-6.228297 -6.002324 0.7726717,-5.916672 -5.598808 0.9838163,-6.854791 -5.045255 0.2604482,-6.639079 -4.060016 0.3946395,-6.536812 -3.429857 0.5602883,-6.456611 -2.874556 0.6922566,-7.153084 -4.801593 0.3137236,-6.95894 -3.664577 0.3976187,-6.845204 -2.918764 0.6033693,-6.750374 -2.258052 0.7866938,-7.468626 -4.796619 0.403089,-7.331183 -3.707386 0.4992048,-7.223658 -3.030534 0.675156,-7.120171 -2.43959 0.831489,-7.81341 -4.98555 0.5249035,-7.807652 -4.147581 0.6654686,-7.777095 -3.597624 0.8170035,-7.722247 -3.048463 0.936945,2.48333,0 0 0 0 0 0 True
-1.887029 -7.255005 0.1686641,-2.432402 -7.136692 0.4387681,-2.966139 -6.584283 0.5915598,-3.362041 -6.055774 0.7302765,-3.712603 -5.796745 0.9020736,-2.679665 -5.09004 0.4050534,-2.90366 -4.156271 0.5809698,-3.023391 -3.573399 0.7231641,-3.112911 -3.024442 0.8472289,-2.3574 -4.826704 0.4263832,-2.508132 -3.736948 0.6211814,-2.597004 -3.013036 0.8183527,-2.663805 -2.38742 0.9860182,-2.033163 -4.782805 0.4952311,-2.136305 -3.748182 0.6904674,-2.224678 -3.082069 0.8669154,-2.300753 -2.518108 1.0103,-1.687239 -4.931873 0.5866734,-1.648982 -4.104202 0.7643154,-1.631243 -3.576927 0.9175896,-1.628878 -3.072893 1.053394,-7.695167 -7.43399 0.1509472,-7.116354 -7.229572 0.3796595,-6.601183 -6.633531 0.5393687,-6.226622 -6.015352 0.7413047,-5.921213 -5.602726 0.9595812,-6.855471 -5.062114 0.2269681,-6.63779 -4.073884 0.3610256,-6.536031 -3.437849 0.5218112,-6.457891 -2.880558 0.6541135,-7.152927 -4.819782 0.2846376,-6.954654 -3.680451 0.3656847,-6.84238 -2.936639 0.5633034,-6.751438 -2.276636 0.7389404,-7.470337 -4.812515 0.3771082,-7.327806 -3.719919 0.4754175,-7.217695 -3.040206 0.6559672,-7.112301 -2.445352 0.8152199,-7.819705 -4.997297 0.5014811,-7.813187 -4.152976 0.6483837,-7.781021 -3.601947 0.8045691,-7.723853 -3.04903 0.9298865,2.51667,0 0 0 0 0 0 True
-1.887029 -7.255005 0.1686641,-2.432402 -7.136692 0.4387681,-2.966139 -6.584283 0.5915598,-3.362041 -6.055774 0.7302765,-3.712603 -5.796745 0.9020736,-2.679665 -5.09004 0.4050534,-2.90366 -4.156271 0.5809698,-3.023391 -3.573399 0.7231641,-3.112911 -3.024442 0.8472289,-2.3574 -4.826704 0.4263832,-2.508132 -3.736948 0.6211814,-2.597004 -3.013036 0.8183527,-2.663805 -2.38742 0.9860182,-2.033163 -4.782805 0.4952311,-2.136305 -3.748182 0.6904674,-2.224678 -3.082069 0.8669154,-2.300753 -2.518108 1.0103,-1.687239 -4.931873 0.5866734,-1.648982 -4.104202 0.7643154,-1.631243 -3.576927 0.9175896,-1.628878 -3.072893 1.053394,-7.695167 -7.43399 0.1509472,-7.116354 -7.229572 0.3796595,-6.601183 -6.633531 0.5393687,-6.226622 -6.015352 0.7413047,-5.921213 -5.602726 0.9595812,-6.855471 -5.062114 0.2269681,-6.63779 -4.073884 0.3610256,-6.536031 -3.437849 0.5218112,-6.457891 -2.880558 0.6541135,-7.152927 -4.819782 0.2846376,-6.954654 -3.680451 0.3656847,-6.84238 -2.936639 0.5633034,-6.751438 -2.276636 0.7389404,-7.470337 -4.812515 0.3771082,-7.327806 -3.719919 0.4754175,-7.217695 -3.040206 0.6559672,-7.112301 -2.445352 0.8152199,-7.819705 -4.997297 0.5014811,-7.813187 -4.152976 0.6483837,-7.781021 -3.601947 0.8045691,-7.723853 -3.04903 0.9298865,2.55000,0 0 0 0 0 0 True
-1.898661 -7.273963 0.2093963,-2.444104 -7.154842 0.4617226,-2.973994 -6.595769 0.6022844,-3.370377 -6.065013 0.7312975,-3.718889 -5.814149 0.8932379,-2.684753 -5.09258 0.4040814,-2.909246 -4.167258 0.5629986,-3.032509 -3.592151 0.6958684,-3.124767 -3.05061 0.8118269,-2.364045 -4.829221 0.4306493,-2.513981 -3.748767 0.6114938,-2.604582 -3.029871 0.8006823,-2.67147 -2.408922 0.9611074,-2.041348 -4.785455 0.5052315,-2.143697 -3.761907 0.6884102,-2.229888 -3.099378 0.8600695,-2.302902 -2.53814 0.9986889,-1.695694 -4.93546 0.602555,-1.655716 -4.117646 0.7659364,-1.634767 -3.594512 0.9121753,-1.627413 -3.091198 1.044319,-7.691471 -7.442123 0.1612677,-7.111751 -7.242193 0.3944034,-6.598409 -6.64616 0.5538613,-6.227159 -6.023584 0.754427,-5.917462 -5.613531 0.9704095,-6.852387 -5.066188 0.233883,-6.635964 -4.077321 0.366494,-6.535595 -3.440641 0.5275446,-6.45711 -2.877021 0.659844,-7.150549 -4.82442 0.2909937,-6.954271 -3.686313 0.3691229,-6.842444 -2.945176 0.5697569,-6.751225 -2.288948 0.7489711,-7.467141 -4.817581 0.3850934,-7.326075 -3.726689 0.47925,-7.219397 -3.052135 0.6590594,-7.116499 -2.460641 0.8180428,-7.81569 -5.001676 0.5109983,-7.807309 -4.154706 0.6543894,-7.775805 -3.599537 0.8094029,-7.719913 -3.043105 0.9324754,2.58333,0 0 0 0 0 0 True
