TiagoOliveira98/Thesis-Project/Difficulty_1_NEW/Dual_Task/Unity_Project/DataLogging/JointData/Logs(1651331746)_hhh_Dual_Difficulty0.csv
WRIST,THUMB_CMC,THUMB_MCP,THUMB_IP,THUMB_TIP,INDEX_FINGER_MCP,INDEX_FINGER_PIP,INDEX_FINGER_DIP,INDEX_FINGER_TIP,MIDDLE_FINGER_MCP,MIDDLE_FINGER_PIP,MIDDLE_FINGER_DIP,MIDDLE_FINGER_TIP,RING_FINGER_MCP,RING_FINGER_PIP,RING_FINGER_DIP,RING_FINGER_TIP,PINKY_MCP,PINKY_PIP,PINKY_DIP,PINKY_TIP,WRIST2,THUMB_CMC2,THUMB_MCP2,THUMB_IP2,THUMB_TIP2,INDEX_FINGER_MCP2,INDEX_FINGER_PIP2,INDEX_FINGER_DIP2,INDEX_FINGER_TIP2,MIDDLE_FINGER_MCP2,MIDDLE_FINGER_PIP2,MIDDLE_FINGER_DIP2,MIDDLE_FINGER_TIP2,RING_FINGER_MCP2,RING_FINGER_PIP2,RING_FINGER_DIP2,RING_FINGER_TIP2,PINKY_MCP2,PINKY_PIP2,PINKY_DIP2,PINKY_TIP2,Timestamp,Event
-2.217852 -7.263019 4.959254E-05,-2.778138 -7.088022 0.283238,-3.297344 -6.491521 0.4413312,-3.687687 -5.940599 0.5866924,-4.016597 -5.650352 0.7497628,-2.955078 -5.043073 0.2349409,-3.162575 -4.11193 0.4301064,-3.272223 -3.537815 0.5849887,-3.362642 -2.996833 0.705099,-2.624298 -4.803558 0.2525402,-2.750561 -3.719617 0.464299,-2.826579 -2.9784 0.6732314,-2.893185 -2.349331 0.8549914,-2.298249 -4.78924 0.3215743,-2.367135 -3.762378 0.525337,-2.434173 -3.079723 0.7133648,-2.500769 -2.511933 0.8627869,-1.955676 -4.977595 0.4098655,-1.87052 -4.150205 0.5860261,-1.825763 -3.612036 0.7463965,-1.803545 -3.094471 0.890779,-7.677653 -7.47403 0.0002852009,-7.133903 -7.226751 0.2483837,-6.599075 -6.569265 0.3981023,-6.191111 -5.977188 0.5844474,-5.824637 -5.68143 0.7911372,-6.907633 -4.983789 0.1699965,-6.751601 -3.944656 0.2984968,-6.69636 -3.289024 0.4432755,-6.663621 -2.699253 0.5722106,-7.213471 -4.778442 0.2271143,-7.054302 -3.608156 0.3380505,-6.958565 -2.863603 0.5462097,-6.878087 -2.20186 0.7448546,-7.527785 -4.817126 0.3145442,-7.426075 -3.72005 0.4504437,-7.345928 -3.027551 0.6425527,-7.263131 -2.409979 0.8084043,-7.862054 -5.067579 0.4292802,-7.895747 -4.245609 0.6138046,-7.893354 -3.72337 0.7695161,-7.867756 -3.194614 0.8969131,0.01667,0 0 0 0 0 0 True
-2.209799 -7.264487 -0.01043626,-2.77143 -7.096214 0.2688173,-3.291002 -6.505437 0.4241191,-3.682272 -5.951694 0.5679463,-4.008644 -5.655497 0.7334073,-2.949852 -5.047439 0.2081496,-3.162376 -4.118141 0.3935849,-3.275906 -3.545947 0.5469292,-3.368431 -3.005245 0.6667478,-2.621848 -4.807241 0.2242278,-2.752685 -3.722808 0.4274201,-2.830335 -2.98511 0.6329412,-2.896187 -2.357575 0.8140163,-2.297998 -4.789503 0.2936784,-2.372078 -3.762153 0.4878179,-2.440427 -3.082328 0.6741828,-2.505678 -2.516153 0.82281,-1.956085 -4.970203 0.3818683,-1.874529 -4.139079 0.5535183,-1.8309 -3.600675 0.7108413,-1.807261 -3.083675 0.8552713,-7.684571 -7.481822 -0.02111282,-7.136367 -7.234218 0.2398237,-6.600434 -6.575901 0.4000226,-6.192417 -5.980431 0.5921913,-5.826366 -5.685316 0.8017136,-6.909883 -4.997924 0.183612,-6.758064 -3.950349 0.3224755,-6.701792 -3.290164 0.4738793,-6.666632 -2.698137 0.6068684,-7.216679 -4.795928 0.2367587,-7.064642 -3.614491 0.3631676,-6.96837 -2.864938 0.57464,-6.888759 -2.202212 0.7727606,-7.530058 -4.834503 0.3201363,-7.436687 -3.725676 0.4664053,-7.356653 -3.030038 0.6566558,-7.274873 -2.414767 0.817761,-7.863633 -5.080285 0.4310707,-7.898674 -4.248794 0.6198115,-7.893838 -3.721893 0.7751862,-7.868905 -3.19462 0.9009053,0.05000,0 0 0 0 0 0 True
-2.209799 -7.264487 -0.01043626,-2.77143 -7.096214 0.2688173,-3.291002 -6.505437 0.4241191,-3.682272 -5.951694 0.5679463,-4.008644 -5.655497 0.7334073,-2.949852 -5.047439 0.2081496,-3.162376 -4.118141 0.3935849,-3.275906 -3.545947 0.5469292,-3.368431 -3.005245 0.6667478,-2.621848 -4.807241 0.2242278,-2.752685 -3.722808 0.4274201,-2.830335 -2.98511 0.6329412,-2.896187 -2.357575 0.8140163,-2.297998 -4.789503 0.2936784,-2.372078 -3.762153 0.4878179,-2.440427 -3.082328 0.6741828,-2.505678 -2.516153 0.82281,-1.956085 -4.970203 0.3818683,-1.874529 -4.139079 0.5535183,-1.8309 -3.600675 0.7108413,-1.807261 -3.083675 0.8552713,-7.684571 -7.481822 -0.02111282,-7.136367 -7.234218 0.2398237,-6.600434 -6.575901 0.4000226,-6.192417 -5.980431 0.5921913,-5.826366 -5.685316 0.8017136,-6.909883 -4.997924 0.183612,-6.758064 -3.950349 0.3224755,-6.701792 -3.290164 0.4738793,-6.666632 -2.698137 0.6068684,-7.216679 -4.795928 0.2367587,-7.064642 -3.614491 0.3631676,-6.96837 -2.864938 0.57464,-6.888759 -2.202212 0.7727606,-7.530058 -4.834503 0.3201363,-7.436687 -3.725676 0.4664053,-7.356653 -3.030038 0.6566558,-7.274873 -2.414767 0.817761,-7.863633 -5.080285 0.4310707,-7.898674 -4.248794 0.6198115,-7.893838 -3.721893 0.7751862,-7.868905 -3.19462 0.9009053,0.08333,0 0 0 0 0 0 True
-2.215174 -7.2574 0.006316236,-2.777207 -7.085973 0.277793,-3.292658 -6.502068 0.4337537,-3.678197 -5.950722 0.5806242,-4.002697 -5.64954 0.7454334,-2.954339 -5.030954 0.2251279,-3.162755 -4.10254 0.4129409,-3.276592 -3.532994 0.5666283,-3.368992 -2.995525 0.6867325,-2.625112 -4.795667 0.2485979,-2.75386 -3.713846 0.4524657,-2.834506 -2.977344 0.6607109,-2.901879 -2.351322 0.8450481,-2.300017 -4.783063 0.3219521,-2.369419 -3.756345 0.5188831,-2.438817 -3.077991 0.7059892,-2.505432 -2.511032 0.8569642,-1.958273 -4.970497 0.4145852,-1.871847 -4.14961 0.5810618,-1.827855 -3.614776 0.738624,-1.804296 -3.099038 0.8837853,-7.687224 -7.475542 -0.02662477,-7.143214 -7.208756 0.2343991,-6.605402 -6.561135 0.3961231,-6.193727 -5.978248 0.5935223,-5.825957 -5.686064 0.8117641,-6.909506 -4.992107 0.1788491,-6.750856 -3.939615 0.3153908,-6.699899 -3.272992 0.4655023,-6.671466 -2.676334 0.596831,-7.217894 -4.791791 0.2345205,-7.056594 -3.614191 0.3610268,-6.963406 -2.862987 0.5768041,-6.884314 -2.197131 0.7789365,-7.535592 -4.828115 0.3177453,-7.4299 -3.719174 0.469941,-7.351346 -3.020489 0.6699252,-7.26785 -2.399354 0.8361471,-7.876367 -5.069934 0.4302854,-7.913202 -4.239368 0.6176533,-7.916276 -3.71492 0.7701285,-7.894337 -3.178902 0.8927044,0.11667,0 0 0 0 0 0 True
-2.215174 -7.2574 0.006316236,-2.777207 -7.085973 0.277793,-3.292658 -6.502068 0.4337537,-3.678197 -5.950722 0.5806242,-4.002697 -5.64954 0.7454334,-2.954339 -5.030954 0.2251279,-3.162755 -4.10254 0.4129409,-3.276592 -3.532994 0.5666283,-3.368992 -2.995525 0.6867325,-2.625112 -4.795667 0.2485979,-2.75386 -3.713846 0.4524657,-2.834506 -2.977344 0.6607109,-2.901879 -2.351322 0.8450481,-2.300017 -4.783063 0.3219521,-2.369419 -3.756345 0.5188831,-2.438817 -3.077991 0.7059892,-2.505432 -2.511032 0.8569642,-1.958273 -4.970497 0.4145852,-1.871847 -4.14961 0.5810618,-1.827855 -3.614776 0.738624,-1.804296 -3.099038 0.8837853,-7.687224 -7.475542 -0.02662477,-7.143214 -7.208756 0.2343991,-6.605402 -6.561135 0.3961231,-6.193727 -5.978248 0.5935223,-5.825957 -5.686064 0.8117641,-6.909506 -4.992107 0.1788491,-6.750856 -3.939615 0.3153908,-6.699899 -3.272992 0.4655023,-6.671466 -2.676334 0.596831,-7.217894 -4.791791 0.2345205,-7.056594 -3.614191 0.3610268,-6.963406 -2.862987 0.5768041,-6.884314 -2.197131 0.7789365,-7.535592 -4.828115 0.3177453,-7.4299 -3.719174 0.469941,-7.351346 -3.020489 0.6699252,-7.26785 -2.399354 0.8361471,-7.876367 -5.069934 0.4302854,-7.913202 -4.239368 0.6176533,-7.916276 -3.71492 0.7701285,-7.894337 -3.178902 0.8927044,0.15000,0 0 0 0 0 0 True
-2.2223 -7.25731 0.0006753172,-2.779935 -7.08705 0.2540227,-3.29186 -6.492933 0.3983149,-3.677945 -5.941905 0.5349804,-4.005545 -5.651818 0.6903657,-2.948112 -5.029289 0.1827325,-3.158188 -4.101068 0.3663411,-3.272549 -3.530031 0.5174888,-3.363728 -2.99147 0.632257,-2.621775 -4.792896 0.214984,-2.751248 -3.709292 0.4152234,-2.831706 -2.967743 0.6180809,-2.897728 -2.340379 0.7975165,-2.297637 -4.778126 0.2986986,-2.366621 -3.751657 0.4912413,-2.435977 -3.070588 0.6719239,-2.499917 -2.504603 0.8187296,-1.955116 -4.964471 0.4009496,-1.867541 -4.139587 0.5665604,-1.822215 -3.603499 0.7201361,-1.797061 -3.088302 0.8620572,-7.683551 -7.476532 -0.00824104,-7.1359 -7.220742 0.2474299,-6.599457 -6.562793 0.4007077,-6.189629 -5.977848 0.5902159,-5.823959 -5.683999 0.7964586,-6.920117 -4.981024 0.1483349,-6.765057 -3.936286 0.2763407,-6.710723 -3.273698 0.4265215,-6.675896 -2.684103 0.5600153,-7.227737 -4.780391 0.1991108,-7.070839 -3.604958 0.3145025,-6.975437 -2.858071 0.5249693,-6.893216 -2.197886 0.7213322,-7.541901 -4.813465 0.2808982,-7.439973 -3.709989 0.4217013,-7.359011 -3.015054 0.6114612,-7.272986 -2.399127 0.7718118,-7.876413 -5.053945 0.3937471,-7.917372 -4.232415 0.5681804,-7.918264 -3.710744 0.714644,-7.895213 -3.179802 0.833405,0.18333,0 0 0 0 0 0 True
-2.2223 -7.25731 0.0006753172,-2.779935 -7.08705 0.2540227,-3.29186 -6.492933 0.3983149,-3.677945 -5.941905 0.5349804,-4.005545 -5.651818 0.6903657,-2.948112 -5.029289 0.1827325,-3.158188 -4.101068 0.3663411,-3.272549 -3.530031 0.5174888,-3.363728 -2.99147 0.632257,-2.621775 -4.792896 0.214984,-2.751248 -3.709292 0.4152234,-2.831706 -2.967743 0.6180809,-2.897728 -2.340379 0.7975165,-2.297637 -4.778126 0.2986986,-2.366621 -3.751657 0.4912413,-2.435977 -3.070588 0.6719239,-2.499917 -2.504603 0.8187296,-1.955116 -4.964471 0.4009496,-1.867541 -4.139587 0.5665604,-1.822215 -3.603499 0.7201361,-1.797061 -3.088302 0.8620572,-7.683551 -7.476532 -0.00824104,-7.1359 -7.220742 0.2474299,-6.599457 -6.562793 0.4007077,-6.189629 -5.977848 0.5902159,-5.823959 -5.683999 0.7964586,-6.920117 -4.981024 0.1483349,-6.765057 -3.936286 0.2763407,-6.710723 -3.273698 0.4265215,-6.675896 -2.684103 0.5600153,-7.227737 -4.780391 0.1991108,-7.070839 -3.604958 0.3145025,-6.975437 -2.858071 0.5249693,-6.893216 -2.197886 0.7213322,-7.541901 -4.813465 0.2808982,-7.439973 -3.709989 0.4217013,-7.359011 -3.015054 0.6114612,-7.272986 -2.399127 0.7718118,-7.876413 -5.053945 0.3937471,-7.917372 -4.232415 0.5681804,-7.918264 -3.710744 0.714644,-7.895213 -3.179802 0.833405,0.21667,0 0 0 0 0 0 True
-2.220207 -7.265372 0.05187346,-2.775689 -7.089703 0.3111633,-3.286819 -6.487363 0.4616055,-3.673952 -5.935932 0.6040628,-4.002283 -5.650763 0.7698313,-2.941262 -5.022413 0.2606875,-3.153795 -4.097009 0.4444098,-3.268964 -3.526201 0.5902738,-3.359917 -2.990219 0.7044244,-2.613268 -4.787362 0.2912821,-2.743606 -3.702447 0.492727,-2.82263 -2.966828 0.6937901,-2.886612 -2.346814 0.8693891,-2.289059 -4.778891 0.3721098,-2.360031 -3.749501 0.5664718,-2.430545 -3.067373 0.7499684,-2.495926 -2.501467 0.8971878,-1.947259 -4.977342 0.4709325,-1.861959 -4.153345 0.6416349,-1.816838 -3.613316 0.7996998,-1.790483 -3.096902 0.9451972,-7.680235 -7.478189 0.01892896,-7.136065 -7.210489 0.2850637,-6.604441 -6.549139 0.4458137,-6.200434 -5.960083 0.641793,-5.834326 -5.67802 0.8531625,-6.924028 -4.974255 0.1937168,-6.770217 -3.926015 0.3255464,-6.714532 -3.25525 0.4777043,-6.67885 -2.666127 0.616268,-7.237102 -4.772987 0.2379286,-7.074409 -3.601717 0.3636272,-6.976354 -2.847767 0.582201,-6.894813 -2.181249 0.7908796,-7.554828 -4.807909 0.3111329,-7.449909 -3.708439 0.4538792,-7.368026 -3.010694 0.6395873,-7.28241 -2.396792 0.7976608,-7.891757 -5.049667 0.4167124,-7.928741 -4.230011 0.5912035,-7.924037 -3.709381 0.7323004,-7.897045 -3.182357 0.8528557,0.25000,0 0 0 0 0 0 True
-2.220207 -7.265372 0.05187346,-2.775689 -7.089703 0.3111633,-3.286819 -6.487363 0.4616055,-3.673952 -5.935932 0.6040628,-4.002283 -5.650763 0.7698313,-2.941262 -5.022413 0.2606875,-3.153795 -4.097009 0.4444098,-3.268964 -3.526201 0.5902738,-3.359917 -2.990219 0.7044244,-2.613268 -4.787362 0.2912821,-2.743606 -3.702447 0.492727,-2.82263 -2.966828 0.6937901,-2.886612 -2.346814 0.8693891,-2.289059 -4.778891 0.3721098,-2.360031 -3.749501 0.5664718,-2.430545 -3.067373 0.7499684,-2.495926 -2.501467 0.8971878,-1.947259 -4.977342 0.4709325,-1.861959 -4.153345 0.6416349,-1.816838 -3.613316 0.7996998,-1.790483 -3.096902 0.9451972,-7.680235 -7.478189 0.01892896,-7.136065 -7.210489 0.2850637,-6.604441 -6.549139 0.4458137,-6.200434 -5.960083 0.641793,-5.834326 -5.67802 0.8531625,-6.924028 -4.974255 0.1937168,-6.770217 -3.926015 0.3255464,-6.714532 -3.25525 0.4777043,-6.67885 -2.666127 0.616268,-7.237102 -4.772987 0.2379286,-7.074409 -3.601717 0.3636272,-6.976354 -2.847767 0.582201,-6.894813 -2.181249 0.7908796,-7.554828 -4.807909 0.3111329,-7.449909 -3.708439 0.4538792,-7.368026 -3.010694 0.6395873,-7.28241 -2.396792 0.7976608,-7.891757 -5.049667 0.4167124,-7.928741 -4.230011 0.5912035,-7.924037 -3.709381 0.7323004,-7.897045 -3.182357 0.8528557,0.28333,0 0 0 0 0 0 True
-2.216029 -7.273231 0.07917354,-2.77179 -7.0893 0.3284309,-3.283842 -6.477996 0.4710216,-3.667309 -5.92951 0.6069072,-3.998186 -5.656023 0.7641841,-2.940517 -5.017064 0.2683719,-3.151155 -4.09246 0.4443756,-3.266982 -3.529146 0.5823808,-3.359596 -2.999116 0.6943129,-2.612913 -4.786317 0.3015139,-2.738236 -3.706718 0.4975241,-2.814334 -2.981891 0.6928291,-2.877608 -2.365964 0.8634708,-2.289466 -4.778312 0.3863996,-2.361362 -3.751449 0.5742247,-2.430793 -3.079034 0.7505271,-2.494462 -2.518412 0.8924568,-1.94831 -4.97402 0.4901361,-1.861363 -4.142942 0.6552037,-1.814051 -3.603857 0.8082612,-1.785414 -3.083548 0.9487406,-7.6831 -7.48001 0.04782915,-7.134911 -7.209848 0.3115798,-6.607528 -6.548507 0.4728784,-6.205894 -5.956625 0.6683334,-5.841489 -5.66887 0.8810663,-6.928699 -4.974663 0.2101525,-6.777289 -3.947031 0.3352258,-6.720224 -3.28969 0.4883831,-6.683992 -2.708064 0.6281286,-7.236148 -4.765662 0.2489371,-7.079009 -3.608572 0.361552,-6.982584 -2.862493 0.5736473,-6.90579 -2.198194 0.7742747,-7.548969 -4.792894 0.3205803,-7.454077 -3.70475 0.4456418,-7.374179 -3.016377 0.6239314,-7.293848 -2.412555 0.7748746,-7.880774 -5.026596 0.4239159,-7.923922 -4.218242 0.5857229,-7.920789 -3.699253 0.724205,-7.898697 -3.174378 0.8423138,0.31667,0 0 0 0 0 0 True
-2.220244 -7.281032 0.1037705,-2.774679 -7.093897 0.3498963,-3.285522 -6.4866 0.4923881,-3.667309 -5.92951 0.631453,-3.998186 -5.656023 0.7887299,-2.940517 -5.017064 0.2929177,-3.151155 -4.09246 0.4689214,-3.266982 -3.529146 0.6069266,-3.359596 -2.999116 0.7188587,-2.612913 -4.786317 0.3260596,-2.738236 -3.706718 0.5220699,-2.814334 -2.981891 0.7173749,-2.877608 -2.365964 0.8880166,-2.289466 -4.778312 0.4109454,-2.361362 -3.751449 0.5987705,-2.430793 -3.079034 0.7750729,-2.494462 -2.518412 0.9170026,-1.94831 -4.97402 0.5146819,-1.861363 -4.142942 0.6797495,-1.814051 -3.603857 0.8328069,-1.785414 -3.083548 0.9732864,-7.6831 -7.48001 0.04782915,-7.134911 -7.209848 0.3115798,-6.607528 -6.548507 0.4728784,-6.205894 -5.956625 0.6683334,-5.841489 -5.66887 0.8810663,-6.928699 -4.974663 0.2101525,-6.777289 -3.947031 0.3352258,-6.720224 -3.28969 0.4883831,-6.683992 -2.708064 0.6281286,-7.236148 -4.765662 0.2489371,-7.079009 -3.608572 0.361552,-6.982584 -2.862493 0.5736473,-6.90579 -2.198194 0.7742747,-7.548969 -4.792894 0.3205803,-7.454077 -3.70475 0.4456418,-7.374179 -3.016377 0.6239314,-7.293848 -2.412555 0.7748746,-7.880774 -5.026596 0.4239159,-7.923922 -4.218242 0.5857229,-7.920789 -3.699253 0.724205,-7.898697 -3.174378 0.8423138,0.35000,0 0 0 0 0 0 True
-2.220244 -7.281032 0.06490276,-2.774679 -7.093897 0.3110286,-3.285522 -6.4866 0.4535204,-3.668283 -5.936584 0.5879855,-3.998884 -5.652835 0.7442071,-2.940902 -5.030154 0.2630238,-3.151716 -4.099364 0.4426779,-3.266455 -3.528478 0.5834533,-3.356326 -2.98567 0.6961882,-2.615119 -4.798606 0.2943679,-2.738889 -3.715802 0.4936683,-2.812882 -2.987716 0.689587,-2.872475 -2.36525 0.863911,-2.291902 -4.789052 0.3752517,-2.361861 -3.763673 0.5628279,-2.426748 -3.091999 0.7377689,-2.485042 -2.530469 0.8809881,-1.949084 -4.98046 0.4747153,-1.865387 -4.149585 0.641396,-1.817816 -3.611979 0.7951706,-1.787474 -3.093626 0.9368438,-7.682416 -7.474811 0.007745872,-7.134792 -7.201388 0.2927141,-6.607615 -6.543516 0.4616238,-6.206933 -5.953916 0.658126,-5.845057 -5.664253 0.8685795,-6.930622 -4.977863 0.2030733,-6.780308 -3.938548 0.3401645,-6.725698 -3.276443 0.4992706,-6.691634 -2.687749 0.6418238,-7.240794 -4.773092 0.2324522,-7.08564 -3.603069 0.3579708,-6.990319 -2.851863 0.5756389,-6.911846 -2.182467 0.7819259,-7.55517 -4.804601 0.2928187,-7.458098 -3.706007 0.4295212,-7.378621 -3.015469 0.6106388,-7.298253 -2.409394 0.7633435,-7.888333 -5.039448 0.3871127,-7.927822 -4.228793 0.55347,-7.923283 -3.712007 0.69011,-7.900174 -3.189781 0.8048453,0.38333,0 0 0 0 0 0 True
-2.218496 -7.276601 0.04329463,-2.772282 -7.097438 0.2910322,-3.281467 -6.491916 0.4333823,-3.665055 -5.944152 0.5689254,-3.995943 -5.664436 0.7280788,-2.941633 -5.032516 0.2271393,-3.154425 -4.105167 0.4041618,-3.266661 -3.535744 0.5422541,-3.355389 -2.996891 0.6504682,-2.614957 -4.799655 0.2612633,-2.742918 -3.709243 0.4569539,-2.816324 -2.982492 0.6505123,-2.876599 -2.360349 0.8182507,-2.29289 -4.788684 0.3463611,-2.366502 -3.753438 0.5350506,-2.434033 -3.080556 0.7114139,-2.496638 -2.513573 0.8520818,-1.950797 -4.978076 0.4500698,-1.867352 -4.145038 0.6168303,-1.820941 -3.607948 0.7683995,-1.793041 -3.088398 0.9054159,-7.683335 -7.470911 -0.006073942,-7.135438 -7.198043 0.2759547,-6.605972 -6.540142 0.4457894,-6.201007 -5.949835 0.6434796,-5.838204 -5.653242 0.8561956,-6.931968 -4.975051 0.1999824,-6.780834 -3.924626 0.3408044,-6.726822 -3.255481 0.5024883,-6.694963 -2.663335 0.6484289,-7.243762 -4.774107 0.233028,-7.084851 -3.600616 0.3623496,-6.98973 -2.84062 0.5837254,-6.915889 -2.168794 0.795992,-7.56049 -4.809589 0.2961152,-7.460098 -3.709508 0.4370039,-7.380924 -3.008354 0.6262957,-7.303134 -2.395437 0.7871283,-7.895575 -5.050019 0.3928154,-7.930594 -4.233949 0.5659596,-7.924881 -3.714476 0.7092059,-7.901543 -3.189916 0.8311452,0.41667,0 0 0 0 0 0 True
-2.218496 -7.276601 0.04329463,-2.772282 -7.097438 0.2910322,-3.281467 -6.491916 0.4333823,-3.665055 -5.944152 0.5689254,-3.995943 -5.664436 0.7280788,-2.941633 -5.032516 0.2271393,-3.154425 -4.105167 0.4041618,-3.266661 -3.535744 0.5422541,-3.355389 -2.996891 0.6504682,-2.614957 -4.799655 0.2612633,-2.742918 -3.709243 0.4569539,-2.816324 -2.982492 0.6505123,-2.876599 -2.360349 0.8182507,-2.29289 -4.788684 0.3463611,-2.366502 -3.753438 0.5350506,-2.434033 -3.080556 0.7114139,-2.496638 -2.513573 0.8520818,-1.950797 -4.978076 0.4500698,-1.867352 -4.145038 0.6168303,-1.820941 -3.607948 0.7683995,-1.793041 -3.088398 0.9054159,-7.683335 -7.470911 -0.006073942,-7.135438 -7.198043 0.2759547,-6.605972 -6.540142 0.4457894,-6.201007 -5.949835 0.6434796,-5.838204 -5.653242 0.8561956,-6.931968 -4.975051 0.1999824,-6.780834 -3.924626 0.3408044,-6.726822 -3.255481 0.5024883,-6.694963 -2.663335 0.6484289,-7.243762 -4.774107 0.233028,-7.084851 -3.600616 0.3623496,-6.98973 -2.84062 0.5837254,-6.915889 -2.168794 0.795992,-7.56049 -4.809589 0.2961152,-7.460098 -3.709508 0.4370039,-7.380924 -3.008354 0.6262957,-7.303134 -2.395437 0.7871283,-7.895575 -5.050019 0.3928154,-7.930594 -4.233949 0.5659596,-7.924881 -3.714476 0.7092059,-7.901543 -3.189916 0.8311452,0.45000,0 0 0 0 0 0 True
-2.209466 -7.292741 0.01398512,-2.765927 -7.102825 0.2572425,-3.27462 -6.499494 0.395428,-3.657965 -5.950473 0.5282515,-3.98495 -5.662536 0.6847785,-2.933738 -5.056352 0.1867749,-3.150344 -4.125459 0.3609107,-3.266598 -3.548391 0.5028258,-3.356146 -3.001174 0.6188412,-2.61034 -4.824212 0.2224276,-2.742083 -3.734105 0.4195854,-2.82012 -3.00144 0.6169938,-2.881905 -2.375801 0.7917275,-2.291679 -4.809438 0.3115427,-2.367831 -3.772776 0.4966129,-2.436355 -3.095344 0.6769334,-2.498435 -2.527899 0.8225533,-1.953236 -4.992623 0.4179337,-1.869827 -4.156003 0.5825781,-1.825814 -3.617162 0.7336335,-1.801643 -3.099496 0.8732401,-7.686394 -7.490053 -0.001019326,-7.136739 -7.216913 0.2754825,-6.608086 -6.557485 0.4478965,-6.209091 -5.956718 0.6469724,-5.847659 -5.649536 0.8577218,-6.935713 -4.998149 0.231285,-6.790853 -3.939132 0.3762657,-6.735312 -3.26936 0.5317391,-6.698526 -2.675708 0.6718145,-7.250252 -4.79417 0.2690632,-7.099418 -3.611166 0.4128839,-7.000466 -2.84286 0.6376892,-6.923285 -2.168432 0.8558527,-7.56961 -4.831121 0.3348761,-7.472783 -3.721682 0.4861186,-7.387245 -3.005724 0.6814831,-7.302679 -2.387167 0.8524758,-7.907847 -5.074859 0.4302668,-7.945924 -4.245743 0.6143302,-7.938003 -3.716337 0.7705098,-7.912106 -3.188682 0.9061175,0.48333,0 0 0 0 0 0 True
-2.209466 -7.292741 0.01398512,-2.765927 -7.102825 0.2572425,-3.27462 -6.499494 0.395428,-3.657965 -5.950473 0.5282515,-3.98495 -5.662536 0.6847785,-2.933738 -5.056352 0.1867749,-3.150344 -4.125459 0.3609107,-3.266598 -3.548391 0.5028258,-3.356146 -3.001174 0.6188412,-2.61034 -4.824212 0.2224276,-2.742083 -3.734105 0.4195854,-2.82012 -3.00144 0.6169938,-2.881905 -2.375801 0.7917275,-2.291679 -4.809438 0.3115427,-2.367831 -3.772776 0.4966129,-2.436355 -3.095344 0.6769334,-2.498435 -2.527899 0.8225533,-1.953236 -4.992623 0.4179337,-1.869827 -4.156003 0.5825781,-1.825814 -3.617162 0.7336335,-1.801643 -3.099496 0.8732401,-7.686394 -7.490053 -0.001019326,-7.136739 -7.216913 0.2754825,-6.608086 -6.557485 0.4478965,-6.209091 -5.956718 0.6469724,-5.847659 -5.649536 0.8577218,-6.935713 -4.998149 0.231285,-6.790853 -3.939132 0.3762657,-6.735312 -3.26936 0.5317391,-6.698526 -2.675708 0.6718145,-7.250252 -4.79417 0.2690632,-7.099418 -3.611166 0.4128839,-7.000466 -2.84286 0.6376892,-6.923285 -2.168432 0.8558527,-7.56961 -4.831121 0.3348761,-7.472783 -3.721682 0.4861186,-7.387245 -3.005724 0.6814831,-7.302679 -2.387167 0.8524758,-7.907847 -5.074859 0.4302668,-7.945924 -4.245743 0.6143302,-7.938003 -3.716337 0.7705098,-7.912106 -3.188682 0.9061175,0.51667,0 0 0 0 0 0 True
-2.212252 -7.299503 0.06801764,-2.76431 -7.124059 0.3233958,-3.275021 -6.516733 0.4746805,-3.6635 -5.960919 0.6172622,-3.998526 -5.667864 0.7843624,-2.93095 -5.05054 0.2697897,-3.143991 -4.116176 0.4503487,-3.258001 -3.543147 0.5907899,-3.349194 -3.00293 0.7005496,-2.606497 -4.816438 0.3015386,-2.736835 -3.727174 0.5046381,-2.81587 -2.990396 0.7022808,-2.881487 -2.364048 0.8773875,-2.284326 -4.805335 0.3836356,-2.359966 -3.766046 0.5797598,-2.43277 -3.080614 0.7600182,-2.501445 -2.506633 0.9053643,-1.942741 -5.001379 0.4846953,-1.861644 -4.163604 0.657109,-1.817366 -3.61877 0.8138177,-1.79152 -3.095318 0.9567394,-7.694276 -7.514764 0.03572751,-7.150601 -7.24815 0.3044088,-6.623034 -6.577695 0.4692166,-6.223987 -5.976444 0.6631473,-5.85985 -5.672454 0.8674772,-6.948498 -5.009844 0.2588748,-6.803317 -3.958502 0.3980436,-6.746182 -3.28881 0.5493742,-6.709587 -2.691629 0.6890664,-7.262259 -4.806991 0.3004113,-7.113 -3.627236 0.4388048,-7.013866 -2.858406 0.6679741,-6.937336 -2.179412 0.8872743,-7.581675 -4.848058 0.3669326,-7.484996 -3.738555 0.5129706,-7.399062 -3.016901 0.711841,-7.315349 -2.38986 0.8851935,-7.919658 -5.098149 0.462546,-7.957664 -4.272805 0.6438316,-7.951451 -3.741384 0.8023832,-7.927823 -3.212477 0.9379614,0.55000,0 0 0 0 0 0 True
-2.212252 -7.299503 0.06801764,-2.76431 -7.124059 0.3233958,-3.275021 -6.516733 0.4746805,-3.6635 -5.960919 0.6172622,-3.998526 -5.667864 0.7843624,-2.93095 -5.05054 0.2697897,-3.143991 -4.116176 0.4503487,-3.258001 -3.543147 0.5907899,-3.349194 -3.00293 0.7005496,-2.606497 -4.816438 0.3015386,-2.736835 -3.727174 0.5046381,-2.81587 -2.990396 0.7022808,-2.881487 -2.364048 0.8773875,-2.284326 -4.805335 0.3836356,-2.359966 -3.766046 0.5797598,-2.43277 -3.080614 0.7600182,-2.501445 -2.506633 0.9053643,-1.942741 -5.001379 0.4846953,-1.861644 -4.163604 0.657109,-1.817366 -3.61877 0.8138177,-1.79152 -3.095318 0.9567394,-7.694276 -7.514764 0.03572751,-7.150601 -7.24815 0.3044088,-6.623034 -6.577695 0.4692166,-6.223987 -5.976444 0.6631473,-5.85985 -5.672454 0.8674772,-6.948498 -5.009844 0.2588748,-6.803317 -3.958502 0.3980436,-6.746182 -3.28881 0.5493742,-6.709587 -2.691629 0.6890664,-7.262259 -4.806991 0.3004113,-7.113 -3.627236 0.4388048,-7.013866 -2.858406 0.6679741,-6.937336 -2.179412 0.8872743,-7.581675 -4.848058 0.3669326,-7.484996 -3.738555 0.5129706,-7.399062 -3.016901 0.711841,-7.315349 -2.38986 0.8851935,-7.919658 -5.098149 0.462546,-7.957664 -4.272805 0.6438316,-7.951451 -3.741384 0.8023832,-7.927823 -3.212477 0.9379614,0.58333,0 0 0 0 0 0 True
-2.207725 -7.316101 0.08832495,-2.760802 -7.128789 0.3462069,-3.269715 -6.519051 0.4910406,-3.652498 -5.963119 0.6328141,-3.982201 -5.66641 0.7990986,-2.933128 -5.059585 0.2772897,-3.15102 -4.128623 0.4606245,-3.267771 -3.554778 0.6072338,-3.360468 -3.009305 0.7266954,-2.608904 -4.827696 0.3158849,-2.740522 -3.737515 0.5224669,-2.819581 -3.008615 0.7273,-2.883235 -2.382941 0.9049718,-2.288126 -4.820806 0.4085294,-2.36664 -3.782227 0.6083183,-2.438744 -3.107116 0.8005126,-2.505033 -2.538519 0.953432,-1.948679 -5.019096 0.5198599,-1.869328 -4.187255 0.6961286,-1.832462 -3.647425 0.8575039,-1.815769 -3.128896 1.000336,-7.694836 -7.532895 0.03656868,-7.158715 -7.252644 0.3100563,-6.631789 -6.587757 0.482465,-6.231705 -5.990846 0.6835159,-5.870207 -5.684885 0.8969765,-6.95843 -5.024421 0.270685,-6.810845 -3.967304 0.4149235,-6.751329 -3.297342 0.5694799,-6.710878 -2.695943 0.7095561,-7.271322 -4.82504 0.3163189,-7.121148 -3.640614 0.4582401,-7.0231 -2.867343 0.6849937,-6.947971 -2.186094 0.8993631,-7.590602 -4.871284 0.3882709,-7.492827 -3.751635 0.5395354,-7.407036 -3.029025 0.7405148,-7.323383 -2.401015 0.9139878,-7.929709 -5.124156 0.4917133,-7.969355 -4.290794 0.6737429,-7.961489 -3.756465 0.834821,-7.935952 -3.22411 0.9705542,0.61667,0 0 0 0 0 0 True
-2.210899 -7.332152 0.1108534,-2.76448 -7.142413 0.3721329,-3.271656 -6.532808 0.5225893,-3.646305 -5.963375 0.6694401,-3.974533 -5.646423 0.8375033,-2.936831 -5.065462 0.2968646,-3.151501 -4.127731 0.4763474,-3.268362 -3.553891 0.6160154,-3.363535 -3.010024 0.7279332,-2.609784 -4.835985 0.3285985,-2.740203 -3.741902 0.5317253,-2.819251 -3.014807 0.7340725,-2.885783 -2.388999 0.9108998,-2.289005 -4.827843 0.4146092,-2.369363 -3.788215 0.6072797,-2.443701 -3.118124 0.7941194,-2.513403 -2.551322 0.9433154,-1.950541 -5.019605 0.5205981,-1.876122 -4.182254 0.6891609,-1.842459 -3.64631 0.8487061,-1.831283 -3.12892 0.9907316,-7.694836 -7.532895 0.03656868,-7.158715 -7.252644 0.3100563,-6.631789 -6.587757 0.482465,-6.231705 -5.990846 0.6835159,-5.870207 -5.684885 0.8969765,-6.95843 -5.024421 0.270685,-6.810845 -3.967304 0.4149235,-6.751329 -3.297342 0.5694799,-6.710878 -2.695943 0.7095561,-7.271322 -4.82504 0.3163189,-7.121148 -3.640614 0.4582401,-7.0231 -2.867343 0.6849937,-6.947971 -2.186094 0.8993631,-7.590602 -4.871284 0.3882709,-7.492827 -3.751635 0.5395354,-7.407036 -3.029025 0.7405148,-7.323383 -2.401015 0.9139878,-7.929709 -5.124156 0.4917133,-7.969355 -4.290794 0.6737429,-7.961489 -3.756465 0.834821,-7.935952 -3.22411 0.9705542,0.65000,0 0 0 0 0 0 True
-2.210899 -7.332152 0.1108534,-2.76448 -7.142413 0.3721329,-3.271656 -6.532808 0.5225893,-3.646305 -5.963375 0.6694401,-3.974533 -5.646423 0.8375033,-2.936831 -5.065462 0.2968646,-3.151501 -4.127731 0.4763474,-3.268362 -3.553891 0.6160154,-3.363535 -3.010024 0.7279332,-2.609784 -4.835985 0.3285985,-2.740203 -3.741902 0.5317253,-2.819251 -3.014807 0.7340725,-2.885783 -2.388999 0.9108998,-2.289005 -4.827843 0.4146092,-2.369363 -3.788215 0.6072797,-2.443701 -3.118124 0.7941194,-2.513403 -2.551322 0.9433154,-1.950541 -5.019605 0.5205981,-1.876122 -4.182254 0.6891609,-1.842459 -3.64631 0.8487061,-1.831283 -3.12892 0.9907316,-7.714026 -7.528933 -0.01484488,-7.178798 -7.252484 0.2681816,-6.651803 -6.582675 0.4354501,-6.252936 -5.984025 0.6288052,-5.887894 -5.687397 0.8318427,-6.971611 -5.03478 0.2277868,-6.823717 -3.970753 0.3783475,-6.765166 -3.30204 0.5345314,-6.72503 -2.697053 0.6774043,-7.284044 -4.837465 0.2689478,-7.137257 -3.638217 0.4151906,-7.042348 -2.865276 0.6420301,-6.967569 -2.181653 0.8529267,-7.601395 -4.882518 0.337249,-7.507486 -3.749115 0.4982305,-7.425827 -3.030733 0.70676,-7.3439 -2.397213 0.8826891,-7.93832 -5.135461 0.436691,-7.979028 -4.302074 0.6279429,-7.974085 -3.771818 0.7954943,-7.949989 -3.236881 0.9351955,0.68333,0 0 0 0 0 0 True
-2.200656 -7.35955 0.1849502,-2.744785 -7.141904 0.4649154,-3.241497 -6.523021 0.6269891,-3.604364 -5.939451 0.7906829,-3.946693 -5.628662 0.989806,-2.92572 -5.062049 0.3902047,-3.138987 -4.133586 0.5739236,-3.254301 -3.56097 0.7206607,-3.349716 -3.005696 0.8422882,-2.59861 -4.84295 0.4163888,-2.730072 -3.767919 0.619646,-2.810606 -3.063417 0.8190039,-2.875736 -2.443469 0.9916744,-2.280435 -4.843588 0.5015125,-2.359903 -3.819695 0.6876514,-2.436673 -3.167182 0.8835026,-2.503675 -2.604423 1.03627,-1.948298 -5.038177 0.610341,-1.895769 -4.207524 0.7780221,-1.879883 -3.681819 0.9398822,-1.88003 -3.168248 1.083908,-7.7157 -7.541532 0.008539519,-7.189125 -7.252468 0.2916497,-6.670471 -6.572176 0.4694979,-6.279152 -5.960809 0.6744124,-5.922276 -5.636403 0.8861053,-7.002584 -5.027645 0.2494015,-6.853757 -3.962243 0.4063245,-6.790402 -3.296083 0.5662689,-6.746125 -2.688341 0.7098969,-7.314878 -4.83883 0.2930199,-7.165836 -3.644356 0.4515533,-7.068776 -2.869169 0.6797155,-6.994111 -2.179109 0.8902034,-7.629878 -4.893631 0.3649033,-7.530463 -3.756153 0.531998,-7.441319 -3.027927 0.7412017,-7.355202 -2.381416 0.9210615,-7.965259 -5.154304 0.4673007,-7.999965 -4.309642 0.6562221,-7.991184 -3.776281 0.8236771,-7.966113 -3.23606 0.9654484,0.71667,0 0 0 0 0 0 True
-2.200656 -7.35955 0.1849502,-2.744785 -7.141904 0.4649154,-3.241497 -6.523021 0.6269891,-3.604364 -5.939451 0.7906829,-3.946693 -5.628662 0.989806,-2.92572 -5.062049 0.3902047,-3.138987 -4.133586 0.5739236,-3.254301 -3.56097 0.7206607,-3.349716 -3.005696 0.8422882,-2.59861 -4.84295 0.4163888,-2.730072 -3.767919 0.619646,-2.810606 -3.063417 0.8190039,-2.875736 -2.443469 0.9916744,-2.280435 -4.843588 0.5015125,-2.359903 -3.819695 0.6876514,-2.436673 -3.167182 0.8835026,-2.503675 -2.604423 1.03627,-1.948298 -5.038177 0.610341,-1.895769 -4.207524 0.7780221,-1.879883 -3.681819 0.9398822,-1.88003 -3.168248 1.083908,-7.7157 -7.541532 0.008539519,-7.189125 -7.252468 0.2916497,-6.670471 -6.572176 0.4694979,-6.279152 -5.960809 0.6744124,-5.922276 -5.636403 0.8861053,-7.002584 -5.027645 0.2494015,-6.853757 -3.962243 0.4063245,-6.790402 -3.296083 0.5662689,-6.746125 -2.688341 0.7098969,-7.314878 -4.83883 0.2930199,-7.165836 -3.644356 0.4515533,-7.068776 -2.869169 0.6797155,-6.994111 -2.179109 0.8902034,-7.629878 -4.893631 0.3649033,-7.530463 -3.756153 0.531998,-7.441319 -3.027927 0.7412017,-7.355202 -2.381416 0.9210615,-7.965259 -5.154304 0.4673007,-7.999965 -4.309642 0.6562221,-7.991184 -3.776281 0.8236771,-7.966113 -3.23606 0.9654484,0.75000,0 0 0 0 0 0 True
-2.150394 -7.422107 0.4038475,-2.69827 -7.168115 0.6627445,-3.17432 -6.516019 0.7963477,-3.49109 -5.871179 0.9452208,-3.843177 -5.515699 1.143413,-2.909895 -5.039714 0.4816709,-3.119448 -4.143024 0.6151885,-3.235277 -3.572674 0.7308739,-3.33293 -3.010932 0.8457134,-2.577497 -4.838487 0.5115559,-2.704001 -3.857826 0.6325918,-2.781433 -3.21948 0.7817657,-2.83251 -2.656661 0.9177437,-2.252979 -4.856759 0.6079591,-2.322373 -3.918672 0.7277893,-2.394747 -3.316895 0.9107127,-2.455232 -2.796477 1.057237,-1.917633 -5.059074 0.7404298,-1.885503 -4.300207 0.8776684,-1.894777 -3.815445 1.033481,-1.914482 -3.350796 1.177839,-7.746305 -7.557831 0.05174107,-7.20834 -7.274347 0.3158155,-6.696151 -6.56959 0.4840739,-6.319083 -5.934614 0.6832974,-5.976007 -5.588073 0.8778309,-7.027955 -5.02791 0.2731596,-6.884697 -3.972886 0.4218274,-6.824188 -3.314188 0.5765932,-6.777374 -2.712524 0.7125939,-7.34202 -4.841405 0.3194893,-7.214228 -3.660772 0.4617562,-7.133312 -2.898489 0.6830592,-7.068626 -2.213024 0.8830814,-7.657685 -4.895304 0.3973476,-7.580638 -3.771663 0.539559,-7.507184 -3.064771 0.7321832,-7.433312 -2.429821 0.8958195,-7.992226 -5.156181 0.4999987,-8.035629 -4.309401 0.6673684,-8.034636 -3.771315 0.8218758,-8.017391 -3.226057 0.9532214,0.78333,0 0 0 0 0 0 True
-2.150394 -7.422107 0.4038475,-2.69827 -7.168115 0.6627445,-3.17432 -6.516019 0.7963477,-3.49109 -5.871179 0.9452208,-3.843177 -5.515699 1.143413,-2.909895 -5.039714 0.4816709,-3.119448 -4.143024 0.6151885,-3.235277 -3.572674 0.7308739,-3.33293 -3.010932 0.8457134,-2.577497 -4.838487 0.5115559,-2.704001 -3.857826 0.6325918,-2.781433 -3.21948 0.7817657,-2.83251 -2.656661 0.9177437,-2.252979 -4.856759 0.6079591,-2.322373 -3.918672 0.7277893,-2.394747 -3.316895 0.9107127,-2.455232 -2.796477 1.057237,-1.917633 -5.059074 0.7404298,-1.885503 -4.300207 0.8776684,-1.894777 -3.815445 1.033481,-1.914482 -3.350796 1.177839,-7.746305 -7.557831 0.05174107,-7.20834 -7.274347 0.3158155,-6.696151 -6.56959 0.4840739,-6.319083 -5.934614 0.6832974,-5.976007 -5.588073 0.8778309,-7.027955 -5.02791 0.2731596,-6.884697 -3.972886 0.4218274,-6.824188 -3.314188 0.5765932,-6.777374 -2.712524 0.7125939,-7.34202 -4.841405 0.3194893,-7.214228 -3.660772 0.4617562,-7.133312 -2.898489 0.6830592,-7.068626 -2.213024 0.8830814,-7.657685 -4.895304 0.3973476,-7.580638 -3.771663 0.539559,-7.507184 -3.064771 0.7321832,-7.433312 -2.429821 0.8958195,-7.992226 -5.156181 0.4999987,-8.035629 -4.309401 0.6673684,-8.034636 -3.771315 0.8218758,-8.017391 -3.226057 0.9532214,0.81667,0 0 0 0 0 0 True
-2.111744 -7.439904 0.3363269,-2.664862 -7.193374 0.6130682,-3.137201 -6.496618 0.7240431,-3.418427 -5.807716 0.8629627,-3.753824 -5.375452 1.047075,-2.883677 -5.049903 0.3805637,-3.096596 -4.156587 0.5185922,-3.213491 -3.598448 0.6344875,-3.308921 -3.026992 0.7544194,-2.540708 -4.87471 0.4000432,-2.643765 -3.960975 0.5131153,-2.707154 -3.421751 0.6641843,-2.751471 -2.958141 0.7887383,-2.209789 -4.898059 0.4897987,-2.24158 -4.033304 0.6186802,-2.291486 -3.5153 0.8241631,-2.347014 -3.068836 0.9761763,-1.874055 -5.091415 0.6208979,-1.837319 -4.393466 0.7781379,-1.848618 -3.978548 0.9427049,-1.880483 -3.584491 1.072837,-7.773923 -7.596704 0.1023267,-7.224989 -7.31661 0.3237606,-6.725287 -6.587043 0.4665891,-6.373463 -5.933259 0.6549098,-6.031748 -5.56797 0.8382283,-7.053684 -5.042498 0.2195103,-6.916279 -3.985317 0.333041,-6.855072 -3.333663 0.4749973,-6.805439 -2.741367 0.5953821,-7.368507 -4.858659 0.2834451,-7.252834 -3.693404 0.3771072,-7.178885 -2.952801 0.5788774,-7.120402 -2.299447 0.7565615,-7.682114 -4.90969 0.3842353,-7.616854 -3.796371 0.4908363,-7.557565 -3.095087 0.675755,-7.498031 -2.470591 0.8352703,-8.013216 -5.16545 0.5053515,-8.063664 -4.318742 0.6446707,-8.06814 -3.781569 0.7957428,-8.056103 -3.238714 0.9250639,0.85000,0 0 0 0 0 0 True
-2.111744 -7.439904 0.3363269,-2.664862 -7.193374 0.6130682,-3.137201 -6.496618 0.7240431,-3.418427 -5.807716 0.8629627,-3.753824 -5.375452 1.047075,-2.883677 -5.049903 0.3805637,-3.096596 -4.156587 0.5185922,-3.213491 -3.598448 0.6344875,-3.308921 -3.026992 0.7544194,-2.540708 -4.87471 0.4000432,-2.643765 -3.960975 0.5131153,-2.707154 -3.421751 0.6641843,-2.751471 -2.958141 0.7887383,-2.209789 -4.898059 0.4897987,-2.24158 -4.033304 0.6186802,-2.291486 -3.5153 0.8241631,-2.347014 -3.068836 0.9761763,-1.874055 -5.091415 0.6208979,-1.837319 -4.393466 0.7781379,-1.848618 -3.978548 0.9427049,-1.880483 -3.584491 1.072837,-7.773923 -7.596704 0.1023267,-7.224989 -7.31661 0.3237606,-6.725287 -6.587043 0.4665891,-6.373463 -5.933259 0.6549098,-6.031748 -5.56797 0.8382283,-7.053684 -5.042498 0.2195103,-6.916279 -3.985317 0.333041,-6.855072 -3.333663 0.4749973,-6.805439 -2.741367 0.5953821,-7.368507 -4.858659 0.2834451,-7.252834 -3.693404 0.3771072,-7.178885 -2.952801 0.5788774,-7.120402 -2.299447 0.7565615,-7.682114 -4.90969 0.3842353,-7.616854 -3.796371 0.4908363,-7.557565 -3.095087 0.675755,-7.498031 -2.470591 0.8352703,-8.013216 -5.16545 0.5053515,-8.063664 -4.318742 0.6446707,-8.06814 -3.781569 0.7957428,-8.056103 -3.238714 0.9250639,0.88333,0 0 0 0 0 0 True
-2.079015 -7.363428 0.1852524,-2.637702 -7.17901 0.5594362,-3.110773 -6.478101 0.7118412,-3.377029 -5.769248 0.8763163,-3.711199 -5.295116 1.079049,-2.866988 -5.000148 0.3201376,-3.07443 -4.121896 0.4697443,-3.184847 -3.594685 0.6151978,-3.282394 -3.028445 0.7642854,-2.509672 -4.844808 0.3144844,-2.596054 -3.983816 0.5055057,-2.636142 -3.539736 0.7399928,-2.660091 -3.203713 0.9195309,-2.166271 -4.907851 0.3810177,-2.178437 -4.116497 0.5979349,-2.20982 -3.691422 0.9057971,-2.249323 -3.390946 1.121904,-1.820408 -5.1285 0.4935995,-1.791316 -4.481973 0.714013,-1.802072 -4.149586 0.9430125,-1.82646 -3.888155 1.11513,-7.797136 -7.615262 0.1389704,-7.241154 -7.320869 0.3623109,-6.747405 -6.592739 0.5053278,-6.402313 -5.930898 0.7007841,-6.05916 -5.5484 0.894663,-7.079486 -5.053686 0.2368822,-6.928271 -4.022044 0.3476937,-6.869279 -3.379215 0.4847537,-6.828895 -2.786757 0.5953358,-7.392442 -4.865062 0.2976671,-7.268723 -3.721178 0.3632897,-7.201994 -3.002534 0.5472128,-7.155191 -2.359092 0.7063636,-7.704788 -4.908651 0.3965379,-7.637984 -3.796969 0.4847512,-7.587538 -3.111204 0.6599166,-7.538181 -2.489765 0.8109286,-8.038049 -5.153138 0.5186092,-8.082104 -4.300497 0.6494061,-8.08179 -3.755416 0.797551,-8.064573 -3.200062 0.9226182,0.91667,0 0 0 0 0 0 True
-2.053426 -7.322187 0.1151899,-2.595767 -7.160975 0.5440232,-3.071959 -6.457663 0.7242157,-3.344707 -5.75155 0.9025721,-3.678259 -5.263006 1.117523,-2.834593 -4.986421 0.2945293,-3.052919 -4.109918 0.4572852,-3.172482 -3.564506 0.6490147,-3.261955 -3.01951 0.8461462,-2.474383 -4.824071 0.2761566,-2.560314 -3.955986 0.5628796,-2.588919 -3.575618 0.8999055,-2.573903 -3.45246 1.133458,-2.129461 -4.876231 0.3299152,-2.141716 -4.079565 0.60016,-2.159345 -3.740088 1.012753,-2.162626 -3.667242 1.298176,-1.777997 -5.075412 0.4253945,-1.752361 -4.415811 0.6929365,-1.76864 -4.154418 0.9960281,-1.785406 -4.092697 1.234706,-7.797136 -7.615262 0.1389704,-7.241154 -7.320869 0.3623109,-6.747405 -6.592739 0.5053278,-6.402313 -5.930898 0.7007841,-6.05916 -5.5484 0.894663,-7.079486 -5.053686 0.2368822,-6.928271 -4.022044 0.3476937,-6.869279 -3.379215 0.4847537,-6.828895 -2.786757 0.5953358,-7.392442 -4.865062 0.2976671,-7.268723 -3.721178 0.3632897,-7.201994 -3.002534 0.5472128,-7.155191 -2.359092 0.7063636,-7.704788 -4.908651 0.3965379,-7.637984 -3.796969 0.4847512,-7.587538 -3.111204 0.6599166,-7.538181 -2.489765 0.8109286,-8.038049 -5.153138 0.5186092,-8.082104 -4.300497 0.6494061,-8.08179 -3.755416 0.797551,-8.064573 -3.200062 0.9226182,0.95000,0 0 0 0 0 0 True
-2.053426 -7.322187 0.1151899,-2.595767 -7.160975 0.5440232,-3.071959 -6.457663 0.7242157,-3.344707 -5.75155 0.9025721,-3.678259 -5.263006 1.117523,-2.834593 -4.986421 0.2945293,-3.052919 -4.109918 0.4572852,-3.172482 -3.564506 0.6490147,-3.261955 -3.01951 0.8461462,-2.474383 -4.824071 0.2761566,-2.560314 -3.955986 0.5628796,-2.588919 -3.575618 0.8999055,-2.573903 -3.45246 1.133458,-2.129461 -4.876231 0.3299152,-2.141716 -4.079565 0.60016,-2.159345 -3.740088 1.012753,-2.162626 -3.667242 1.298176,-1.777997 -5.075412 0.4253945,-1.752361 -4.415811 0.6929365,-1.76864 -4.154418 0.9960281,-1.785406 -4.092697 1.234706,-7.824818 -7.622299 0.1674369,-7.253453 -7.320395 0.3695239,-6.759211 -6.588954 0.4965419,-6.416547 -5.91938 0.678422,-6.082464 -5.541317 0.8538601,-7.103859 -5.041805 0.2106417,-6.955427 -4.017523 0.3027981,-6.899487 -3.372938 0.4328696,-6.86173 -2.78336 0.5434322,-7.41256 -4.862335 0.2696072,-7.295229 -3.745087 0.306606,-7.236694 -3.04374 0.4741218,-7.198015 -2.420003 0.6219031,-7.717996 -4.90364 0.3701987,-7.657462 -3.825373 0.4311536,-7.613272 -3.169549 0.5831092,-7.572705 -2.581032 0.7148635,-8.041943 -5.139453 0.4949919,-8.078579 -4.30614 0.6007305,-8.077971 -3.770234 0.7319124,-8.062106 -3.221703 0.8414384,0.98333,0 0 0 0 0 0 True
-2.044263 -7.231245 0.0186789,-2.579272 -7.090896 0.4637515,-3.055977 -6.379304 0.6730998,-3.32997 -5.687976 0.8738496,-3.658432 -5.215173 1.106558,-2.820699 -4.92941 0.2887706,-3.039948 -4.048541 0.5195218,-3.158335 -3.476545 0.7808532,-3.241535 -2.958341 1.017214,-2.456119 -4.768548 0.2830486,-2.548014 -3.846751 0.6885327,-2.576288 -3.546638 1.115734,-2.546976 -3.601207 1.397791,-2.109956 -4.827999 0.3443603,-2.12835 -3.994045 0.7022431,-2.150007 -3.700217 1.166932,-2.149461 -3.737824 1.478387,-1.753155 -5.037186 0.4468289,-1.714881 -4.375099 0.7819303,-1.741002 -4.155921 1.139302,-1.768541 -4.188055 1.417542,-7.831068 -7.627008 0.2073234,-7.261953 -7.331627 0.3872907,-6.768769 -6.586589 0.4999399,-6.429214 -5.913136 0.6670036,-6.097144 -5.52668 0.8329189,-7.115015 -5.030213 0.2029551,-6.955036 -4.027254 0.2744589,-6.891247 -3.398978 0.3950995,-6.844997 -2.818807 0.4944838,-7.427374 -4.852981 0.265818,-7.307549 -3.75686 0.264411,-7.247854 -3.089544 0.4081127,-7.206442 -2.501283 0.5280856,-7.734707 -4.901315 0.3745765,-7.67834 -3.845413 0.4080098,-7.636065 -3.219018 0.5489236,-7.593829 -2.65936 0.6668782,-8.056984 -5.138252 0.5069334,-8.098124 -4.326114 0.6002543,-8.101365 -3.79991 0.7327828,-8.08393 -3.265981 0.8372526,1.01667,0 0 0 0 0 0 True
-2.044263 -7.231245 0.0186789,-2.579272 -7.090896 0.4637515,-3.055977 -6.379304 0.6730998,-3.32997 -5.687976 0.8738496,-3.658432 -5.215173 1.106558,-2.820699 -4.92941 0.2887706,-3.039948 -4.048541 0.5195218,-3.158335 -3.476545 0.7808532,-3.241535 -2.958341 1.017214,-2.456119 -4.768548 0.2830486,-2.548014 -3.846751 0.6885327,-2.576288 -3.546638 1.115734,-2.546976 -3.601207 1.397791,-2.109956 -4.827999 0.3443603,-2.12835 -3.994045 0.7022431,-2.150007 -3.700217 1.166932,-2.149461 -3.737824 1.478387,-1.753155 -5.037186 0.4468289,-1.714881 -4.375099 0.7819303,-1.741002 -4.155921 1.139302,-1.768541 -4.188055 1.417542,-7.831068 -7.627008 0.2073234,-7.261953 -7.331627 0.3872907,-6.768769 -6.586589 0.4999399,-6.429214 -5.913136 0.6670036,-6.097144 -5.52668 0.8329189,-7.115015 -5.030213 0.2029551,-6.955036 -4.027254 0.2744589,-6.891247 -3.398978 0.3950995,-6.844997 -2.818807 0.4944838,-7.427374 -4.852981 0.265818,-7.307549 -3.75686 0.264411,-7.247854 -3.089544 0.4081127,-7.206442 -2.501283 0.5280856,-7.734707 -4.901315 0.3745765,-7.67834 -3.845413 0.4080098,-7.636065 -3.219018 0.5489236,-7.593829 -2.65936 0.6668782,-8.056984 -5.138252 0.5069334,-8.098124 -4.326114 0.6002543,-8.101365 -3.79991 0.7327828,-8.08393 -3.265981 0.8372526,1.05000,0 0 0 0 0 0 True
-2.041681 -7.127973 0.03880169,-2.555707 -7.018604 0.523445,-3.036497 -6.313291 0.7949216,-3.319168 -5.631492 1.028929,-3.645952 -5.175687 1.281877,-2.805942 -4.854845 0.4538552,-3.035882 -3.986249 0.7570164,-3.156243 -3.385815 1.043238,-3.25227 -2.882698 1.27962,-2.436562 -4.676956 0.4510651,-2.529954 -3.685436 1.004871,-2.533873 -3.560335 1.456158,-2.473483 -3.837408 1.699495,-2.083338 -4.729689 0.5068517,-2.098976 -3.825546 0.9599633,-2.124928 -3.683678 1.425967,-2.119019 -3.936974 1.693557,-1.713173 -4.957992 0.6078138,-1.658649 -4.232558 0.9849058,-1.706829 -4.061637 1.360028,-1.750406 -4.231258 1.623618,-7.846615 -7.614048 0.2419784,-7.277504 -7.305744 0.4192674,-6.782516 -6.561119 0.5322613,-6.444161 -5.889392 0.6944032,-6.104284 -5.509771 0.853759,-7.126542 -5.004358 0.2356531,-6.965256 -4.011159 0.3047823,-6.89595 -3.398354 0.4165164,-6.843698 -2.824525 0.5125957,-7.448564 -4.829082 0.2938907,-7.337637 -3.777584 0.2866966,-7.285125 -3.14853 0.4168696,-7.249882 -2.609179 0.5298119,-7.75924 -4.873989 0.4032871,-7.708388 -3.85518 0.4358516,-7.669661 -3.265934 0.5598202,-7.628161 -2.752958 0.6588923,-8.079659 -5.099868 0.5364214,-8.113164 -4.303533 0.6210421,-8.108784 -3.792732 0.7386072,-8.082323 -3.280621 0.8305321,1.08333,0 0 0 0 0 0 True
-2.041681 -7.127973 0.03880169,-2.555707 -7.018604 0.523445,-3.036497 -6.313291 0.7949216,-3.319168 -5.631492 1.028929,-3.645952 -5.175687 1.281877,-2.805942 -4.854845 0.4538552,-3.035882 -3.986249 0.7570164,-3.156243 -3.385815 1.043238,-3.25227 -2.882698 1.27962,-2.436562 -4.676956 0.4510651,-2.529954 -3.685436 1.004871,-2.533873 -3.560335 1.456158,-2.473483 -3.837408 1.699495,-2.083338 -4.729689 0.5068517,-2.098976 -3.825546 0.9599633,-2.124928 -3.683678 1.425967,-2.119019 -3.936974 1.693557,-1.713173 -4.957992 0.6078138,-1.658649 -4.232558 0.9849058,-1.706829 -4.061637 1.360028,-1.750406 -4.231258 1.623618,-7.846615 -7.614048 0.2419784,-7.277504 -7.305744 0.4192674,-6.782516 -6.561119 0.5322613,-6.444161 -5.889392 0.6944032,-6.104284 -5.509771 0.853759,-7.126542 -5.004358 0.2356531,-6.965256 -4.011159 0.3047823,-6.89595 -3.398354 0.4165164,-6.843698 -2.824525 0.5125957,-7.448564 -4.829082 0.2938907,-7.337637 -3.777584 0.2866966,-7.285125 -3.14853 0.4168696,-7.249882 -2.609179 0.5298119,-7.75924 -4.873989 0.4032871,-7.708388 -3.85518 0.4358516,-7.669661 -3.265934 0.5598202,-7.628161 -2.752958 0.6588923,-8.079659 -5.099868 0.5364214,-8.113164 -4.303533 0.6210421,-8.108784 -3.792732 0.7386072,-8.082323 -3.280621 0.8305321,1.11667,0 0 0 0 0 0 True
-2.053182 -7.063587 0.1217839,-2.557592 -6.926441 0.6017829,-3.031163 -6.205602 0.8940145,-3.31421 -5.534635 1.152753,-3.64822 -5.088735 1.429688,-2.79136 -4.769187 0.5873238,-3.026859 -3.925172 0.9391527,-3.144152 -3.357568 1.225825,-3.240688 -2.874827 1.439905,-2.41548 -4.593851 0.5936431,-2.499932 -3.580874 1.175416,-2.528249 -3.496391 1.611244,-2.501427 -3.805356 1.815724,-2.060759 -4.658323 0.6603574,-2.066061 -3.721553 1.13256,-2.118016 -3.624293 1.577019,-2.147923 -3.920647 1.808443,-1.689459 -4.911415 0.763928,-1.617085 -4.162925 1.140886,-1.676018 -3.989812 1.493426,-1.738889 -4.171414 1.727963,-7.846007 -7.593807 0.1339822,-7.27846 -7.276271 0.3362486,-6.787157 -6.532753 0.4614767,-6.451662 -5.860775 0.6253812,-6.108338 -5.494417 0.7937004,-7.135816 -5.010351 0.1811434,-6.986006 -3.99801 0.2644926,-6.921034 -3.387722 0.3854662,-6.869018 -2.819387 0.4920707,-7.466404 -4.838456 0.2256321,-7.372162 -3.80712 0.2660268,-7.331942 -3.214715 0.4061389,-7.306338 -2.72986 0.5242927,-7.778882 -4.87302 0.3236538,-7.738122 -3.866899 0.3812993,-7.702769 -3.307598 0.5029321,-7.664193 -2.835459 0.5970995,-8.099327 -5.082468 0.4449561,-8.141026 -4.299232 0.5218239,-8.142626 -3.799894 0.6281726,-8.118853 -3.29636 0.7167358,1.15000,0 0 0 0 0 0 True
-2.053182 -7.063587 0.1217839,-2.557592 -6.926441 0.6017829,-3.031163 -6.205602 0.8940145,-3.31421 -5.534635 1.152753,-3.64822 -5.088735 1.429688,-2.79136 -4.769187 0.5873238,-3.026859 -3.925172 0.9391527,-3.144152 -3.357568 1.225825,-3.240688 -2.874827 1.439905,-2.41548 -4.593851 0.5936431,-2.499932 -3.580874 1.175416,-2.528249 -3.496391 1.611244,-2.501427 -3.805356 1.815724,-2.060759 -4.658323 0.6603574,-2.066061 -3.721553 1.13256,-2.118016 -3.624293 1.577019,-2.147923 -3.920647 1.808443,-1.689459 -4.911415 0.763928,-1.617085 -4.162925 1.140886,-1.676018 -3.989812 1.493426,-1.738889 -4.171414 1.727963,-7.846007 -7.593807 0.1339822,-7.27846 -7.276271 0.3362486,-6.787157 -6.532753 0.4614767,-6.451662 -5.860775 0.6253812,-6.108338 -5.494417 0.7937004,-7.135816 -5.010351 0.1811434,-6.986006 -3.99801 0.2644926,-6.921034 -3.387722 0.3854662,-6.869018 -2.819387 0.4920707,-7.466404 -4.838456 0.2256321,-7.372162 -3.80712 0.2660268,-7.331942 -3.214715 0.4061389,-7.306338 -2.72986 0.5242927,-7.778882 -4.87302 0.3236538,-7.738122 -3.866899 0.3812993,-7.702769 -3.307598 0.5029321,-7.664193 -2.835459 0.5970995,-8.099327 -5.082468 0.4449561,-8.141026 -4.299232 0.5218239,-8.142626 -3.799894 0.6281726,-8.118853 -3.29636 0.7167358,1.18333,0 0 0 0 0 0 True
-2.045481 -6.985171 0.1976427,-2.55936 -6.851505 0.6713828,-3.042665 -6.148866 0.9796758,-3.319635 -5.466336 1.241971,-3.64032 -5.024156 1.509694,-2.797482 -4.69926 0.6983304,-3.026627 -3.838304 1.033715,-3.145588 -3.250005 1.324703,-3.235515 -2.758482 1.547544,-2.408732 -4.500098 0.7041206,-2.482763 -3.475269 1.265535,-2.507195 -3.39767 1.697338,-2.472167 -3.732833 1.912202,-2.044448 -4.537559 0.7591507,-2.040911 -3.599949 1.214061,-2.071004 -3.497861 1.659364,-2.076499 -3.813179 1.904591,-1.668738 -4.76729 0.8482081,-1.596137 -3.975923 1.212728,-1.634442 -3.825717 1.559049,-1.674582 -4.05502 1.792427,-7.855499 -7.580366 0.1078026,-7.29355 -7.286424 0.2936699,-6.809781 -6.526106 0.4096986,-6.488958 -5.852137 0.5674569,-6.155107 -5.504687 0.7313372,-7.158718 -4.998088 0.1049366,-7.003604 -4.005569 0.1666572,-6.936405 -3.387912 0.2786639,-6.880568 -2.814859 0.3759127,-7.49521 -4.828832 0.151212,-7.418443 -3.825784 0.1652816,-7.382263 -3.24273 0.2847587,-7.355381 -2.776828 0.3885293,-7.809498 -4.860776 0.2517642,-7.775914 -3.884745 0.2813072,-7.743993 -3.343463 0.3795593,-7.7092 -2.894234 0.4583973,-8.125689 -5.065506 0.3763134,-8.167138 -4.294722 0.423898,-8.168589 -3.8191 0.5067494,-8.147518 -3.346122 0.586009,1.21667,0 0 0 0 0 0 True
-2.045481 -6.985171 0.1976427,-2.55936 -6.851505 0.6713828,-3.042665 -6.148866 0.9796758,-3.319635 -5.466336 1.241971,-3.64032 -5.024156 1.509694,-2.797482 -4.69926 0.6983304,-3.026627 -3.838304 1.033715,-3.145588 -3.250005 1.324703,-3.235515 -2.758482 1.547544,-2.408732 -4.500098 0.7041206,-2.482763 -3.475269 1.265535,-2.507195 -3.39767 1.697338,-2.472167 -3.732833 1.912202,-2.044448 -4.537559 0.7591507,-2.040911 -3.599949 1.214061,-2.071004 -3.497861 1.659364,-2.076499 -3.813179 1.904591,-1.668738 -4.76729 0.8482081,-1.596137 -3.975923 1.212728,-1.634442 -3.825717 1.559049,-1.674582 -4.05502 1.792427,-7.855499 -7.580366 0.1078026,-7.29355 -7.286424 0.2936699,-6.809781 -6.526106 0.4096986,-6.488958 -5.852137 0.5674569,-6.155107 -5.504687 0.7313372,-7.158718 -4.998088 0.1049366,-7.003604 -4.005569 0.1666572,-6.936405 -3.387912 0.2786639,-6.880568 -2.814859 0.3759127,-7.49521 -4.828832 0.151212,-7.418443 -3.825784 0.1652816,-7.382263 -3.24273 0.2847587,-7.355381 -2.776828 0.3885293,-7.809498 -4.860776 0.2517642,-7.775914 -3.884745 0.2813072,-7.743993 -3.343463 0.3795593,-7.7092 -2.894234 0.4583973,-8.125689 -5.065506 0.3763134,-8.167138 -4.294722 0.423898,-8.168589 -3.8191 0.5067494,-8.147518 -3.346122 0.586009,1.25000,0 0 0 0 0 0 True
-2.043644 -6.87681 0.3322327,-2.564997 -6.755546 0.834855,-3.054638 -6.030109 1.170299,-3.338381 -5.332777 1.453941,-3.677042 -4.904642 1.74037,-2.796286 -4.588927 0.9403234,-3.025464 -3.722551 1.317465,-3.140085 -3.131359 1.636463,-3.228719 -2.635591 1.877706,-2.398915 -4.376068 0.950744,-2.482529 -3.365807 1.554499,-2.511365 -3.259044 2.012874,-2.474329 -3.572868 2.253141,-2.021579 -4.415788 1.011062,-2.027145 -3.484338 1.507651,-2.052217 -3.334438 1.975318,-2.05126 -3.603868 2.244053,-1.632117 -4.655181 1.103173,-1.571934 -3.861297 1.499793,-1.603509 -3.668681 1.859428,-1.637125 -3.838792 2.107478,-7.840843 -7.547988 -0.03429065,-7.288861 -7.261353 0.1746888,-6.821911 -6.502393 0.308115,-6.503987 -5.835554 0.4759257,-6.156665 -5.498536 0.6596964,-7.175178 -4.985456 0.02223975,-7.026191 -3.969467 0.1138387,-6.954567 -3.334548 0.2516715,-6.891537 -2.745345 0.3670416,-7.514059 -4.83495 0.0727973,-7.446217 -3.83004 0.1324953,-7.404073 -3.250481 0.2861239,-7.368397 -2.80125 0.415184,-7.830369 -4.876205 0.1757085,-7.803089 -3.897995 0.2381691,-7.771986 -3.355476 0.3630091,-7.73583 -2.907944 0.4643224,-8.146231 -5.087131 0.302365,-8.190864 -4.316769 0.3739383,-8.193621 -3.8357 0.4754023,-8.17339 -3.350096 0.566639,1.28333,0 0 0 0 0 0 True
-2.08955 -6.796812 0.4589458,-2.609355 -6.652037 0.9574593,-3.093962 -5.909511 1.301581,-3.371144 -5.228567 1.589942,-3.708502 -4.822099 1.882133,-2.817712 -4.490714 1.148126,-3.035137 -3.625166 1.576245,-3.143093 -3.033075 1.91169,-3.230999 -2.552463 2.151008,-2.40737 -4.276601 1.16583,-2.480104 -3.238214 1.813772,-2.511289 -3.152109 2.2707,-2.484394 -3.508599 2.507353,-2.02127 -4.327612 1.233543,-2.014377 -3.377596 1.755016,-2.047666 -3.235664 2.212813,-2.063196 -3.523839 2.468443,-1.632117 -4.655181 1.22993,-1.571934 -3.861297 1.626551,-1.603509 -3.668681 1.986186,-1.637125 -3.838792 2.234236,-7.840843 -7.547988 -0.03429065,-7.288861 -7.261353 0.1746888,-6.821911 -6.502393 0.308115,-6.503987 -5.835554 0.4759257,-6.156665 -5.498536 0.6596964,-7.175178 -4.985456 0.02223975,-7.026191 -3.969467 0.1138387,-6.954567 -3.334548 0.2516715,-6.891537 -2.745345 0.3670416,-7.514059 -4.83495 0.0727973,-7.446217 -3.83004 0.1324953,-7.404073 -3.250481 0.2861239,-7.368397 -2.80125 0.415184,-7.830369 -4.876205 0.1757085,-7.803089 -3.897995 0.2381691,-7.771986 -3.355476 0.3630091,-7.73583 -2.907944 0.4643224,-8.146231 -5.087131 0.302365,-8.190864 -4.316769 0.3739383,-8.193621 -3.8357 0.4754023,-8.17339 -3.350096 0.566639,1.31667,0 0 0 0 0 0 True
-2.08955 -6.796812 0.4589458,-2.609355 -6.652037 0.9574593,-3.093962 -5.909511 1.301581,-3.371144 -5.228567 1.589942,-3.708502 -4.822099 1.882133,-2.817712 -4.490714 1.148126,-3.035137 -3.625166 1.576245,-3.143093 -3.033075 1.91169,-3.230999 -2.552463 2.151008,-2.40737 -4.276601 1.16583,-2.480104 -3.238214 1.813772,-2.511289 -3.152109 2.2707,-2.484394 -3.508599 2.507353,-2.02127 -4.327612 1.233543,-2.014377 -3.377596 1.755016,-2.047666 -3.235664 2.212813,-2.063196 -3.523839 2.468443,-1.629418 -4.590244 1.327056,-1.552291 -3.787815 1.737413,-1.585813 -3.573411 2.090463,-1.630502 -3.728097 2.335902,-7.866324 -7.530843 -0.1099036,-7.30673 -7.232736 0.1131106,-6.836911 -6.488098 0.2650294,-6.507009 -5.837993 0.4517729,-6.161293 -5.474611 0.6550061,-7.193933 -4.973745 -0.0575751,-7.045812 -3.957387 0.04250284,-6.980836 -3.312511 0.1983681,-6.930829 -2.727346 0.3220132,-7.531947 -4.840368 -0.007086568,-7.476511 -3.843515 0.07124735,-7.436075 -3.278777 0.2475173,-7.401146 -2.8631 0.3903047,-7.849422 -4.892328 0.09736557,-7.836036 -3.919693 0.1721904,-7.804025 -3.38981 0.3110352,-7.764533 -2.966806 0.4203189,-8.162458 -5.110631 0.2262982,-8.219312 -4.346314 0.2972151,-8.222647 -3.865923 0.3964307,-8.199597 -3.384237 0.4865607,1.35000,0 0 0 0 0 0 True
-2.111003 -6.714386 0.5473536,-2.629303 -6.552477 1.051586,-3.133394 -5.836214 1.412308,-3.441722 -5.175781 1.714738,-3.785014 -4.74805 2.019371,-2.834529 -4.414661 1.319441,-3.053598 -3.543602 1.803169,-3.152325 -2.943613 2.160958,-3.236359 -2.457191 2.411105,-2.415643 -4.191919 1.341341,-2.487711 -3.101017 2.043325,-2.508195 -3.121553 2.487201,-2.481467 -3.570951 2.695423,-2.019778 -4.239777 1.410663,-2.003244 -3.250468 1.973644,-2.036968 -3.213153 2.400379,-2.063114 -3.590981 2.613681,-1.619583 -4.504192 1.501621,-1.524741 -3.685367 1.944343,-1.570567 -3.543128 2.281805,-1.633622 -3.791775 2.504708,-7.889732 -7.529783 -0.1078501,-7.327679 -7.243398 0.1420874,-6.854031 -6.483615 0.3024783,-6.521957 -5.830207 0.4832994,-6.179064 -5.470439 0.6793803,-7.213121 -4.97614 0.002467029,-7.068737 -3.957978 0.1226155,-7.00771 -3.318597 0.2882788,-6.96004 -2.746098 0.420097,-7.555983 -4.841075 0.04582225,-7.514849 -3.847105 0.1580154,-7.484613 -3.313854 0.3602068,-7.456599 -2.947514 0.5189461,-7.877504 -4.903068 0.1474564,-7.871201 -3.950627 0.2397021,-7.838304 -3.442094 0.3967282,-7.799097 -3.052678 0.5282846,-8.194272 -5.14226 0.2711297,-8.252685 -4.400861 0.3528588,-8.260009 -3.932494 0.4730601,-8.239672 -3.468821 0.5885854,1.38333,0 0 0 0 0 0 True
-2.111003 -6.714386 0.5473536,-2.629303 -6.552477 1.051586,-3.133394 -5.836214 1.412308,-3.441722 -5.175781 1.714738,-3.785014 -4.74805 2.019371,-2.834529 -4.414661 1.319441,-3.053598 -3.543602 1.803169,-3.152325 -2.943613 2.160958,-3.236359 -2.457191 2.411105,-2.415643 -4.191919 1.341341,-2.487711 -3.101017 2.043325,-2.508195 -3.121553 2.487201,-2.481467 -3.570951 2.695423,-2.019778 -4.239777 1.410663,-2.003244 -3.250468 1.973644,-2.036968 -3.213153 2.400379,-2.063114 -3.590981 2.613681,-1.619583 -4.504192 1.501621,-1.524741 -3.685367 1.944343,-1.570567 -3.543128 2.281805,-1.633622 -3.791775 2.504708,-7.889732 -7.529783 -0.1078501,-7.327679 -7.243398 0.1420874,-6.854031 -6.483615 0.3024783,-6.521957 -5.830207 0.4832994,-6.179064 -5.470439 0.6793803,-7.213121 -4.97614 0.002467029,-7.068737 -3.957978 0.1226155,-7.00771 -3.318597 0.2882788,-6.96004 -2.746098 0.420097,-7.555983 -4.841075 0.04582225,-7.514849 -3.847105 0.1580154,-7.484613 -3.313854 0.3602068,-7.456599 -2.947514 0.5189461,-7.877504 -4.903068 0.1474564,-7.871201 -3.950627 0.2397021,-7.838304 -3.442094 0.3967282,-7.799097 -3.052678 0.5282846,-8.194272 -5.14226 0.2711297,-8.252685 -4.400861 0.3528588,-8.260009 -3.932494 0.4730601,-8.239672 -3.468821 0.5885854,1.41667,0 0 0 0 0 0 True
-2.107701 -6.628422 0.6653537,-2.613489 -6.465208 1.205568,-3.122801 -5.791265 1.605429,-3.449418 -5.170284 1.937876,-3.805925 -4.784473 2.296374,-2.830843 -4.3052 1.492878,-3.051682 -3.454601 1.993884,-3.134237 -2.889861 2.365278,-3.205866 -2.433266 2.623212,-2.409829 -4.08233 1.497729,-2.473035 -2.992739 2.248498,-2.466332 -3.126339 2.69063,-2.433109 -3.638444 2.879486,-2.014014 -4.130199 1.552357,-1.996607 -3.136001 2.149241,-2.009657 -3.241558 2.550236,-2.020233 -3.704181 2.719824,-1.620253 -4.395032 1.624171,-1.528226 -3.570043 2.109614,-1.570997 -3.530383 2.43971,-1.621817 -3.866397 2.651997,-7.925645 -7.503873 -0.06741513,-7.37376 -7.242225 0.2100911,-6.896684 -6.496734 0.3703226,-6.554459 -5.841732 0.5419367,-6.219277 -5.466652 0.7325181,-7.239796 -4.944753 0.0233922,-7.074881 -3.963033 0.129603,-7.015295 -3.334024 0.3055818,-6.973569 -2.768678 0.4456286,-7.583165 -4.802711 0.04869197,-7.527106 -3.855118 0.1580463,-7.507084 -3.384009 0.3768057,-7.49087 -3.111314 0.5505539,-7.909484 -4.86911 0.1344288,-7.905045 -3.982605 0.2196552,-7.868502 -3.522946 0.3945678,-7.828561 -3.21603 0.5376714,-8.229621 -5.109639 0.2526054,-8.27322 -4.42118 0.3353001,-8.280039 -3.978404 0.4761913,-8.258481 -3.555413 0.6073388,1.45000,0 0 0 0 0 0 True
-2.107701 -6.628422 0.6653537,-2.613489 -6.465208 1.205568,-3.122801 -5.791265 1.605429,-3.449418 -5.170284 1.937876,-3.805925 -4.784473 2.296374,-2.830843 -4.3052 1.492878,-3.051682 -3.454601 1.993884,-3.134237 -2.889861 2.365278,-3.205866 -2.433266 2.623212,-2.409829 -4.08233 1.497729,-2.473035 -2.992739 2.248498,-2.466332 -3.126339 2.69063,-2.433109 -3.638444 2.879486,-2.014014 -4.130199 1.552357,-1.996607 -3.136001 2.149241,-2.009657 -3.241558 2.550236,-2.020233 -3.704181 2.719824,-1.620253 -4.395032 1.624171,-1.528226 -3.570043 2.109614,-1.570997 -3.530383 2.43971,-1.621817 -3.866397 2.651997,-7.925645 -7.503873 -0.06741513,-7.37376 -7.242225 0.2100911,-6.896684 -6.496734 0.3703226,-6.554459 -5.841732 0.5419367,-6.219277 -5.466652 0.7325181,-7.239796 -4.944753 0.0233922,-7.074881 -3.963033 0.129603,-7.015295 -3.334024 0.3055818,-6.973569 -2.768678 0.4456286,-7.583165 -4.802711 0.04869197,-7.527106 -3.855118 0.1580463,-7.507084 -3.384009 0.3768057,-7.49087 -3.111314 0.5505539,-7.909484 -4.86911 0.1344288,-7.905045 -3.982605 0.2196552,-7.868502 -3.522946 0.3945678,-7.828561 -3.21603 0.5376714,-8.229621 -5.109639 0.2526054,-8.27322 -4.42118 0.3353001,-8.280039 -3.978404 0.4761913,-8.258481 -3.555413 0.6073388,1.48333,0 0 0 0 0 0 True
-2.099672 -6.628614 0.8311357,-2.603882 -6.484849 1.447623,-3.109525 -5.766553 1.878456,-3.423788 -5.131135 2.228572,-3.803192 -4.784417 2.644789,-2.823638 -4.303747 1.753972,-3.028715 -3.492277 2.287228,-3.087055 -2.940804 2.706838,-3.132283 -2.468093 3.012735,-2.394762 -4.060984 1.750255,-2.448958 -3.003415 2.546211,-2.408169 -3.209287 3.01637,-2.352399 -3.747993 3.239997,-1.995926 -4.094013 1.799851,-1.964943 -3.116558 2.430235,-1.947557 -3.303121 2.832829,-1.938935 -3.790584 3.010547,-1.599577 -4.341788 1.876925,-1.50643 -3.52008 2.398935,-1.541143 -3.56704 2.731821,-1.580688 -3.947184 2.943768,-7.934695 -7.448213 -0.1652334,-7.400641 -7.202363 0.1246018,-6.931001 -6.455038 0.2922182,-6.58577 -5.816804 0.4652613,-6.250679 -5.442285 0.6465627,-7.278943 -4.910329 -0.05371682,-7.109596 -3.93132 0.05911553,-7.041724 -3.295724 0.2568864,-6.995051 -2.744369 0.4157481,-7.621773 -4.772974 -0.02158007,-7.568455 -3.788082 0.1410704,-7.568165 -3.391272 0.4044695,-7.577635 -3.25658 0.6022465,-7.944758 -4.857919 0.06771384,-7.948714 -3.952066 0.1808993,-7.918324 -3.532097 0.3964419,-7.88913 -3.306466 0.5671467,-8.258443 -5.125862 0.1894483,-8.297814 -4.447097 0.3027571,-8.310521 -4.013078 0.4771929,-8.298983 -3.629814 0.6407387,1.51667,0 0 0 0 0 0 True
-2.099672 -6.628614 0.8311357,-2.603882 -6.484849 1.447623,-3.109525 -5.766553 1.878456,-3.423788 -5.131135 2.228572,-3.803192 -4.784417 2.644789,-2.823638 -4.303747 1.753972,-3.028715 -3.492277 2.287228,-3.087055 -2.940804 2.706838,-3.132283 -2.468093 3.012735,-2.394762 -4.060984 1.750255,-2.448958 -3.003415 2.546211,-2.408169 -3.209287 3.01637,-2.352399 -3.747993 3.239997,-1.995926 -4.094013 1.799851,-1.964943 -3.116558 2.430235,-1.947557 -3.303121 2.832829,-1.938935 -3.790584 3.010547,-1.599577 -4.341788 1.876925,-1.50643 -3.52008 2.398935,-1.541143 -3.56704 2.731821,-1.580688 -3.947184 2.943768,-7.934695 -7.448213 -0.1652334,-7.400641 -7.202363 0.1246018,-6.931001 -6.455038 0.2922182,-6.58577 -5.816804 0.4652613,-6.250679 -5.442285 0.6465627,-7.278943 -4.910329 -0.05371682,-7.109596 -3.93132 0.05911553,-7.041724 -3.295724 0.2568864,-6.995051 -2.744369 0.4157481,-7.621773 -4.772974 -0.02158007,-7.568455 -3.788082 0.1410704,-7.568165 -3.391272 0.4044695,-7.577635 -3.25658 0.6022465,-7.944758 -4.857919 0.06771384,-7.948714 -3.952066 0.1808993,-7.918324 -3.532097 0.3964419,-7.88913 -3.306466 0.5671467,-8.258443 -5.125862 0.1894483,-8.297814 -4.447097 0.3027571,-8.310521 -4.013078 0.4771929,-8.298983 -3.629814 0.6407387,1.55000,0 0 0 0 0 0 True
-2.088889 -6.604696 0.7988629,-2.593151 -6.473403 1.448924,-3.097095 -5.764066 1.88918,-3.40521 -5.137722 2.245794,-3.79266 -4.821714 2.668777,-2.790815 -4.29085 1.733295,-2.985445 -3.507673 2.27759,-3.032984 -2.995329 2.706868,-3.072291 -2.540406 3.00786,-2.357181 -4.041618 1.711355,-2.400789 -2.999138 2.525132,-2.352225 -3.334768 2.990583,-2.30169 -3.929687 3.202284,-1.957762 -4.065027 1.743522,-1.912622 -3.113154 2.391406,-1.881183 -3.415847 2.776047,-1.862769 -3.951392 2.928947,-1.568402 -4.30273 1.810956,-1.469822 -3.500553 2.331222,-1.489578 -3.614056 2.648607,-1.50884 -4.019169 2.8364,-7.968126 -7.404855 -0.1844499,-7.437308 -7.166515 0.1235591,-6.966251 -6.431956 0.2884896,-6.613744 -5.790967 0.4529371,-6.288952 -5.427183 0.623744,-7.30668 -4.865131 -0.1018503,-7.121332 -3.912302 -0.01056828,-7.060452 -3.266403 0.1833909,-7.026134 -2.706721 0.3441823,-7.648593 -4.73368 -0.0922528,-7.590336 -3.773836 0.0681451,-7.604635 -3.432025 0.3480576,-7.633724 -3.358532 0.5468911,-7.97502 -4.828903 -0.02469176,-7.975416 -3.959329 0.0696677,-7.95682 -3.587295 0.2914847,-7.937784 -3.41598 0.4630225,-8.294452 -5.105762 0.07579562,-8.335958 -4.463901 0.1743412,-8.350397 -4.063325 0.3472086,-8.34086 -3.730714 0.5120524,1.58333,0 0 0 0 0 0 True
-2.088889 -6.604696 0.7988629,-2.593151 -6.473403 1.448924,-3.097095 -5.764066 1.88918,-3.40521 -5.137722 2.245794,-3.79266 -4.821714 2.668777,-2.790815 -4.29085 1.733295,-2.985445 -3.507673 2.27759,-3.032984 -2.995329 2.706868,-3.072291 -2.540406 3.00786,-2.357181 -4.041618 1.711355,-2.400789 -2.999138 2.525132,-2.352225 -3.334768 2.990583,-2.30169 -3.929687 3.202284,-1.957762 -4.065027 1.743522,-1.912622 -3.113154 2.391406,-1.881183 -3.415847 2.776047,-1.862769 -3.951392 2.928947,-1.568402 -4.30273 1.810956,-1.469822 -3.500553 2.331222,-1.489578 -3.614056 2.648607,-1.50884 -4.019169 2.8364,-7.968126 -7.404855 -0.1844499,-7.437308 -7.166515 0.1235591,-6.966251 -6.431956 0.2884896,-6.613744 -5.790967 0.4529371,-6.288952 -5.427183 0.623744,-7.30668 -4.865131 -0.1018503,-7.121332 -3.912302 -0.01056828,-7.060452 -3.266403 0.1833909,-7.026134 -2.706721 0.3441823,-7.648593 -4.73368 -0.0922528,-7.590336 -3.773836 0.0681451,-7.604635 -3.432025 0.3480576,-7.633724 -3.358532 0.5468911,-7.97502 -4.828903 -0.02469176,-7.975416 -3.959329 0.0696677,-7.95682 -3.587295 0.2914847,-7.937784 -3.41598 0.4630225,-8.294452 -5.105762 0.07579562,-8.335958 -4.463901 0.1743412,-8.350397 -4.063325 0.3472086,-8.34086 -3.730714 0.5120524,1.61667,0 0 0 0 0 0 True
-2.053144 -6.606946 0.7523457,-2.568959 -6.448972 1.405882,-3.068041 -5.746097 1.84861,-3.371698 -5.135738 2.211843,-3.752256 -4.800199 2.647618,-2.750824 -4.288783 1.683302,-2.942357 -3.495952 2.227763,-2.983205 -2.989353 2.6552,-3.01545 -2.559255 2.955553,-2.315824 -4.058387 1.667352,-2.350794 -3.019478 2.496573,-2.311602 -3.318693 2.984433,-2.271132 -3.903269 3.219329,-1.915967 -4.095006 1.705828,-1.859058 -3.15147 2.368682,-1.834196 -3.415067 2.783722,-1.825568 -3.945642 2.957552,-1.526793 -4.340938 1.782504,-1.409541 -3.546638 2.323827,-1.427272 -3.614265 2.664281,-1.453691 -3.995571 2.875942,-7.987774 -7.373662 -0.1520728,-7.454823 -7.145577 0.1840736,-6.986879 -6.407909 0.3649953,-6.633588 -5.756116 0.5407634,-6.301543 -5.375539 0.7203831,-7.329022 -4.813304 -0.05243909,-7.142776 -3.873194 0.0222176,-7.081576 -3.221899 0.208143,-7.038557 -2.652802 0.3762641,-7.674248 -4.692733 -0.05190603,-7.619179 -3.724903 0.144041,-7.637265 -3.498726 0.4623227,-7.657948 -3.55583 0.6701486,-8.003365 -4.802438 0.003243431,-8.009583 -3.935415 0.132449,-7.991343 -3.606809 0.3735207,-7.964695 -3.497712 0.5435274,-8.324188 -5.103586 0.09311467,-8.366521 -4.450382 0.2257924,-8.37758 -4.067405 0.4064283,-8.360172 -3.797372 0.5683952,1.65000,0 0 0 0 0 0 True
-2.002548 -6.597795 0.8598227,-2.523045 -6.443838 1.540334,-3.026325 -5.734376 1.986095,-3.331952 -5.09304 2.355534,-3.710453 -4.741752 2.795872,-2.704866 -4.23548 1.782127,-2.890611 -3.426656 2.344073,-2.921146 -2.937372 2.780742,-2.939916 -2.536822 3.080846,-2.26591 -4.010438 1.757329,-2.282955 -2.955251 2.611879,-2.241427 -3.311786 3.118302,-2.205285 -3.934546 3.361829,-1.864808 -4.055489 1.789896,-1.794604 -3.104181 2.477833,-1.780121 -3.415943 2.901926,-1.781265 -3.971145 3.075505,-1.473971 -4.306294 1.863484,-1.349475 -3.525054 2.415671,-1.370038 -3.633715 2.767731,-1.40011 -4.038536 2.981201,-8.002586 -7.335205 -0.2793114,-7.468395 -7.12022 0.06642374,-6.986879 -6.407909 0.2376468,-6.633588 -5.756116 0.4134148,-6.301543 -5.375539 0.5930346,-7.329022 -4.813304 -0.1797876,-7.142776 -3.873194 -0.1051309,-7.081576 -3.221899 0.08079448,-7.038557 -2.652802 0.2489156,-7.674248 -4.692733 -0.1792546,-7.619179 -3.724903 0.01669243,-7.637265 -3.498726 0.3349742,-7.657948 -3.55583 0.5428,-8.003365 -4.802438 -0.1241051,-8.009583 -3.935415 0.005100429,-7.991343 -3.606809 0.2461721,-7.964695 -3.497712 0.4161789,-8.324188 -5.103586 -0.03423387,-8.366521 -4.450382 0.0984439,-8.37758 -4.067405 0.2790797,-8.360172 -3.797372 0.4410467,1.68333,0 0 0 0 0 0 True
-2.002548 -6.597795 0.8598227,-2.523045 -6.443838 1.540334,-3.026325 -5.734376 1.986095,-3.331952 -5.09304 2.355534,-3.710453 -4.741752 2.795872,-2.704866 -4.23548 1.782127,-2.890611 -3.426656 2.344073,-2.921146 -2.937372 2.780742,-2.939916 -2.536822 3.080846,-2.26591 -4.010438 1.757329,-2.282955 -2.955251 2.611879,-2.241427 -3.311786 3.118302,-2.205285 -3.934546 3.361829,-1.864808 -4.055489 1.789896,-1.794604 -3.104181 2.477833,-1.780121 -3.415943 2.901926,-1.781265 -3.971145 3.075505,-1.473971 -4.306294 1.863484,-1.349475 -3.525054 2.415671,-1.370038 -3.633715 2.767731,-1.40011 -4.038536 2.981201,-8.002586 -7.335205 -0.1143652,-7.468395 -7.12022 0.2313699,-7.006863 -6.392253 0.4159732,-6.650646 -5.729205 0.5969596,-6.318223 -5.347322 0.764248,-7.350799 -4.774459 -0.05089646,-7.151376 -3.833765 0.03835844,-7.088079 -3.182766 0.2319711,-7.04625 -2.619984 0.4048996,-7.700983 -4.641277 -0.03929463,-7.645853 -3.614955 0.2203693,-7.669548 -3.515197 0.5923749,-7.701651 -3.739817 0.8198387,-8.02775 -4.756431 0.0315394,-8.03791 -3.811037 0.2298793,-8.022249 -3.616368 0.5161148,-8.010281 -3.690284 0.6900173,-8.346556 -5.079118 0.1280768,-8.391586 -4.373716 0.3169781,-8.391738 -4.011705 0.5187667,-8.378254 -3.836964 0.6810649,1.71667,0 0 0 0 0 0 True
-2.001153 -6.662428 0.8781585,-2.509817 -6.465278 1.548102,-3.000954 -5.745292 1.985438,-3.301403 -5.10067 2.339359,-3.675367 -4.755861 2.765059,-2.685163 -4.284122 1.791053,-2.86447 -3.464612 2.327129,-2.89947 -2.950084 2.754853,-2.92364 -2.506847 3.057365,-2.245989 -4.060302 1.75393,-2.247665 -2.988424 2.56846,-2.205695 -3.370879 3.047578,-2.177159 -4.018451 3.276507,-1.846674 -4.108772 1.773912,-1.75803 -3.125819 2.421968,-1.753777 -3.46791 2.818607,-1.774052 -4.056818 2.972468,-1.464201 -4.368501 1.832289,-1.312423 -3.582449 2.349462,-1.336764 -3.66841 2.678248,-1.385628 -4.070711 2.882846,-8.017178 -7.354379 -0.00213112,-7.480136 -7.137039 0.3394312,-7.019052 -6.390822 0.5213129,-6.652742 -5.726722 0.6992639,-6.290482 -5.348076 0.8641523,-7.346965 -4.772041 0.05550589,-7.153868 -3.836663 0.1508671,-7.09971 -3.185398 0.3253241,-7.063538 -2.625188 0.4819888,-7.70592 -4.629307 0.07521494,-7.675168 -3.569857 0.3565107,-7.689953 -3.510765 0.7096804,-7.705686 -3.781355 0.9102515,-8.03784 -4.740671 0.1548078,-8.069011 -3.756951 0.4021842,-8.052666 -3.657921 0.7016707,-8.036117 -3.846426 0.8658803,-8.352785 -5.065376 0.2555585,-8.414689 -4.344381 0.4769666,-8.41424 -4.008857 0.6799594,-8.403603 -3.889319 0.8318062,1.75000,0 0 0 0 0 0 True
-2.001153 -6.662428 0.8781585,-2.509817 -6.465278 1.548102,-3.000954 -5.745292 1.985438,-3.301403 -5.10067 2.339359,-3.675367 -4.755861 2.765059,-2.685163 -4.284122 1.791053,-2.86447 -3.464612 2.327129,-2.89947 -2.950084 2.754853,-2.92364 -2.506847 3.057365,-2.245989 -4.060302 1.75393,-2.247665 -2.988424 2.56846,-2.205695 -3.370879 3.047578,-2.177159 -4.018451 3.276507,-1.846674 -4.108772 1.773912,-1.75803 -3.125819 2.421968,-1.753777 -3.46791 2.818607,-1.774052 -4.056818 2.972468,-1.464201 -4.368501 1.832289,-1.312423 -3.582449 2.349462,-1.336764 -3.66841 2.678248,-1.385628 -4.070711 2.882846,-8.017178 -7.354379 -0.00213112,-7.480136 -7.137039 0.3394312,-7.019052 -6.390822 0.5213129,-6.652742 -5.726722 0.6992639,-6.290482 -5.348076 0.8641523,-7.346965 -4.772041 0.05550589,-7.153868 -3.836663 0.1508671,-7.09971 -3.185398 0.3253241,-7.063538 -2.625188 0.4819888,-7.70592 -4.629307 0.07521494,-7.675168 -3.569857 0.3565107,-7.689953 -3.510765 0.7096804,-7.705686 -3.781355 0.9102515,-8.03784 -4.740671 0.1548078,-8.069011 -3.756951 0.4021842,-8.052666 -3.657921 0.7016707,-8.036117 -3.846426 0.8658803,-8.352785 -5.065376 0.2555585,-8.414689 -4.344381 0.4769666,-8.41424 -4.008857 0.6799594,-8.403603 -3.889319 0.8318062,1.78333,0 0 0 0 0 0 True
-2.030659 -6.764269 0.8880724,-2.528491 -6.552935 1.503724,-3.010277 -5.781085 1.942486,-3.298962 -5.118815 2.298339,-3.679933 -4.779828 2.719441,-2.693402 -4.363815 1.759175,-2.865428 -3.539865 2.269444,-2.910329 -3.022129 2.692053,-2.949268 -2.58872 3.004248,-2.256185 -4.151151 1.74505,-2.262481 -3.053206 2.517448,-2.238147 -3.457119 2.968978,-2.225354 -4.117506 3.179975,-1.859023 -4.195493 1.783672,-1.784748 -3.159594 2.376254,-1.792384 -3.506827 2.70683,-1.821983 -4.083396 2.827312,-1.479179 -4.446676 1.858325,-1.341881 -3.602018 2.320903,-1.377124 -3.711011 2.56918,-1.432911 -4.130168 2.713422,-8.047306 -7.349142 0.06366176,-7.495452 -7.104345 0.4150185,-7.030929 -6.362419 0.5955368,-6.666358 -5.683364 0.7695134,-6.306638 -5.28535 0.9203613,-7.363038 -4.769805 0.1243496,-7.163242 -3.832487 0.233961,-7.110909 -3.191251 0.4047909,-7.073348 -2.648652 0.5522264,-7.726564 -4.605978 0.1305056,-7.694851 -3.509766 0.4139234,-7.699417 -3.516422 0.7589647,-7.704066 -3.852923 0.9470596,-8.059593 -4.704605 0.1944307,-8.088642 -3.693059 0.4490556,-8.070895 -3.680232 0.731178,-8.050254 -3.963865 0.8781668,-8.374411 -5.021993 0.2792086,-8.433349 -4.287302 0.4922751,-8.427111 -3.986328 0.6722933,-8.410373 -3.920925 0.8062792,1.81667,0 0 0 0 0 0 True
-2.030659 -6.764269 0.8880724,-2.528491 -6.552935 1.503724,-3.010277 -5.781085 1.942486,-3.298962 -5.118815 2.298339,-3.679933 -4.779828 2.719441,-2.693402 -4.363815 1.759175,-2.865428 -3.539865 2.269444,-2.910329 -3.022129 2.692053,-2.949268 -2.58872 3.004248,-2.256185 -4.151151 1.74505,-2.262481 -3.053206 2.517448,-2.238147 -3.457119 2.968978,-2.225354 -4.117506 3.179975,-1.859023 -4.195493 1.783672,-1.784748 -3.159594 2.376254,-1.792384 -3.506827 2.70683,-1.821983 -4.083396 2.827312,-1.479179 -4.446676 1.858325,-1.341881 -3.602018 2.320903,-1.377124 -3.711011 2.56918,-1.432911 -4.130168 2.713422,-8.047306 -7.349142 0.06366176,-7.495452 -7.104345 0.4150185,-7.030929 -6.362419 0.5955368,-6.666358 -5.683364 0.7695134,-6.306638 -5.28535 0.9203613,-7.363038 -4.769805 0.1243496,-7.163242 -3.832487 0.233961,-7.110909 -3.191251 0.4047909,-7.073348 -2.648652 0.5522264,-7.726564 -4.605978 0.1305056,-7.694851 -3.509766 0.4139234,-7.699417 -3.516422 0.7589647,-7.704066 -3.852923 0.9470596,-8.059593 -4.704605 0.1944307,-8.088642 -3.693059 0.4490556,-8.070895 -3.680232 0.731178,-8.050254 -3.963865 0.8781668,-8.374411 -5.021993 0.2792086,-8.433349 -4.287302 0.4922751,-8.427111 -3.986328 0.6722933,-8.410373 -3.920925 0.8062792,1.85000,0 0 0 0 0 0 True
-2.021318 -6.805425 0.8110422,-2.523193 -6.587751 1.398483,-3.011105 -5.81953 1.815835,-3.305059 -5.134725 2.147652,-3.683605 -4.778129 2.530203,-2.695855 -4.422336 1.61861,-2.869234 -3.609132 2.096271,-2.917868 -3.073982 2.497675,-2.95577 -2.596572 2.803549,-2.275468 -4.198317 1.605447,-2.293823 -3.113135 2.339014,-2.263793 -3.486238 2.759367,-2.238443 -4.106063 2.948479,-1.89188 -4.227175 1.64408,-1.833791 -3.208067 2.2036,-1.83697 -3.539683 2.505475,-1.853477 -4.096256 2.600974,-1.517934 -4.465841 1.716545,-1.385556 -3.650185 2.161687,-1.423178 -3.774415 2.381346,-1.474644 -4.209836 2.497047,-8.046108 -7.369127 0.1644204,-7.486879 -7.095706 0.5243931,-7.033474 -6.322729 0.7108427,-6.678559 -5.630236 0.8913444,-6.302046 -5.223573 1.044214,-7.374163 -4.763962 0.2373937,-7.170823 -3.833897 0.3564083,-7.117762 -3.199888 0.5253156,-7.081828 -2.653749 0.6774116,-7.744622 -4.595039 0.2402233,-7.715995 -3.451438 0.5420368,-7.693334 -3.499253 0.8857588,-7.679934 -3.8679 1.06388,-8.080486 -4.687875 0.2973348,-8.111637 -3.607924 0.5651578,-8.071549 -3.632061 0.834998,-8.034944 -3.959993 0.9625325,-8.398324 -5.002824 0.3789555,-8.464086 -4.224739 0.6018822,-8.445353 -3.934428 0.7624561,-8.418134 -3.912464 0.8683682,1.88333,0 0 0 0 0 0 True
-2.021318 -6.805425 0.8110422,-2.523193 -6.587751 1.398483,-3.011105 -5.81953 1.815835,-3.305059 -5.134725 2.147652,-3.683605 -4.778129 2.530203,-2.695855 -4.422336 1.61861,-2.869234 -3.609132 2.096271,-2.917868 -3.073982 2.497675,-2.95577 -2.596572 2.803549,-2.275468 -4.198317 1.605447,-2.293823 -3.113135 2.339014,-2.263793 -3.486238 2.759367,-2.238443 -4.106063 2.948479,-1.89188 -4.227175 1.64408,-1.833791 -3.208067 2.2036,-1.83697 -3.539683 2.505475,-1.853477 -4.096256 2.600974,-1.517934 -4.465841 1.716545,-1.385556 -3.650185 2.161687,-1.423178 -3.774415 2.381346,-1.474644 -4.209836 2.497047,-8.046108 -7.369127 0.1644204,-7.486879 -7.095706 0.5243931,-7.033474 -6.322729 0.7108427,-6.678559 -5.630236 0.8913444,-6.302046 -5.223573 1.044214,-7.374163 -4.763962 0.2373937,-7.170823 -3.833897 0.3564083,-7.117762 -3.199888 0.5253156,-7.081828 -2.653749 0.6774116,-7.744622 -4.595039 0.2402233,-7.715995 -3.451438 0.5420368,-7.693334 -3.499253 0.8857588,-7.679934 -3.8679 1.06388,-8.080486 -4.687875 0.2973348,-8.111637 -3.607924 0.5651578,-8.071549 -3.632061 0.834998,-8.034944 -3.959993 0.9625325,-8.398324 -5.002824 0.3789555,-8.464086 -4.224739 0.6018822,-8.445353 -3.934428 0.7624561,-8.418134 -3.912464 0.8683682,1.91667,0 0 0 0 0 0 True
-2.016348 -6.786319 0.676814,-2.520447 -6.558916 1.226909,-3.011896 -5.808796 1.605205,-3.311485 -5.117794 1.904641,-3.664023 -4.752308 2.228979,-2.682524 -4.399526 1.375442,-2.870348 -3.592802 1.845648,-2.924952 -3.059412 2.225603,-2.964671 -2.588044 2.502263,-2.273152 -4.191394 1.372929,-2.29911 -3.10412 2.106857,-2.282374 -3.436914 2.52094,-2.25481 -4.033826 2.690629,-1.897158 -4.225807 1.42484,-1.843754 -3.209487 2.000195,-1.867577 -3.524408 2.302056,-1.88764 -4.080029 2.385119,-1.528448 -4.46894 1.512054,-1.403942 -3.645366 1.964921,-1.4554 -3.757123 2.202084,-1.511886 -4.196764 2.31564,-8.053441 -7.353433 0.1782421,-7.491122 -7.075141 0.5644258,-7.034843 -6.295812 0.7540808,-6.674884 -5.592595 0.9349167,-6.292756 -5.165164 1.070136,-7.372279 -4.763601 0.3109748,-7.169806 -3.801863 0.4592438,-7.11715 -3.159082 0.6413777,-7.080182 -2.61301 0.8091894,-7.744627 -4.578977 0.3242908,-7.716766 -3.386749 0.6939989,-7.692994 -3.508314 1.074488,-7.681769 -3.939282 1.27273,-8.078055 -4.65002 0.3879668,-8.101887 -3.518361 0.7110302,-8.067409 -3.595044 0.9969252,-8.036514 -3.981638 1.128917,-8.39825 -4.939188 0.4786278,-8.468717 -4.119679 0.7448046,-8.447757 -3.85046 0.9156797,-8.420869 -3.882529 1.023934,1.95000,0 0 0 0 0 0 True
-2.016348 -6.786319 0.676814,-2.520447 -6.558916 1.226909,-3.011896 -5.808796 1.605205,-3.311485 -5.117794 1.904641,-3.664023 -4.752308 2.228979,-2.682524 -4.399526 1.375442,-2.870348 -3.592802 1.845648,-2.924952 -3.059412 2.225603,-2.964671 -2.588044 2.502263,-2.273152 -4.191394 1.372929,-2.29911 -3.10412 2.106857,-2.282374 -3.436914 2.52094,-2.25481 -4.033826 2.690629,-1.897158 -4.225807 1.42484,-1.843754 -3.209487 2.000195,-1.867577 -3.524408 2.302056,-1.88764 -4.080029 2.385119,-1.528448 -4.46894 1.512054,-1.403942 -3.645366 1.964921,-1.4554 -3.757123 2.202084,-1.511886 -4.196764 2.31564,-8.053441 -7.353433 0.1782421,-7.491122 -7.075141 0.5644258,-7.034843 -6.295812 0.7540808,-6.674884 -5.592595 0.9349167,-6.292756 -5.165164 1.070136,-7.372279 -4.763601 0.3109748,-7.169806 -3.801863 0.4592438,-7.11715 -3.159082 0.6413777,-7.080182 -2.61301 0.8091894,-7.744627 -4.578977 0.3242908,-7.716766 -3.386749 0.6939989,-7.692994 -3.508314 1.074488,-7.681769 -3.939282 1.27273,-8.078055 -4.65002 0.3879668,-8.101887 -3.518361 0.7110302,-8.067409 -3.595044 0.9969252,-8.036514 -3.981638 1.128917,-8.39825 -4.939188 0.4786278,-8.468717 -4.119679 0.7448046,-8.447757 -3.85046 0.9156797,-8.420869 -3.882529 1.023934,1.98333,0 0 0 0 0 0 True
-2.000896 -6.809204 0.6229792,-2.489851 -6.568747 1.161657,-2.982167 -5.79791 1.525613,-3.291231 -5.100224 1.811676,-3.657429 -4.74558 2.128607,-2.668623 -4.44191 1.321881,-2.860571 -3.626234 1.776223,-2.914087 -3.089574 2.146211,-2.952605 -2.607589 2.421273,-2.264054 -4.230353 1.316948,-2.292006 -3.136724 2.029311,-2.265574 -3.517435 2.425257,-2.243417 -4.138603 2.585598,-1.895544 -4.261517 1.364787,-1.846051 -3.231296 1.915301,-1.859174 -3.574535 2.21034,-1.876131 -4.140142 2.294614,-1.536525 -4.4941 1.444143,-1.423032 -3.674716 1.884454,-1.467651 -3.800173 2.114213,-1.516402 -4.238016 2.227413,-8.06593 -7.279521 0.1762812,-7.486142 -7.014413 0.5317475,-7.017583 -6.230571 0.7016146,-6.650095 -5.525186 0.875264,-6.262015 -5.102924 1.007011,-7.374066 -4.690053 0.2273088,-7.173924 -3.720019 0.3768724,-7.111639 -3.088436 0.5606754,-7.057288 -2.554286 0.7248824,-7.743937 -4.504678 0.2655472,-7.721634 -3.262195 0.669233,-7.680544 -3.45454 1.063027,-7.653376 -3.948889 1.244736,-8.073812 -4.573149 0.358822,-8.099952 -3.383048 0.7108642,-8.047392 -3.522066 1.004151,-8.00697 -3.967916 1.119711,-8.395286 -4.860764 0.4762314,-8.481986 -3.994375 0.770133,-8.441035 -3.754234 0.9476548,-8.401529 -3.842304 1.043503,2.01667,0 0 0 0 0 0 True
-1.996699 -6.779621 0.5754755,-2.497272 -6.499292 1.102908,-2.981686 -5.719852 1.46318,-3.286802 -5.035861 1.757454,-3.658956 -4.721149 2.09562,-2.654896 -4.400014 1.268447,-2.837918 -3.605766 1.738174,-2.874688 -3.098505 2.116389,-2.895761 -2.661535 2.392211,-2.245798 -4.214972 1.274981,-2.265045 -3.143054 2.005071,-2.231306 -3.587092 2.401569,-2.208284 -4.230674 2.571497,-1.874195 -4.266103 1.336559,-1.817616 -3.245651 1.911337,-1.844131 -3.682167 2.179764,-1.87092 -4.288162 2.246262,-1.517292 -4.516801 1.432547,-1.398622 -3.71347 1.890198,-1.449913 -3.896331 2.118793,-1.504518 -4.350421 2.225061,-8.06593 -7.279521 0.1762812,-7.486142 -7.014413 0.5317475,-7.017583 -6.230571 0.7016146,-6.650095 -5.525186 0.875264,-6.262015 -5.102924 1.007011,-7.374066 -4.690053 0.2273088,-7.173924 -3.720019 0.3768724,-7.111639 -3.088436 0.5606754,-7.057288 -2.554286 0.7248824,-7.743937 -4.504678 0.2655472,-7.721634 -3.262195 0.669233,-7.680544 -3.45454 1.063027,-7.653376 -3.948889 1.244736,-8.073812 -4.573149 0.358822,-8.099952 -3.383048 0.7108642,-8.047392 -3.522066 1.004151,-8.00697 -3.967916 1.119711,-8.395286 -4.860764 0.4762314,-8.481986 -3.994375 0.770133,-8.441035 -3.754234 0.9476548,-8.401529 -3.842304 1.043503,2.05000,0 0 0 0 0 0 True
-1.996699 -6.779621 0.5754755,-2.497272 -6.499292 1.102908,-2.981686 -5.719852 1.46318,-3.286802 -5.035861 1.757454,-3.658956 -4.721149 2.09562,-2.654896 -4.400014 1.268447,-2.837918 -3.605766 1.738174,-2.874688 -3.098505 2.116389,-2.895761 -2.661535 2.392211,-2.245798 -4.214972 1.274981,-2.265045 -3.143054 2.005071,-2.231306 -3.587092 2.401569,-2.208284 -4.230674 2.571497,-1.874195 -4.266103 1.336559,-1.817616 -3.245651 1.911337,-1.844131 -3.682167 2.179764,-1.87092 -4.288162 2.246262,-1.517292 -4.516801 1.432547,-1.398622 -3.71347 1.890198,-1.449913 -3.896331 2.118793,-1.504518 -4.350421 2.225061,-8.058879 -7.22639 0.3987843,-7.482561 -6.940406 0.7793825,-7.018504 -6.13331 0.9705155,-6.65982 -5.422462 1.165407,-6.262965 -5.03512 1.340586,-7.371922 -4.570165 0.5536343,-7.183198 -3.610164 0.7809522,-7.129837 -2.98159 1.031349,-7.083611 -2.473461 1.241546,-7.762453 -4.390024 0.593061,-7.754395 -3.155398 1.063681,-7.706888 -3.410822 1.480986,-7.673027 -3.967396 1.675871,-8.111751 -4.464601 0.6896967,-8.154375 -3.267494 1.081575,-8.094757 -3.440054 1.374294,-8.047993 -3.921453 1.480734,-8.450064 -4.764108 0.8100649,-8.545948 -3.87313 1.149341,-8.495154 -3.682395 1.335027,-8.441483 -3.840098 1.428025,2.08333,0 0 0 0 0 0 True
-1.955906 -6.840933 0.5500913,-2.455482 -6.569376 1.140896,-2.948525 -5.798456 1.530978,-3.250932 -5.142358 1.850308,-3.60495 -4.817367 2.219446,-2.634847 -4.473262 1.330713,-2.796924 -3.685661 1.818839,-2.821482 -3.216778 2.217,-2.836039 -2.858957 2.512655,-2.219124 -4.305219 1.318842,-2.197666 -3.230965 2.082113,-2.154194 -3.682607 2.487391,-2.126374 -4.323837 2.655375,-1.836433 -4.378856 1.36202,-1.738801 -3.371189 1.983736,-1.76956 -3.902776 2.253698,-1.807896 -4.549539 2.297776,-1.460274 -4.651418 1.447318,-1.335756 -3.864132 1.941452,-1.400884 -4.127574 2.174609,-1.468106 -4.601202 2.281624,-8.095741 -7.178483 0.5273324,-7.51882 -6.858778 0.9057374,-7.047462 -6.041641 1.097065,-6.672041 -5.323875 1.294786,-6.267673 -4.917705 1.464337,-7.421658 -4.48737 0.6602204,-7.239467 -3.54671 0.8941611,-7.190016 -2.912026 1.151144,-7.146287 -2.405074 1.367871,-7.812593 -4.301929 0.6922176,-7.826544 -3.054407 1.185578,-7.773664 -3.373626 1.610682,-7.728767 -3.974283 1.802665,-8.162117 -4.363672 0.786261,-8.228415 -3.156639 1.193606,-8.154025 -3.428912 1.487049,-8.088595 -3.988014 1.582446,-8.501446 -4.646598 0.9019272,-8.615953 -3.749819 1.252467,-8.547703 -3.623009 1.447795,-8.475111 -3.858896 1.530353,2.11667,0 0 0 0 0 0 True
-1.955906 -6.840933 0.5500913,-2.455482 -6.569376 1.140896,-2.948525 -5.798456 1.530978,-3.250932 -5.142358 1.850308,-3.60495 -4.817367 2.219446,-2.634847 -4.473262 1.330713,-2.796924 -3.685661 1.818839,-2.821482 -3.216778 2.217,-2.836039 -2.858957 2.512655,-2.219124 -4.305219 1.318842,-2.197666 -3.230965 2.082113,-2.154194 -3.682607 2.487391,-2.126374 -4.323837 2.655375,-1.836433 -4.378856 1.36202,-1.738801 -3.371189 1.983736,-1.76956 -3.902776 2.253698,-1.807896 -4.549539 2.297776,-1.460274 -4.651418 1.447318,-1.335756 -3.864132 1.941452,-1.400884 -4.127574 2.174609,-1.468106 -4.601202 2.281624,-8.095741 -7.178483 0.5273324,-7.51882 -6.858778 0.9057374,-7.047462 -6.041641 1.097065,-6.672041 -5.323875 1.294786,-6.267673 -4.917705 1.464337,-7.421658 -4.48737 0.6602204,-7.239467 -3.54671 0.8941611,-7.190016 -2.912026 1.151144,-7.146287 -2.405074 1.367871,-7.812593 -4.301929 0.6922176,-7.826544 -3.054407 1.185578,-7.773664 -3.373626 1.610682,-7.728767 -3.974283 1.802665,-8.162117 -4.363672 0.786261,-8.228415 -3.156639 1.193606,-8.154025 -3.428912 1.487049,-8.088595 -3.988014 1.582446,-8.501446 -4.646598 0.9019272,-8.615953 -3.749819 1.252467,-8.547703 -3.623009 1.447795,-8.475111 -3.858896 1.530353,2.15000,0 0 0 0 0 0 True
-1.812111 -6.947525 0.6864992,-2.317466 -6.762435 1.402964,-2.821942 -6.092532 1.857392,-3.121149 -5.477354 2.22575,-3.470172 -5.102497 2.708077,-2.565255 -4.721656 1.894803,-2.731683 -3.837217 2.515167,-2.697078 -3.476642 2.988329,-2.626841 -3.363998 3.311404,-2.123314 -4.519142 1.828958,-2.02722 -3.486445 2.695263,-1.908864 -4.128077 3.114811,-1.873168 -4.900963 3.302506,-1.716053 -4.583361 1.81013,-1.544405 -3.761516 2.552141,-1.515702 -4.457622 2.842762,-1.554136 -5.184 2.88713,-1.334551 -4.864986 1.821942,-1.158995 -4.252908 2.451618,-1.179336 -4.663151 2.720044,-1.255505 -5.152568 2.847689,-8.12803 -7.187988 0.7671346,-7.537063 -6.842305 1.176087,-7.080283 -6.012455 1.373386,-6.711462 -5.274606 1.579203,-6.296359 -4.854122 1.763446,-7.471886 -4.406433 0.8457345,-7.30233 -3.443629 1.037188,-7.276777 -2.810451 1.254922,-7.247484 -2.312191 1.448393,-7.869616 -4.236692 0.8470922,-7.89902 -2.996182 1.3137,-7.877229 -3.352848 1.731109,-7.839663 -3.966657 1.900361,-8.227514 -4.307573 0.919125,-8.301821 -3.105854 1.31808,-8.25244 -3.439918 1.634887,-8.192913 -4.037559 1.726801,-8.571776 -4.602638 1.010755,-8.678118 -3.71955 1.358804,-8.626764 -3.600656 1.57729,-8.565463 -3.831802 1.660722,2.18333,0 0 0 0 0 0 True
-1.812111 -6.947525 0.6864992,-2.317466 -6.762435 1.402964,-2.821942 -6.092532 1.857392,-3.121149 -5.477354 2.22575,-3.470172 -5.102497 2.708077,-2.565255 -4.721656 1.894803,-2.731683 -3.837217 2.515167,-2.697078 -3.476642 2.988329,-2.626841 -3.363998 3.311404,-2.123314 -4.519142 1.828958,-2.02722 -3.486445 2.695263,-1.908864 -4.128077 3.114811,-1.873168 -4.900963 3.302506,-1.716053 -4.583361 1.81013,-1.544405 -3.761516 2.552141,-1.515702 -4.457622 2.842762,-1.554136 -5.184 2.88713,-1.334551 -4.864986 1.821942,-1.158995 -4.252908 2.451618,-1.179336 -4.663151 2.720044,-1.255505 -5.152568 2.847689,-8.12803 -7.187988 0.7671346,-7.537063 -6.842305 1.176087,-7.080283 -6.012455 1.373386,-6.711462 -5.274606 1.579203,-6.296359 -4.854122 1.763446,-7.471886 -4.406433 0.8457345,-7.30233 -3.443629 1.037188,-7.276777 -2.810451 1.254922,-7.247484 -2.312191 1.448393,-7.869616 -4.236692 0.8470922,-7.89902 -2.996182 1.3137,-7.877229 -3.352848 1.731109,-7.839663 -3.966657 1.900361,-8.227514 -4.307573 0.919125,-8.301821 -3.105854 1.31808,-8.25244 -3.439918 1.634887,-8.192913 -4.037559 1.726801,-8.571776 -4.602638 1.010755,-8.678118 -3.71955 1.358804,-8.626764 -3.600656 1.57729,-8.565463 -3.831802 1.660722,2.21667,0 0 0 0 0 0 True
-1.781057 -6.872552 0.6459131,-2.313679 -6.754833 1.430032,-2.821233 -6.166961 1.936808,-3.114706 -5.5708 2.363053,-3.472996 -5.247027 2.916034,-2.491062 -4.707345 2.018686,-2.636674 -3.935625 2.744368,-2.596347 -3.604528 3.284589,-2.506181 -3.575464 3.631431,-2.029402 -4.522396 1.931246,-1.914634 -3.613736 2.918909,-1.829439 -4.315042 3.432009,-1.801952 -5.121795 3.682513,-1.604508 -4.622901 1.90193,-1.409918 -3.917842 2.73866,-1.427225 -4.680888 3.064854,-1.489861 -5.39335 3.126342,-1.217834 -4.943048 1.890715,-1.024328 -4.393728 2.591639,-1.079109 -4.832565 2.902974,-1.170122 -5.309627 3.049702,-8.156874 -7.244247 0.8390564,-7.55139 -6.87066 1.213557,-7.071856 -6.047051 1.398615,-6.6877 -5.294666 1.601882,-6.268922 -4.840551 1.770063,-7.47444 -4.451516 0.8506228,-7.310641 -3.487464 1.014472,-7.291221 -2.859466 1.20648,-7.266692 -2.329807 1.385269,-7.863214 -4.274522 0.8529541,-7.894671 -3.035371 1.274634,-7.878249 -3.46583 1.674554,-7.847733 -4.091082 1.834915,-8.21169 -4.337657 0.9223659,-8.289159 -3.157717 1.288453,-8.239869 -3.544904 1.582679,-8.176493 -4.1484 1.670816,-8.553809 -4.61651 1.007985,-8.678311 -3.730027 1.335471,-8.621325 -3.635139 1.54881,-8.548674 -3.886206 1.633204,2.25000,0 0 0 0 0 0 True
-1.781057 -6.872552 0.6459131,-2.313679 -6.754833 1.430032,-2.821233 -6.166961 1.936808,-3.114706 -5.5708 2.363053,-3.472996 -5.247027 2.916034,-2.491062 -4.707345 2.018686,-2.636674 -3.935625 2.744368,-2.596347 -3.604528 3.284589,-2.506181 -3.575464 3.631431,-2.029402 -4.522396 1.931246,-1.914634 -3.613736 2.918909,-1.829439 -4.315042 3.432009,-1.801952 -5.121795 3.682513,-1.604508 -4.622901 1.90193,-1.409918 -3.917842 2.73866,-1.427225 -4.680888 3.064854,-1.489861 -5.39335 3.126342,-1.217834 -4.943048 1.890715,-1.024328 -4.393728 2.591639,-1.079109 -4.832565 2.902974,-1.170122 -5.309627 3.049702,-8.156874 -7.244247 0.8390564,-7.55139 -6.87066 1.213557,-7.071856 -6.047051 1.398615,-6.6877 -5.294666 1.601882,-6.268922 -4.840551 1.770063,-7.47444 -4.451516 0.8506228,-7.310641 -3.487464 1.014472,-7.291221 -2.859466 1.20648,-7.266692 -2.329807 1.385269,-7.863214 -4.274522 0.8529541,-7.894671 -3.035371 1.274634,-7.878249 -3.46583 1.674554,-7.847733 -4.091082 1.834915,-8.21169 -4.337657 0.9223659,-8.289159 -3.157717 1.288453,-8.239869 -3.544904 1.582679,-8.176493 -4.1484 1.670816,-8.553809 -4.61651 1.007985,-8.678311 -3.730027 1.335471,-8.621325 -3.635139 1.54881,-8.548674 -3.886206 1.633204,2.28333,0 0 0 0 0 0 True
-1.794913 -6.897672 0.8116545,-2.347656 -6.742343 1.564282,-2.85601 -6.160234 2.113749,-3.154911 -5.543281 2.573485,-3.515953 -5.211069 3.137433,-2.51219 -4.704822 2.188638,-2.626226 -3.958929 2.912796,-2.604764 -3.611969 3.471167,-2.566948 -3.554544 3.827681,-2.040945 -4.519004 2.143917,-1.94789 -3.622213 3.172575,-1.887453 -4.32076 3.728387,-1.864383 -5.120538 4.002492,-1.603759 -4.603065 2.147075,-1.446334 -3.914849 2.986452,-1.46907 -4.701766 3.321914,-1.520124 -5.418144 3.384048,-1.193234 -4.90339 2.171319,-0.9987226 -4.373641 2.85582,-1.064019 -4.859587 3.158279,-1.15747 -5.375835 3.314232,-8.163526 -7.236286 0.8013511,-7.554418 -6.862001 1.170428,-7.073908 -6.052757 1.35105,-6.689827 -5.30454 1.545246,-6.283781 -4.863191 1.701682,-7.475157 -4.457614 0.8260668,-7.314948 -3.473181 0.9943755,-7.288868 -2.846284 1.1918,-7.256774 -2.332618 1.377996,-7.861484 -4.278453 0.8390797,-7.892439 -3.008523 1.291139,-7.869166 -3.400772 1.706324,-7.833997 -4.029616 1.87324,-8.208468 -4.341337 0.9152789,-8.281014 -3.133606 1.295247,-8.227666 -3.489122 1.590238,-8.165845 -4.088119 1.678325,-8.548333 -4.620397 1.008106,-8.671873 -3.717599 1.339208,-8.615654 -3.607437 1.545056,-8.547764 -3.848938 1.623546,2.31667,0 0 1 1 0 1 True
-1.693113 -6.795297 0.547774,-2.224516 -6.766595 1.371525,-2.757422 -6.237321 1.932244,-3.083891 -5.66062 2.383816,-3.434605 -5.323394 2.928657,-2.433369 -4.896623 2.163767,-2.588941 -4.137186 2.997165,-2.55475 -3.784167 3.601472,-2.479171 -3.72877 3.995426,-1.965212 -4.645814 2.094385,-1.851411 -3.749775 3.196361,-1.771718 -4.520939 3.696906,-1.755979 -5.307836 3.933528,-1.528618 -4.67806 2.071509,-1.340614 -4.064161 3.001967,-1.367944 -4.945861 3.27529,-1.43044 -5.647195 3.278908,-1.134183 -4.94404 2.076596,-0.9153576 -4.450618 2.840211,-0.9870052 -5.042039 3.113694,-1.085259 -5.597431 3.234574,-8.157425 -7.283103 0.9212431,-7.553349 -6.899404 1.311801,-7.074004 -6.097486 1.511261,-6.68758 -5.351405 1.725896,-6.276348 -4.907543 1.911311,-7.477184 -4.474241 0.9788772,-7.318834 -3.509757 1.168357,-7.292899 -2.888475 1.393305,-7.259233 -2.394024 1.595783,-7.858685 -4.290948 0.984864,-7.888535 -3.044157 1.446675,-7.875801 -3.472072 1.878677,-7.85025 -4.122421 2.056038,-8.207286 -4.353299 1.056155,-8.284082 -3.172033 1.455278,-8.235619 -3.559915 1.775699,-8.175743 -4.1818 1.877291,-8.552825 -4.633842 1.144132,-8.67761 -3.736372 1.498429,-8.622937 -3.637906 1.733553,-8.552811 -3.891547 1.82987,2.35000,0 0 1 1 0 1 True
-1.693113 -6.795297 0.547774,-2.224516 -6.766595 1.371525,-2.757422 -6.237321 1.932244,-3.083891 -5.66062 2.383816,-3.434605 -5.323394 2.928657,-2.433369 -4.896623 2.163767,-2.588941 -4.137186 2.997165,-2.55475 -3.784167 3.601472,-2.479171 -3.72877 3.995426,-1.965212 -4.645814 2.094385,-1.851411 -3.749775 3.196361,-1.771718 -4.520939 3.696906,-1.755979 -5.307836 3.933528,-1.528618 -4.67806 2.071509,-1.340614 -4.064161 3.001967,-1.367944 -4.945861 3.27529,-1.43044 -5.647195 3.278908,-1.134183 -4.94404 2.076596,-0.9153576 -4.450618 2.840211,-0.9870052 -5.042039 3.113694,-1.085259 -5.597431 3.234574,-8.157425 -7.283103 0.9212431,-7.553349 -6.899404 1.311801,-7.074004 -6.097486 1.511261,-6.68758 -5.351405 1.725896,-6.276348 -4.907543 1.911311,-7.477184 -4.474241 0.9788772,-7.318834 -3.509757 1.168357,-7.292899 -2.888475 1.393305,-7.259233 -2.394024 1.595783,-7.858685 -4.290948 0.984864,-7.888535 -3.044157 1.446675,-7.875801 -3.472072 1.878677,-7.85025 -4.122421 2.056038,-8.207286 -4.353299 1.056155,-8.284082 -3.172033 1.455278,-8.235619 -3.559915 1.775699,-8.175743 -4.1818 1.877291,-8.552825 -4.633842 1.144132,-8.67761 -3.736372 1.498429,-8.622937 -3.637906 1.733553,-8.552811 -3.891547 1.82987,2.38333,0 0 1 1 0 1 True
-1.626948 -6.691885 0.0262772,-2.206745 -6.798656 0.9967819,-2.757502 -6.323061 1.583453,-3.077862 -5.768812 2.052108,-3.43823 -5.372289 2.597578,-2.358487 -5.032068 1.775372,-2.50877 -4.257101 2.637696,-2.472034 -3.939495 3.26436,-2.388829 -3.964698 3.666173,-1.88 -4.78565 1.644116,-1.726546 -3.949318 2.856708,-1.666895 -4.699893 3.482972,-1.675148 -5.533597 3.76981,-1.445924 -4.80571 1.561813,-1.24202 -4.289022 2.588357,-1.278813 -5.158037 2.9966,-1.366364 -5.923208 3.063076,-1.06582 -5.05285 1.512179,-0.795855 -4.571033 2.348207,-0.8327656 -5.16773 2.73781,-0.9369211 -5.800659 2.897012,-8.189134 -7.321465 0.8474087,-7.585497 -6.933229 1.241488,-7.110833 -6.13294 1.439529,-6.720981 -5.374282 1.64704,-6.303514 -4.929426 1.818232,-7.486614 -4.552968 0.9259227,-7.324557 -3.556809 1.096864,-7.303338 -2.934134 1.282946,-7.271158 -2.427526 1.452246,-7.869827 -4.352819 0.9168373,-7.886749 -3.096669 1.356769,-7.885077 -3.534174 1.75198,-7.862155 -4.172212 1.900624,-8.220252 -4.405146 0.9678777,-8.288337 -3.209772 1.339889,-8.250827 -3.604318 1.644638,-8.19189 -4.210386 1.73675,-8.56801 -4.680461 1.034852,-8.681726 -3.793509 1.355305,-8.631927 -3.689095 1.572518,-8.566365 -3.906867 1.655441,2.41667,0 0 1 1 0 1 True
-1.626948 -6.691885 0.0262772,-2.206745 -6.798656 0.9967819,-2.757502 -6.323061 1.583453,-3.077862 -5.768812 2.052108,-3.43823 -5.372289 2.597578,-2.358487 -5.032068 1.775372,-2.50877 -4.257101 2.637696,-2.472034 -3.939495 3.26436,-2.388829 -3.964698 3.666173,-1.88 -4.78565 1.644116,-1.726546 -3.949318 2.856708,-1.666895 -4.699893 3.482972,-1.675148 -5.533597 3.76981,-1.445924 -4.80571 1.561813,-1.24202 -4.289022 2.588357,-1.278813 -5.158037 2.9966,-1.366364 -5.923208 3.063076,-1.06582 -5.05285 1.512179,-0.795855 -4.571033 2.348207,-0.8327656 -5.16773 2.73781,-0.9369211 -5.800659 2.897012,-8.189134 -7.321465 0.8474087,-7.585497 -6.933229 1.241488,-7.110833 -6.13294 1.439529,-6.720981 -5.374282 1.64704,-6.303514 -4.929426 1.818232,-7.486614 -4.552968 0.9259227,-7.324557 -3.556809 1.096864,-7.303338 -2.934134 1.282946,-7.271158 -2.427526 1.452246,-7.869827 -4.352819 0.9168373,-7.886749 -3.096669 1.356769,-7.885077 -3.534174 1.75198,-7.862155 -4.172212 1.900624,-8.220252 -4.405146 0.9678777,-8.288337 -3.209772 1.339889,-8.250827 -3.604318 1.644638,-8.19189 -4.210386 1.73675,-8.56801 -4.680461 1.034852,-8.681726 -3.793509 1.355305,-8.631927 -3.689095 1.572518,-8.566365 -3.906867 1.655441,2.45000,0 0 1 1 0 1 True
-1.611026 -6.760898 0.3935574,-2.209112 -6.796594 1.326014,-2.751761 -6.298115 1.919302,-3.099405 -5.739984 2.411883,-3.483541 -5.351276 2.991174,-2.359458 -4.966676 2.125586,-2.508497 -4.232122 3.053219,-2.464092 -3.916868 3.722916,-2.368094 -3.950905 4.13374,-1.877236 -4.726881 2.020089,-1.709165 -3.936452 3.296551,-1.651279 -4.748165 3.958545,-1.658042 -5.587243 4.245085,-1.438252 -4.776535 1.957584,-1.207912 -4.276724 3.034827,-1.264139 -5.185565 3.422678,-1.363579 -5.913063 3.453986,-1.053686 -5.061475 1.928948,-0.7492342 -4.586252 2.771398,-0.7969389 -5.196903 3.128282,-0.9066954 -5.781399 3.26134,-8.202862 -7.343769 0.8894502,-7.595958 -6.965465 1.296732,-7.121917 -6.167364 1.504968,-6.743399 -5.400642 1.721624,-6.335815 -4.949016 1.901549,-7.508074 -4.556244 0.9660237,-7.353746 -3.563829 1.135621,-7.338799 -2.953454 1.32935,-7.314128 -2.467533 1.503911,-7.894516 -4.361867 0.9593613,-7.917891 -3.101563 1.402073,-7.921017 -3.524654 1.798236,-7.904485 -4.16942 1.949187,-8.246401 -4.423133 1.01586,-8.315434 -3.220197 1.388381,-8.279405 -3.58856 1.685957,-8.229145 -4.190197 1.771127,-8.596175 -4.712383 1.091772,-8.704138 -3.803282 1.419349,-8.652717 -3.700101 1.632362,-8.592525 -3.930048 1.708679,2.48333,0 0 1 1 0 1 True
-1.611026 -6.760898 0.3935574,-2.209112 -6.796594 1.326014,-2.751761 -6.298115 1.919302,-3.099405 -5.739984 2.411883,-3.483541 -5.351276 2.991174,-2.359458 -4.966676 2.125586,-2.508497 -4.232122 3.053219,-2.464092 -3.916868 3.722916,-2.368094 -3.950905 4.13374,-1.877236 -4.726881 2.020089,-1.709165 -3.936452 3.296551,-1.651279 -4.748165 3.958545,-1.658042 -5.587243 4.245085,-1.438252 -4.776535 1.957584,-1.207912 -4.276724 3.034827,-1.264139 -5.185565 3.422678,-1.363579 -5.913063 3.453986,-1.053686 -5.061475 1.928948,-0.7492342 -4.586252 2.771398,-0.7969389 -5.196903 3.128282,-0.9066954 -5.781399 3.26134,-8.202862 -7.343769 0.8894502,-7.595958 -6.965465 1.296732,-7.121917 -6.167364 1.504968,-6.743399 -5.400642 1.721624,-6.335815 -4.949016 1.901549,-7.508074 -4.556244 0.9660237,-7.353746 -3.563829 1.135621,-7.338799 -2.953454 1.32935,-7.314128 -2.467533 1.503911,-7.894516 -4.361867 0.9593613,-7.917891 -3.101563 1.402073,-7.921017 -3.524654 1.798236,-7.904485 -4.16942 1.949187,-8.246401 -4.423133 1.01586,-8.315434 -3.220197 1.388381,-8.279405 -3.58856 1.685957,-8.229145 -4.190197 1.771127,-8.596175 -4.712383 1.091772,-8.704138 -3.803282 1.419349,-8.652717 -3.700101 1.632362,-8.592525 -3.930048 1.708679,2.51667,0 0 1 1 0 1 True
-1.601142 -6.788133 0.2962389,-2.210126 -6.823503 1.210709,-2.763031 -6.306348 1.797963,-3.118748 -5.748722 2.286766,-3.498411 -5.360998 2.852738,-2.364164 -5.031416 2.014999,-2.506464 -4.271182 2.931148,-2.476007 -3.935686 3.598039,-2.393828 -3.960757 4.028806,-1.884872 -4.790191 1.91986,-1.706091 -3.913293 3.191385,-1.639545 -4.724746 3.840235,-1.628936 -5.617927 4.115756,-1.449767 -4.823303 1.865415,-1.21913 -4.253305 2.92101,-1.257795 -5.167655 3.313005,-1.337148 -5.942018 3.349923,-1.06442 -5.083431 1.850807,-0.7627397 -4.540306 2.677817,-0.8056993 -5.166339 3.033148,-0.905848 -5.784063 3.170762,-8.189979 -7.366477 0.9303843,-7.595305 -6.968573 1.339683,-7.123021 -6.165668 1.547062,-6.743163 -5.413253 1.762618,-6.337271 -4.9668 1.94205,-7.511106 -4.558465 1.01064,-7.360017 -3.572182 1.203984,-7.342252 -2.946661 1.424093,-7.31331 -2.452074 1.614602,-7.897037 -4.371439 1.008553,-7.931513 -3.109473 1.466771,-7.930925 -3.490701 1.886442,-7.910878 -4.120149 2.060438,-8.245872 -4.434067 1.069803,-8.32573 -3.246399 1.454938,-8.294485 -3.601755 1.755627,-8.245177 -4.206605 1.847748,-8.594045 -4.717029 1.155035,-8.713823 -3.805089 1.498215,-8.660481 -3.713514 1.718833,-8.593218 -3.984884 1.806834,2.55000,0 0 1 1 0 1 True
-1.601142 -6.788133 0.2962389,-2.210126 -6.823503 1.210709,-2.763031 -6.306348 1.797963,-3.118748 -5.748722 2.286766,-3.498411 -5.360998 2.852738,-2.364164 -5.031416 2.014999,-2.506464 -4.271182 2.931148,-2.476007 -3.935686 3.598039,-2.393828 -3.960757 4.028806,-1.884872 -4.790191 1.91986,-1.706091 -3.913293 3.191385,-1.639545 -4.724746 3.840235,-1.628936 -5.617927 4.115756,-1.449767 -4.823303 1.865415,-1.21913 -4.253305 2.92101,-1.257795 -5.167655 3.313005,-1.337148 -5.942018 3.349923,-1.06442 -5.083431 1.850807,-0.7627397 -4.540306 2.677817,-0.8056993 -5.166339 3.033148,-0.905848 -5.784063 3.170762,-8.189979 -7.366477 0.9303843,-7.595305 -6.968573 1.339683,-7.123021 -6.165668 1.547062,-6.743163 -5.413253 1.762618,-6.337271 -4.9668 1.94205,-7.511106 -4.558465 1.01064,-7.360017 -3.572182 1.203984,-7.342252 -2.946661 1.424093,-7.31331 -2.452074 1.614602,-7.897037 -4.371439 1.008553,-7.931513 -3.109473 1.466771,-7.930925 -3.490701 1.886442,-7.910878 -4.120149 2.060438,-8.245872 -4.434067 1.069803,-8.32573 -3.246399 1.454938,-8.294485 -3.601755 1.755627,-8.245177 -4.206605 1.847748,-8.594045 -4.717029 1.155035,-8.713823 -3.805089 1.498215,-8.660481 -3.713514 1.718833,-8.593218 -3.984884 1.806834,2.58333,0 0 1 1 0 1 True
