TiagoOliveira98/Thesis-Project/Difficulty_2/Motor_Task/Unity_Project/DataLogging/JointData/Logs(1647358379)_Tiago_Motor.csv
WRIST,THUMB_CMC,THUMB_MCP,THUMB_IP,THUMB_TIP,INDEX_FINGER_MCP,INDEX_FINGER_PIP,INDEX_FINGER_DIP,INDEX_FINGER_TIP,MIDDLE_FINGER_MCP,MIDDLE_FINGER_PIP,MIDDLE_FINGER_DIP,MIDDLE_FINGER_TIP,RING_FINGER_MCP,RING_FINGER_PIP,RING_FINGER_DIP,RING_FINGER_TIP,PINKY_MCP,PINKY_PIP,PINKY_DIP,PINKY_TIP,WRIST2,THUMB_CMC2,THUMB_MCP2,THUMB_IP2,THUMB_TIP2,INDEX_FINGER_MCP2,INDEX_FINGER_PIP2,INDEX_FINGER_DIP2,INDEX_FINGER_TIP2,MIDDLE_FINGER_MCP2,MIDDLE_FINGER_PIP2,MIDDLE_FINGER_DIP2,MIDDLE_FINGER_TIP2,RING_FINGER_MCP2,RING_FINGER_PIP2,RING_FINGER_DIP2,RING_FINGER_TIP2,PINKY_MCP2,PINKY_PIP2,PINKY_DIP2,PINKY_TIP2,Timestamp,Event
-2.224286 -7.580444 0.089248,-2.670722 -7.453132 0.6286697,-3.085184 -6.962898 0.9602866,-3.380383 -6.469858 1.18821,-3.598385 -6.078004 1.40842,-2.853365 -5.50491 0.9270718,-2.958402 -4.648415 1.144958,-2.979466 -4.033802 1.375288,-2.981894 -3.462618 1.591542,-2.607473 -5.362596 0.7590096,-2.635145 -4.351099 0.9776312,-2.635145 -4.351099 0.9776312,-2.605598 -3.133974 1.406096,-2.366304 -5.412672 0.6172451,-2.366516 -4.470766 0.7898313,-2.336022 -3.870496 0.9856474,-2.314922 -3.336447 1.203233,-2.155616 -5.627954 0.4848018,-2.106655 -4.925144 0.6799954,-2.05019 -4.459276 0.7833745,-2.010257 -4.005843 0.8884286,-8.528258 -7.807348 -0.03904407,-8.010962 -7.471837 0.180138,-7.58165 -6.868906 0.3904651,-7.255085 -6.288988 0.6353813,-6.912657 -6.038183 0.917709,-7.916611 -5.434213 0.1428559,-7.82086 -4.509513 0.2920316,-7.797022 -3.925278 0.4453199,-7.783775 -3.409944 0.5607135,-8.222062 -5.285127 0.2027318,-8.125447 -4.20729 0.325935,-8.08291 -3.526 0.5045305,-8.056246 -2.928052 0.6623928,-8.516752 -5.355674 0.2819912,-8.470378 -4.364074 0.4121226,-8.43588 -3.736949 0.5338539,-8.395423 -3.19361 0.6283789,-8.818818 -5.615385 0.3879331,-8.854198 -4.857557 0.5363781,-8.855571 -4.372341 0.6327364,-8.84072 -3.901887 0.6972078,0.010,2  0
-2.104101 -7.61661 0.06063631,-2.566514 -7.432651 0.4707614,-2.966101 -6.961563 0.6959723,-3.214303 -6.469297 0.882276,-3.47823 -6.098154 1.097575,-2.695417 -5.563805 0.5542583,-2.875735 -4.686844 0.7824361,-2.93492 -4.121486 0.9691691,-2.960255 -3.562232 1.135083,-2.407753 -5.34033 0.5108616,-2.520666 -4.367835 0.7715222,-2.520666 -4.367835 0.7715222,-2.55061 -3.128869 1.146633,-2.124085 -5.369177 0.4897238,-2.158195 -4.460172 0.7266008,-2.186135 -3.871213 0.9317153,-2.207444 -3.308162 1.101947,-1.83988 -5.607851 0.5041258,-1.72412 -4.936706 0.7835915,-1.65519 -4.492877 0.9918199,-1.600271 -4.053524 1.131609,-8.527996 -7.805233 0.0004196324,-8.012094 -7.480219 0.2446391,-7.580815 -6.865307 0.470972,-7.253852 -6.287319 0.7237469,-6.910069 -6.033744 1.012302,-7.919252 -5.425973 0.2334742,-7.828707 -4.502107 0.3970909,-7.805607 -3.916765 0.5544732,-7.791314 -3.395134 0.6744449,-8.225889 -5.275649 0.2856976,-8.132905 -4.197597 0.4204031,-8.088857 -3.514009 0.6009448,-8.056332 -2.910062 0.7649959,-8.521338 -5.346029 0.3574588,-8.476709 -4.349948 0.4991538,-8.437977 -3.718461 0.6256081,-8.38793 -3.167634 0.7259752,-8.823361 -5.607278 0.4568285,-8.861322 -4.84542 0.6118812,-8.864601 -4.355369 0.7088836,-8.849265 -3.879512 0.7738585,0.110,2  0
-2.066771 -7.656375 0.08221905,-2.55902 -7.447019 0.4352418,-2.988715 -6.96779 0.6628619,-3.260917 -6.463963 0.8749983,-3.514711 -6.070262 1.126093,-2.699246 -5.585323 0.5334791,-2.88877 -4.674383 0.7597067,-2.943017 -4.1208 0.9358869,-2.964052 -3.576349 1.076298,-2.414171 -5.380144 0.5328973,-2.536582 -4.358675 0.8073678,-2.536582 -4.358675 0.8073678,-2.553254 -3.143314 1.20103,-2.133249 -5.409664 0.551361,-2.174402 -4.4546 0.7982429,-2.194046 -3.859745 1.021196,-2.214523 -3.309962 1.194362,-1.843177 -5.632101 0.602672,-1.740869 -4.91411 0.8687246,-1.679009 -4.481309 1.060741,-1.634677 -4.065767 1.179397,-8.525792 -7.818055 -0.006565214,-8.01274 -7.480826 0.2347066,-7.580064 -6.860305 0.456021,-7.25282 -6.27815 0.7035763,-6.910241 -6.023893 0.979333,-7.924959 -5.440546 0.2281421,-7.833705 -4.518801 0.387986,-7.808613 -3.939982 0.5409954,-7.791926 -3.42446 0.6574307,-8.231027 -5.289333 0.2761627,-8.134797 -4.210037 0.4057215,-8.090479 -3.529853 0.5821674,-8.057793 -2.925739 0.7474491,-8.527453 -5.356882 0.3425914,-8.478826 -4.35823 0.4772528,-8.440301 -3.730213 0.5955282,-8.391408 -3.179893 0.6944305,-8.831841 -5.614028 0.4351565,-8.86412 -4.844839 0.5875776,-8.865829 -4.359125 0.6837866,-8.850998 -3.88815 0.7524014,0.210,2  0
-2.209301 -7.791005 0.4873154,-2.663572 -7.570728 1.064166,-3.091452 -7.050771 1.352814,-3.398904 -6.54022 1.508961,-3.626789 -6.152065 1.649333,-2.883102 -5.609817 1.293079,-2.94665 -4.716794 1.531762,-2.955631 -4.064355 1.783736,-2.955571 -3.448246 2.026155,-2.660724 -5.442202 1.070907,-2.673575 -4.453537 1.26281,-2.673575 -4.453537 1.26281,-2.645835 -3.167833 1.725966,-2.432653 -5.470644 0.875707,-2.440176 -4.546447 1.032604,-2.415113 -3.910417 1.222145,-2.40747 -3.364976 1.412174,-2.221708 -5.651503 0.6986651,-2.207561 -4.919621 0.8794136,-2.169418 -4.401271 0.9768385,-2.137221 -3.906854 1.067562,-8.535926 -7.808534 -0.08739722,-8.023117 -7.476671 0.1541405,-7.590771 -6.872244 0.374854,-7.261087 -6.296359 0.620648,-6.920161 -6.031108 0.8902254,-7.92683 -5.457117 0.1493714,-7.836123 -4.526327 0.3124525,-7.809246 -3.946134 0.4619536,-7.790743 -3.435631 0.5733784,-8.228543 -5.305192 0.1993667,-8.137347 -4.22194 0.3370953,-8.093446 -3.544489 0.5155258,-8.062933 -2.942119 0.6780306,-8.517618 -5.363947 0.2683787,-8.47548 -4.373132 0.4080299,-8.439392 -3.754061 0.5316539,-8.393844 -3.207812 0.6322982,-8.813054 -5.608579 0.3630065,-8.854974 -4.855545 0.5227537,-8.859765 -4.381599 0.6235224,-8.848782 -3.920192 0.6941448,0.310,2  0
-2.098332 -7.574149 0.04918242,-2.548821 -7.40349 0.5609996,-2.955865 -6.964193 0.8679409,-3.215496 -6.455884 1.134568,-3.464948 -6.074236 1.421337,-2.695944 -5.49254 0.5500987,-2.853172 -4.62608 0.8007845,-2.916407 -4.082909 1.0166,-2.946679 -3.52864 1.208053,-2.404293 -5.297004 0.4749419,-2.489718 -4.290409 0.7333708,-2.489718 -4.290409 0.7333708,-2.508512 -3.079458 1.162561,-2.127432 -5.332479 0.4569207,-2.129405 -4.392308 0.6763186,-2.153505 -3.802231 0.9061314,-2.165613 -3.252362 1.107081,-1.846443 -5.563701 0.4863709,-1.708456 -4.867855 0.6980211,-1.630433 -4.42153 0.8950864,-1.565759 -3.977634 1.063119,-8.540495 -7.805669 -0.07937197,-8.025911 -7.463623 0.1487491,-7.595892 -6.858491 0.3561617,-7.272404 -6.280297 0.5926041,-6.93537 -6.025406 0.8541303,-7.931728 -5.445701 0.1254929,-7.841099 -4.511154 0.2783486,-7.819273 -3.930201 0.4250624,-7.807401 -3.419933 0.534884,-8.236171 -5.296093 0.1742265,-8.141283 -4.210027 0.3036728,-8.099705 -3.53065 0.4817169,-8.072423 -2.926916 0.6393557,-8.528385 -5.356372 0.2415649,-8.480989 -4.361602 0.371181,-8.447844 -3.740414 0.4856564,-8.404809 -3.197591 0.5780745,-8.825351 -5.598829 0.3347207,-8.862221 -4.839241 0.4797107,-8.863877 -4.362811 0.5731649,-8.849089 -3.903772 0.6366366,0.410,2  0
-2.097141 -7.568149 -0.05598062,-2.545777 -7.415624 0.414156,-2.945556 -6.954352 0.6856332,-3.203978 -6.420985 0.9159753,-3.454115 -6.040388 1.16292,-2.691058 -5.513719 0.3926077,-2.851027 -4.636221 0.6237729,-2.918214 -4.083545 0.8164824,-2.954271 -3.527441 0.9874936,-2.400451 -5.313377 0.3243292,-2.480498 -4.304178 0.5623596,-2.480498 -4.304178 0.5623596,-2.516178 -3.105802 0.9764253,-2.125979 -5.337772 0.3174208,-2.132577 -4.390149 0.5295012,-2.166479 -3.797794 0.7574775,-2.19418 -3.244745 0.9503566,-1.844825 -5.559516 0.3484283,-1.697375 -4.859325 0.5629434,-1.613284 -4.412078 0.7561313,-1.542802 -3.974665 0.9137152,-8.539604 -7.805038 -0.06017618,-8.021585 -7.474851 0.1774537,-7.591986 -6.857582 0.3939993,-7.266445 -6.281364 0.6364296,-6.921201 -6.032928 0.902902,-7.940991 -5.440721 0.1721798,-7.84791 -4.509368 0.3283334,-7.823966 -3.922586 0.471947,-7.809916 -3.406513 0.5802801,-8.245322 -5.290926 0.214512,-8.149305 -4.1996 0.3516864,-8.1032 -3.521531 0.5280581,-8.070132 -2.92049 0.6868699,-8.536766 -5.35297 0.2735336,-8.484184 -4.346838 0.4108321,-8.443677 -3.720596 0.5290409,-8.392756 -3.172359 0.6233909,-8.833464 -5.601711 0.3580098,-8.872848 -4.840991 0.5051506,-8.873926 -4.367039 0.5978062,-8.856982 -3.909923 0.6598243,0.510,2  0
-2.053434 -7.642738 0.1481271,-2.539409 -7.438468 0.5008484,-2.969879 -6.957617 0.7272314,-3.247701 -6.442567 0.9350036,-3.497831 -6.052646 1.193209,-2.675342 -5.545431 0.5821342,-2.857512 -4.625449 0.8033607,-2.911142 -4.073749 0.9791728,-2.933204 -3.525465 1.122008,-2.388696 -5.342464 0.5840984,-2.49751 -4.307518 0.8436607,-2.49751 -4.307518 0.8436607,-2.582246 -3.136804 1.322113,-2.318464 -5.45532 0.5870217,-2.31428 -4.515993 0.7777929,-2.290365 -3.903946 0.9603764,-2.280874 -3.346523 1.138916,-2.086665 -5.703766 0.4903041,-2.025427 -5.012914 0.7252828,-1.963857 -4.539213 0.8503911,-1.905708 -4.082899 0.946105,-8.536092 -7.818706 -0.06491645,-8.023587 -7.487693 0.1599455,-7.597192 -6.86084 0.3572846,-7.27414 -6.275139 0.5818585,-6.935636 -6.027055 0.8308574,-7.932375 -5.450584 0.1158469,-7.842098 -4.52538 0.25765,-7.814576 -3.947107 0.3944975,-7.795893 -3.44243 0.4965142,-8.235599 -5.301562 0.1580399,-8.143195 -4.219438 0.2745955,-8.099869 -3.543281 0.4408221,-8.071082 -2.939234 0.5890957,-8.525024 -5.362794 0.2207964,-8.480968 -4.378383 0.3365878,-8.448512 -3.764064 0.4347466,-8.409233 -3.224501 0.5174022,-8.817612 -5.609596 0.3102133,-8.859502 -4.862375 0.4442609,-8.863685 -4.396896 0.5258021,-8.855486 -3.949306 0.5820761,0.610,2  0
-2.080626 -7.635046 0.1110158,-2.530178 -7.453789 0.6034656,-2.939265 -6.988866 0.8919678,-3.202563 -6.449121 1.142931,-3.455189 -6.051518 1.412136,-2.67978 -5.529926 0.5607525,-2.838405 -4.643431 0.7919428,-2.90708 -4.095962 0.9911915,-2.948137 -3.540653 1.172718,-2.391882 -5.333333 0.4961814,-2.478336 -4.312692 0.7476655,-2.478336 -4.312692 0.7476655,-2.507995 -3.094024 1.176399,-2.116625 -5.358836 0.4931244,-2.12778 -4.410156 0.7077289,-2.157067 -3.819366 0.9353629,-2.176951 -3.251707 1.132093,-1.834628 -5.577761 0.5325927,-1.69299 -4.880332 0.7434477,-1.612709 -4.433567 0.9298033,-1.54304 -3.987069 1.085921,-8.540395 -7.817516 -0.05672048,-8.02589 -7.498703 0.168517,-7.60041 -6.87807 0.3768951,-7.278081 -6.295721 0.6119485,-6.932192 -6.048242 0.8700137,-7.941586 -5.45252 0.1498326,-7.852117 -4.526738 0.2930217,-7.829835 -3.941704 0.4305212,-7.814861 -3.427907 0.5363747,-8.247197 -5.299418 0.1907669,-8.151281 -4.214632 0.3094011,-8.108096 -3.534278 0.4741594,-8.077004 -2.93387 0.6284712,-8.539916 -5.360574 0.246858,-8.486788 -4.359708 0.3624629,-8.449059 -3.734462 0.463768,-8.404255 -3.188722 0.5499569,-8.839592 -5.610982 0.3298991,-8.870953 -4.850247 0.4612577,-8.869451 -4.373104 0.5463931,-8.856412 -3.915999 0.6067611,0.710,2  0
-2.077277 -7.563417 -0.1203702,-2.530264 -7.397033 0.3445349,-2.935955 -6.941789 0.6221111,-3.200919 -6.416126 0.8579793,-3.439726 -6.030975 1.114293,-2.673122 -5.525443 0.3575082,-2.841205 -4.634954 0.6019021,-2.906361 -4.084832 0.8003861,-2.941099 -3.529488 0.9749184,-2.38139 -5.334127 0.2966712,-2.459735 -4.31391 0.5597678,-2.459735 -4.31391 0.5597678,-2.486825 -3.115164 0.9876393,-2.106799 -5.360458 0.2942898,-2.115646 -4.41379 0.5224644,-2.145719 -3.823526 0.7536147,-2.169779 -3.26667 0.9481645,-1.825726 -5.58197 0.3270306,-1.683804 -4.882526 0.5474125,-1.602199 -4.44329 0.7403937,-1.534567 -4.006506 0.8972068,-8.536814 -7.823632 -0.02637159,-8.033294 -7.497315 0.2093611,-7.612041 -6.880898 0.431341,-7.291421 -6.305627 0.6795691,-6.947525 -6.043642 0.9543067,-7.947804 -5.444164 0.2012538,-7.859797 -4.518066 0.3514027,-7.836414 -3.935738 0.4949542,-7.820571 -3.4234 0.6022031,-8.250181 -5.299562 0.255021,-8.162073 -4.199611 0.3863614,-8.119292 -3.514856 0.5556764,-8.088197 -2.913861 0.7062846,-8.539242 -5.376766 0.3257833,-8.49878 -4.356139 0.4581707,-8.463183 -3.719529 0.5777538,-8.417072 -3.155178 0.6735522,-8.833353 -5.651823 0.4216331,-8.874905 -4.88161 0.5748675,-8.875363 -4.39974 0.6712145,-8.861679 -3.938676 0.7346026,0.810,2  0
-2.090494 -7.542928 -0.1312289,-2.539176 -7.388092 0.3355711,-2.937499 -6.940013 0.6100765,-3.189106 -6.42089 0.8427468,-3.427701 -6.037385 1.091028,-2.676164 -5.507715 0.3505023,-2.836561 -4.636339 0.5957805,-2.905612 -4.092397 0.7967559,-2.944432 -3.540002 0.9695523,-2.382805 -5.314723 0.2829373,-2.453385 -4.307577 0.5394933,-2.453385 -4.307577 0.5394933,-2.484492 -3.107187 0.9631206,-2.107446 -5.343484 0.2711536,-2.107819 -4.411317 0.4886225,-2.138338 -3.825678 0.7164065,-2.165441 -3.277526 0.9126132,-1.828093 -5.562497 0.2962558,-1.686458 -4.873003 0.50525,-1.60494 -4.430575 0.6977369,-1.538623 -3.989411 0.8576505,-8.555826 -7.838762 -0.03442086,-8.043079 -7.520227 0.1901051,-7.613429 -6.890476 0.3973632,-7.287313 -6.299487 0.6305839,-6.938287 -6.045385 0.8890151,-7.943337 -5.470497 0.1579646,-7.844559 -4.554905 0.3004901,-7.820747 -3.984235 0.4370033,-7.806245 -3.485006 0.5394603,-8.248433 -5.314947 0.2027612,-8.149912 -4.228081 0.3217067,-8.112518 -3.551143 0.4836955,-8.089543 -2.945342 0.6303922,-8.538971 -5.373971 0.2638217,-8.483317 -4.386695 0.375566,-8.453058 -3.766822 0.4708674,-8.416483 -3.221821 0.552857,-8.83461 -5.62155 0.3540729,-8.862896 -4.869833 0.4888305,-8.866712 -4.400496 0.5716339,-8.860356 -3.958327 0.629162,0.910,2  0
-2.105489 -7.549125 -0.1332359,-2.547488 -7.407588 0.368018,-2.933055 -6.952962 0.6601603,-3.183309 -6.425487 0.9049605,-3.43602 -6.03202 1.174122,-2.683365 -5.518163 0.393156,-2.842838 -4.646818 0.6437796,-2.907617 -4.093579 0.8494664,-2.942402 -3.539177 1.03026,-2.390644 -5.326084 0.3095246,-2.457031 -4.328023 0.5576369,-2.457031 -4.328023 0.5576369,-2.490501 -3.133074 0.973739,-2.115738 -5.358978 0.287659,-2.115779 -4.430547 0.5001506,-2.150494 -3.841821 0.7321726,-2.183338 -3.288245 0.9330287,-1.834989 -5.5854 0.3004686,-1.688335 -4.891506 0.5066979,-1.603694 -4.440841 0.7015001,-1.536119 -3.997241 0.864019,-8.552155 -7.84429 -0.004132967,-8.038742 -7.522296 0.2377826,-7.608082 -6.899318 0.4547152,-7.281264 -6.315824 0.6968968,-6.934962 -6.063134 0.9620166,-7.950676 -5.463558 0.20474,-7.865931 -4.541677 0.3540158,-7.843691 -3.963685 0.4962046,-7.824923 -3.458045 0.6066016,-8.254786 -5.311794 0.2467088,-8.166733 -4.218731 0.3719659,-8.121654 -3.537494 0.5378733,-8.085876 -2.932106 0.6922817,-8.544049 -5.379453 0.3073858,-8.495098 -4.366697 0.4308067,-8.456399 -3.737466 0.5374162,-8.406767 -3.180653 0.624099,-8.840635 -5.640182 0.3968544,-8.873578 -4.884676 0.538665,-8.871343 -4.411495 0.6258188,-8.854989 -3.964038 0.6840445,1.010,2  0
-2.109383 -7.54947 -0.1485342,-2.554875 -7.402572 0.3667198,-2.939366 -6.957592 0.6680176,-3.189807 -6.430898 0.9220363,-3.443106 -6.029774 1.206048,-2.688007 -5.522207 0.3978351,-2.842334 -4.648944 0.652908,-2.9033 -4.094992 0.8623304,-2.935862 -3.537271 1.04675,-2.393575 -5.333438 0.3072923,-2.457327 -4.339122 0.5634027,-2.457327 -4.339122 0.5634027,-2.487803 -3.149037 0.9841092,-2.119339 -5.367664 0.2791282,-2.117952 -4.450091 0.4962225,-2.15043 -3.868098 0.7347419,-2.179991 -3.315743 0.9384314,-1.84221 -5.59422 0.2863223,-1.699625 -4.916103 0.4999567,-1.621531 -4.47709 0.7005516,-1.560515 -4.037182 0.867503,-8.555665 -7.828662 -0.02270433,-8.040641 -7.498369 0.2225378,-7.607506 -6.888867 0.4430368,-7.282855 -6.308723 0.6861399,-6.941536 -6.049444 0.9499595,-7.952453 -5.451053 0.2054963,-7.871159 -4.529745 0.3588789,-7.850066 -3.957025 0.5010619,-7.834564 -3.454101 0.6107501,-8.257261 -5.303662 0.2474654,-8.171007 -4.207495 0.3801682,-8.129048 -3.527378 0.5535324,-8.100073 -2.923666 0.7154663,-8.547702 -5.376533 0.3102203,-8.506611 -4.370018 0.4360467,-8.471864 -3.744421 0.5523958,-8.426327 -3.183893 0.6545542,-8.845308 -5.644529 0.3970852,-8.882142 -4.896663 0.5439459,-8.880551 -4.426377 0.6437136,-8.863187 -3.9733 0.7183871,1.110,2  0
-2.08796 -7.5358 -0.1753421,-2.537148 -7.400362 0.3068603,-2.93154 -6.943845 0.5870358,-3.181742 -6.415349 0.8232876,-3.430932 -6.022596 1.083604,-2.678449 -5.51729 0.3291424,-2.838741 -4.654433 0.5689713,-2.901698 -4.109785 0.7725954,-2.931284 -3.559759 0.9511155,-2.388344 -5.324045 0.2516762,-2.453787 -4.326419 0.4975739,-2.453787 -4.326419 0.4975739,-2.472292 -3.141778 0.9042031,-2.115658 -5.350086 0.2328803,-2.114597 -4.421093 0.4395893,-2.143919 -3.833143 0.6696473,-2.165225 -3.276122 0.866956,-1.838366 -5.565553 0.2487167,-1.698304 -4.87277 0.4526368,-1.618893 -4.424454 0.6466868,-1.551941 -3.978116 0.8077353,-8.563791 -7.825416 -0.02561632,-8.057073 -7.503567 0.207702,-7.627734 -6.885601 0.4248592,-7.306704 -6.312331 0.6651027,-6.968213 -6.061705 0.9276185,-7.972247 -5.450207 0.1735605,-7.884613 -4.544873 0.307839,-7.861267 -3.975594 0.4416002,-7.842921 -3.473308 0.5497166,-8.272357 -5.297502 0.2155503,-8.183066 -4.208832 0.328649,-8.138589 -3.528876 0.4876128,-8.105102 -2.925592 0.6422514,-8.557044 -5.364383 0.2743184,-8.504259 -4.35741 0.3839819,-8.466821 -3.720744 0.4867156,-8.418535 -3.156395 0.5784972,-8.849104 -5.62537 0.3623287,-8.874022 -4.874304 0.4936111,-8.870385 -4.410052 0.5792623,-8.854007 -3.980217 0.6414471,1.210,2  0
-2.084764 -7.539512 -0.1841709,-2.534731 -7.407506 0.3102559,-2.930848 -6.951057 0.5907296,-3.178961 -6.419004 0.8265395,-3.431374 -6.02066 1.078978,-2.680247 -5.518241 0.2924572,-2.836905 -4.660399 0.5279638,-2.895018 -4.119422 0.7298429,-2.919539 -3.579127 0.9076166,-2.387352 -5.324611 0.2102194,-2.454118 -4.335567 0.4483963,-2.454118 -4.335567 0.4483963,-2.46664 -3.163902 0.8537635,-2.113853 -5.352542 0.1915847,-2.117942 -4.431852 0.3963333,-2.145574 -3.84988 0.6297179,-2.166649 -3.295383 0.8257157,-1.835204 -5.572149 0.2105866,-1.703369 -4.88632 0.4156454,-1.628123 -4.442276 0.6103771,-1.565208 -3.996763 0.7726652,-8.580456 -7.842433 0.02874901,-8.071152 -7.533746 0.244015,-7.638748 -6.899111 0.4424227,-7.32785 -6.314012 0.6700456,-7.00412 -6.053592 0.9190153,-7.98156 -5.455167 0.1937005,-7.891411 -4.557199 0.3177857,-7.865635 -3.994318 0.4448267,-7.846793 -3.498636 0.5485048,-8.28176 -5.29741 0.2446334,-8.191619 -4.224372 0.342113,-8.147437 -3.545979 0.500535,-8.114767 -2.942728 0.6568373,-8.567286 -5.361787 0.3136283,-8.514076 -4.3646 0.4124405,-8.475238 -3.730356 0.5164765,-8.426425 -3.168433 0.6153924,-8.8619 -5.624053 0.4073228,-8.888635 -4.871082 0.5333217,-8.881317 -4.407203 0.6208413,-8.861542 -3.974495 0.6895463,1.310,2  0
-2.091372 -7.559713 -0.1900587,-2.540532 -7.407257 0.282872,-2.927186 -6.949313 0.5562202,-3.171055 -6.417488 0.7889456,-3.41724 -6.018333 1.039996,-2.677159 -5.530788 0.2793047,-2.834304 -4.6704 0.5118709,-2.896124 -4.127018 0.7069458,-2.923662 -3.579717 0.8794359,-2.388861 -5.346176 0.2060938,-2.452466 -4.36306 0.4470091,-2.452466 -4.36306 0.4470091,-2.467374 -3.195173 0.8450025,-2.116757 -5.380174 0.1942849,-2.114136 -4.46513 0.395445,-2.141811 -3.8839 0.626214,-2.158738 -3.327565 0.8211563,-1.839171 -5.60464 0.2168199,-1.705252 -4.917773 0.416743,-1.635178 -4.472558 0.6071988,-1.575173 -4.026979 0.7672606,-8.575953 -7.871737 -0.02943993,-8.069539 -7.52691 0.1926861,-7.645729 -6.91216 0.3981945,-7.330475 -6.329457 0.6329662,-6.999311 -6.068639 0.8860548,-7.991195 -5.493186 0.1594196,-7.900529 -4.565923 0.2968141,-7.875801 -3.984423 0.4315922,-7.857391 -3.471354 0.5409973,-8.28764 -5.344656 0.2126009,-8.199325 -4.248274 0.3371069,-8.157894 -3.560177 0.512837,-8.127453 -2.945762 0.6778324,-8.570053 -5.416931 0.2828461,-8.520884 -4.407533 0.4020468,-8.48512 -3.766317 0.5213878,-8.439611 -3.195657 0.6232998,-8.859248 -5.684852 0.3793365,-8.901701 -4.932642 0.522116,-8.909618 -4.454484 0.6268936,-8.902697 -3.996553 0.7026234,1.410,2  0
-2.080201 -7.558401 -0.1943188,-2.537441 -7.419897 0.2797381,-2.932607 -6.966428 0.5550297,-3.185617 -6.432237 0.7916513,-3.439518 -6.03124 1.051116,-2.690954 -5.53923 0.2727099,-2.846695 -4.676158 0.5081335,-2.904377 -4.13478 0.7066211,-2.928265 -3.589239 0.881816,-2.400742 -5.349153 0.2010649,-2.460089 -4.368764 0.4398003,-2.460089 -4.368764 0.4398003,-2.464514 -3.208234 0.8373035,-2.126759 -5.37725 0.1902841,-2.125163 -4.465675 0.3904173,-2.149086 -3.891788 0.6217365,-2.161071 -3.33904 0.8141745,-1.843351 -5.597339 0.2136498,-1.709705 -4.912133 0.4168432,-1.633702 -4.472068 0.6080205,-1.564324 -4.028738 0.7661484,-8.586912 -7.864616 -0.04436886,-8.075117 -7.532859 0.1641869,-7.648741 -6.920907 0.356446,-7.338379 -6.335252 0.5773975,-7.017125 -6.073326 0.8200436,-7.989054 -5.49138 0.1117135,-7.89616 -4.571346 0.2378875,-7.875401 -3.987145 0.365143,-7.861616 -3.469887 0.4706002,-8.288269 -5.339624 0.1585549,-8.195966 -4.251027 0.2598318,-8.158287 -3.564384 0.4229727,-8.131839 -2.95019 0.5800717,-8.572218 -5.406417 0.2209588,-8.51847 -4.408444 0.3161784,-8.486147 -3.777278 0.4185958,-8.443356 -3.217968 0.5105296,-8.864546 -5.662426 0.3110082,-8.898518 -4.916046 0.4339833,-8.901765 -4.453355 0.521027,-8.891086 -4.017133 0.5845153,1.510,2  0
-2.103465 -7.543399 -0.171717,-2.552367 -7.409893 0.3127192,-2.943486 -6.955699 0.5929661,-3.192939 -6.422533 0.8362925,-3.44969 -6.01686 1.104337,-2.703741 -5.513776 0.2871742,-2.866968 -4.6651 0.5174488,-2.92641 -4.127498 0.7130263,-2.952813 -3.581987 0.8878809,-2.415317 -5.323829 0.2094433,-2.481628 -4.367471 0.4409478,-2.481628 -4.367471 0.4409478,-2.490258 -3.218426 0.8334726,-2.143451 -5.358291 0.1948033,-2.141888 -4.467235 0.3862046,-2.167086 -3.906802 0.6173761,-2.179626 -3.362189 0.8123817,-1.864506 -5.582988 0.2153051,-1.736265 -4.913417 0.4162012,-1.667704 -4.483755 0.6110624,-1.609466 -4.049009 0.7746792,-8.583484 -7.856822 -0.04621111,-8.07319 -7.53713 0.1901587,-7.638275 -6.916704 0.3953786,-7.309895 -6.334409 0.6319995,-6.970968 -6.053734 0.8865738,-7.983736 -5.489227 0.1172115,-7.888794 -4.565993 0.257648,-7.865948 -3.984432 0.3969324,-7.851686 -3.479361 0.5061866,-8.277222 -5.334089 0.1668562,-8.186169 -4.244724 0.2835417,-8.144075 -3.561982 0.4548451,-8.115653 -2.963669 0.614765,-8.560824 -5.400579 0.2409121,-8.513384 -4.389411 0.362293,-8.478237 -3.746749 0.4876301,-8.432385 -3.176921 0.5904276,-8.857829 -5.664226 0.3411239,-8.903904 -4.914258 0.4887698,-8.908823 -4.450227 0.5909487,-8.895755 -4.013481 0.6625293,1.610,2  0
-2.10578 -7.544055 -0.2451101,-2.555172 -7.402711 0.2121378,-2.945826 -6.954439 0.4835399,-3.199632 -6.43023 0.7218637,-3.459114 -6.030647 0.985631,-2.710217 -5.536434 0.2065899,-2.874719 -4.679164 0.4457734,-2.936409 -4.139925 0.6367714,-2.965033 -3.597439 0.8039548,-2.422795 -5.348567 0.1467093,-2.496209 -4.376646 0.3890759,-2.496209 -4.376646 0.3890759,-2.511199 -3.217882 0.7761437,-2.149008 -5.384746 0.1484097,-2.152465 -4.472221 0.351615,-2.17694 -3.89728 0.5790679,-2.189057 -3.348366 0.7681696,-1.865105 -5.614336 0.1821567,-1.744228 -4.925876 0.3893395,-1.68047 -4.487806 0.5856386,-1.626512 -4.052049 0.7467725,-8.584367 -7.860221 -0.02904261,-8.073346 -7.541961 0.1953673,-7.642105 -6.917953 0.3963878,-7.32136 -6.335685 0.6259634,-6.98897 -6.066539 0.8748724,-7.986674 -5.48459 0.1345447,-7.892668 -4.562682 0.2609695,-7.866485 -3.984317 0.3920045,-7.847691 -3.477437 0.4979523,-8.281253 -5.332132 0.1837465,-8.189856 -4.240215 0.2874014,-8.146279 -3.55631 0.4536467,-8.117748 -2.954908 0.6119516,-8.564259 -5.401762 0.2545334,-8.513262 -4.386997 0.3629822,-8.477612 -3.739796 0.4863751,-8.433672 -3.16279 0.5935581,-8.858866 -5.668625 0.3516487,-8.896922 -4.913352 0.4861751,-8.899704 -4.446426 0.588974,-8.88763 -4.000652 0.6639137,1.710,2  0
-2.111228 -7.563766 -0.2678535,-2.563278 -7.40406 0.1691153,-2.954552 -6.955139 0.4300075,-3.206459 -6.438512 0.6619424,-3.457856 -6.045444 0.9177344,-2.71907 -5.5502 0.1441689,-2.89151 -4.694545 0.3724418,-2.956927 -4.159159 0.5628071,-2.987763 -3.619414 0.72843,-2.431972 -5.369987 0.09200472,-2.505689 -4.402171 0.3266647,-2.505689 -4.402171 0.3266647,-2.510981 -3.246104 0.7178428,-2.159494 -5.413332 0.1000384,-2.16315 -4.51136 0.2973044,-2.18326 -3.937435 0.5346972,-2.190487 -3.391412 0.7281735,-1.881947 -5.648021 0.1367251,-1.768383 -4.972253 0.3454182,-1.713202 -4.538723 0.5437717,-1.669022 -4.108161 0.7024349,-8.57865 -7.884649 0.02064798,-8.068457 -7.54866 0.2443582,-7.635744 -6.908917 0.4434474,-7.309087 -6.323132 0.6744944,-6.974428 -6.06021 0.925011,-7.987354 -5.492333 0.1636684,-7.89067 -4.573347 0.2904201,-7.867075 -3.994341 0.4243287,-7.85024 -3.489271 0.5309976,-8.282868 -5.33966 0.2122443,-8.193859 -4.254263 0.3149624,-8.155026 -3.567669 0.4813262,-8.12913 -2.963024 0.6390027,-8.566585 -5.407924 0.2841944,-8.519674 -4.402246 0.3906969,-8.485863 -3.760669 0.503036,-8.445898 -3.187714 0.598308,-8.861912 -5.670171 0.3844405,-8.905678 -4.917094 0.5174904,-8.911689 -4.450624 0.609192,-8.905748 -4.007747 0.6715162,1.810,2  0
-2.11737 -7.556461 -0.3286487,-2.563638 -7.400373 0.0513857,-2.95291 -6.935566 0.2801495,-3.205417 -6.417671 0.490814,-3.460681 -6.037821 0.7272643,-2.722715 -5.54813 0.003757596,-2.896459 -4.687175 0.2111895,-2.965455 -4.152307 0.3842731,-2.997091 -3.614704 0.5376801,-2.443202 -5.372941 -0.02301368,-2.517752 -4.390979 0.1857824,-2.517752 -4.390979 0.1857824,-2.51707 -3.243136 0.55455,-2.171634 -5.422612 0.007430792,-2.17836 -4.503414 0.1865568,-2.195974 -3.924819 0.4100692,-2.199238 -3.378911 0.5981945,-1.889762 -5.665025 0.0658994,-1.781862 -4.977632 0.2648832,-1.726321 -4.538434 0.4557768,-1.678493 -4.104949 0.6090049,-8.59218 -7.870608 -0.01638067,-8.078857 -7.548727 0.2151146,-7.646822 -6.933396 0.417853,-7.322301 -6.353566 0.6474543,-6.990315 -6.083011 0.8935132,-7.984343 -5.493297 0.1554923,-7.887502 -4.578179 0.2925981,-7.864128 -3.997879 0.4291765,-7.845978 -3.485937 0.5406622,-8.278211 -5.340717 0.2027117,-8.187756 -4.251049 0.3203723,-8.15075 -3.567189 0.4900063,-8.123718 -2.955702 0.6500719,-8.560286 -5.407527 0.2723785,-8.514275 -4.399135 0.3877437,-8.483795 -3.762184 0.5090255,-8.442127 -3.188683 0.6131483,-8.853115 -5.668359 0.3682033,-8.894943 -4.922112 0.5117857,-8.903007 -4.450864 0.6134545,-8.895929 -3.995927 0.6860465,1.910,2  0
-2.124497 -7.539171 -0.3264006,-2.576531 -7.399399 0.08270228,-2.970246 -6.947212 0.3306567,-3.229218 -6.435565 0.5555204,-3.491725 -6.048984 0.8105991,-2.747925 -5.540374 0.04986668,-2.925514 -4.692733 0.2675514,-2.989501 -4.163876 0.4446774,-3.015863 -3.628294 0.598886,-2.464361 -5.361661 0.0100162,-2.54504 -4.393136 0.2285815,-2.54504 -4.393136 0.2285815,-2.547187 -3.247284 0.5998411,-2.190687 -5.413673 0.03070694,-2.201326 -4.501892 0.2144719,-2.219873 -3.926528 0.4425399,-2.221688 -3.378583 0.6363885,-1.907879 -5.660344 0.07838964,-1.803263 -4.979257 0.2809632,-1.750743 -4.537569 0.4810081,-1.705691 -4.096623 0.6445063,-8.595631 -7.868723 0.01499422,-8.0789 -7.554955 0.2534047,-7.638805 -6.927489 0.4663416,-7.314043 -6.347012 0.7064163,-6.973549 -6.071143 0.9688379,-7.983747 -5.485324 0.1978068,-7.892998 -4.569922 0.3357158,-7.875324 -3.988868 0.4735495,-7.865183 -3.4797 0.5822093,-8.277879 -5.331543 0.2487597,-8.190341 -4.249952 0.3605214,-8.155073 -3.565202 0.5268229,-8.134312 -2.963758 0.6858386,-8.562921 -5.401304 0.3239212,-8.516027 -4.40316 0.4358457,-8.483311 -3.767713 0.5528149,-8.447104 -3.196912 0.655629,-8.863281 -5.666591 0.428492,-8.901385 -4.917667 0.5660759,-8.904922 -4.459903 0.6556447,-8.899294 -4.027105 0.7206929,2.010,2  0
-2.142637 -7.559978 -0.2976404,-2.594303 -7.407821 0.1265567,-2.984288 -6.957109 0.3720061,-3.235823 -6.448836 0.5919686,-3.495265 -6.050936 0.8335038,-2.746277 -5.549622 0.0770396,-2.919953 -4.70224 0.2909719,-2.994369 -4.169232 0.4693978,-3.034367 -3.635751 0.626361,-2.464097 -5.369524 0.02720943,-2.544384 -4.402781 0.2378472,-2.544384 -4.402781 0.2378472,-2.556446 -3.247551 0.6159612,-2.193229 -5.41542 0.03563079,-2.20155 -4.50874 0.2145809,-2.222681 -3.933516 0.4389148,-2.226598 -3.381404 0.6307054,-1.914963 -5.651672 0.07801932,-1.812918 -4.964085 0.2764933,-1.762709 -4.516606 0.4721256,-1.71853 -4.068574 0.6340685,-8.602244 -7.8741 -0.02734563,-8.085829 -7.555714 0.1984926,-7.644724 -6.92859 0.4092716,-7.310667 -6.346353 0.6470664,-6.968209 -6.071664 0.909887,-7.994504 -5.506479 0.1478969,-7.895899 -4.581357 0.2791872,-7.875963 -3.9996 0.4153197,-7.863938 -3.491946 0.5223718,-8.288784 -5.347942 0.198819,-8.19311 -4.255027 0.3102383,-8.157006 -3.568853 0.4769321,-8.134037 -2.968639 0.6354664,-8.573127 -5.413217 0.269939,-8.521986 -4.398873 0.3837025,-8.488435 -3.756916 0.4969064,-8.449539 -3.185223 0.5917107,-8.871167 -5.673095 0.3684723,-8.911852 -4.907311 0.5084326,-8.915895 -4.434069 0.6002667,-8.90953 -3.987674 0.6618775,2.110,2  0
-2.125959 -7.585196 -0.2955942,-2.580994 -7.426261 0.1272448,-2.984123 -6.965377 0.3684542,-3.22725 -6.445734 0.5877348,-3.481668 -6.044494 0.8314825,-2.756178 -5.565019 0.06117994,-2.923088 -4.701637 0.2669666,-2.996438 -4.168777 0.4357606,-3.039217 -3.639392 0.5854684,-2.471161 -5.395393 0.01289964,-2.550096 -4.434191 0.2247138,-2.550096 -4.434191 0.2247138,-2.552884 -3.310691 0.598426,-2.197455 -5.446379 0.02475336,-2.202813 -4.558412 0.2064659,-2.212016 -4.007955 0.426752,-2.208866 -3.467416 0.6144041,-1.916278 -5.681408 0.07098198,-1.821756 -5.015287 0.2752241,-1.771949 -4.598017 0.4670134,-1.730582 -4.169176 0.6260424,-8.618555 -7.872867 -0.0205483,-8.107907 -7.559837 0.218761,-7.669708 -6.918014 0.4283211,-7.349694 -6.332475 0.6647702,-7.016168 -6.061459 0.9215313,-8.015635 -5.498788 0.1658061,-7.920226 -4.587329 0.304293,-7.899858 -4.010049 0.4402384,-7.887041 -3.501504 0.5460219,-8.311085 -5.344667 0.2130284,-8.222733 -4.252925 0.3339022,-8.188619 -3.568624 0.5022807,-8.167819 -2.968334 0.6610855,-8.594225 -5.412591 0.2843069,-8.553501 -4.406539 0.4091328,-8.523761 -3.762436 0.5252385,-8.489448 -3.186706 0.62515,-8.893627 -5.673481 0.3833632,-8.935767 -4.91499 0.5335087,-8.948739 -4.449542 0.6237681,-8.951549 -4.014589 0.6867083,2.210,2  0
-2.121078 -7.598867 -0.2287448,-2.56726 -7.430868 0.2054272,-2.963578 -6.967285 0.4511421,-3.198111 -6.443256 0.6774967,-3.450047 -6.033852 0.9279432,-2.743461 -5.550816 0.1318721,-2.895929 -4.688869 0.3391888,-2.963754 -4.163616 0.5150048,-3.00564 -3.636983 0.6724225,-2.456244 -5.388012 0.07994995,-2.519531 -4.452308 0.2898287,-2.519531 -4.452308 0.2898287,-2.508933 -3.371346 0.6389114,-2.183732 -5.44322 0.08683699,-2.177837 -4.58158 0.2644638,-2.17623 -4.058412 0.4752858,-2.164128 -3.53421 0.6522974,-1.904323 -5.678709 0.1359309,-1.815578 -5.020235 0.3324201,-1.762703 -4.612932 0.5172611,-1.719316 -4.189424 0.6734767,-8.636666 -7.864876 -0.05777482,-8.122705 -7.562122 0.1782094,-7.687789 -6.929811 0.385589,-7.367605 -6.345022 0.6185131,-7.038243 -6.073654 0.8729987,-8.026469 -5.507133 0.1312459,-7.924663 -4.584611 0.2721242,-7.905842 -4.005172 0.4074847,-7.895621 -3.497496 0.5125527,-8.321571 -5.349214 0.1843821,-8.228252 -4.246233 0.3063094,-8.194416 -3.56093 0.4762493,-8.175249 -2.968202 0.6310078,-8.603024 -5.413778 0.2614963,-8.562249 -4.398006 0.3880429,-8.534213 -3.754296 0.511402,-8.50116 -3.183284 0.6147396,-8.898391 -5.675014 0.3659802,-8.942746 -4.910257 0.5306257,-8.953958 -4.438814 0.631314,-8.953238 -4.000995 0.6979344,2.310,2  0
-2.099102 -7.643515 -0.2312341,-2.544971 -7.456399 0.1783796,-2.941202 -6.97042 0.3993392,-3.16518 -6.425075 0.6087539,-3.411882 -6.00753 0.8425976,-2.713161 -5.580137 0.07286748,-2.877388 -4.74147 0.2705587,-2.951181 -4.21771 0.4494253,-2.990502 -3.682597 0.6106279,-2.42694 -5.424993 0.01990598,-2.484934 -4.540546 0.205168,-2.484934 -4.540546 0.205168,-2.458147 -3.493773 0.5455875,-2.152116 -5.484129 0.02752033,-2.14743 -4.684007 0.1806009,-2.138071 -4.187084 0.3935488,-2.110635 -3.686637 0.5689837,-1.871774 -5.712932 0.07533702,-1.792041 -5.08991 0.2561912,-1.738603 -4.704327 0.443877,-1.684861 -4.3026 0.6014194,-8.631739 -7.892807 -0.01898814,-8.124302 -7.584646 0.2000389,-7.691228 -6.945282 0.3989878,-7.374358 -6.360422 0.6312012,-7.036305 -6.088114 0.8855574,-8.031898 -5.506767 0.1297342,-7.939365 -4.598583 0.2627419,-7.922429 -4.019582 0.3943158,-7.911793 -3.504419 0.5053113,-8.325828 -5.361712 0.1883984,-8.24004 -4.272204 0.2990981,-8.215739 -3.587276 0.4624535,-8.202884 -2.991729 0.6124346,-8.608023 -5.435642 0.2724655,-8.574798 -4.42567 0.3902434,-8.560171 -3.784568 0.5028634,-8.535989 -3.21433 0.5984712,-8.908707 -5.703305 0.3826904,-8.939698 -4.931728 0.5498253,-8.94678 -4.454126 0.6419333,-8.944345 -4.017791 0.6966464,2.410,2  0
-2.098346 -7.630119 -0.304651,-2.553483 -7.458711 0.1223699,-2.954045 -6.979597 0.3496966,-3.174055 -6.428526 0.5638096,-3.43371 -6.004592 0.8088133,-2.728582 -5.576065 0.005336314,-2.888397 -4.757423 0.1935326,-2.960245 -4.248466 0.3734107,-2.996819 -3.730829 0.5435602,-2.429156 -5.432917 -0.05762686,-2.485368 -4.59871 0.1166818,-2.485368 -4.59871 0.1166818,-2.446849 -3.616651 0.4591391,-2.147327 -5.4978 -0.05922383,-2.139479 -4.732879 0.08388603,-2.127364 -4.264442 0.3044577,-2.095275 -3.792926 0.4856023,-1.862121 -5.726362 -0.01841086,-1.790814 -5.122872 0.1524979,-1.741253 -4.747935 0.3371181,-1.687851 -4.349933 0.4976389,-8.631392 -7.913206 -0.03181898,-8.118106 -7.595863 0.1903214,-7.684238 -6.946094 0.3888005,-7.3639 -6.359483 0.6215999,-7.021467 -6.085084 0.8829822,-8.034139 -5.525548 0.114079,-7.942852 -4.613733 0.2497956,-7.924438 -4.031988 0.3882096,-7.913508 -3.514696 0.5033321,-8.328439 -5.385353 0.1741848,-8.245122 -4.304853 0.2911402,-8.221531 -3.626839 0.46653,-8.212925 -3.036575 0.6221873,-8.610547 -5.459686 0.2614359,-8.57836 -4.458534 0.3882809,-8.560884 -3.822521 0.5111895,-8.535614 -3.255315 0.6101119,-8.912367 -5.721036 0.3741907,-8.946687 -4.944728 0.5474668,-8.954145 -4.459528 0.6478021,-8.952698 -4.006853 0.7083521,2.510,2  0
-2.111955 -7.739984 -0.3558759,-2.576757 -7.573057 0.1483436,-2.977672 -7.119695 0.4160632,-3.210817 -6.615053 0.6532742,-3.479999 -6.164472 0.9297938,-2.811368 -5.694873 -0.02152255,-2.982519 -4.894878 0.1598854,-3.062127 -4.402654 0.3788925,-3.102964 -3.901775 0.5950128,-2.50027 -5.567468 -0.1056034,-2.58833 -4.837339 0.0935865,-2.58833 -4.837339 0.0935865,-2.582143 -4.11697 0.627216,-2.202445 -5.639898 -0.1214571,-2.205419 -4.953566 0.04396874,-2.194277 -4.594142 0.3778727,-2.165114 -4.383012 0.6420076,-1.909086 -5.864851 -0.09587553,-1.863307 -5.299448 0.1106813,-1.849675 -4.993265 0.3663399,-1.830942 -4.765317 0.588834,-8.628033 -7.912196 -0.04031863,-8.118144 -7.600388 0.2384904,-7.688675 -6.954288 0.4668248,-7.369194 -6.367374 0.7203544,-7.019234 -6.077931 0.9970055,-8.043927 -5.532075 0.1851356,-7.953634 -4.625705 0.3529795,-7.934243 -4.042469 0.511928,-7.928025 -3.51893 0.633889,-8.342039 -5.3906 0.2276053,-8.26621 -4.315506 0.3696517,-8.243528 -3.637746 0.5600204,-8.24088 -3.042188 0.7274506,-8.627117 -5.468354 0.3038905,-8.593795 -4.467605 0.448851,-8.568095 -3.839473 0.5962635,-8.543446 -3.264834 0.71066,-8.930303 -5.738035 0.4091944,-8.96713 -4.977941 0.5845871,-8.971096 -4.500211 0.7001314,-8.969268 -4.030584 0.7812322,2.610,2  0
-2.180394 -7.7779 -0.3036719,-2.624325 -7.621534 0.1647315,-3.028152 -7.169899 0.4562607,-3.262896 -6.698034 0.7300221,-3.511316 -6.2528 1.035323,-2.887333 -5.747455 0.01122296,-3.086668 -4.961668 0.2495489,-3.180134 -4.455291 0.4927498,-3.238587 -4.050064 0.7047623,-2.585571 -5.597948 -0.01536807,-2.683201 -4.784498 0.3092664,-2.683201 -4.784498 0.3092664,-2.72397 -4.472591 0.9543258,-2.29402 -5.651418 0.02784252,-2.321218 -4.875749 0.2831387,-2.333095 -4.61318 0.6829276,-2.328423 -4.689868 0.9691106,-1.991098 -5.865753 0.1113583,-1.938357 -5.21288 0.3693234,-1.974793 -4.987899 0.6890736,-2.015481 -5.038066 0.9456691,-8.620031 -7.89813 -0.05460191,-8.114974 -7.579642 0.1529345,-7.682363 -6.931128 0.3464859,-7.366177 -6.342902 0.5760889,-7.027218 -6.067317 0.8394564,-8.034366 -5.520334 0.08864585,-7.94079 -4.624506 0.2248019,-7.922821 -4.040172 0.3646182,-7.913342 -3.514816 0.483793,-8.331796 -5.375445 0.1552356,-8.246527 -4.309003 0.2662573,-8.22601 -3.623951 0.4350094,-8.21712 -3.029357 0.5913334,-8.61704 -5.444448 0.2472594,-8.58011 -4.448322 0.366794,-8.570588 -3.806374 0.4836387,-8.550641 -3.232095 0.5816056,-8.919515 -5.701954 0.3675768,-8.946313 -4.919992 0.5248035,-8.953759 -4.430021 0.6143525,-8.950417 -3.973819 0.6708004,2.710,2  0
-2.361603 -8.274384 0.3755895,-2.867525 -8.010828 0.7092912,-3.371349 -7.482366 0.8779614,-3.718571 -7.022926 1.051166,-4.012469 -6.642784 1.287735,-3.373941 -6.187604 0.613512,-3.627228 -5.363916 0.7836087,-3.738522 -4.835701 1.067005,-3.800947 -4.472108 1.335236,-3.088999 -5.969299 0.6267386,-3.245918 -5.023969 1.012078,-3.245918 -5.023969 1.012078,-3.152288 -5.225921 1.779958,-2.780828 -5.975916 0.6735007,-2.876939 -5.1165 0.9934936,-2.864288 -5.093828 1.428974,-2.817468 -5.415887 1.697808,-2.448998 -6.137276 0.7475663,-2.526293 -5.497554 1.101567,-2.522196 -5.373224 1.407312,-2.504739 -5.55793 1.636799,-8.643235 -7.94318 -0.04621938,-8.130917 -7.634449 0.1767478,-7.70956 -6.998821 0.3733829,-7.408052 -6.401294 0.6047269,-7.078435 -6.115621 0.8609492,-8.054129 -5.56875 0.1040844,-7.959063 -4.659054 0.2401935,-7.934262 -4.070434 0.3807247,-7.91983 -3.543963 0.4959961,-8.355756 -5.417276 0.154837,-8.268689 -4.345523 0.263014,-8.238949 -3.659955 0.4377051,-8.222724 -3.067531 0.5927712,-8.643232 -5.48575 0.2351156,-8.608542 -4.489818 0.342252,-8.591482 -3.856782 0.4567297,-8.566603 -3.292967 0.5506333,-8.94611 -5.74554 0.33776,-8.977385 -4.96182 0.4872238,-8.98457 -4.467584 0.5914663,-8.982849 -3.999916 0.6574938,2.810,2  0
-2.321249 -8.129494 -0.0348312,-2.844895 -7.997585 0.3422562,-3.341778 -7.502618 0.5894647,-3.675734 -6.963927 0.834501,-4.003058 -6.613338 1.125333,-3.379056 -6.187152 0.1153542,-3.646255 -5.399549 0.3623767,-3.790094 -4.899776 0.6209466,-3.926819 -4.486015 0.8368629,-3.058797 -5.944826 0.14482,-3.216362 -4.896765 0.6588708,-3.216362 -4.896765 0.6588708,-3.149586 -5.487743 1.234841,-2.731265 -5.894629 0.2297145,-2.802348 -4.926628 0.6633968,-2.809199 -5.272506 0.9921176,-2.793027 -5.806308 1.080547,-2.369745 -6.000225 0.3644461,-2.397562 -5.276102 0.7225814,-2.450727 -5.475699 0.963491,-2.47593 -5.90953 1.071957,-8.687658 -7.94918 -0.06711928,-8.167709 -7.648834 0.1564877,-7.74125 -7.015352 0.355027,-7.436718 -6.417398 0.5865443,-7.114924 -6.12741 0.844604,-8.079528 -5.584143 0.09471914,-7.981087 -4.66114 0.2383945,-7.963177 -4.068601 0.3794052,-7.957175 -3.533746 0.4928225,-8.385143 -5.431976 0.1448941,-8.292472 -4.357009 0.2588164,-8.268899 -3.670686 0.4305656,-8.257743 -3.074185 0.5830757,-8.677588 -5.496278 0.2216966,-8.642264 -4.498617 0.3338066,-8.634751 -3.861885 0.4495595,-8.615841 -3.294745 0.5440927,-8.984627 -5.748481 0.3223109,-9.013346 -4.954296 0.4735021,-9.024119 -4.445251 0.5742022,-9.021639 -3.961526 0.6396198,2.910,2  0
-2.499617 -8.139837 -0.009244429,-2.999923 -8.048506 0.3505161,-3.463493 -7.552503 0.618739,-3.767128 -7.050701 0.8860185,-4.101614 -6.745741 1.164444,-3.479723 -6.162513 0.3044161,-3.742044 -5.401154 0.6093315,-3.912583 -4.923759 0.8839003,-4.085434 -4.515432 1.101879,-3.16656 -5.949416 0.3647972,-3.321977 -4.940016 0.9667712,-3.321977 -4.940016 0.9667712,-3.318344 -5.688062 1.549865,-2.838038 -5.9353 0.4780378,-2.890257 -5.02674 0.9805734,-2.942931 -5.428031 1.288399,-2.952106 -5.965904 1.373746,-2.469308 -6.103375 0.6289222,-2.506187 -5.434658 1.0344,-2.605427 -5.681681 1.302379,-2.651813 -6.138284 1.44409,-8.715473 -7.971593 -0.0630617,-8.201843 -7.672466 0.1405461,-7.783206 -7.039724 0.3461543,-7.491652 -6.447802 0.5939486,-7.170182 -6.148664 0.8649395,-8.137769 -5.602544 0.08165349,-8.043784 -4.68799 0.232875,-8.023446 -4.100405 0.3885384,-8.011233 -3.574393 0.5202301,-8.437139 -5.450109 0.1453437,-8.357643 -4.370605 0.2574893,-8.339349 -3.692512 0.4157037,-8.326873 -3.109842 0.555914,-8.718046 -5.507637 0.2310869,-8.684402 -4.501062 0.3376713,-8.672056 -3.859275 0.4514672,-8.641413 -3.299198 0.5405861,-9.013431 -5.741756 0.3448561,-9.02036 -4.93481 0.4825542,-9.014135 -4.405206 0.5680438,-8.991638 -3.923326 0.6149052,3.010,2  0
-2.558308 -8.148247 -0.09669002,-3.075462 -8.078783 0.2231415,-3.55887 -7.599712 0.4621332,-3.86601 -7.110054 0.694656,-4.194405 -6.842927 0.9519055,-3.558855 -6.231779 0.2704289,-3.822707 -5.499103 0.6086217,-3.988165 -5.009975 0.9371868,-4.14641 -4.614254 1.211466,-3.248314 -6.002204 0.3343019,-3.40445 -5.045095 0.929311,-3.40445 -5.045095 0.929311,-3.382084 -5.780476 1.580194,-2.918968 -5.976226 0.4453828,-2.968549 -5.092689 0.9413077,-3.018681 -5.483726 1.238423,-3.023135 -6.01753 1.343138,-2.546959 -6.137125 0.5856562,-2.5771 -5.50172 1.007085,-2.676879 -5.758726 1.27575,-2.724017 -6.203287 1.428714,-8.74469 -7.983604 -0.1132283,-8.223291 -7.691226 0.1145268,-7.794605 -7.048118 0.3142429,-7.490892 -6.44067 0.5456876,-7.169188 -6.137512 0.802381,-8.146053 -5.634611 0.06810902,-8.057133 -4.697875 0.2295795,-8.044748 -4.104183 0.3826678,-8.041993 -3.572103 0.5023345,-8.449809 -5.480636 0.1194091,-8.370585 -4.393442 0.2474301,-8.353986 -3.706124 0.4218283,-8.349466 -3.118567 0.5753695,-8.73833 -5.546431 0.1939663,-8.704093 -4.537807 0.3207578,-8.695827 -3.903535 0.4340091,-8.675783 -3.346165 0.5219004,-9.040956 -5.800324 0.2944962,-9.066777 -5.011702 0.4579262,-9.074121 -4.511706 0.5567448,-9.068396 -4.046169 0.6155973,3.110,2  0
-2.753747 -8.182533 -0.4031464,-3.256643 -8.239998 0.0129447,-3.75351 -7.794368 0.3162215,-4.088432 -7.3397 0.6041753,-4.466288 -7.102037 0.9328883,-3.776115 -6.410913 0.0930081,-4.044058 -5.708759 0.4876438,-4.239798 -5.250211 0.8486522,-4.441978 -4.887146 1.132721,-3.44746 -6.159973 0.145745,-3.638843 -5.237388 0.8456023,-3.638843 -5.237388 0.8456023,-3.657171 -6.05945 1.527719,-3.092452 -6.142513 0.2540449,-3.173143 -5.278484 0.8633621,-3.236813 -5.736471 1.206421,-3.251089 -6.290683 1.306228,-2.693045 -6.320418 0.3902657,-2.730685 -5.714777 0.9049935,-2.84232 -6.020566 1.220046,-2.90373 -6.481148 1.385574,-8.743002 -8.013828 -0.09041129,-8.235342 -7.696495 0.1579105,-7.821438 -7.053773 0.3764825,-7.523365 -6.450632 0.6269428,-7.201704 -6.128171 0.9023505,-8.179058 -5.647802 0.1397623,-8.091757 -4.712344 0.3190588,-8.072351 -4.125421 0.4853432,-8.065655 -3.613065 0.6095025,-8.482494 -5.505968 0.1957342,-8.409851 -4.41213 0.3381395,-8.388111 -3.727796 0.5162453,-8.382445 -3.143422 0.6639078,-8.768374 -5.587219 0.2789477,-8.740175 -4.574827 0.4218032,-8.720566 -3.940416 0.5550982,-8.696067 -3.380608 0.6545641,-9.064013 -5.856758 0.3869097,-9.108645 -5.082172 0.5660353,-9.117025 -4.584102 0.6742916,-9.11286 -4.115951 0.7402775,3.210,2  0
-2.869294 -8.285486 -0.4420594,-3.362631 -8.398005 -0.028837,-3.880148 -7.958542 0.2671658,-4.224321 -7.522045 0.5451072,-4.617128 -7.336099 0.8685856,-3.918516 -6.581806 0.1114503,-4.178364 -5.906765 0.519274,-4.38875 -5.432217 0.9114295,-4.615557 -5.075414 1.228335,-3.589766 -6.30034 0.1616572,-3.798932 -5.431978 0.8419187,-3.798932 -5.431978 0.8419187,-3.789213 -6.181386 1.502414,-3.22949 -6.257601 0.2682067,-3.351643 -5.464639 0.8868682,-3.394079 -5.969079 1.202663,-3.400345 -6.499753 1.287541,-2.819038 -6.399068 0.389581,-2.890598 -5.884836 0.9527881,-2.986668 -6.256917 1.251011,-3.03686 -6.703969 1.39726,-8.801168 -8.022289 -0.19608,-8.284626 -7.721838 -0.00158149,-7.848725 -7.075607 0.1795949,-7.541631 -6.468969 0.4041086,-7.222733 -6.158771 0.6454289,-8.196208 -5.68277 -0.07776085,-8.104831 -4.74903 0.05501574,-8.092443 -4.159271 0.1867061,-8.087999 -3.640624 0.2954193,-8.499996 -5.539722 -0.01510151,-8.429131 -4.447252 0.09907895,-8.428642 -3.758154 0.2590766,-8.441438 -3.180335 0.3947073,-8.783627 -5.611861 0.06863862,-8.752206 -4.602449 0.1867423,-8.754951 -3.950366 0.2951391,-8.745756 -3.385616 0.3810298,-9.077604 -5.866743 0.177806,-9.089603 -5.07812 0.3467277,-9.088588 -4.5876 0.4476183,-9.074244 -4.149768 0.5034187,3.310,2  0
-2.91879 -8.343824 -0.46919,-3.431666 -8.416985 -0.07823694,-3.939 -7.976478 0.1957478,-4.295514 -7.591512 0.4601737,-4.692811 -7.488227 0.7673697,-4.012681 -6.656348 0.06679362,-4.271481 -6.039024 0.5026451,-4.482893 -5.620042 0.9042193,-4.707951 -5.284697 1.210282,-3.684954 -6.387834 0.1451323,-3.892511 -5.546317 0.8846407,-3.892511 -5.546317 0.8846407,-3.875572 -6.606591 1.481206,-3.324591 -6.371146 0.2707735,-3.446938 -5.658283 0.9433696,-3.502584 -6.323411 1.213299,-3.506281 -6.893405 1.233225,-2.917578 -6.539279 0.4189851,-3.000274 -6.087615 0.9946386,-3.119215 -6.536271 1.253373,-3.180637 -6.968079 1.357612,-8.814831 -8.034458 -0.2268467,-8.300417 -7.737405 0.01778395,-7.873709 -7.098531 0.2165429,-7.567574 -6.486845 0.4426943,-7.256904 -6.169424 0.6846393,-8.227863 -5.717179 -0.02595256,-8.142692 -4.766225 0.1461457,-8.134797 -4.174808 0.3148582,-8.138232 -3.664114 0.4437857,-8.52846 -5.563716 0.01040323,-8.464589 -4.443828 0.1509109,-8.459895 -3.74794 0.3338127,-8.470497 -3.159598 0.4899818,-8.81148 -5.625488 0.07267362,-8.790465 -4.590742 0.210991,-8.785114 -3.949071 0.3454667,-8.775107 -3.391243 0.4533027,-9.104154 -5.872142 0.1575586,-9.163763 -5.097977 0.319258,-9.188608 -4.605476 0.4271537,-9.199509 -4.151416 0.497861,3.410,2  0
-2.937883 -8.389853 -0.5251895,-3.446611 -8.469423 -0.1146078,-3.962376 -8.055439 0.1693823,-4.331888 -7.686038 0.4399225,-4.737982 -7.564282 0.7487905,-4.027641 -6.726324 0.03277153,-4.291907 -6.127105 0.4809483,-4.511926 -5.728937 0.8868718,-4.74859 -5.410205 1.19663,-3.701601 -6.458858 0.1141123,-3.92388 -5.650568 0.8826333,-3.92388 -5.650568 0.8826333,-3.884499 -6.80496 1.503624,-3.339857 -6.441663 0.2415651,-3.476059 -5.729717 0.9411826,-3.530153 -6.42007 1.235362,-3.528862 -7.002744 1.270101,-2.932998 -6.6004 0.3960311,-3.029636 -6.164 0.9871788,-3.15062 -6.619579 1.270053,-3.208006 -7.045831 1.388331,-8.815086 -8.017838 -0.234718,-8.306581 -7.709565 0.01882234,-7.885995 -7.086177 0.2308486,-7.585131 -6.490068 0.4715542,-7.273974 -6.16793 0.733554,-8.231956 -5.700786 -0.006740406,-8.145601 -4.74764 0.1758495,-8.13803 -4.158832 0.354021,-8.142274 -3.649497 0.4852027,-8.5347 -5.552515 0.03952691,-8.470729 -4.429574 0.1932949,-8.470287 -3.73994 0.3809667,-8.48089 -3.156928 0.5319454,-8.820247 -5.624345 0.1134344,-8.802574 -4.587993 0.2636118,-8.80057 -3.948982 0.4122375,-8.791497 -3.386525 0.5269915,-9.115252 -5.883977 0.2107821,-9.181448 -5.109147 0.3862817,-9.207893 -4.6119 0.5073936,-9.216698 -4.14722 0.5858723,3.510,2  0
-2.985783 -8.433683 -0.5164909,-3.473022 -8.552601 -0.04616958,-4.002948 -8.142035 0.23251,-4.391 -7.752532 0.4920795,-4.795943 -7.600959 0.7618679,-4.076345 -6.784822 0.04086769,-4.335563 -6.221807 0.5129745,-4.556016 -5.834348 0.9271765,-4.79587 -5.516519 1.222851,-3.757318 -6.492244 0.08941829,-3.975486 -5.727848 0.8680854,-3.975486 -5.727848 0.8680854,-3.857495 -7.019708 1.449943,-3.387541 -6.445339 0.1942851,-3.517821 -5.810138 0.911449,-3.536713 -6.601871 1.199242,-3.519922 -7.18666 1.222113,-2.974094 -6.579755 0.3310362,-3.06298 -6.221462 0.9356354,-3.148848 -6.759759 1.218542,-3.187307 -7.185651 1.308939,-8.829146 -8.028042 -0.2403125,-8.319866 -7.732639 0.02305296,-7.892335 -7.09557 0.2410321,-7.590628 -6.491851 0.4821869,-7.271132 -6.163908 0.7389098,-8.24509 -5.710517 0.03317067,-8.162695 -4.736721 0.2378305,-8.158396 -4.146084 0.40705,-8.164914 -3.623445 0.529772,-8.548128 -5.570919 0.08697718,-8.483577 -4.459051 0.2687845,-8.483955 -3.767135 0.4580475,-8.497355 -3.182563 0.610106,-8.835056 -5.661464 0.1689705,-8.821398 -4.635135 0.3593521,-8.828193 -3.99068 0.5166054,-8.825043 -3.420436 0.6350825,-9.133254 -5.948476 0.2725967,-9.204995 -5.188982 0.4964559,-9.242237 -4.691619 0.6415865,-9.260273 -4.215112 0.7376136,3.610,2  0
-3.00559 -8.452415 -0.5754527,-3.494444 -8.572535 -0.1091017,-4.024014 -8.153379 0.1556501,-4.4025 -7.738367 0.4011117,-4.800587 -7.565441 0.6572807,-4.100424 -6.827545 -0.03088289,-4.357054 -6.262581 0.4262054,-4.57884 -5.864871 0.831468,-4.819764 -5.524155 1.126082,-3.783615 -6.528471 0.01769501,-4.006456 -5.750807 0.7866822,-4.006456 -5.750807 0.7866822,-3.877585 -7.046003 1.363385,-3.413918 -6.467439 0.1232798,-3.555359 -5.823488 0.8419135,-3.56321 -6.640987 1.121847,-3.530723 -7.237754 1.139772,-2.999171 -6.589597 0.2617459,-3.099649 -6.217485 0.8667624,-3.182335 -6.769527 1.135162,-3.210455 -7.208515 1.216478,-8.812696 -8.033501 -0.1873036,-8.307062 -7.732994 0.07792529,-7.895442 -7.09666 0.2943874,-7.6111 -6.497275 0.5364047,-7.303434 -6.177722 0.7970924,-8.244987 -5.69856 0.1034864,-8.17153 -4.738352 0.3094555,-8.168101 -4.15512 0.4853367,-8.173028 -3.633432 0.6191893,-8.547502 -5.562358 0.1626704,-8.492294 -4.457223 0.3425769,-8.494344 -3.772367 0.5469323,-8.507086 -3.18486 0.711212,-8.83479 -5.654681 0.2489542,-8.819351 -4.633354 0.4343632,-8.822665 -3.987678 0.6125847,-8.819651 -3.415397 0.7563815,-9.132899 -5.945421 0.3555144,-9.204338 -5.187135 0.5680084,-9.243663 -4.692438 0.7172036,-9.264775 -4.216787 0.8303785,3.710,2  0
-3.05887 -8.494511 -0.4963349,-3.548891 -8.574186 -0.04499462,-4.092859 -8.08666 0.190263,-4.477991 -7.683252 0.4109229,-4.879911 -7.584901 0.6367362,-4.126976 -6.819372 0.03163809,-4.386 -6.267501 0.5011477,-4.607297 -5.864142 0.9095987,-4.842034 -5.498233 1.201931,-3.806049 -6.529819 0.08554828,-4.028612 -5.768835 0.8538164,-4.028612 -5.768835 0.8538164,-3.87957 -7.087306 1.387727,-3.431995 -6.470106 0.1947168,-3.574552 -5.801131 0.9025775,-3.576977 -6.626115 1.159972,-3.540741 -7.221698 1.159274,-3.011772 -6.59329 0.339959,-3.108434 -6.203771 0.9363378,-3.187971 -6.769647 1.179107,-3.213114 -7.220245 1.237289,-8.820116 -8.039391 -0.246497,-8.311307 -7.740415 0.007461071,-7.900333 -7.114769 0.2121904,-7.620993 -6.509765 0.4424089,-7.315119 -6.19148 0.6802058,-8.245403 -5.722877 0.003958553,-8.166004 -4.767093 0.1956157,-8.164453 -4.181274 0.369001,-8.168377 -3.649576 0.5073169,-8.548165 -5.579578 0.05387321,-8.483599 -4.472531 0.2173574,-8.491207 -3.778903 0.4133753,-8.503319 -3.185256 0.5809374,-8.833826 -5.660583 0.1295241,-8.819331 -4.629244 0.2990989,-8.839264 -3.969144 0.4597068,-8.843466 -3.391452 0.5904781,-9.131918 -5.941041 0.2264658,-9.196556 -5.17018 0.4242396,-9.23532 -4.663295 0.5566615,-9.250601 -4.196028 0.6504325,3.810,2  0
-3.071868 -8.448027 -0.4339016,-3.553627 -8.534966 0.04303625,-4.09572 -8.068306 0.3059571,-4.485836 -7.674863 0.5431028,-4.894753 -7.552799 0.7943603,-4.145273 -6.771053 0.1488671,-4.396302 -6.227108 0.6370045,-4.610035 -5.816401 1.049872,-4.840099 -5.449962 1.34086,-3.822651 -6.479148 0.1945509,-4.037883 -5.739762 0.9914693,-4.037883 -5.739762 0.9914693,-3.879324 -7.056943 1.542681,-3.441244 -6.420402 0.2946073,-3.579033 -5.787946 1.026684,-3.577034 -6.628844 1.288664,-3.53389 -7.227233 1.299035,-3.014122 -6.542784 0.4315264,-3.107758 -6.179094 1.042503,-3.187274 -6.761071 1.288011,-3.212129 -7.219989 1.354362,-8.821815 -8.025124 -0.2515414,-8.315351 -7.721353 0.008515358,-7.904758 -7.101504 0.2162946,-7.621936 -6.50286 0.4469303,-7.32354 -6.186017 0.69413,-8.250658 -5.713649 0.02005121,-8.167414 -4.749168 0.2197744,-8.163915 -4.161661 0.3965985,-8.171724 -3.635935 0.5311043,-8.551658 -5.569589 0.07247868,-8.487529 -4.457513 0.2506701,-8.490262 -3.769029 0.4576684,-8.503943 -3.17367 0.6272605,-8.837132 -5.652792 0.151255,-8.819757 -4.62741 0.3255674,-8.826204 -3.983896 0.4991957,-8.824698 -3.411598 0.640748,-9.133205 -5.936447 0.2507604,-9.211037 -5.183795 0.4460253,-9.249904 -4.692346 0.5869985,-9.267222 -4.222339 0.6946288,3.910,2  0
-3.110476 -8.353922 -0.3980321,-3.580513 -8.475073 0.09553328,-4.129995 -8.005753 0.3699684,-4.537 -7.649411 0.6169927,-4.956413 -7.59626 0.8862851,-4.179195 -6.709117 0.2656384,-4.429535 -6.184459 0.7912147,-4.638559 -5.765653 1.215881,-4.868462 -5.385593 1.510398,-3.855801 -6.398144 0.3089298,-4.073724 -5.743902 1.132004,-4.073724 -5.743902 1.132004,-3.926895 -7.093416 1.589186,-3.466472 -6.325691 0.4038007,-3.617258 -5.783847 1.155464,-3.615344 -6.668813 1.365034,-3.575136 -7.24647 1.347269,-3.036541 -6.44602 0.5359936,-3.134687 -6.184072 1.169791,-3.207439 -6.829481 1.379482,-3.23251 -7.291822 1.425005,-8.83526 -8.029869 -0.2670971,-8.320812 -7.725521 -0.01504356,-7.901248 -7.097673 0.1903683,-7.600783 -6.494543 0.4229316,-7.278742 -6.177802 0.6722052,-8.256021 -5.71755 -0.03970316,-8.173944 -4.757302 0.1312443,-8.171359 -4.16257 0.2896153,-8.176027 -3.636551 0.4158326,-8.557535 -5.573112 0.002531409,-8.491831 -4.468998 0.1497788,-8.494267 -3.782859 0.3266862,-8.504534 -3.197503 0.4779676,-8.843446 -5.652051 0.06762916,-8.820886 -4.626928 0.2237018,-8.830196 -3.982649 0.3656591,-8.827698 -3.413442 0.4755829,-9.14162 -5.928342 0.1575186,-9.202657 -5.173212 0.3447121,-9.235845 -4.682506 0.4630207,-9.249692 -4.227172 0.5442213,4.010,2  0
-3.15346 -8.348269 -0.4689265,-3.624133 -8.459545 0.02372193,-4.165734 -7.980904 0.2894746,-4.565696 -7.630104 0.5277194,-4.979439 -7.532855 0.7949271,-4.175794 -6.692151 0.1855624,-4.427097 -6.198389 0.6925821,-4.647295 -5.775793 1.102821,-4.878599 -5.383509 1.389494,-3.851526 -6.393257 0.2251893,-4.080288 -5.779223 1.031562,-4.080288 -5.779223 1.031562,-3.920848 -7.119873 1.504393,-3.457178 -6.32673 0.3177713,-3.623528 -5.830035 1.073713,-3.616782 -6.711305 1.311354,-3.563738 -7.307566 1.314809,-3.027666 -6.447504 0.440957,-3.143557 -6.213176 1.065073,-3.216724 -6.853637 1.280639,-3.233699 -7.323192 1.327308,-8.827377 -8.023367 -0.2535722,-8.314133 -7.722406 -0.01334125,-7.902308 -7.09258 0.1878976,-7.615467 -6.490545 0.4186573,-7.314119 -6.164377 0.669342,-8.259354 -5.700246 -0.01877837,-8.181845 -4.732351 0.1643021,-8.176487 -4.142199 0.3384442,-8.180851 -3.61564 0.4722632,-8.565867 -5.563927 0.04242596,-8.516939 -4.441117 0.1978874,-8.520881 -3.751638 0.3956,-8.532311 -3.164915 0.5562931,-8.856819 -5.654094 0.1285889,-8.83749 -4.60885 0.2874036,-8.832769 -3.960594 0.4656895,-8.821593 -3.389788 0.604868,-9.157499 -5.937953 0.2345727,-9.230713 -5.166797 0.4243233,-9.263483 -4.663243 0.5733302,-9.277709 -4.181356 0.6823904,4.110,2  0
-3.193914 -8.331949 -0.4434442,-3.663416 -8.499548 0.08884323,-4.207894 -8.000082 0.3866571,-4.602717 -7.662387 0.6407032,-5.026133 -7.599121 0.9374062,-4.186605 -6.71704 0.3475538,-4.427348 -6.246136 0.9023085,-4.651289 -5.81867 1.343678,-4.885314 -5.432292 1.667972,-3.864189 -6.410336 0.3820184,-4.096138 -5.844098 1.186381,-4.096138 -5.844098 1.186381,-3.98378 -7.205964 1.592983,-3.463104 -6.350357 0.4749236,-3.625718 -5.849531 1.233652,-3.646019 -6.719972 1.456563,-3.62034 -7.329839 1.458075,-3.026188 -6.496883 0.5976151,-3.127535 -6.317466 1.275328,-3.21035 -6.988113 1.501261,-3.248652 -7.494973 1.570415,-8.843304 -8.033468 -0.2391841,-8.331217 -7.721793 -0.0003421307,-7.920796 -7.101697 0.2083503,-7.634159 -6.499956 0.4444417,-7.327645 -6.174442 0.7014959,-8.27178 -5.707389 -0.001609281,-8.192272 -4.731187 0.1799493,-8.188764 -4.134672 0.3500192,-8.198371 -3.608274 0.4818476,-8.578081 -5.570099 0.05552176,-8.51923 -4.450848 0.2177698,-8.524182 -3.767772 0.4110441,-8.543434 -3.192188 0.5680869,-8.868784 -5.660051 0.1393887,-8.848099 -4.625404 0.2984046,-8.847631 -3.986247 0.4579785,-8.844012 -3.426948 0.5828896,-9.169843 -5.945446 0.2419303,-9.237844 -5.174468 0.4274546,-9.268479 -4.671607 0.5633585,-9.282284 -4.192848 0.6618354,4.210,2  0
-3.222567 -8.344778 -0.2895571,-3.696932 -8.510876 0.2524018,-4.240175 -8.012924 0.5590764,-4.636507 -7.680326 0.81917,-5.065126 -7.636043 1.129509,-4.223152 -6.693096 0.547092,-4.446312 -6.244621 1.133839,-4.666437 -5.833726 1.580694,-4.904125 -5.458801 1.901029,-3.884583 -6.387758 0.5764357,-4.098806 -5.869764 1.417916,-4.098806 -5.869764 1.417916,-3.981289 -7.273162 1.837951,-3.47257 -6.348758 0.6624044,-3.613934 -5.954685 1.467157,-3.630535 -6.83885 1.687059,-3.612393 -7.428258 1.673039,-3.032967 -6.521477 0.7736585,-3.125105 -6.397106 1.472575,-3.204464 -7.062155 1.695651,-3.248679 -7.540948 1.761134,-8.835179 -8.037752 -0.2329457,-8.323153 -7.716537 -0.02526152,-7.917477 -7.089849 0.1680104,-7.622871 -6.477878 0.3971334,-7.308558 -6.16792 0.645126,-8.276058 -5.701411 -0.05408368,-8.194063 -4.732121 0.09420153,-8.186221 -4.137577 0.2420966,-8.187455 -3.621021 0.3627278,-8.575895 -5.56613 0.007819682,-8.517629 -4.438686 0.1345711,-8.521876 -3.750379 0.3030617,-8.536607 -3.17684 0.4431264,-8.860542 -5.6529 0.09119889,-8.843254 -4.605505 0.2284512,-8.848305 -3.960475 0.3711683,-8.842973 -3.403424 0.476808,-9.15268 -5.935125 0.1968786,-9.220123 -5.156499 0.3720365,-9.258333 -4.648355 0.495114,-9.274575 -4.172744 0.5745163,4.310,2  0
-3.214715 -8.402376 -0.2597601,-3.72682 -8.528673 0.2609191,-4.296669 -8.034952 0.5785489,-4.720489 -7.72966 0.8511065,-5.158545 -7.728058 1.185006,-4.259138 -6.730468 0.5545676,-4.515656 -6.24915 1.147181,-4.741285 -5.879895 1.600239,-4.972897 -5.561954 1.923577,-3.915988 -6.448675 0.6050767,-4.149708 -5.894233 1.492405,-4.149708 -5.894233 1.492405,-4.031244 -7.374244 1.90871,-3.499836 -6.419772 0.70745,-3.655455 -5.98963 1.526481,-3.675625 -6.904563 1.730535,-3.651068 -7.512007 1.700709,-3.049677 -6.594148 0.8437886,-3.162818 -6.408168 1.537266,-3.251154 -7.089662 1.747885,-3.291848 -7.584878 1.809626,-8.846026 -8.038876 -0.1724147,-8.331683 -7.717752 0.05592892,-7.917884 -7.086994 0.2661056,-7.620182 -6.472654 0.5017996,-7.301508 -6.14837 0.7621505,-8.285823 -5.688957 0.05010775,-8.203177 -4.726739 0.2171723,-8.19866 -4.129297 0.3816339,-8.203717 -3.603804 0.5125303,-8.598652 -5.55223 0.1035987,-8.53297 -4.432148 0.2502987,-8.534381 -3.739957 0.4278776,-8.545357 -3.172012 0.5824862,-8.894606 -5.643713 0.1766441,-8.87384 -4.600888 0.3294364,-8.873178 -3.952039 0.4713305,-8.863719 -3.398454 0.5819864,-9.198343 -5.927417 0.2722509,-9.264195 -5.152778 0.452077,-9.29801 -4.64414 0.5764771,-9.31185 -4.167216 0.6630954,4.410,2  0
-3.248945 -8.400564 -0.158512,-3.751997 -8.577219 0.3936703,-4.320661 -8.100191 0.7130075,-4.74502 -7.776844 0.9821835,-5.184742 -7.732402 1.317163,-4.309114 -6.745793 0.6665861,-4.548089 -6.302542 1.266317,-4.759295 -5.898909 1.713452,-4.982714 -5.532769 2.022352,-3.970873 -6.416158 0.6947985,-4.184599 -5.902496 1.563633,-4.184599 -5.902496 1.563633,-4.016256 -7.361028 1.994731,-3.5518 -6.352323 0.7775207,-3.689711 -5.958045 1.594114,-3.691326 -6.888713 1.797035,-3.652851 -7.505619 1.7719,-3.102005 -6.509019 0.8877033,-3.190882 -6.399766 1.593989,-3.262914 -7.106296 1.808683,-3.293266 -7.600559 1.867003,-8.869709 -8.046253 -0.151571,-8.353944 -7.726364 0.04632038,-7.937906 -7.084209 0.234273,-7.6443 -6.462963 0.4567521,-7.326181 -6.138283 0.6945421,-8.292244 -5.689609 0.008384153,-8.209498 -4.732833 0.1501142,-8.206026 -4.134526 0.2913472,-8.207751 -3.607165 0.4064681,-8.599866 -5.550176 0.06626931,-8.531246 -4.427738 0.1874618,-8.531983 -3.739959 0.3415787,-8.538953 -3.166177 0.4746307,-8.886992 -5.631528 0.1399706,-8.861543 -4.58797 0.2680647,-8.866028 -3.931953 0.3838761,-8.853133 -3.369473 0.4704447,-9.1807 -5.906892 0.2376381,-9.230932 -5.118163 0.397119,-9.254956 -4.601772 0.4944181,-9.253966 -4.132116 0.5499125,4.510,2  0
-3.304244 -8.427942 -0.03804965,-3.823952 -8.588509 0.4955388,-4.400949 -8.090771 0.8002701,-4.814569 -7.746202 1.054499,-5.252366 -7.71136 1.378413,-4.364878 -6.735837 0.790535,-4.595841 -6.27839 1.406123,-4.803812 -5.890678 1.865491,-5.014891 -5.559366 2.176927,-4.023014 -6.403306 0.8160087,-4.237879 -5.881261 1.682397,-4.237879 -5.881261 1.682397,-4.061956 -7.394938 2.092832,-3.600353 -6.337512 0.8969073,-3.736834 -5.941667 1.714867,-3.73954 -6.899799 1.913548,-3.694483 -7.543894 1.889176,-3.142162 -6.495346 1.00698,-3.232766 -6.378266 1.722739,-3.308729 -7.116069 1.950845,-3.337876 -7.649049 2.02354,-8.866356 -8.057949 -0.1112192,-8.355803 -7.7243 0.1060812,-7.941772 -7.095441 0.3211409,-7.641772 -6.481515 0.5691535,-7.314245 -6.15994 0.8345506,-8.301327 -5.689134 0.08489196,-8.221718 -4.731762 0.2490932,-8.223123 -4.135325 0.4089344,-8.22779 -3.607649 0.536259,-8.611419 -5.552156 0.1433555,-8.542662 -4.431731 0.2822229,-8.552184 -3.741901 0.4472119,-8.567003 -3.173435 0.5911937,-8.903852 -5.642419 0.2200496,-8.88141 -4.591209 0.3647118,-8.896232 -3.930585 0.4852769,-8.892763 -3.366127 0.5786483,-9.204744 -5.930255 0.3214898,-9.260043 -5.124189 0.48672,-9.296797 -4.601999 0.5844879,-9.308899 -4.124004 0.6442612,4.610,2  0
-3.301887 -8.432657 0.08911892,-3.836582 -8.618805 0.6381684,-4.425135 -8.124323 0.9618244,-4.855859 -7.775562 1.233063,-5.30106 -7.715862 1.576105,-4.393196 -6.738325 0.9674198,-4.623219 -6.276461 1.597397,-4.829655 -5.898394 2.047967,-5.033401 -5.592055 2.354354,-4.047035 -6.397815 0.9939513,-4.233889 -5.903842 1.860425,-4.233889 -5.903842 1.860425,-4.032436 -7.399251 2.305138,-3.6146 -6.340297 1.073299,-3.723539 -5.984228 1.91498,-3.707894 -6.935523 2.119011,-3.664 -7.574903 2.09051,-3.154453 -6.510448 1.177542,-3.23231 -6.439332 1.930642,-3.289355 -7.177387 2.157321,-3.314884 -7.701175 2.221797,-8.886131 -8.056807 -0.120384,-8.376143 -7.71751 0.09607854,-7.95527 -7.083127 0.3007806,-7.653583 -6.480328 0.535495,-7.330047 -6.155055 0.7882217,-8.31663 -5.677746 0.08062637,-8.240993 -4.721565 0.2491279,-8.237539 -4.126501 0.4073524,-8.23817 -3.598064 0.5397523,-8.624599 -5.555595 0.1464535,-8.562701 -4.442605 0.2958456,-8.570737 -3.754647 0.4698824,-8.584413 -3.187388 0.6138105,-8.914021 -5.662729 0.233221,-8.902068 -4.632385 0.3926665,-8.915006 -3.982629 0.5305501,-8.909222 -3.427907 0.6376905,-9.211872 -5.963314 0.3410711,-9.271447 -5.196476 0.5415061,-9.303387 -4.678732 0.6640235,-9.309587 -4.208487 0.7394001,4.710,2  0
-3.323038 -8.455299 0.1817702,-3.855583 -8.625359 0.7423463,-4.445639 -8.12425 1.08164,-4.889249 -7.789993 1.375568,-5.344074 -7.742986 1.741355,-4.429911 -6.725744 1.052859,-4.66 -6.243389 1.741752,-4.863949 -5.908233 2.221218,-5.063087 -5.661994 2.529594,-4.072777 -6.393456 1.090731,-4.26209 -5.863908 2.062279,-4.26209 -5.863908 2.062279,-4.076889 -7.441727 2.532091,-3.631378 -6.336126 1.182577,-3.749113 -5.9974 2.109182,-3.742888 -7.015009 2.309371,-3.709549 -7.664438 2.24096,-3.167712 -6.51709 1.303957,-3.250088 -6.441471 2.09834,-3.316299 -7.217751 2.318766,-3.351847 -7.743379 2.368284,-8.88878 -8.068628 -0.1227035,-8.385489 -7.718603 0.09433159,-7.975091 -7.086753 0.3046252,-7.679546 -6.481128 0.5491854,-7.359297 -6.14599 0.8128927,-8.339918 -5.698948 0.08918862,-8.257073 -4.732347 0.2586335,-8.254256 -4.131606 0.4130756,-8.258462 -3.599411 0.5377828,-8.648474 -5.566669 0.1504221,-8.571892 -4.449346 0.3073892,-8.577585 -3.751999 0.483866,-8.592399 -3.179672 0.6335681,-8.937229 -5.657341 0.2306837,-8.899881 -4.622287 0.379289,-8.903711 -3.963022 0.50217,-8.893809 -3.412684 0.5961767,-9.234161 -5.93947 0.3347113,-9.273027 -5.135493 0.5115181,-9.289989 -4.607459 0.6238673,-9.283398 -4.127832 0.6956136,4.810,2  0
-3.35713 -8.48913 0.3579531,-3.903946 -8.658567 0.9376537,-4.505734 -8.156624 1.282529,-4.953497 -7.816862 1.583375,-5.402048 -7.745435 1.964272,-4.462742 -6.698118 1.251206,-4.684935 -6.218845 1.981476,-4.877056 -5.904296 2.472099,-5.062162 -5.691375 2.778637,-4.105767 -6.368591 1.265669,-4.274062 -5.901359 2.228027,-4.274062 -5.901359 2.228027,-4.051274 -7.491138 2.626522,-3.660912 -6.31799 1.344419,-3.756057 -5.99891 2.262497,-3.743551 -7.020214 2.437881,-3.703419 -7.670298 2.355907,-3.191099 -6.508457 1.45295,-3.245737 -6.4454 2.259314,-3.303874 -7.230539 2.483725,-3.338067 -7.769519 2.523985,-8.904116 -8.060549 -0.137653,-8.400294 -7.713537 0.1020415,-7.983074 -7.089122 0.3207115,-7.686714 -6.484501 0.5666173,-7.375139 -6.148646 0.8211246,-8.345288 -5.704462 0.1079835,-8.265854 -4.753973 0.296219,-8.26579 -4.165617 0.4685565,-8.27158 -3.630206 0.6104102,-8.653147 -5.566941 0.1617007,-8.586536 -4.444913 0.3332718,-8.602007 -3.758195 0.5170165,-8.62215 -3.18843 0.6768576,-8.939822 -5.651926 0.2360024,-8.911296 -4.604859 0.3958865,-8.924196 -3.940533 0.5277334,-8.919306 -3.379795 0.6315721,-9.236148 -5.929176 0.3345333,-9.274594 -5.129335 0.5162345,-9.295877 -4.596756 0.6261491,-9.294047 -4.117725 0.6962894,4.910,2  0
-3.331121 -8.496662 0.2758723,-3.885959 -8.638546 0.831393,-4.504174 -8.126545 1.156828,-4.969588 -7.788764 1.44261,-5.397358 -7.692312 1.802567,-4.43963 -6.726137 1.168091,-4.68174 -6.221536 1.932309,-4.874744 -5.925354 2.426994,-5.054775 -5.721889 2.715865,-4.086996 -6.408914 1.191294,-4.252232 -5.907549 2.181017,-4.252232 -5.907549 2.181017,-4.012578 -7.491564 2.545818,-3.645258 -6.356807 1.283475,-3.733389 -6.009407 2.227479,-3.713955 -7.060075 2.381506,-3.663118 -7.731777 2.274199,-3.177784 -6.536262 1.404896,-3.222958 -6.420152 2.225939,-3.27559 -7.22904 2.436179,-3.299366 -7.79507 2.458892,-8.908469 -8.045027 -0.1940849,-8.397966 -7.709056 0.03591491,-7.990484 -7.090024 0.2498697,-7.702127 -6.475605 0.4921991,-7.395805 -6.138896 0.7472279,-8.357984 -5.702167 0.03258459,-8.277954 -4.733861 0.1966054,-8.273932 -4.136184 0.3574886,-8.27692 -3.601606 0.490289,-8.665136 -5.563978 0.07924053,-8.599772 -4.416886 0.2277665,-8.60871 -3.723802 0.3982911,-8.622857 -3.149904 0.5454906,-8.950686 -5.644376 0.1453393,-8.92991 -4.573387 0.2844355,-8.937798 -3.910325 0.40988,-8.929053 -3.345491 0.5077797,-9.240393 -5.915977 0.2345547,-9.297417 -5.103137 0.396016,-9.324623 -4.571028 0.5079649,-9.327227 -4.083674 0.5815414,5.010,2  0
-3.341863 -8.565472 0.603957,-3.910082 -8.676525 1.205168,-4.516111 -8.156469 1.546278,-4.991323 -7.81087 1.839862,-5.433746 -7.702058 2.216576,-4.427995 -6.675939 1.534651,-4.654873 -6.187655 2.33811,-4.838284 -5.909988 2.815387,-5.018944 -5.713972 3.081939,-4.072033 -6.367017 1.531598,-4.212307 -5.919285 2.5464,-4.212307 -5.919285 2.5464,-3.972891 -7.510205 2.869804,-3.631498 -6.327537 1.605089,-3.683811 -6.019498 2.572511,-3.664324 -7.106884 2.707322,-3.622904 -7.757087 2.579415,-3.165073 -6.538606 1.708075,-3.157105 -6.45372 2.565068,-3.214661 -7.28753 2.781614,-3.257278 -7.844036 2.790907,-8.919572 -8.06102 -0.110721,-8.407626 -7.729921 0.1227769,-8.00201 -7.093217 0.3412392,-7.71715 -6.480462 0.5879195,-7.406197 -6.130174 0.8521962,-8.370829 -5.695887 0.1208318,-8.28137 -4.727275 0.300488,-8.27314 -4.135478 0.4720679,-8.270478 -3.594793 0.6053984,-8.681515 -5.557442 0.1808361,-8.613708 -4.414127 0.3437238,-8.614273 -3.717762 0.5267519,-8.617505 -3.127061 0.6744826,-8.973307 -5.644809 0.2637748,-8.961272 -4.569978 0.425589,-8.974044 -3.894111 0.5780193,-8.96564 -3.305387 0.694967,-9.272092 -5.930431 0.3684018,-9.331081 -5.116846 0.5586487,-9.359021 -4.576054 0.6909503,-9.359268 -4.072354 0.7749425,5.110,2  0
-3.358182 -8.634209 0.8084798,-3.929317 -8.7097 1.419063,-4.529449 -8.19154 1.777732,-4.985118 -7.818255 2.090506,-5.418178 -7.670198 2.486024,-4.440598 -6.695203 1.791831,-4.675575 -6.180349 2.604637,-4.860579 -5.898262 3.096726,-5.031779 -5.727188 3.372819,-4.071871 -6.393686 1.804893,-4.200938 -6.00134 2.850951,-4.200938 -6.00134 2.850951,-3.983192 -7.583656 3.163269,-3.619265 -6.37571 1.892826,-3.656711 -6.114022 2.868878,-3.641281 -7.181131 3.005362,-3.616922 -7.81657 2.88739,-3.148638 -6.59896 2.015845,-3.132547 -6.490287 2.86213,-3.193069 -7.308189 3.079141,-3.246344 -7.863895 3.101333,-8.895319 -8.092262 -0.01715059,-8.394972 -7.728639 0.190765,-7.99505 -7.081342 0.3998132,-7.706537 -6.461587 0.6389046,-7.394317 -6.134046 0.8995844,-8.369177 -5.685003 0.188503,-8.290574 -4.726943 0.353207,-8.280005 -4.131398 0.515645,-8.27242 -3.600781 0.6411919,-8.679405 -5.557222 0.2521516,-8.616774 -4.425519 0.4066516,-8.608288 -3.727828 0.5853344,-8.605168 -3.138416 0.7325843,-8.972313 -5.65747 0.3353303,-8.954362 -4.605856 0.480285,-8.945893 -3.946289 0.6101854,-8.922792 -3.378759 0.7083806,-9.269709 -5.954644 0.4404076,-9.342246 -5.161146 0.6150817,-9.37255 -4.625026 0.7326612,-9.376421 -4.117809 0.8098549,5.210,2  0
-3.342914 -8.624212 0.9106634,-3.916597 -8.742601 1.537551,-4.522013 -8.25094 1.923135,-4.986418 -7.903809 2.245146,-5.432701 -7.789407 2.654445,-4.422865 -6.737604 2.037071,-4.627119 -6.240223 2.893607,-4.80512 -5.946929 3.393711,-4.978706 -5.748561 3.67638,-4.039873 -6.407679 2.039095,-4.153255 -6.080579 3.083767,-4.153255 -6.080579 3.083767,-3.975454 -7.649499 3.285428,-3.57785 -6.383987 2.113595,-3.601386 -6.180675 3.081416,-3.598121 -7.256996 3.178894,-3.583635 -7.833471 3.048525,-3.113399 -6.615407 2.228261,-3.074368 -6.595493 3.043787,-3.13708 -7.41082 3.232091,-3.192654 -7.904777 3.250154,-8.915903 -8.090679 -0.004334651,-8.416701 -7.719007 0.2318698,-8.013335 -7.084047 0.4552299,-7.726601 -6.478834 0.709779,-7.41368 -6.144666 0.9825719,-8.375136 -5.685112 0.2413395,-8.292434 -4.724515 0.429559,-8.282103 -4.134111 0.6067339,-8.277385 -3.598777 0.7372229,-8.688276 -5.557916 0.3082063,-8.62993 -4.416021 0.4822972,-8.626975 -3.720298 0.6746081,-8.630941 -3.132812 0.8221303,-8.981817 -5.654794 0.3984206,-8.969194 -4.587975 0.56569,-8.966977 -3.920894 0.7221569,-8.950369 -3.341724 0.8320819,-9.28198 -5.94735 0.51003,-9.341476 -5.138373 0.7097601,-9.362954 -4.600536 0.842396,-9.362269 -4.087785 0.9275083,5.310,2  0
-3.361819 -8.62501 1.191854,-3.946252 -8.723263 1.819338,-4.551192 -8.207151 2.21508,-5.018574 -7.84744 2.549141,-5.46441 -7.774338 2.968797,-4.417233 -6.679506 2.379867,-4.604679 -6.251511 3.262104,-4.763083 -5.973205 3.771241,-4.916345 -5.767025 4.049323,-4.021341 -6.339424 2.38942,-4.111845 -6.116189 3.445169,-4.111845 -6.116189 3.445169,-3.95697 -7.669885 3.700992,-3.547585 -6.322999 2.467702,-3.5511 -6.237403 3.437479,-3.555618 -7.31081 3.542063,-3.561559 -7.869219 3.425853,-3.070162 -6.578211 2.58441,-3.019215 -6.63237 3.389047,-3.091058 -7.440677 3.583645,-3.156979 -7.906676 3.614863,-8.933057 -8.103506 0.02698254,-8.429557 -7.727439 0.248943,-8.021266 -7.095407 0.4728297,-7.735901 -6.490141 0.7305038,-7.43211 -6.147533 1.00473,-8.386122 -5.691602 0.2788748,-8.304843 -4.736972 0.4782372,-8.29623 -4.153394 0.6559244,-8.291706 -3.626842 0.7876757,-8.699552 -5.56427 0.3557888,-8.637642 -4.435089 0.5416248,-8.63749 -3.740641 0.7359178,-8.645753 -3.150974 0.8890531,-8.994877 -5.663665 0.4569534,-8.975555 -4.610693 0.630845,-8.974317 -3.945936 0.7882655,-8.962061 -3.369644 0.9054328,-9.298142 -5.961503 0.5772091,-9.361156 -5.152723 0.7816455,-9.3879 -4.607622 0.9220251,-9.391314 -4.08539 1.018336,5.410,2  0
-3.404852 -8.470366 1.055378,-3.919712 -8.689327 2.005658,-4.344059 -8.289892 2.668479,-4.613014 -7.854064 3.212162,-5.000088 -7.648683 3.83168,-4.471588 -6.604273 2.397104,-4.602415 -6.097235 3.296296,-4.745125 -5.865762 3.968487,-4.92719 -5.689737 4.419793,-4.028346 -6.270597 2.342995,-4.028755 -5.927017 3.477977,-4.028755 -5.927017 3.477977,-3.967714 -7.552003 4.039361,-3.548937 -6.275921 2.376746,-3.494629 -6.101354 3.458236,-3.494495 -7.192413 3.705024,-3.550575 -7.852527 3.628852,-3.090567 -6.462476 2.47909,-2.973863 -6.477945 3.349236,-3.056428 -7.35424 3.555444,-3.199862 -7.887027 3.552907,-8.925236 -8.111629 0.02553977,-8.424624 -7.736439 0.2083104,-8.023202 -7.092388 0.4185407,-7.745053 -6.488001 0.6666963,-7.430907 -6.15711 0.930137,-8.389716 -5.691486 0.2490239,-8.307778 -4.715286 0.4365143,-8.300299 -4.120492 0.6014318,-8.295787 -3.581315 0.7234684,-8.707391 -5.569196 0.3366286,-8.644228 -4.411578 0.5172899,-8.648817 -3.704574 0.7007686,-8.662576 -3.111931 0.8450225,-9.003009 -5.675913 0.4408754,-8.984159 -4.586671 0.6219791,-8.993608 -3.888576 0.7829584,-8.986119 -3.285179 0.9041936,-9.302348 -5.983028 0.5605147,-9.363804 -5.156866 0.7655129,-9.385724 -4.611894 0.9060346,-9.37774 -4.09194 1.001902,5.510,2  0
-3.307096 -8.409128 1.276806,-3.866176 -8.701967 2.172664,-4.416627 -8.32353 2.704861,-4.800892 -7.946834 3.084157,-5.2145 -7.78037 3.558143,-4.409653 -6.623346 2.754776,-4.583134 -6.297798 3.644318,-4.747143 -5.991835 4.215248,-4.925604 -5.680079 4.636133,-3.998034 -6.196296 2.636696,-4.00078 -6.208329 3.658072,-4.00078 -6.208329 3.658072,-3.852594 -7.835937 3.85297,-3.519003 -6.15863 2.612397,-3.441734 -6.275215 3.642383,-3.461578 -7.362672 3.714434,-3.512178 -7.932912 3.548102,-3.066782 -6.379474 2.662729,-2.944571 -6.53749 3.532091,-3.015694 -7.386987 3.658034,-3.127444 -7.855068 3.621436,-8.931136 -8.13014 0.04869716,-8.430859 -7.737504 0.2242045,-8.031238 -7.105421 0.4370504,-7.75066 -6.498874 0.6877477,-7.437042 -6.15636 0.9461343,-8.395878 -5.705927 0.2678644,-8.314665 -4.72593 0.4507809,-8.31093 -4.133387 0.6153229,-8.307508 -3.602659 0.7427449,-8.711884 -5.580501 0.354539,-8.647973 -4.428769 0.5329908,-8.657414 -3.725687 0.7148434,-8.672032 -3.130258 0.8609142,-9.005871 -5.689502 0.4569316,-8.98878 -4.610479 0.6314948,-9.005123 -3.923416 0.7825996,-9.002069 -3.328462 0.8938026,-9.302032 -5.999246 0.5725463,-9.370337 -5.183275 0.7717495,-9.400249 -4.644053 0.9080235,-9.398323 -4.132015 0.9958178,5.610,2  0
-3.341921 -8.461487 1.38919,-3.943256 -8.691175 2.180381,-4.54357 -8.258989 2.70953,-5.000729 -7.92505 3.123487,-5.496751 -7.837866 3.639688,-4.450804 -6.674459 2.897835,-4.578541 -6.311349 3.806352,-4.731247 -5.981081 4.32345,-4.91036 -5.679449 4.684434,-4.044679 -6.279762 2.853098,-4.008175 -6.215002 3.918119,-4.008175 -6.215002 3.918119,-3.903812 -7.740007 4.218453,-3.56271 -6.234806 2.878836,-3.442161 -6.29405 3.895096,-3.456039 -7.352952 3.958333,-3.531782 -7.848075 3.84636,-3.087722 -6.447216 2.960015,-2.914607 -6.630662 3.819762,-2.991386 -7.473979 3.981818,-3.130755 -7.908404 3.987987,-8.939575 -8.142117 0.09878296,-8.438522 -7.7504 0.2979699,-8.035946 -7.107425 0.5204046,-7.746658 -6.510664 0.7823336,-7.429066 -6.158695 1.056655,-8.400386 -5.699897 0.3151228,-8.317594 -4.737571 0.5045633,-8.307811 -4.144602 0.6753595,-8.298244 -3.611132 0.8104175,-8.714066 -5.578557 0.4047284,-8.650982 -4.443356 0.5844697,-8.651232 -3.737811 0.769821,-8.658209 -3.135879 0.9198534,-9.00853 -5.691089 0.5194827,-8.995778 -4.625862 0.6982464,-9.00479 -3.944366 0.8541901,-8.997364 -3.346205 0.9700778,-9.309691 -6.005681 0.6500805,-9.37709 -5.191957 0.8662132,-9.401984 -4.650137 1.00299,-9.396459 -4.133161 1.091174,5.710,2  0
-3.31499 -8.448694 2.07217,-3.867914 -8.757042 2.997866,-4.409147 -8.419353 3.55975,-4.739441 -8.003002 3.94548,-5.055879 -7.702133 4.415826,-4.449507 -6.555787 3.69734,-4.562912 -6.325304 4.592576,-4.704755 -6.032608 5.136697,-4.877798 -5.631026 5.527965,-4.030901 -6.032044 3.536208,-3.942575 -6.504478 4.46048,-3.942575 -6.504478 4.46048,-3.827013 -7.964806 4.480812,-3.537645 -5.98274 3.487776,-3.398476 -6.526852 4.401999,-3.428924 -7.550485 4.352689,-3.503868 -8.002405 4.162864,-3.072561 -6.212097 3.510781,-2.935337 -6.693025 4.259029,-3.008106 -7.525897 4.302256,-3.133171 -7.901134 4.235044,-8.955028 -8.135668 0.122012,-8.449039 -7.736339 0.3054345,-8.03991 -7.098735 0.5180627,-7.750816 -6.502859 0.7754798,-7.436526 -6.152022 1.047894,-8.406419 -5.686273 0.310784,-8.331315 -4.727396 0.4858681,-8.323442 -4.145181 0.6445772,-8.317092 -3.622954 0.7696019,-8.713519 -5.564279 0.4055339,-8.659557 -4.431924 0.5679621,-8.66782 -3.74807 0.7419227,-8.682385 -3.16436 0.8825156,-9.002167 -5.673689 0.5242302,-8.986381 -4.616637 0.6826504,-8.994854 -3.953903 0.829811,-8.988744 -3.376732 0.9393265,-9.298356 -5.982877 0.6583169,-9.361828 -5.181638 0.8606708,-9.383547 -4.650428 0.9945771,-9.377429 -4.150875 1.08126,5.810,2  0
-3.301188 -8.45599 1.397073,-3.866179 -8.655296 2.180691,-4.484217 -8.165709 2.666329,-4.940683 -7.821235 3.028152,-5.426547 -7.799797 3.484658,-4.371765 -6.688568 2.962446,-4.497419 -6.367892 3.893022,-4.640995 -5.981809 4.390172,-4.816841 -5.572866 4.719605,-3.969244 -6.280503 2.890537,-3.911367 -6.276671 3.945665,-3.911367 -6.276671 3.945665,-3.802336 -7.757327 4.170889,-3.496485 -6.22842 2.892108,-3.386451 -6.332657 3.884191,-3.389343 -7.423756 3.889616,-3.455517 -7.906648 3.73796,-3.028616 -6.447202 2.955431,-2.878889 -6.673387 3.788954,-2.942719 -7.502182 3.918111,-3.059584 -7.893808 3.909952,-8.950169 -8.145664 0.08158999,-8.447283 -7.765282 0.268195,-8.046166 -7.115953 0.4800419,-7.763453 -6.486682 0.7307236,-7.452101 -6.135768 0.9890984,-8.425911 -5.710923 0.2634535,-8.344658 -4.74419 0.4130456,-8.346492 -4.150158 0.5677084,-8.353869 -3.627578 0.7004681,-8.736542 -5.579751 0.3289086,-8.681137 -4.419921 0.4659691,-8.703426 -3.715202 0.6317503,-8.733816 -3.132259 0.7741311,-9.021935 -5.675157 0.4106374,-9.007541 -4.572341 0.5395966,-9.021397 -3.88025 0.6722754,-9.021287 -3.294623 0.7802863,-9.30954 -5.964958 0.5109801,-9.376183 -5.128667 0.6601363,-9.4105 -4.589784 0.7684374,-9.420505 -4.099191 0.8424582,5.910,2  0
-3.176447 -8.385098 0.751468,-3.771984 -8.535515 1.487276,-4.364086 -8.009859 1.92103,-4.792677 -7.639293 2.262273,-5.278929 -7.616349 2.70143,-4.261218 -6.562489 2.033543,-4.417719 -6.022283 2.88591,-4.551685 -5.650106 3.441189,-4.683172 -5.385398 3.838325,-3.856756 -6.26942 1.976401,-3.891277 -5.766616 3.017696,-3.891277 -5.766616 3.017696,-3.736602 -7.406584 3.393973,-3.392343 -6.273548 1.989909,-3.355285 -5.946413 3.029904,-3.357258 -7.030402 3.177133,-3.374481 -7.692266 3.044839,-2.92972 -6.506416 2.04214,-2.843093 -6.39568 2.956707,-2.913258 -7.215202 3.154821,-3.005646 -7.725715 3.147071,-8.98816 -8.160566 0.09058122,-8.492052 -7.782493 0.2694505,-8.084015 -7.143277 0.4780082,-7.805354 -6.533069 0.7220713,-7.512701 -6.201501 0.9741114,-8.473288 -5.716662 0.2804767,-8.397842 -4.744356 0.4316944,-8.401587 -4.167951 0.5774709,-8.415142 -3.665442 0.6959942,-8.784657 -5.592981 0.3552276,-8.73728 -4.422716 0.5032461,-8.763844 -3.723086 0.6716021,-8.805613 -3.148715 0.8090544,-9.07023 -5.694084 0.4483428,-9.054987 -4.590645 0.589518,-9.067625 -3.90896 0.7311209,-9.08008 -3.334335 0.8446831,-9.357444 -5.986586 0.5551254,-9.426261 -5.168695 0.7103438,-9.461853 -4.651259 0.8253606,-9.48225 -4.177061 0.9113275,6.010,2  0
-3.16096 -8.460001 0.8029317,-3.751141 -8.48304 1.412032,-4.339464 -7.876833 1.720513,-4.808554 -7.487499 1.9677,-5.250789 -7.439145 2.278226,-4.153696 -6.541902 1.972018,-4.349898 -5.954395 2.822231,-4.505298 -5.57728 3.317662,-4.650141 -5.246521 3.591329,-3.760813 -6.257511 1.944429,-3.835756 -5.704576 2.973336,-3.835756 -5.704576 2.973336,-3.67449 -7.307697 3.253085,-3.302077 -6.256061 1.982231,-3.29093 -5.852333 2.968804,-3.308523 -6.9449 3.106689,-3.325047 -7.577993 2.990038,-2.831339 -6.500019 2.049481,-2.778343 -6.289796 2.865442,-2.860836 -7.092014 3.084208,-2.930774 -7.600963 3.120219,-8.993563 -8.171793 0.09391717,-8.487225 -7.789196 0.2582014,-8.083745 -7.135343 0.4613305,-7.804573 -6.516627 0.7045785,-7.499558 -6.169633 0.9560701,-8.470676 -5.729679 0.2782015,-8.393115 -4.738637 0.4331348,-8.395996 -4.147027 0.5884582,-8.403066 -3.618332 0.718071,-8.789679 -5.602813 0.354263,-8.741324 -4.421169 0.5069213,-8.768167 -3.721105 0.6792822,-8.803799 -3.134013 0.821237,-9.08366 -5.706789 0.4437667,-9.070814 -4.589781 0.5831798,-9.08692 -3.905575 0.7115738,-9.095111 -3.32584 0.8165242,-9.375655 -6.008415 0.5452496,-9.449476 -5.174903 0.6987641,-9.480106 -4.640478 0.8068606,-9.490124 -4.146848 0.8835961,6.110,2  0
-3.025291 -8.391411 1.352119,-3.615862 -8.356138 1.892465,-4.192027 -7.745962 2.167204,-4.647997 -7.344454 2.390207,-5.060044 -7.246122 2.700827,-4.060814 -6.309137 2.408475,-4.247944 -5.851526 3.168565,-4.354919 -5.474695 3.626495,-4.457685 -5.07479 3.883716,-3.683634 -5.995048 2.430743,-3.74371 -5.737943 3.358382,-3.74371 -5.737943 3.358382,-3.566357 -7.135759 3.798075,-3.221228 -6.008621 2.500317,-3.196651 -5.880752 3.39892,-3.206987 -6.869554 3.557222,-3.219313 -7.372804 3.528336,-2.745485 -6.279836 2.614421,-2.695423 -6.310968 3.369278,-2.780931 -7.05163 3.588799,-2.855866 -7.483037 3.665894,-8.997761 -8.223129 0.1944508,-8.487458 -7.83414 0.3764022,-8.077636 -7.167037 0.5887867,-7.795301 -6.537961 0.8338291,-7.490118 -6.186605 1.08184,-8.467622 -5.75596 0.4026852,-8.379482 -4.770645 0.5694054,-8.380235 -4.180671 0.7273179,-8.387328 -3.653814 0.8546076,-8.793716 -5.626663 0.4689477,-8.744807 -4.446771 0.6319573,-8.776056 -3.736889 0.8026778,-8.81329 -3.13444 0.943192,-9.092642 -5.730213 0.5459066,-9.080104 -4.609403 0.694536,-9.104623 -3.914242 0.8185587,-9.118154 -3.321861 0.9176569,-9.389837 -6.034608 0.638533,-9.452942 -5.191823 0.7968946,-9.478593 -4.65904 0.8940782,-9.481312 -4.17084 0.961834,6.210,2  0
-2.969768 -8.325603 1.232882,-3.547357 -8.291374 1.798869,-4.118027 -7.706869 2.093187,-4.552218 -7.268999 2.337479,-4.959009 -7.154354 2.67354,-4.01436 -6.256937 2.246733,-4.210398 -5.764259 2.947981,-4.309172 -5.368691 3.402434,-4.400122 -4.949867 3.671571,-3.634595 -5.945551 2.257567,-3.714931 -5.582403 3.174582,-3.714931 -5.582403 3.174582,-3.522211 -7.006626 3.659528,-3.180614 -5.954128 2.314087,-3.164788 -5.719992 3.178167,-3.176228 -6.716629 3.368436,-3.177465 -7.238035 3.360991,-2.724216 -6.214719 2.417746,-2.66263 -6.188816 3.134243,-2.74132 -6.935026 3.351369,-2.811162 -7.381601 3.425221,-8.999133 -8.23402 0.235076,-8.488802 -7.818165 0.395165,-8.081411 -7.162689 0.6014301,-7.796021 -6.54117 0.8475713,-7.487785 -6.196626 1.10488,-8.469163 -5.74521 0.4164566,-8.390914 -4.762566 0.5705117,-8.387996 -4.178216 0.7178828,-8.389715 -3.658645 0.8393245,-8.786693 -5.625457 0.4991241,-8.735723 -4.456612 0.6464728,-8.753165 -3.75254 0.8123099,-8.775589 -3.163215 0.9539117,-9.082605 -5.734743 0.5982566,-9.073111 -4.63405 0.7300341,-9.08856 -3.947072 0.8524763,-9.092818 -3.366184 0.9520834,-9.380104 -6.046583 0.7109383,-9.457894 -5.217958 0.8577214,-9.490626 -4.67769 0.9581878,-9.499588 -4.180871 1.029025,6.310,2  0
-2.926367 -8.200321 1.008609,-3.442993 -8.189474 1.63751,-3.98825 -7.624828 1.999509,-4.389277 -7.241125 2.296994,-4.790915 -7.175022 2.675937,-3.861818 -6.178867 2.123551,-4.049681 -5.714779 2.858578,-4.144541 -5.338701 3.334258,-4.224051 -4.948781 3.620467,-3.484892 -5.905073 2.120979,-3.56176 -5.495278 3.06443,-3.56176 -5.495278 3.06443,-3.407768 -6.951493 3.434312,-3.041389 -5.928373 2.167396,-3.025856 -5.635173 3.022648,-3.058486 -6.605823 3.187492,-3.070017 -7.130757 3.147329,-2.594119 -6.195726 2.263192,-2.534182 -6.109556 2.96338,-2.626382 -6.820495 3.16336,-2.702956 -7.241065 3.232515,-8.962395 -8.245749 0.2477798,-8.440836 -7.840185 0.4334044,-8.023961 -7.196661 0.6574405,-7.732915 -6.582062 0.9246195,-7.411819 -6.230157 1.20811,-8.403287 -5.767932 0.4492819,-8.321396 -4.791387 0.6232678,-8.316822 -4.20847 0.78813,-8.316375 -3.689212 0.9188974,-8.719708 -5.63916 0.5400054,-8.660006 -4.480524 0.6992761,-8.671394 -3.786515 0.8774043,-8.690459 -3.207386 1.019986,-9.016708 -5.744378 0.6509712,-8.996408 -4.654645 0.8034488,-9.009522 -3.972053 0.9496121,-9.012135 -3.381423 1.060855,-9.320768 -6.053931 0.7762053,-9.38926 -5.222205 0.9527253,-9.412452 -4.678503 1.073863,-9.413131 -4.164769 1.160768,6.410,2  0
-2.874231 -8.252563 0.7833074,-3.406951 -8.213804 1.437322,-3.970053 -7.683325 1.839988,-4.386229 -7.28964 2.187689,-4.799283 -7.194265 2.61022,-3.842242 -6.267437 1.865044,-4.041565 -5.716657 2.61886,-4.112701 -5.332799 3.12602,-4.156167 -5.012285 3.43945,-3.462869 -6.025554 1.869528,-3.534006 -5.468029 2.910038,-3.534006 -5.468029 2.910038,-3.364756 -6.984226 3.408906,-3.033494 -6.048687 1.923363,-3.015759 -5.584985 2.834323,-3.037111 -6.56269 3.0148,-3.043308 -7.158744 2.948813,-2.591873 -6.297807 2.023806,-2.518737 -6.087224 2.765083,-2.603454 -6.784162 2.991334,-2.675276 -7.24141 3.051358,-8.948776 -8.257792 0.2557192,-8.442827 -7.870106 0.4548047,-8.027538 -7.214636 0.6709309,-7.741119 -6.597339 0.93032,-7.428849 -6.253161 1.204977,-8.406386 -5.778628 0.4367495,-8.320833 -4.801233 0.6025228,-8.31592 -4.210813 0.7725272,-8.320674 -3.674193 0.9091327,-8.721941 -5.644783 0.5227653,-8.662474 -4.491468 0.6706933,-8.676355 -3.79039 0.8585601,-8.700217 -3.203344 1.005856,-9.019005 -5.742334 0.6326684,-9.006199 -4.642505 0.7857774,-9.02702 -3.943451 0.9537056,-9.036473 -3.335704 1.081099,-9.324051 -6.044602 0.7589862,-9.404268 -5.203179 0.936671,-9.440712 -4.653553 1.071187,-9.452059 -4.134313 1.164831,6.510,2  0
-2.866574 -8.384108 0.6253195,-3.401058 -8.319838 1.204199,-3.96155 -7.796747 1.585251,-4.368757 -7.401278 1.939121,-4.778624 -7.280105 2.367628,-3.853224 -6.391224 1.550124,-4.051994 -5.811857 2.218768,-4.133435 -5.456861 2.726219,-4.188625 -5.168168 3.057697,-3.478514 -6.155611 1.582875,-3.564955 -5.543167 2.526112,-3.564955 -5.543167 2.526112,-3.411961 -7.029235 3.031373,-3.05391 -6.162445 1.665552,-3.063477 -5.632441 2.483204,-3.083184 -6.580225 2.664608,-3.079453 -7.195358 2.616943,-2.603704 -6.371841 1.788748,-2.570285 -6.050672 2.454044,-2.653878 -6.739999 2.647082,-2.719357 -7.225557 2.687595,-8.935797 -8.28998 0.2183044,-8.421585 -7.910314 0.4188606,-8.011442 -7.253336 0.639588,-7.729027 -6.63512 0.901444,-7.412766 -6.281796 1.169352,-8.39291 -5.823624 0.4269573,-8.309117 -4.829921 0.6125137,-8.305133 -4.239831 0.7834316,-8.308754 -3.698715 0.9172535,-8.709276 -5.691173 0.5168403,-8.656631 -4.519948 0.6849639,-8.67356 -3.808945 0.8681062,-8.699754 -3.216321 1.011202,-9.00354 -5.794743 0.6300455,-8.997832 -4.674194 0.8135951,-9.02933 -3.957897 0.9884708,-9.047287 -3.332679 1.120166,-9.303569 -6.10474 0.757036,-9.372053 -5.260332 0.9602182,-9.39861 -4.714884 1.099016,-9.400124 -4.205521 1.192681,6.610,2  0
-2.821779 -8.430368 0.5095102,-3.346687 -8.36096 1.093689,-3.906229 -7.840827 1.449435,-4.317341 -7.441068 1.765797,-4.72887 -7.330444 2.143358,-3.831432 -6.461715 1.379351,-4.036055 -5.900697 2.003467,-4.119581 -5.524168 2.497888,-4.18676 -5.188826 2.816116,-3.46081 -6.216707 1.395306,-3.56918 -5.53766 2.317269,-3.56918 -5.53766 2.317269,-3.393519 -7.007757 2.852569,-3.040052 -6.210098 1.461739,-3.07037 -5.640926 2.266605,-3.091753 -6.584503 2.469576,-3.083097 -7.211095 2.431271,-2.5956 -6.417707 1.567464,-2.578932 -6.108741 2.225619,-2.668996 -6.792737 2.421383,-2.732516 -7.282171 2.461115,-8.939032 -8.310619 0.2361203,-8.427248 -7.92724 0.4317513,-8.017106 -7.274715 0.6534504,-7.731744 -6.659338 0.9139821,-7.414233 -6.318758 1.183737,-8.393833 -5.840393 0.4701446,-8.305103 -4.85692 0.6595879,-8.296554 -4.265851 0.8274869,-8.295659 -3.725748 0.9584243,-8.714209 -5.709669 0.561023,-8.64633 -4.558435 0.7310551,-8.650664 -3.866627 0.9151907,-8.668397 -3.273364 1.061005,-9.015191 -5.812036 0.6701015,-8.999703 -4.70445 0.8490288,-9.023687 -3.999025 1.022916,-9.038371 -3.366476 1.156103,-9.322946 -6.119339 0.7917973,-9.394962 -5.271358 0.9839085,-9.423527 -4.727054 1.124946,-9.428831 -4.200033 1.230222,6.710,2  0
-2.472974 -8.556038 -0.204157,-3.026575 -8.636929 0.3231816,-3.57547 -8.234468 0.7342011,-3.940666 -7.786211 1.020804,-4.346637 -7.516483 1.367079,-3.344809 -6.879585 1.06044,-3.612145 -6.099243 1.437143,-3.772812 -5.822799 1.68456,-3.927554 -5.68115 1.909952,-2.979808 -6.718418 1.017964,-3.21996 -5.891654 1.653537,-3.21996 -5.891654 1.653537,-3.459515 -6.169755 2.145279,-2.62381 -6.8399 0.9640242,-2.797746 -6.417007 1.612915,-2.801757 -6.946153 1.873795,-2.798926 -7.377729 1.99847,-2.314945 -7.15393 0.9316428,-2.383322 -7.05551 1.445461,-2.367556 -7.475196 1.682899,-2.341454 -7.818898 1.85364,-9.074564 -8.47562 -0.08298516,-8.513772 -8.13303 0.05740926,-8.080192 -7.461615 0.2362349,-7.792223 -6.81791 0.441193,-7.490097 -6.456607 0.6641507,-8.475894 -6.124944 0.1789072,-8.39277 -5.090234 0.3849304,-8.375952 -4.497313 0.5376132,-8.368378 -3.960264 0.6547652,-8.81312 -5.977671 0.2932532,-8.734282 -4.791971 0.4942541,-8.712605 -4.062749 0.6920587,-8.707565 -3.440298 0.8427135,-9.134293 -6.057647 0.4133075,-9.088619 -4.933494 0.6167243,-9.077511 -4.212501 0.7794192,-9.051649 -3.583378 0.9170002,-9.46362 -6.344512 0.5299137,-9.522113 -5.480129 0.7503207,-9.523104 -4.919954 0.9096108,-9.48951 -4.391115 1.035044,6.810,2  0
-0.02586889 -8.456038 -0.204157,-1.215847 -8.536928 0.2408824,-1.762745 -7.979238 0.6787892,-2.413746 -7.625073 0.9815301,-3.002098 -7.299819 1.367078,-1.709916 -6.752521 0.9083661,-2.05374 -5.913242 1.288306,-2.28512 -5.556076 1.563013,-2.673278 -5.466697 1.910406,-1.191846 -6.671475 0.9309035,-1.368003 -5.634136 1.591012,-1.368003 -5.634136 1.591012,-1.727446 -6.044631 2.18934,-0.05045748 -6.849118 0.738934,-0.7968636 -6.204105 1.541039,-0.8886452 -6.812618 1.865365,-0.9017172 -7.340108 2.018069,0.4701138 -7.102228 0.744598,0.1580715 -6.943658 1.407819,0.07646942 -7.462554 1.679554,-0.0336237 -7.904674 1.89428,-9.193678 -8.68224 -0.6016918,-7.478415 -8.394497 -0.5982171,-6.579123 -7.750242 -0.8034858,-5.887167 -7.196214 -0.4016922,-4.967503 -6.632059 -0.170697,-6.571312 -6.48725 -0.433833,-5.932042 -5.428371 -0.217104,-6.239499 -4.660743 -0.2418894,-6.491579 -3.971326 -0.08500071,-7.014472 -6.308074 -0.2567976,-6.580211 -5.231658 -0.2985161,-7.178684 -4.086999 -0.1841092,-7.805502 -3.294233 -0.1065861,-7.395563 -6.636974 -0.1589854,-7.481361 -5.328329 -0.05392089,-7.645094 -4.466189 -0.1482166,-8.28253 -3.718745 -0.1057023,-7.706177 -7.078523 -0.1125928,-8.010645 -5.916416 0.07036478,-8.579186 -5.18067 -0.03746118,-8.618591 -4.598168 -0.05487795,6.910,2  0
-2.472974 -8.556038 -0.204157,-3.026575 -8.636929 0.3231816,-3.57547 -8.234468 0.7342011,-3.940666 -7.786211 1.020804,-4.346637 -7.516483 1.367079,-3.344809 -6.879585 1.06044,-3.612145 -6.099243 1.437143,-3.772812 -5.822799 1.68456,-3.927554 -5.68115 1.909952,-2.979808 -6.718418 1.017964,-3.21996 -5.891654 1.653537,-3.21996 -5.891654 1.653537,-3.459515 -6.169755 2.145279,-2.62381 -6.8399 0.9640242,-2.797746 -6.417007 1.612915,-2.801757 -6.946153 1.873795,-2.798926 -7.377729 1.99847,-2.314945 -7.15393 0.9316428,-2.383322 -7.05551 1.445461,-2.367556 -7.475196 1.682899,-2.341454 -7.818898 1.85364,-9.24531 -9.054075 -0.9900693,-8.671472 -8.916304 -0.8090709,-8.308538 -8.244541 -0.5375983,-8.055538 -7.560756 -0.3352641,-7.790909 -7.014768 -0.1637479,-8.805889 -6.980251 -0.1542461,-8.739798 -5.687333 0.09475553,-8.701475 -5.051116 0.1987619,-8.68452 -4.563975 0.2790828,-9.18874 -6.929081 -0.1646616,-9.156228 -5.467468 0.1416327,-9.131814 -4.688063 0.2240566,-9.148037 -4.087419 0.257352,-9.524736 -7.07901 -0.221892,-9.550141 -5.718616 0.016289,-9.507425 -4.942663 0.131385,-9.499929 -4.343742 0.20937,-9.805964 -7.363254 -0.311017,-9.849795 -6.331058 -0.1527327,-9.817802 -5.736816 -0.0908913,-9.790942 -5.241802 -0.05816042,7.010,2  0
-2.472974 -8.556038 -0.204157,-3.026575 -8.636929 0.3231816,-3.57547 -8.234468 0.7342011,-3.940666 -7.786211 1.020804,-4.346637 -7.516483 1.367079,-3.344809 -6.879585 1.06044,-3.612145 -6.099243 1.437143,-3.772812 -5.822799 1.68456,-3.927554 -5.68115 1.909952,-2.979808 -6.718418 1.017964,-3.21996 -5.891654 1.653537,-3.21996 -5.891654 1.653537,-3.459515 -6.169755 2.145279,-2.62381 -6.8399 0.9640242,-2.797746 -6.417007 1.612915,-2.801757 -6.946153 1.873795,-2.798926 -7.377729 1.99847,-2.314945 -7.15393 0.9316428,-2.383322 -7.05551 1.445461,-2.367556 -7.475196 1.682899,-2.341454 -7.818898 1.85364,-9.24531 -9.054075 -0.9900693,-8.671472 -8.916304 -0.8090709,-8.308538 -8.244541 -0.5375983,-8.055538 -7.560756 -0.3352641,-7.790909 -7.014768 -0.1637479,-8.805889 -6.980251 -0.1542461,-8.739798 -5.687333 0.09475553,-8.701475 -5.051116 0.1987619,-8.68452 -4.563975 0.2790828,-9.18874 -6.929081 -0.1646616,-9.156228 -5.467468 0.1416327,-9.131814 -4.688063 0.2240566,-9.148037 -4.087419 0.257352,-9.524736 -7.07901 -0.221892,-9.550141 -5.718616 0.016289,-9.507425 -4.942663 0.131385,-9.499929 -4.343742 0.20937,-9.805964 -7.363254 -0.311017,-9.849795 -6.331058 -0.1527327,-9.817802 -5.736816 -0.0908913,-9.790942 -5.241802 -0.05816042,7.110,2  0
-2.472974 -8.556038 -0.204157,-3.026575 -8.636929 0.3231816,-3.57547 -8.234468 0.7342011,-3.940666 -7.786211 1.020804,-4.346637 -7.516483 1.367079,-3.344809 -6.879585 1.06044,-3.612145 -6.099243 1.437143,-3.772812 -5.822799 1.68456,-3.927554 -5.68115 1.909952,-2.979808 -6.718418 1.017964,-3.21996 -5.891654 1.653537,-3.21996 -5.891654 1.653537,-3.459515 -6.169755 2.145279,-2.62381 -6.8399 0.9640242,-2.797746 -6.417007 1.612915,-2.801757 -6.946153 1.873795,-2.798926 -7.377729 1.99847,-2.314945 -7.15393 0.9316428,-2.383322 -7.05551 1.445461,-2.367556 -7.475196 1.682899,-2.341454 -7.818898 1.85364,-9.24531 -9.054075 -0.9900693,-8.671472 -8.916304 -0.8090709,-8.308538 -8.244541 -0.5375983,-8.055538 -7.560756 -0.3352641,-7.790909 -7.014768 -0.1637479,-8.805889 -6.980251 -0.1542461,-8.739798 -5.687333 0.09475553,-8.701475 -5.051116 0.1987619,-8.68452 -4.563975 0.2790828,-9.18874 -6.929081 -0.1646616,-9.156228 -5.467468 0.1416327,-9.131814 -4.688063 0.2240566,-9.148037 -4.087419 0.257352,-9.524736 -7.07901 -0.221892,-9.550141 -5.718616 0.016289,-9.507425 -4.942663 0.131385,-9.499929 -4.343742 0.20937,-9.805964 -7.363254 -0.311017,-9.849795 -6.331058 -0.1527327,-9.817802 -5.736816 -0.0908913,-9.790942 -5.241802 -0.05816042,7.210,2  0
-2.472974 -8.556038 -0.204157,-3.026575 -8.636929 0.3231816,-3.57547 -8.234468 0.7342011,-3.940666 -7.786211 1.020804,-4.346637 -7.516483 1.367079,-3.344809 -6.879585 1.06044,-3.612145 -6.099243 1.437143,-3.772812 -5.822799 1.68456,-3.927554 -5.68115 1.909952,-2.979808 -6.718418 1.017964,-3.21996 -5.891654 1.653537,-3.21996 -5.891654 1.653537,-3.459515 -6.169755 2.145279,-2.62381 -6.8399 0.9640242,-2.797746 -6.417007 1.612915,-2.801757 -6.946153 1.873795,-2.798926 -7.377729 1.99847,-2.314945 -7.15393 0.9316428,-2.383322 -7.05551 1.445461,-2.367556 -7.475196 1.682899,-2.341454 -7.818898 1.85364,-9.24531 -9.054075 -0.9900693,-8.671472 -8.916304 -0.8090709,-8.308538 -8.244541 -0.5375983,-8.055538 -7.560756 -0.3352641,-7.790909 -7.014768 -0.1637479,-8.805889 -6.980251 -0.1542461,-8.739798 -5.687333 0.09475553,-8.701475 -5.051116 0.1987619,-8.68452 -4.563975 0.2790828,-9.18874 -6.929081 -0.1646616,-9.156228 -5.467468 0.1416327,-9.131814 -4.688063 0.2240566,-9.148037 -4.087419 0.257352,-9.524736 -7.07901 -0.221892,-9.550141 -5.718616 0.016289,-9.507425 -4.942663 0.131385,-9.499929 -4.343742 0.20937,-9.805964 -7.363254 -0.311017,-9.849795 -6.331058 -0.1527327,-9.817802 -5.736816 -0.0908913,-9.790942 -5.241802 -0.05816042,7.310,2  0
-2.472974 -8.556038 -0.204157,-3.026575 -8.636929 0.3231816,-3.57547 -8.234468 0.7342011,-3.940666 -7.786211 1.020804,-4.346637 -7.516483 1.367079,-3.344809 -6.879585 1.06044,-3.612145 -6.099243 1.437143,-3.772812 -5.822799 1.68456,-3.927554 -5.68115 1.909952,-2.979808 -6.718418 1.017964,-3.21996 -5.891654 1.653537,-3.21996 -5.891654 1.653537,-3.459515 -6.169755 2.145279,-2.62381 -6.8399 0.9640242,-2.797746 -6.417007 1.612915,-2.801757 -6.946153 1.873795,-2.798926 -7.377729 1.99847,-2.314945 -7.15393 0.9316428,-2.383322 -7.05551 1.445461,-2.367556 -7.475196 1.682899,-2.341454 -7.818898 1.85364,-9.24531 -9.054075 -0.9900693,-8.671472 -8.916304 -0.8090709,-8.308538 -8.244541 -0.5375983,-8.055538 -7.560756 -0.3352641,-7.790909 -7.014768 -0.1637479,-8.805889 -6.980251 -0.1542461,-8.739798 -5.687333 0.09475553,-8.701475 -5.051116 0.1987619,-8.68452 -4.563975 0.2790828,-9.18874 -6.929081 -0.1646616,-9.156228 -5.467468 0.1416327,-9.131814 -4.688063 0.2240566,-9.148037 -4.087419 0.257352,-9.524736 -7.07901 -0.221892,-9.550141 -5.718616 0.016289,-9.507425 -4.942663 0.131385,-9.499929 -4.343742 0.20937,-9.805964 -7.363254 -0.311017,-9.849795 -6.331058 -0.1527327,-9.817802 -5.736816 -0.0908913,-9.790942 -5.241802 -0.05816042,7.410,2  0
-2.472974 -8.556038 -0.204157,-3.026575 -8.636929 0.3231816,-3.57547 -8.234468 0.7342011,-3.940666 -7.786211 1.020804,-4.346637 -7.516483 1.367079,-3.344809 -6.879585 1.06044,-3.612145 -6.099243 1.437143,-3.772812 -5.822799 1.68456,-3.927554 -5.68115 1.909952,-2.979808 -6.718418 1.017964,-3.21996 -5.891654 1.653537,-3.21996 -5.891654 1.653537,-3.459515 -6.169755 2.145279,-2.62381 -6.8399 0.9640242,-2.797746 -6.417007 1.612915,-2.801757 -6.946153 1.873795,-2.798926 -7.377729 1.99847,-2.314945 -7.15393 0.9316428,-2.383322 -7.05551 1.445461,-2.367556 -7.475196 1.682899,-2.341454 -7.818898 1.85364,-9.24531 -9.054075 -0.9900693,-8.671472 -8.916304 -0.8090709,-8.308538 -8.244541 -0.5375983,-8.055538 -7.560756 -0.3352641,-7.790909 -7.014768 -0.1637479,-8.805889 -6.980251 -0.1542461,-8.739798 -5.687333 0.09475553,-8.701475 -5.051116 0.1987619,-8.68452 -4.563975 0.2790828,-9.18874 -6.929081 -0.1646616,-9.156228 -5.467468 0.1416327,-9.131814 -4.688063 0.2240566,-9.148037 -4.087419 0.257352,-9.524736 -7.07901 -0.221892,-9.550141 -5.718616 0.016289,-9.507425 -4.942663 0.131385,-9.499929 -4.343742 0.20937,-9.805964 -7.363254 -0.311017,-9.849795 -6.331058 -0.1527327,-9.817802 -5.736816 -0.0908913,-9.790942 -5.241802 -0.05816042,7.510,2  0
-2.472974 -8.556038 -0.204157,-3.026575 -8.636929 0.3231816,-3.57547 -8.234468 0.7342011,-3.940666 -7.786211 1.020804,-4.346637 -7.516483 1.367079,-3.344809 -6.879585 1.06044,-3.612145 -6.099243 1.437143,-3.772812 -5.822799 1.68456,-3.927554 -5.68115 1.909952,-2.979808 -6.718418 1.017964,-3.21996 -5.891654 1.653537,-3.21996 -5.891654 1.653537,-3.459515 -6.169755 2.145279,-2.62381 -6.8399 0.9640242,-2.797746 -6.417007 1.612915,-2.801757 -6.946153 1.873795,-2.798926 -7.377729 1.99847,-2.314945 -7.15393 0.9316428,-2.383322 -7.05551 1.445461,-2.367556 -7.475196 1.682899,-2.341454 -7.818898 1.85364,-9.24531 -9.054075 -0.9900693,-8.671472 -8.916304 -0.8090709,-8.308538 -8.244541 -0.5375983,-8.055538 -7.560756 -0.3352641,-7.790909 -7.014768 -0.1637479,-8.805889 -6.980251 -0.1542461,-8.739798 -5.687333 0.09475553,-8.701475 -5.051116 0.1987619,-8.68452 -4.563975 0.2790828,-9.18874 -6.929081 -0.1646616,-9.156228 -5.467468 0.1416327,-9.131814 -4.688063 0.2240566,-9.148037 -4.087419 0.257352,-9.524736 -7.07901 -0.221892,-9.550141 -5.718616 0.016289,-9.507425 -4.942663 0.131385,-9.499929 -4.343742 0.20937,-9.805964 -7.363254 -0.311017,-9.849795 -6.331058 -0.1527327,-9.817802 -5.736816 -0.0908913,-9.790942 -5.241802 -0.05816042,7.610,2  0
-2.472974 -8.556038 -0.204157,-3.026575 -8.636929 0.3231816,-3.57547 -8.234468 0.7342011,-3.940666 -7.786211 1.020804,-4.346637 -7.516483 1.367079,-3.344809 -6.879585 1.06044,-3.612145 -6.099243 1.437143,-3.772812 -5.822799 1.68456,-3.927554 -5.68115 1.909952,-2.979808 -6.718418 1.017964,-3.21996 -5.891654 1.653537,-3.21996 -5.891654 1.653537,-3.459515 -6.169755 2.145279,-2.62381 -6.8399 0.9640242,-2.797746 -6.417007 1.612915,-2.801757 -6.946153 1.873795,-2.798926 -7.377729 1.99847,-2.314945 -7.15393 0.9316428,-2.383322 -7.05551 1.445461,-2.367556 -7.475196 1.682899,-2.341454 -7.818898 1.85364,-9.24531 -9.054075 -0.9900693,-8.671472 -8.916304 -0.8090709,-8.308538 -8.244541 -0.5375983,-8.055538 -7.560756 -0.3352641,-7.790909 -7.014768 -0.1637479,-8.805889 -6.980251 -0.1542461,-8.739798 -5.687333 0.09475553,-8.701475 -5.051116 0.1987619,-8.68452 -4.563975 0.2790828,-9.18874 -6.929081 -0.1646616,-9.156228 -5.467468 0.1416327,-9.131814 -4.688063 0.2240566,-9.148037 -4.087419 0.257352,-9.524736 -7.07901 -0.221892,-9.550141 -5.718616 0.016289,-9.507425 -4.942663 0.131385,-9.499929 -4.343742 0.20937,-9.805964 -7.363254 -0.311017,-9.849795 -6.331058 -0.1527327,-9.817802 -5.736816 -0.0908913,-9.790942 -5.241802 -0.05816042,7.710,2  0
-2.472974 -8.556038 -0.204157,-3.026575 -8.636929 0.3231816,-3.57547 -8.234468 0.7342011,-3.940666 -7.786211 1.020804,-4.346637 -7.516483 1.367079,-3.344809 -6.879585 1.06044,-3.612145 -6.099243 1.437143,-3.772812 -5.822799 1.68456,-3.927554 -5.68115 1.909952,-2.979808 -6.718418 1.017964,-3.21996 -5.891654 1.653537,-3.21996 -5.891654 1.653537,-3.459515 -6.169755 2.145279,-2.62381 -6.8399 0.9640242,-2.797746 -6.417007 1.612915,-2.801757 -6.946153 1.873795,-2.798926 -7.377729 1.99847,-2.314945 -7.15393 0.9316428,-2.383322 -7.05551 1.445461,-2.367556 -7.475196 1.682899,-2.341454 -7.818898 1.85364,-9.24531 -9.054075 -0.9900693,-8.671472 -8.916304 -0.8090709,-8.308538 -8.244541 -0.5375983,-8.055538 -7.560756 -0.3352641,-7.790909 -7.014768 -0.1637479,-8.805889 -6.980251 -0.1542461,-8.739798 -5.687333 0.09475553,-8.701475 -5.051116 0.1987619,-8.68452 -4.563975 0.2790828,-9.18874 -6.929081 -0.1646616,-9.156228 -5.467468 0.1416327,-9.131814 -4.688063 0.2240566,-9.148037 -4.087419 0.257352,-9.524736 -7.07901 -0.221892,-9.550141 -5.718616 0.016289,-9.507425 -4.942663 0.131385,-9.499929 -4.343742 0.20937,-9.805964 -7.363254 -0.311017,-9.849795 -6.331058 -0.1527327,-9.817802 -5.736816 -0.0908913,-9.790942 -5.241802 -0.05816042,7.810,2  0
