TiagoOliveira98/Thesis-Project/Difficulty_2/Motor_Task/Unity_Project/DataLogging/JointData/Logs(1647358719)_Tiago_Motor.csv
WRIST,THUMB_CMC,THUMB_MCP,THUMB_IP,THUMB_TIP,INDEX_FINGER_MCP,INDEX_FINGER_PIP,INDEX_FINGER_DIP,INDEX_FINGER_TIP,MIDDLE_FINGER_MCP,MIDDLE_FINGER_PIP,MIDDLE_FINGER_DIP,MIDDLE_FINGER_TIP,RING_FINGER_MCP,RING_FINGER_PIP,RING_FINGER_DIP,RING_FINGER_TIP,PINKY_MCP,PINKY_PIP,PINKY_DIP,PINKY_TIP,WRIST2,THUMB_CMC2,THUMB_MCP2,THUMB_IP2,THUMB_TIP2,INDEX_FINGER_MCP2,INDEX_FINGER_PIP2,INDEX_FINGER_DIP2,INDEX_FINGER_TIP2,MIDDLE_FINGER_MCP2,MIDDLE_FINGER_PIP2,MIDDLE_FINGER_DIP2,MIDDLE_FINGER_TIP2,RING_FINGER_MCP2,RING_FINGER_PIP2,RING_FINGER_DIP2,RING_FINGER_TIP2,PINKY_MCP2,PINKY_PIP2,PINKY_DIP2,PINKY_TIP2,Timestamp,Event
-1.945774 -6.963552 0.0003309736,-2.494786 -6.70144 0.3675873,-2.986423 -6.168262 0.623616,-3.356359 -5.623722 0.8972147,-3.680269 -5.297357 1.229224,-2.765579 -4.501644 0.1513903,-2.96615 -3.516056 0.3752233,-3.06044 -2.94887 0.5748107,-3.147941 -2.443696 0.7264017,-2.447746 -4.246756 0.1805305,-2.584198 -3.118368 0.3146576,-2.584198 -3.118368 0.3146576,-2.718315 -1.765208 0.6410566,-2.122267 -4.215471 0.2877688,-2.199028 -3.13478 0.4241789,-2.257514 -2.478548 0.5752495,-2.333899 -1.867286 0.7158148,-1.770498 -4.404224 0.4439972,-1.682588 -3.569796 0.5990433,-1.635271 -3.03413 0.7172203,-1.607677 -2.519463 0.8103927,-8.005581 -6.90917 0.0003251445,-7.455054 -6.625022 0.2250624,-7.000796 -6.022567 0.4364203,-6.684742 -5.472449 0.6852599,-6.352256 -5.221092 0.9460643,-7.350208 -4.39941 0.250525,-7.24404 -3.377389 0.4319879,-7.198216 -2.746974 0.618313,-7.164621 -2.188458 0.7488057,-7.682893 -4.243795 0.3374953,-7.61067 -3.024953 0.5068935,-7.551054 -2.255162 0.7235039,-7.504004 -1.611593 0.8976849,-7.999185 -4.295352 0.4448335,-7.956421 -3.155517 0.5971559,-7.906682 -2.445586 0.7589896,-7.851617 -1.853924 0.8785996,-8.320172 -4.544069 0.578379,-8.378385 -3.661393 0.7458735,-8.39085 -3.087803 0.8652295,-8.381701 -2.531184 0.9415937,0.010,8  0
-1.947443 -6.947481 0.003930192,-2.489612 -6.706039 0.4024406,-2.980029 -6.164146 0.6526752,-3.344224 -5.600103 0.9168619,-3.686111 -5.274687 1.239135,-2.778345 -4.487684 0.1566434,-2.974541 -3.498632 0.3555365,-3.068165 -2.910011 0.5267563,-3.14926 -2.362525 0.6702335,-2.454788 -4.229511 0.1660009,-2.582979 -3.0932 0.2982915,-2.582979 -3.0932 0.2982915,-2.709395 -1.765432 0.625903,-2.129755 -4.199744 0.2559147,-2.201434 -3.108895 0.3866745,-2.265718 -2.458631 0.5461152,-2.339451 -1.84851 0.6922294,-1.779569 -4.389852 0.3963431,-1.686315 -3.560266 0.5495857,-1.640349 -3.027256 0.6832259,-1.608707 -2.509141 0.788951,-7.997112 -6.895689 -0.005018393,-7.45604 -6.610481 0.2173038,-7.008054 -6.002019 0.425816,-6.697828 -5.441823 0.6719758,-6.369033 -5.187585 0.9338586,-7.36298 -4.384172 0.2448427,-7.258765 -3.366389 0.4168142,-7.212827 -2.741094 0.6013637,-7.178942 -2.187307 0.7353082,-7.695955 -4.228528 0.3258805,-7.620056 -3.014963 0.4891921,-7.559051 -2.237775 0.7116858,-7.512366 -1.589145 0.8988304,-8.009671 -4.287378 0.4243723,-7.971194 -3.152418 0.5702463,-7.92225 -2.445036 0.7245399,-7.867088 -1.851023 0.8452356,-8.325766 -4.544887 0.5491029,-8.385618 -3.671277 0.7130412,-8.401264 -3.105188 0.8345143,-8.395936 -2.551698 0.9126471,0.110,8  0
-1.940089 -6.969114 0.01549392,-2.474706 -6.718551 0.3858557,-2.958078 -6.146152 0.6155053,-3.310747 -5.552572 0.8652064,-3.665154 -5.239933 1.167243,-2.765621 -4.489024 0.1482703,-2.969375 -3.493441 0.3321893,-3.070271 -2.892187 0.4816207,-3.150862 -2.331721 0.6043992,-2.444123 -4.246479 0.1656475,-2.583564 -3.100835 0.2790439,-2.583564 -3.100835 0.2790439,-2.719296 -1.792591 0.5636226,-2.125951 -4.227052 0.2620134,-2.200274 -3.126707 0.3750809,-2.267741 -2.479558 0.5208526,-2.341378 -1.874522 0.6523417,-1.782763 -4.424383 0.4116034,-1.693782 -3.592735 0.5522431,-1.65048 -3.061497 0.6813025,-1.622242 -2.539834 0.7822398,-8.015453 -6.898353 -0.01255084,-7.466652 -6.642633 0.2383202,-7.009089 -6.041758 0.4555689,-6.692095 -5.48217 0.708864,-6.364136 -5.209116 0.9747157,-7.370193 -4.394861 0.2325709,-7.261131 -3.372921 0.4178855,-7.214187 -2.744424 0.6043782,-7.18337 -2.188451 0.7309709,-7.69577 -4.233215 0.2994652,-7.620721 -3.01756 0.4604519,-7.564358 -2.253015 0.67253,-7.527642 -1.60235 0.8409687,-8.005834 -4.28964 0.391876,-7.972941 -3.161133 0.537071,-7.930268 -2.469581 0.6923005,-7.885097 -1.887161 0.8064994,-8.320538 -4.545787 0.5133435,-8.383327 -3.682765 0.6700678,-8.399222 -3.135358 0.7889901,-8.396343 -2.599864 0.8607483,0.210,8  0
-1.925571 -7.002643 0.0853781,-2.470582 -6.751565 0.4467252,-2.968179 -6.166256 0.6606597,-3.31855 -5.561567 0.8916086,-3.656132 -5.207495 1.166016,-2.750455 -4.496746 0.2278566,-2.967912 -3.514557 0.3990907,-3.079414 -2.92534 0.5277803,-3.163143 -2.368652 0.636113,-2.427687 -4.259488 0.2377308,-2.57671 -3.117316 0.3549289,-2.57671 -3.117316 0.3549289,-2.716632 -1.814884 0.630411,-2.109312 -4.247932 0.3261313,-2.181273 -3.150091 0.438987,-2.250512 -2.495773 0.5949827,-2.324908 -1.890477 0.7271125,-1.772359 -4.447624 0.4641138,-1.689713 -3.617227 0.6079699,-1.653807 -3.083558 0.7479366,-1.634034 -2.561597 0.8547372,-8.011532 -6.892372 -0.048239,-7.469039 -6.64797 0.2537624,-7.010394 -6.055952 0.4979734,-6.689395 -5.488207 0.7663055,-6.354652 -5.201951 1.047576,-7.371093 -4.416788 0.2829814,-7.25991 -3.381299 0.4901953,-7.211216 -2.752348 0.6855403,-7.177569 -2.195161 0.8232458,-7.699276 -4.246734 0.3395139,-7.610819 -3.027876 0.5290083,-7.546201 -2.259952 0.7572937,-7.500954 -1.603759 0.9387114,-8.010931 -4.294314 0.4206016,-7.966235 -3.160903 0.6007547,-7.914968 -2.461636 0.7776415,-7.858269 -1.868859 0.9059904,-8.327137 -4.546079 0.5337784,-8.39034 -3.685342 0.7226159,-8.411407 -3.133129 0.8586472,-8.408589 -2.587532 0.9449621,0.310,8  0
-1.895813 -7.026798 0.1608062,-2.441975 -6.787372 0.5210545,-2.941727 -6.19582 0.7391044,-3.291235 -5.603459 0.9771588,-3.642716 -5.30174 1.253145,-2.745879 -4.509285 0.3020211,-2.968111 -3.532192 0.4774393,-3.07799 -2.950219 0.6044989,-3.16069 -2.402128 0.70684,-2.423248 -4.266897 0.3220833,-2.582597 -3.123691 0.4548292,-2.582597 -3.123691 0.4548292,-2.731264 -1.835455 0.7314305,-2.100928 -4.251527 0.4226711,-2.181246 -3.144605 0.5481839,-2.246411 -2.484669 0.7077494,-2.322556 -1.875717 0.8409288,-1.757901 -4.458585 0.5745561,-1.677396 -3.619998 0.7256506,-1.639628 -3.084928 0.862244,-1.622958 -2.564921 0.9714031,-8.009187 -6.888269 -0.03508877,-7.476235 -6.640462 0.2644751,-7.016332 -6.045387 0.5126318,-6.694576 -5.489654 0.7866091,-6.354311 -5.216259 1.078318,-7.370494 -4.407073 0.2992143,-7.256675 -3.381956 0.509611,-7.209797 -2.750508 0.7057062,-7.178728 -2.191009 0.8402181,-7.69978 -4.238385 0.3520641,-7.608066 -3.026346 0.5420415,-7.547756 -2.258772 0.7622963,-7.504498 -1.601788 0.9359799,-8.012494 -4.287698 0.4291923,-7.970527 -3.169151 0.6028688,-7.927584 -2.473312 0.7668392,-7.877123 -1.884932 0.8846834,-8.329026 -4.541233 0.5399886,-8.391418 -3.683618 0.7196897,-8.411898 -3.135948 0.8447523,-8.408965 -2.600458 0.921243,0.410,8  0
-1.878311 -7.024614 0.1693328,-2.431661 -6.775255 0.5386314,-2.932001 -6.189146 0.7704889,-3.28256 -5.595006 1.018491,-3.64419 -5.281677 1.309514,-2.742196 -4.504242 0.3743811,-2.964551 -3.50117 0.5638933,-3.070972 -2.906564 0.7039235,-3.148968 -2.34428 0.8169522,-2.413051 -4.267885 0.3913991,-2.57404 -3.115348 0.5461596,-2.57404 -3.115348 0.5461596,-2.70328 -1.819393 0.8500153,-2.089695 -4.255172 0.4835166,-2.174579 -3.153501 0.6309879,-2.239717 -2.498686 0.7986244,-2.312016 -1.890453 0.9390224,-1.746584 -4.458971 0.624002,-1.672111 -3.625028 0.7910051,-1.638748 -3.093588 0.9320722,-1.623604 -2.573846 1.046755,-8.014124 -6.888769 -0.05738642,-7.479695 -6.644578 0.2498721,-7.021585 -6.056993 0.5020593,-6.700085 -5.499519 0.781994,-6.370311 -5.206098 1.07652,-7.380222 -4.413332 0.2689592,-7.267363 -3.384852 0.4877042,-7.219724 -2.747619 0.6880046,-7.189716 -2.187171 0.8226731,-7.703593 -4.243993 0.3193604,-7.612934 -3.029691 0.5126796,-7.554154 -2.254121 0.7386194,-7.514812 -1.589951 0.9172771,-8.012561 -4.294942 0.3980215,-7.972938 -3.173602 0.5749441,-7.931141 -2.470504 0.7417865,-7.884392 -1.876929 0.8637554,-8.326429 -4.552383 0.5095078,-8.390756 -3.68956 0.6913948,-8.411424 -3.140459 0.8231314,-8.410316 -2.603818 0.9041793,0.510,8  0
-1.885566 -7.032079 0.2183191,-2.439927 -6.791896 0.5632863,-2.940086 -6.191095 0.7735485,-3.28582 -5.592374 1.003135,-3.636768 -5.277578 1.272828,-2.745125 -4.497381 0.3360368,-2.965618 -3.516284 0.5054862,-3.056595 -2.912673 0.6391072,-3.132883 -2.35133 0.7473087,-2.406299 -4.252878 0.3550065,-2.562818 -3.10365 0.4775619,-2.562818 -3.10365 0.4775619,-2.684062 -1.808851 0.7562909,-2.08857 -4.235254 0.4300367,-2.167608 -3.140865 0.5456074,-2.233778 -2.49008 0.7041268,-2.304378 -1.894645 0.8362861,-1.752717 -4.428953 0.5579116,-1.676182 -3.600694 0.6977473,-1.640479 -3.073912 0.8313732,-1.621114 -2.561275 0.9407238,-8.023902 -6.894986 -0.05095045,-7.483694 -6.658477 0.2467317,-7.020159 -6.056056 0.4808675,-6.696978 -5.487806 0.7411032,-6.361836 -5.209125 1.015757,-7.376656 -4.421274 0.2650888,-7.264019 -3.399309 0.4718562,-7.220028 -2.761869 0.6649101,-7.193952 -2.19918 0.8006456,-7.703666 -4.247597 0.312103,-7.611443 -3.038918 0.498803,-7.553988 -2.263752 0.7247875,-7.516366 -1.594243 0.9065684,-8.014744 -4.295125 0.3848937,-7.972838 -3.185061 0.5556457,-7.932305 -2.485743 0.7212002,-7.886211 -1.890767 0.8461527,-8.329373 -4.549045 0.4905012,-8.394913 -3.700963 0.6666004,-8.419464 -3.159564 0.7971416,-8.42135 -2.625984 0.8819496,0.610,8  0
-1.897871 -7.02815 0.2090737,-2.45219 -6.777595 0.4912413,-2.95092 -6.172348 0.6633415,-3.292368 -5.574649 0.869055,-3.636799 -5.266725 1.113659,-2.749393 -4.490322 0.2559676,-2.973927 -3.522503 0.4231201,-3.085241 -2.941072 0.5451379,-3.166951 -2.386859 0.6406333,-2.427615 -4.251878 0.3115294,-2.585024 -3.107987 0.4477893,-2.585024 -3.107987 0.4477893,-2.72484 -1.820577 0.7276697,-2.106287 -4.23635 0.4435588,-2.185123 -3.134645 0.5811555,-2.249139 -2.477664 0.7418924,-2.31939 -1.87655 0.8745891,-1.763499 -4.437986 0.6196243,-1.678961 -3.606202 0.7755441,-1.640896 -3.077442 0.9147211,-1.62399 -2.566809 1.026807,-8.024889 -6.891574 -0.04533394,-7.482931 -6.647825 0.2542883,-7.01986 -6.059318 0.4979298,-6.695028 -5.497999 0.7673377,-6.361577 -5.210092 1.0506,-7.379312 -4.414604 0.2741241,-7.269038 -3.378428 0.4888828,-7.223048 -2.740243 0.6878388,-7.192259 -2.181385 0.8236761,-7.707303 -4.24356 0.3272705,-7.617497 -3.032106 0.5196697,-7.556953 -2.258278 0.7483533,-7.514836 -1.600049 0.931008,-8.018811 -4.295431 0.4067399,-7.977269 -3.177063 0.5856681,-7.930865 -2.470597 0.7572866,-7.878113 -1.876997 0.8828892,-8.333114 -4.555473 0.5193696,-8.398987 -3.700121 0.704292,-8.418653 -3.143056 0.8401076,-8.412049 -2.595258 0.9273462,0.710,8  0
-1.931154 -7.022874 0.1493261,-2.486108 -6.768528 0.4608121,-2.993299 -6.191253 0.667806,-3.351057 -5.621261 0.9049547,-3.687286 -5.313056 1.180943,-2.77535 -4.50496 0.2571163,-2.9999 -3.529527 0.4535576,-3.110435 -2.948264 0.5968288,-3.195107 -2.393892 0.7081279,-2.453288 -4.265403 0.3113962,-2.609523 -3.120858 0.480991,-2.609523 -3.120858 0.480991,-2.751567 -1.828377 0.8031542,-2.127507 -4.249218 0.4436919,-2.211738 -3.153502 0.6038952,-2.276961 -2.49633 0.7815527,-2.344516 -1.88422 0.929387,-1.77949 -4.452569 0.6161709,-1.694633 -3.620814 0.7956382,-1.659719 -3.082621 0.9496331,-1.641585 -2.546007 1.072871,-8.0175 -6.904573 -0.04549214,-7.480222 -6.653772 0.2568375,-7.0165 -6.058261 0.5006748,-6.68555 -5.497535 0.7712042,-6.340509 -5.216054 1.054194,-7.375196 -4.421569 0.2672696,-7.270132 -3.396871 0.4775174,-7.224155 -2.765008 0.680261,-7.189344 -2.205855 0.8195181,-7.699272 -4.256021 0.3224417,-7.615727 -3.045961 0.5131692,-7.556417 -2.270765 0.7457243,-7.512821 -1.60737 0.9323446,-8.009902 -4.3087 0.4051863,-7.972106 -3.1892 0.5839837,-7.931353 -2.483221 0.7594943,-7.882895 -1.886626 0.8855834,-8.327382 -4.56612 0.5204059,-8.394608 -3.711309 0.7086271,-8.417149 -3.16092 0.8410159,-8.41586 -2.623743 0.9236133,0.810,8  0
-2.055848 -7.012088 0.09257967,-2.620594 -6.793437 0.3994294,-3.130493 -6.210069 0.6116743,-3.496922 -5.647827 0.8535792,-3.860375 -5.346658 1.140296,-2.929796 -4.524585 0.2223425,-3.133589 -3.550094 0.440606,-3.241571 -2.966296 0.6028923,-3.333723 -2.398621 0.739807,-2.601378 -4.278556 0.29708,-2.747056 -3.155044 0.4875107,-2.747056 -3.155044 0.4875107,-2.895841 -1.815723 0.8489876,-2.259876 -4.273315 0.4497361,-2.327308 -3.170055 0.6474453,-2.396684 -2.49324 0.8568646,-2.468941 -1.867019 1.030851,-1.893409 -4.486555 0.6364481,-1.802763 -3.641109 0.8551556,-1.778146 -3.095808 1.047719,-1.772076 -2.566583 1.199207,-8.022843 -6.908859 -0.01609529,-7.482557 -6.670653 0.2766715,-7.024718 -6.060682 0.5079752,-6.708979 -5.491222 0.7688489,-6.380795 -5.207822 1.040019,-7.389893 -4.414284 0.2586195,-7.278568 -3.389455 0.4515455,-7.230955 -2.757068 0.6431242,-7.195308 -2.204229 0.7777373,-7.714136 -4.245658 0.3138722,-7.634624 -3.028772 0.4824088,-7.574018 -2.2568 0.6977347,-7.528241 -1.595605 0.8701305,-8.019817 -4.296409 0.3981463,-7.985645 -3.166683 0.5620682,-7.94252 -2.461177 0.7279419,-7.890412 -1.856715 0.8485573,-8.327073 -4.550699 0.5164931,-8.399115 -3.696269 0.6896592,-8.42725 -3.149807 0.8165735,-8.432706 -2.611509 0.8943324,0.910,8  0
-2.197345 -6.984714 0.02327538,-2.788436 -6.785226 0.2268161,-3.29902 -6.145753 0.3580965,-3.655598 -5.547472 0.5412545,-3.984638 -5.200549 0.7584589,-3.037245 -4.488554 -0.01008335,-3.275352 -3.485742 0.1641645,-3.412835 -2.881429 0.2595239,-3.526217 -2.314273 0.3361009,-2.721414 -4.260625 0.0988241,-2.874762 -3.105085 0.2660646,-2.874762 -3.105085 0.2660646,-3.079583 -1.771158 0.5474218,-2.388728 -4.254503 0.2892193,-2.470829 -3.124532 0.4721866,-2.564813 -2.418577 0.6532062,-2.653672 -1.796546 0.7997314,-2.031217 -4.467739 0.5016518,-1.949336 -3.574843 0.6909635,-1.940338 -2.993769 0.8764085,-1.943879 -2.431077 1.028813,-8.076745 -6.944788 -0.06117375,-7.529719 -6.698585 0.2301182,-7.067219 -6.094568 0.4607491,-6.753564 -5.518213 0.7206398,-6.435854 -5.210666 0.9772586,-7.433991 -4.467894 0.2431397,-7.329062 -3.415139 0.4305173,-7.289764 -2.765524 0.6085292,-7.260566 -2.206649 0.7309722,-7.765134 -4.296697 0.2823122,-7.679722 -3.067444 0.4581568,-7.614752 -2.286639 0.6702511,-7.563923 -1.631687 0.8414558,-8.074885 -4.339107 0.3445321,-8.033525 -3.190383 0.5026208,-7.985851 -2.467131 0.6623909,-7.92724 -1.859348 0.7777913,-8.385331 -4.581111 0.4349503,-8.440759 -3.706141 0.6033458,-8.456535 -3.146276 0.729315,-8.448797 -2.606224 0.8070412,1.010,8  0
-2.304877 -6.927904 -0.05890912,-2.892455 -6.717293 0.1485363,-3.407467 -6.091884 0.2898383,-3.754116 -5.454784 0.4775696,-4.075241 -5.035873 0.7019015,-3.166463 -4.468194 0.03663228,-3.454489 -3.441078 0.242191,-3.613193 -2.812412 0.371526,-3.731398 -2.209918 0.4850038,-2.858398 -4.240547 0.1490377,-3.068968 -3.030935 0.3665818,-3.068968 -3.030935 0.3665818,-3.310485 -1.604513 0.7135298,-2.525617 -4.22838 0.3395008,-2.656605 -3.047897 0.56498,-2.783377 -2.307003 0.7810206,-2.891233 -1.642639 0.9758104,-2.156258 -4.424932 0.5443,-2.092814 -3.510501 0.7692953,-2.103103 -2.90091 0.9867941,-2.120844 -2.317643 1.16814,-8.113783 -6.957489 -0.06750901,-7.568998 -6.680803 0.2213242,-7.110111 -6.072881 0.4575519,-6.800133 -5.50357 0.7190828,-6.473517 -5.21779 0.9799103,-7.478825 -4.482251 0.2782609,-7.379367 -3.426156 0.4822634,-7.343882 -2.771321 0.6712599,-7.321115 -2.205729 0.8093132,-7.811419 -4.316658 0.3223861,-7.724729 -3.082595 0.5165596,-7.664833 -2.294727 0.7433624,-7.620044 -1.63289 0.9333206,-8.122269 -4.368577 0.3835008,-8.083264 -3.216877 0.5587317,-8.041668 -2.474971 0.7277252,-7.989945 -1.850622 0.8610553,-8.433843 -4.626056 0.4745986,-8.498157 -3.757248 0.6423274,-8.521705 -3.195964 0.771,-8.519165 -2.651695 0.8569183,1.110,8  0
-2.371962 -6.880016 0.0450169,-2.972253 -6.686622 0.2817956,-3.492167 -6.064741 0.4254549,-3.83599 -5.402519 0.6055906,-4.153008 -4.959374 0.8153555,-3.271949 -4.422558 0.1739512,-3.588755 -3.419382 0.3921657,-3.759937 -2.785427 0.5340344,-3.880021 -2.165015 0.665911,-2.960564 -4.17097 0.2691399,-3.189116 -2.969421 0.484208,-3.189116 -2.969421 0.484208,-3.453439 -1.52772 0.8312436,-2.621995 -4.148023 0.4436472,-2.755085 -2.984004 0.6645907,-2.891307 -2.247183 0.8799595,-3.003447 -1.587772 1.077314,-2.24407 -4.343723 0.639167,-2.186238 -3.431095 0.8705719,-2.212317 -2.813829 1.102489,-2.245861 -2.226091 1.293534,-8.170663 -6.966459 -0.03789906,-7.615547 -6.703947 0.2697009,-7.145788 -6.101197 0.5090895,-6.824484 -5.525365 0.7724298,-6.492364 -5.222481 1.035683,-7.509593 -4.491376 0.3119051,-7.407742 -3.437778 0.5167599,-7.372018 -2.782146 0.7081435,-7.349786 -2.216911 0.8397741,-7.84111 -4.320146 0.3513438,-7.75759 -3.092602 0.5369962,-7.699249 -2.311585 0.7574278,-7.654675 -1.651701 0.9399149,-8.150216 -4.365631 0.4129321,-8.112264 -3.219877 0.5841199,-8.071491 -2.492879 0.7479985,-8.019569 -1.875851 0.8738219,-8.460978 -4.614501 0.5035812,-8.527042 -3.751534 0.6742051,-8.553188 -3.195775 0.7966621,-8.55407 -2.655061 0.8768604,1.210,8  0
-2.502438 -6.654691 0.07148301,-3.111342 -6.496 0.3071679,-3.659065 -5.914613 0.4424165,-4.030082 -5.263534 0.6085822,-4.369862 -4.842572 0.8064461,-3.501398 -4.275758 0.1903222,-3.866238 -3.34661 0.3900865,-4.054893 -2.777139 0.5150386,-4.210466 -2.216468 0.6272515,-3.192833 -3.960483 0.2774464,-3.459478 -2.765274 0.497677,-3.459478 -2.765274 0.497677,-3.774197 -1.382156 0.8595642,-2.857433 -3.903316 0.4406705,-3.028481 -2.729661 0.6861252,-3.179941 -2.03327 0.9243827,-3.31559 -1.412815 1.109684,-2.476523 -4.0725 0.6199368,-2.456615 -3.160704 0.8666075,-2.496642 -2.559661 1.108325,-2.548615 -1.977721 1.291645,-8.209876 -7.003673 -0.04167259,-7.656006 -6.730585 0.2396992,-7.195004 -6.117906 0.4673839,-6.879656 -5.54294 0.7262927,-6.554457 -5.247914 0.9897337,-7.565605 -4.512267 0.2350911,-7.471837 -3.469103 0.4295026,-7.440392 -2.819856 0.6177197,-7.421004 -2.260507 0.7486809,-7.893526 -4.348166 0.282837,-7.82411 -3.115282 0.453947,-7.770684 -2.326169 0.6695991,-7.728708 -1.658777 0.8499135,-8.197525 -4.400439 0.3566506,-8.177634 -3.24883 0.5182117,-8.143192 -2.51312 0.6774433,-8.091627 -1.88841 0.8029879,-8.502461 -4.655199 0.4577493,-8.576263 -3.781854 0.6239549,-8.604671 -3.215759 0.7487758,-8.604285 -2.668648 0.8292306,1.310,8  0
-2.602924 -6.570988 -0.000420434,-3.221016 -6.442811 0.2378105,-3.76985 -5.872365 0.3848987,-4.142789 -5.222118 0.5579972,-4.491771 -4.796642 0.7502956,-3.607117 -4.236413 0.1853421,-4.002134 -3.305139 0.4008236,-4.205189 -2.732379 0.5373629,-4.374992 -2.17219 0.6587958,-3.300694 -3.905508 0.267861,-3.595945 -2.701581 0.5173765,-3.595945 -2.701581 0.5173765,-3.942669 -1.300661 0.9236078,-2.969363 -3.83272 0.4214119,-3.159687 -2.654658 0.691162,-3.324665 -1.945185 0.9405728,-3.474703 -1.318305 1.136884,-2.596349 -3.985937 0.5857877,-2.591345 -3.060701 0.8366087,-2.640566 -2.456707 1.075459,-2.701887 -1.87704 1.256339,-8.221762 -7.02839 -0.03065422,-7.673868 -6.727697 0.2222569,-7.213356 -6.105924 0.4401272,-6.891006 -5.535043 0.6924103,-6.561563 -5.243206 0.9542875,-7.598162 -4.522803 0.224976,-7.5034 -3.475276 0.4137415,-7.46997 -2.829378 0.6002449,-7.451214 -2.263879 0.7316616,-7.925657 -4.367084 0.2915707,-7.856524 -3.131971 0.4681084,-7.802427 -2.344696 0.6891052,-7.762362 -1.679716 0.8731847,-8.229168 -4.428243 0.3797292,-8.207469 -3.276926 0.5477536,-8.170224 -2.538116 0.7170674,-8.117632 -1.907876 0.8517577,-8.532023 -4.694569 0.4943351,-8.609204 -3.82404 0.6729941,-8.63249 -3.265552 0.8098658,-8.627495 -2.729478 0.897488,1.410,8  0
-2.809825 -6.351021 0.006885862,-3.421846 -6.355523 0.2445198,-3.977522 -5.819446 0.3858463,-4.329481 -5.174039 0.5449091,-4.632763 -4.68342 0.7294379,-3.910196 -4.09403 0.1602396,-4.347247 -3.226282 0.3513605,-4.59705 -2.688209 0.4748514,-4.816877 -2.167705 0.5856122,-3.603442 -3.709033 0.2629035,-3.918169 -2.510766 0.5000335,-3.918169 -2.510766 0.5000335,-4.321449 -1.003055 0.9439402,-3.265072 -3.586961 0.4236999,-3.495701 -2.428687 0.6964072,-3.696785 -1.688568 0.9457456,-3.885885 -1.068358 1.141847,-2.879538 -3.679871 0.6036665,-2.928042 -2.721322 0.8580444,-3.004351 -2.088852 1.077979,-3.0964 -1.500161 1.259037,-8.285187 -7.083793 -0.04270891,-7.728523 -6.786293 0.2157552,-7.272102 -6.17437 0.4321606,-6.958611 -5.589069 0.6772716,-6.634826 -5.290182 0.9101347,-7.659892 -4.590095 0.2276171,-7.567625 -3.510947 0.4054884,-7.534675 -2.854178 0.5877961,-7.516352 -2.288257 0.7231944,-7.994514 -4.423794 0.2662848,-7.930387 -3.177087 0.4402961,-7.871991 -2.389462 0.6611386,-7.830184 -1.716238 0.8524818,-8.301708 -4.472395 0.3217424,-8.271094 -3.304489 0.4664738,-8.227949 -2.571844 0.6223454,-8.171882 -1.948911 0.7480084,-8.604938 -4.721513 0.397907,-8.675425 -3.847658 0.5371388,-8.699182 -3.288631 0.6455778,-8.693975 -2.742751 0.7182941,1.510,8  0
-2.901516 -6.309865 0.09166951,-3.504066 -6.269106 0.3992315,-4.024375 -5.742147 0.5919157,-4.33597 -5.086736 0.8022185,-4.52187 -4.520281 1.034255,-3.985405 -4.044432 0.3643322,-4.429971 -3.17682 0.6091251,-4.690413 -2.633296 0.7773075,-4.903569 -2.126374 0.8993981,-3.682945 -3.6507 0.4495133,-4.020337 -2.419478 0.6883953,-4.020337 -2.419478 0.6883953,-4.44673 -0.9848695 1.072881,-3.34444 -3.5566 0.6073583,-3.579216 -2.349945 0.8958834,-3.790277 -1.606346 1.168087,-3.980101 -0.9683728 1.382338,-2.954895 -3.685875 0.7896755,-3.012385 -2.669994 1.051998,-3.095224 -2.032299 1.282014,-3.194337 -1.451928 1.473336,-8.305839 -7.100547 -0.08787192,-7.751849 -6.800354 0.1624565,-7.295593 -6.188039 0.3766957,-6.976532 -5.612353 0.6253174,-6.669143 -5.306501 0.8766081,-7.682373 -4.603538 0.1598516,-7.588044 -3.551077 0.3428151,-7.550649 -2.903819 0.5222054,-7.526653 -2.33445 0.6482077,-8.009232 -4.454663 0.2240924,-7.942641 -3.204439 0.4062361,-7.886298 -2.418018 0.6240021,-7.845754 -1.748693 0.7991523,-8.312402 -4.523755 0.3092249,-8.293676 -3.358171 0.4828811,-8.252699 -2.611712 0.6552418,-8.19481 -1.971893 0.7854204,-8.614538 -4.794219 0.4172643,-8.708266 -3.923217 0.6016426,-8.736358 -3.361583 0.7431137,-8.731887 -2.825349 0.829984,1.610,8  0
-2.992209 -6.304332 0.4694414,-3.589343 -6.191486 0.8374239,-4.157158 -5.661319 1.119073,-4.430699 -4.865643 1.396197,-4.267046 -4.284124 1.63339,-4.085768 -3.96855 0.9129283,-4.535307 -3.100012 1.253514,-4.807736 -2.564288 1.495419,-5.0462 -2.040626 1.636183,-3.783366 -3.558115 0.9763145,-4.132341 -2.332493 1.246567,-4.132341 -2.332493 1.246567,-4.58367 -0.8365998 1.712898,-3.441282 -3.460754 1.10823,-3.679398 -2.238086 1.427209,-3.904767 -1.479836 1.761195,-4.116106 -0.8219924 2.013244,-3.043458 -3.601762 1.275086,-3.10552 -2.568063 1.542458,-3.184786 -1.921951 1.779968,-3.277961 -1.307435 1.979674,-8.338571 -7.123479 -0.07092081,-7.784028 -6.819015 0.1788929,-7.325881 -6.212897 0.3883533,-7.006269 -5.634008 0.6269476,-6.696407 -5.326967 0.8751486,-7.713213 -4.626201 0.1530684,-7.620943 -3.586524 0.3229014,-7.590931 -2.954268 0.5033513,-7.57177 -2.394432 0.6337052,-8.041617 -4.469532 0.2123655,-7.977568 -3.237236 0.3815226,-7.926958 -2.463737 0.5995492,-7.890134 -1.797056 0.7863902,-8.345094 -4.535541 0.2913317,-8.318522 -3.385055 0.4510365,-8.27739 -2.654309 0.6148709,-8.219865 -2.023115 0.7492424,-8.648365 -4.805202 0.3981752,-8.730442 -3.947107 0.5612614,-8.757527 -3.40011 0.6882637,-8.752558 -2.868704 0.7756706,1.710,8  0
-3.001917 -6.280507 0.6054749,-3.618285 -6.17715 0.9538218,-4.207001 -5.625486 1.226008,-4.452733 -4.804664 1.491884,-4.244751 -4.263669 1.711806,-4.120562 -3.911479 1.017072,-4.570757 -3.056177 1.353637,-4.848618 -2.533274 1.584813,-5.091801 -2.025937 1.717438,-3.813938 -3.494835 1.087599,-4.162409 -2.278179 1.34438,-4.162409 -2.278179 1.34438,-4.607522 -0.786305 1.79019,-3.471408 -3.39479 1.224553,-3.71083 -2.174943 1.521778,-3.936792 -1.418795 1.844805,-4.149689 -0.7729888 2.094541,-3.072746 -3.539333 1.397555,-3.136387 -2.51144 1.643902,-3.220117 -1.866189 1.870762,-3.320462 -1.25713 2.068192,-8.330657 -7.160696 -0.06317427,-7.780058 -6.851871 0.1830329,-7.336909 -6.229501 0.3985504,-7.026652 -5.647499 0.6438508,-6.718108 -5.340749 0.8982429,-7.738295 -4.658542 0.1840666,-7.648644 -3.611392 0.3703034,-7.620055 -2.970158 0.5551873,-7.606092 -2.401217 0.6890471,-8.064862 -4.504266 0.2474642,-8.007569 -3.257409 0.4356826,-7.95628 -2.465452 0.6564656,-7.919968 -1.789393 0.8369297,-8.367407 -4.574387 0.329014,-8.351145 -3.406113 0.500431,-8.307305 -2.662285 0.6668341,-8.249143 -2.028058 0.7957798,-8.668256 -4.845207 0.4362425,-8.750637 -3.966317 0.6140286,-8.771707 -3.402097 0.7505892,-8.762752 -2.864528 0.8343135,1.810,8  0
-3.016123 -6.252264 0.7386776,-3.638041 -6.145267 1.123785,-4.246535 -5.591562 1.419532,-4.492904 -4.776321 1.704066,-4.279349 -4.229294 1.939777,-4.161785 -3.868928 1.206036,-4.606338 -3.024926 1.557294,-4.877634 -2.527511 1.799065,-5.116784 -2.039584 1.931537,-3.854428 -3.442569 1.267862,-4.203417 -2.192591 1.539013,-4.203417 -2.192591 1.539013,-4.659571 -0.6752667 1.985497,-3.505146 -3.340248 1.402426,-3.743474 -2.087131 1.716532,-3.970324 -1.306746 2.042626,-4.186882 -0.6283669 2.296669,-3.093197 -3.487823 1.57412,-3.15925 -2.437463 1.830997,-3.247339 -1.778699 2.065769,-3.349174 -1.149438 2.262437,-8.365637 -7.165435 -0.08337937,-7.810772 -6.857049 0.1732419,-7.357392 -6.25053 0.3936976,-7.037645 -5.666601 0.6411725,-6.727815 -5.356639 0.898038,-7.752691 -4.670707 0.1682968,-7.654551 -3.617227 0.3427165,-7.628063 -2.969889 0.5268416,-7.615429 -2.398775 0.6592405,-8.079136 -4.516593 0.2235633,-8.014589 -3.265217 0.3937496,-7.969487 -2.475676 0.608265,-7.938198 -1.798979 0.794158,-8.382603 -4.591794 0.297616,-8.356741 -3.424667 0.4556355,-8.318071 -2.67617 0.6173305,-8.267708 -2.036719 0.7483705,-8.68685 -4.873849 0.3999523,-8.769799 -3.991988 0.5676804,-8.796501 -3.427066 0.7016346,-8.797996 -2.886846 0.7885365,1.910,8  0
-3.011735 -6.247598 0.8775465,-3.636224 -6.133328 1.302159,-4.247625 -5.596479 1.606906,-4.488705 -4.79523 1.887593,-4.264557 -4.285484 2.104805,-4.155878 -3.846782 1.416958,-4.608508 -3.047596 1.793717,-4.876837 -2.568951 2.057585,-5.10676 -2.088536 2.204469,-3.847066 -3.405088 1.458582,-4.201111 -2.139722 1.75097,-4.201111 -2.139722 1.75097,-4.648706 -0.6072412 2.218011,-3.496801 -3.300236 1.574667,-3.724721 -2.035111 1.898148,-3.941259 -1.25083 2.223354,-4.149525 -0.5720487 2.473066,-3.080593 -3.455367 1.730172,-3.141108 -2.395081 1.997558,-3.226806 -1.737504 2.236676,-3.327816 -1.118848 2.420837,-8.350906 -7.14862 -0.08385932,-7.800723 -6.85963 0.1763107,-7.348621 -6.244376 0.3928765,-7.030905 -5.660424 0.6302393,-6.7251 -5.359614 0.8788429,-7.7421 -4.661272 0.1737348,-7.650167 -3.609729 0.3509316,-7.629391 -2.966026 0.5360738,-7.619018 -2.396743 0.6693025,-8.07114 -4.499859 0.2288434,-8.006513 -3.250476 0.4027589,-7.961203 -2.474538 0.6186708,-7.924963 -1.804895 0.8023178,-8.376266 -4.568292 0.3016651,-8.346885 -3.403026 0.4643029,-8.308372 -2.666929 0.636632,-8.254733 -2.030185 0.7756439,-8.680861 -4.849082 0.4032379,-8.764733 -3.976845 0.5710779,-8.795015 -3.425299 0.7055142,-8.796275 -2.894602 0.7985868,2.010,8  0
-2.947332 -6.25082 1.106801,-3.564064 -6.117807 1.627388,-4.193655 -5.610668 2.002069,-4.462548 -4.807519 2.335689,-4.234591 -4.234216 2.58288,-4.079998 -3.795694 1.739711,-4.539557 -3.028822 2.173236,-4.791542 -2.594078 2.478686,-4.997708 -2.171394 2.642154,-3.756353 -3.34477 1.751385,-4.112421 -2.074502 2.079717,-4.112421 -2.074502 2.079717,-4.52849 -0.53332 2.570946,-3.387746 -3.24043 1.858141,-3.616201 -1.950021 2.20798,-3.803482 -1.148935 2.540609,-3.98462 -0.439477 2.793301,-2.94521 -3.411167 2.014456,-3.009997 -2.322701 2.274749,-3.083723 -1.66207 2.520127,-3.172167 -1.041775 2.706115,-8.356574 -7.155768 -0.06617635,-7.801245 -6.872491 0.1884812,-7.348018 -6.256766 0.4002704,-7.030506 -5.67806 0.6361114,-6.723259 -5.380736 0.8822833,-7.747758 -4.657127 0.1673513,-7.658885 -3.616388 0.3396229,-7.634381 -2.98642 0.5223522,-7.619865 -2.429349 0.6546564,-8.078079 -4.499485 0.226584,-8.023972 -3.24753 0.3922508,-7.983473 -2.474696 0.6071634,-7.951044 -1.810401 0.7904654,-8.382433 -4.570171 0.302766,-8.35884 -3.40097 0.4597807,-8.320517 -2.666433 0.6301798,-8.269004 -2.032048 0.7676519,-8.683153 -4.851476 0.4082446,-8.765697 -3.982166 0.5729448,-8.793032 -3.42935 0.7036767,-8.793168 -2.901777 0.7935011,2.110,8  0
-2.932942 -6.273374 1.198442,-3.551931 -6.131517 1.700273,-4.181721 -5.599399 2.062353,-4.448426 -4.772007 2.381328,-4.198991 -4.228307 2.613847,-4.048807 -3.783081 1.803294,-4.500605 -3.012311 2.22936,-4.752041 -2.555824 2.523862,-4.955699 -2.111726 2.678973,-3.721769 -3.327867 1.814097,-4.067719 -2.050742 2.128284,-4.067719 -2.050742 2.128284,-4.474457 -0.508543 2.586237,-3.351001 -3.222451 1.919026,-3.566621 -1.91325 2.253378,-3.750574 -1.099354 2.576138,-3.92837 -0.3950076 2.82126,-2.908978 -3.40238 2.075301,-2.96325 -2.306642 2.318686,-3.032936 -1.630636 2.555593,-3.11652 -1.005899 2.735543,-8.365665 -7.173261 -0.03237555,-7.817251 -6.881565 0.2361066,-7.361828 -6.273602 0.4570757,-7.040944 -5.696992 0.7006558,-6.74108 -5.383426 0.9507712,-7.756723 -4.670887 0.2194799,-7.663045 -3.636135 0.3968822,-7.635561 -2.999438 0.5779215,-7.620298 -2.435578 0.7087357,-8.084466 -4.508836 0.2721934,-8.021545 -3.268247 0.4450718,-7.975804 -2.484647 0.659604,-7.941916 -1.815869 0.8438484,-8.387988 -4.573894 0.3440339,-8.367957 -3.419061 0.5052763,-8.329515 -2.67645 0.6704745,-8.274542 -2.040454 0.805119,-8.688968 -4.8479 0.4461613,-8.776581 -3.985194 0.616411,-8.805589 -3.432075 0.749729,-8.803749 -2.906677 0.8374411,2.210,8  0
-2.908777 -6.213964 1.226154,-3.527224 -6.053649 1.708206,-4.159142 -5.498296 2.059068,-4.430924 -4.679256 2.371717,-4.179028 -4.175378 2.599305,-4.000713 -3.703277 1.785721,-4.448027 -2.960266 2.24008,-4.696875 -2.547914 2.574183,-4.902023 -2.161312 2.745483,-3.674326 -3.246739 1.806115,-4.003886 -1.967734 2.151141,-4.003886 -1.967734 2.151141,-4.409721 -0.4028888 2.655148,-3.300112 -3.141731 1.922231,-3.507044 -1.844133 2.275177,-3.679628 -1.04096 2.601507,-3.854815 -0.3378334 2.845069,-2.861858 -3.326478 2.085052,-2.889267 -2.255392 2.344687,-2.944311 -1.58468 2.579905,-3.021779 -0.9529166 2.755695,-8.356777 -7.173524 -0.1060989,-7.809053 -6.871567 0.1518769,-7.361676 -6.268996 0.3692439,-7.041525 -5.692446 0.6079548,-6.738268 -5.387756 0.8548038,-7.758701 -4.691071 0.1607374,-7.667489 -3.639953 0.3450605,-7.64555 -2.99949 0.528414,-7.634203 -2.433769 0.6554675,-8.085378 -4.531606 0.2171546,-8.023583 -3.263681 0.3965413,-7.980566 -2.484313 0.6100112,-7.945372 -1.81567 0.7871554,-8.386968 -4.60246 0.2905803,-8.366155 -3.419834 0.4594123,-8.330031 -2.678584 0.6369413,-8.279725 -2.039203 0.7750108,-8.685738 -4.884677 0.39128,-8.779228 -4.017152 0.5671111,-8.809956 -3.464455 0.7088523,-8.810282 -2.938486 0.7996667,2.310,8  0
-2.899397 -6.188818 1.226977,-3.526731 -6.026409 1.69975,-4.152912 -5.47455 2.046936,-4.413573 -4.637942 2.34694,-4.150247 -4.122175 2.558754,-3.990401 -3.67698 1.792189,-4.436139 -2.919679 2.22999,-4.68442 -2.493103 2.546847,-4.883516 -2.099388 2.705771,-3.66004 -3.220313 1.807915,-3.99222 -1.940168 2.142781,-3.99222 -1.940168 2.142781,-4.412571 -0.3606124 2.619862,-3.287104 -3.118964 1.914218,-3.494366 -1.816793 2.256926,-3.676566 -1.012861 2.565975,-3.852526 -0.3273187 2.797505,-2.851189 -3.305449 2.06874,-2.872951 -2.235502 2.316593,-2.926231 -1.554046 2.541434,-2.999856 -0.9267001 2.711959,-8.365882 -7.176464 -0.0590582,-7.812014 -6.887455 0.2011802,-7.35899 -6.280703 0.4164984,-7.03689 -5.699047 0.6556212,-6.730893 -5.397033 0.9065872,-7.756176 -4.680629 0.1823997,-7.669352 -3.632817 0.3564244,-7.648464 -2.998007 0.5366527,-7.635599 -2.43881 0.6641217,-8.086987 -4.519237 0.24328,-8.02948 -3.2658 0.4105432,-7.985929 -2.49183 0.6235989,-7.948561 -1.829313 0.8029137,-8.392567 -4.592968 0.3213828,-8.3697 -3.415384 0.4891533,-8.330721 -2.675132 0.6725719,-8.274974 -2.03759 0.815799,-8.695558 -4.880226 0.4276418,-8.787249 -4.016573 0.6070864,-8.819214 -3.464038 0.7497987,-8.818045 -2.937341 0.8476015,2.410,8  0
-2.913034 -6.17517 1.298856,-3.53125 -6.014684 1.800911,-4.159672 -5.446058 2.164181,-4.415047 -4.604385 2.473492,-4.143026 -4.098373 2.689111,-3.98963 -3.645285 1.903216,-4.417353 -2.892746 2.379241,-4.661184 -2.478082 2.725561,-4.863359 -2.105183 2.908152,-3.658682 -3.18881 1.917082,-3.979 -1.90196 2.281412,-3.979 -1.90196 2.281412,-4.398808 -0.2856536 2.814739,-3.282972 -3.09444 2.022963,-3.493926 -1.789197 2.397497,-3.681264 -0.9765944 2.728745,-3.86289 -0.2932725 2.984241,-2.845826 -3.29843 2.178212,-2.848248 -2.227428 2.4501,-2.897425 -1.536383 2.684822,-2.966683 -0.9054646 2.871343,-8.380842 -7.189825 -0.1312803,-7.827422 -6.892355 0.1192651,-7.373174 -6.292339 0.3284004,-7.045907 -5.714057 0.5601055,-6.739882 -5.40548 0.8032181,-7.763985 -4.712686 0.09245946,-7.676345 -3.659502 0.2571057,-7.650995 -3.013929 0.4331242,-7.63761 -2.450196 0.5590893,-8.091862 -4.551612 0.1439768,-8.033014 -3.286822 0.3035735,-7.9867 -2.496737 0.5127821,-7.951997 -1.829407 0.6882436,-8.395001 -4.619731 0.2127706,-8.37839 -3.443149 0.3649048,-8.340396 -2.696469 0.528676,-8.288214 -2.059465 0.6545711,-8.695541 -4.892586 0.3101599,-8.786942 -4.02323 0.4777915,-8.813667 -3.474288 0.6108732,-8.811311 -2.95865 0.6933556,2.510,8  0
-2.926064 -6.170093 1.399334,-3.527577 -6.00045 1.965158,-4.159028 -5.439344 2.385967,-4.414732 -4.593415 2.744813,-4.129602 -4.038564 2.992538,-3.970331 -3.622404 2.129382,-4.405645 -2.857895 2.67235,-4.6427 -2.467114 3.062044,-4.812386 -2.184269 3.266761,-3.635228 -3.17155 2.136674,-3.958241 -1.845732 2.54583,-3.958241 -1.845732 2.54583,-4.37508 -0.1635804 3.123798,-3.253458 -3.091526 2.23966,-3.472103 -1.764954 2.653612,-3.660051 -0.9520144 2.975551,-3.831818 -0.2595658 3.214288,-2.805107 -3.308097 2.397662,-2.799501 -2.230325 2.686157,-2.841323 -1.541826 2.911045,-2.894888 -0.9076819 3.078135,-8.372526 -7.178173 -0.05539037,-7.821499 -6.88677 0.2081115,-7.373364 -6.278179 0.4279462,-7.056288 -5.699779 0.67277,-6.747789 -5.397784 0.9313344,-7.774183 -4.671138 0.2028781,-7.691429 -3.622949 0.381254,-7.672497 -2.982445 0.5646561,-7.665258 -2.419346 0.6925061,-8.102884 -4.520708 0.2621738,-8.056278 -3.266402 0.4282197,-8.016862 -2.484462 0.6385315,-7.986514 -1.819097 0.8094311,-8.406296 -4.600507 0.3410022,-8.399692 -3.429821 0.5074031,-8.364628 -2.692008 0.6871427,-8.314376 -2.05768 0.8227362,-8.707344 -4.889259 0.4494874,-8.802129 -4.028013 0.6318904,-8.831862 -3.471191 0.7756789,-8.831092 -2.940886 0.8656282,2.610,8  0
-2.911042 -6.167827 1.345586,-3.510221 -5.989755 1.90666,-4.146997 -5.437177 2.316119,-4.414295 -4.581571 2.664409,-4.119786 -4.026789 2.896555,-3.955357 -3.630838 2.041167,-4.384262 -2.879123 2.571834,-4.622869 -2.480155 2.955594,-4.79969 -2.165288 3.162524,-3.623796 -3.177759 2.047228,-3.940849 -1.850858 2.451106,-3.940849 -1.850858 2.451106,-4.356508 -0.1655817 3.032749,-3.247489 -3.08388 2.149963,-3.470272 -1.75019 2.553407,-3.659672 -0.9229445 2.87239,-3.834595 -0.2315001 3.113719,-2.802781 -3.285492 2.311161,-2.794808 -2.207262 2.586062,-2.830809 -1.508018 2.81201,-2.878108 -0.8761935 2.983425,-8.37919 -7.194692 -0.03521222,-7.830826 -6.893924 0.2238043,-7.379864 -6.285297 0.4449688,-7.057416 -5.709167 0.6937702,-6.744264 -5.396677 0.9573292,-7.768169 -4.684806 0.2154401,-7.685765 -3.633674 0.391515,-7.666593 -2.988419 0.5757746,-7.656393 -2.416017 0.7075469,-8.097425 -4.532545 0.2814559,-8.048909 -3.29424 0.4460252,-8.008352 -2.517468 0.6538129,-7.973888 -1.850646 0.8291971,-8.401784 -4.604848 0.3651233,-8.389417 -3.442235 0.5261791,-8.357408 -2.706613 0.7010645,-8.309431 -2.067963 0.8350549,-8.706074 -4.885362 0.4784921,-8.797049 -4.012741 0.6564463,-8.825352 -3.449236 0.7928198,-8.825388 -2.903874 0.8797126,2.710,8  0
-2.910913 -6.09881 1.318706,-3.511885 -5.940135 1.859099,-4.156222 -5.388591 2.266876,-4.430408 -4.522489 2.615444,-4.11836 -3.96928 2.843746,-3.963318 -3.579814 2.00175,-4.393267 -2.836582 2.533786,-4.634003 -2.450193 2.927093,-4.802204 -2.179584 3.144368,-3.634266 -3.118515 2.016476,-3.96406 -1.781553 2.413325,-3.96406 -1.781553 2.413325,-4.400724 -0.05045366 3.018457,-3.25458 -3.026937 2.121439,-3.487316 -1.692532 2.513622,-3.678703 -0.8736663 2.820211,-3.845096 -0.1880493 3.058456,-2.805959 -3.235614 2.283591,-2.794178 -2.153087 2.552037,-2.831739 -1.455068 2.763745,-2.874329 -0.8243003 2.927298,-8.38299 -7.18811 -0.04578802,-7.831806 -6.893597 0.2315542,-7.374769 -6.283226 0.4525371,-7.048407 -5.709461 0.6982144,-6.741149 -5.398556 0.9496692,-7.769643 -4.679929 0.2146592,-7.682642 -3.629689 0.3942546,-7.665222 -2.98479 0.5814462,-7.658321 -2.412932 0.7141895,-8.096096 -4.529085 0.2668003,-8.045085 -3.282424 0.4350943,-8.006306 -2.504999 0.6503842,-7.975958 -1.83057 0.8313694,-8.396908 -4.606761 0.341702,-8.38373 -3.44167 0.509406,-8.35358 -2.706122 0.6873208,-8.3084 -2.063859 0.8250633,-8.697881 -4.893573 0.4452939,-8.784335 -4.032842 0.6279183,-8.812821 -3.483472 0.7669853,-8.813565 -2.957206 0.8566796,2.810,8  0
-2.931382 -6.085422 1.38892,-3.531696 -5.929083 1.964319,-4.175517 -5.377874 2.389915,-4.436965 -4.526969 2.751575,-4.125754 -3.993306 2.995036,-3.973179 -3.560208 2.142859,-4.392256 -2.827718 2.71499,-4.633117 -2.453382 3.141739,-4.799534 -2.211715 3.378483,-3.637572 -3.096537 2.154973,-3.959326 -1.745703 2.579599,-3.959326 -1.745703 2.579599,-4.39522 0.02528095 3.223503,-3.252266 -3.006301 2.256155,-3.477513 -1.656954 2.675482,-3.660004 -0.8041444 3.004611,-3.826327 -0.07844257 3.264126,-2.800607 -3.224906 2.415658,-2.790892 -2.137187 2.697619,-2.830886 -1.426895 2.914455,-2.881768 -0.7812057 3.089513,-8.365633 -7.166492 -0.06006299,-7.812284 -6.883505 0.1993845,-7.359827 -6.278672 0.4139409,-7.039521 -5.703698 0.6545967,-6.731648 -5.402975 0.9055912,-7.758245 -4.662744 0.177579,-7.672418 -3.620521 0.350095,-7.652313 -2.982804 0.5321977,-7.642641 -2.426061 0.6590462,-8.087523 -4.508886 0.2370664,-8.035034 -3.257684 0.4008023,-7.998157 -2.479573 0.6146114,-7.968642 -1.819477 0.790302,-8.392083 -4.586111 0.3158916,-8.378525 -3.422325 0.4802386,-8.344967 -2.683201 0.6543339,-8.294031 -2.049249 0.7882976,-8.694934 -4.873632 0.4241456,-8.788195 -4.015762 0.5997099,-8.820158 -3.46408 0.7385868,-8.8206 -2.938253 0.8272256,2.910,8  0
-2.931174 -6.061477 1.425928,-3.542654 -5.881557 1.989326,-4.184546 -5.335017 2.412337,-4.442622 -4.477548 2.772208,-4.122858 -3.922989 3.011086,-3.988847 -3.512014 2.15351,-4.410987 -2.75585 2.71024,-4.654188 -2.366565 3.115999,-4.828054 -2.100372 3.34093,-3.649094 -3.06037 2.176805,-3.975199 -1.699395 2.605654,-3.975199 -1.699395 2.605654,-4.421816 0.06115389 3.262127,-3.261317 -2.981423 2.288886,-3.486817 -1.624652 2.713215,-3.677705 -0.7719741 3.052759,-3.851535 -0.05178785 3.320993,-2.807941 -3.208452 2.456821,-2.792089 -2.13067 2.740316,-2.837694 -1.420514 2.964924,-2.895148 -0.7725797 3.149437,-8.369322 -7.201874 -0.02957238,-7.818818 -6.906021 0.2324022,-7.365694 -6.285413 0.4487979,-7.043561 -5.704042 0.6897689,-6.730317 -5.398328 0.9419765,-7.758537 -4.693413 0.2342346,-7.672366 -3.65064 0.4089862,-7.651983 -3.009248 0.589654,-7.643175 -2.441466 0.7191626,-8.091441 -4.538244 0.2916895,-8.038413 -3.286442 0.4583316,-7.994825 -2.501393 0.6739013,-7.959717 -1.831287 0.8537505,-8.398113 -4.615263 0.3649453,-8.383387 -3.440137 0.5309042,-8.346862 -2.692431 0.7117346,-8.294097 -2.046564 0.8511391,-8.702217 -4.902528 0.4660444,-8.788564 -4.032821 0.6480218,-8.814882 -3.474494 0.7905712,-8.811018 -2.944987 0.881829,3.010,8  0
-2.914806 -6.045122 1.463282,-3.525495 -5.872036 2.026809,-4.179072 -5.320388 2.459518,-4.450476 -4.450749 2.831886,-4.124679 -3.887732 3.084613,-3.982859 -3.493276 2.180043,-4.395168 -2.748056 2.763862,-4.630692 -2.410385 3.208264,-4.789298 -2.251342 3.465345,-3.644346 -3.033493 2.20605,-3.96265 -1.675241 2.630733,-3.96265 -1.675241 2.630733,-4.425592 0.1114674 3.300641,-3.252687 -2.953396 2.323767,-3.479509 -1.602959 2.74527,-3.667154 -0.7538829 3.069454,-3.841158 -0.038517 3.330127,-2.79377 -3.181204 2.501124,-2.774655 -2.115188 2.774228,-2.819149 -1.40875 2.984343,-2.878048 -0.762301 3.155622,-8.361958 -7.184237 -0.05585111,-7.806274 -6.882729 0.1987545,-7.359496 -6.271007 0.4128881,-7.041674 -5.691818 0.651096,-6.728796 -5.395856 0.8978847,-7.757933 -4.679828 0.2012277,-7.669677 -3.635693 0.3835389,-7.647418 -3.002547 0.5714014,-7.638916 -2.439565 0.7036643,-8.089951 -4.526603 0.2572426,-8.038077 -3.269863 0.4264824,-7.999668 -2.487784 0.6435341,-7.96899 -1.817709 0.8234833,-8.394855 -4.60403 0.3301322,-8.385468 -3.42526 0.4947065,-8.356824 -2.680585 0.6646971,-8.312979 -2.038448 0.7958876,-8.696269 -4.890941 0.4303383,-8.783643 -4.018442 0.6000773,-8.812815 -3.455478 0.7307221,-8.813033 -2.918483 0.8136626,3.110,8  0
-2.919526 -6.021803 1.485545,-3.529712 -5.847549 2.074528,-4.174821 -5.291681 2.524425,-4.441019 -4.432895 2.910769,-4.129435 -3.877047 3.186236,-3.975716 -3.477129 2.275239,-4.392711 -2.737076 2.882982,-4.634329 -2.41745 3.337357,-4.802568 -2.274748 3.596039,-3.636395 -3.018023 2.296593,-3.957157 -1.654522 2.741343,-3.957157 -1.654522 2.741343,-4.429613 0.1246085 3.430048,-3.240201 -2.939818 2.411248,-3.473398 -1.579759 2.857337,-3.656138 -0.7242236 3.195313,-3.833407 0.01150084 3.469141,-2.77666 -3.171466 2.5811,-2.761363 -2.100968 2.869633,-2.802282 -1.392491 3.085031,-2.86162 -0.7352557 3.261637,-8.350554 -7.173833 -0.06047579,-7.800476 -6.882806 0.2024648,-7.348121 -6.264604 0.4141499,-7.023752 -5.693695 0.6517322,-6.708004 -5.408838 0.8999181,-7.741029 -4.674653 0.1902874,-7.651939 -3.625493 0.3637797,-7.630095 -2.985387 0.5412586,-7.61756 -2.418946 0.6694167,-8.073002 -4.517318 0.245856,-8.01501 -3.261465 0.410139,-7.973075 -2.483808 0.621005,-7.937948 -1.813791 0.8005254,-8.380565 -4.589544 0.3193688,-8.35489 -3.410594 0.480696,-8.320397 -2.668334 0.6547924,-8.2709 -2.025226 0.7939582,-8.685863 -4.872056 0.4218343,-8.767572 -3.998306 0.5912464,-8.795749 -3.44318 0.7253132,-8.795944 -2.911905 0.8163259,3.210,8  0
-2.931721 -6.069179 1.579077,-3.534972 -5.881729 2.181172,-4.187845 -5.329526 2.62045,-4.462013 -4.46636 2.993365,-4.130173 -3.887674 3.250337,-3.974748 -3.496578 2.338732,-4.388693 -2.768996 2.918201,-4.628494 -2.400898 3.3416,-4.797067 -2.196461 3.587079,-3.627138 -3.018706 2.338562,-3.93831 -1.663756 2.762145,-3.93831 -1.663756 2.762145,-4.393827 0.1100841 3.406582,-3.234838 -2.928503 2.437124,-3.454577 -1.569798 2.854244,-3.629645 -0.7083735 3.172626,-3.801208 0.01188326 3.427993,-2.777797 -3.158369 2.597681,-2.764718 -2.102643 2.886249,-2.801142 -1.402187 3.07311,-2.856521 -0.7670522 3.224555,-8.379898 -7.180892 -0.07939825,-7.818367 -6.888376 0.1842057,-7.361888 -6.290226 0.3984182,-7.04416 -5.705255 0.6392188,-6.739757 -5.39002 0.8837842,-7.752347 -4.688539 0.1566771,-7.65799 -3.63737 0.3320576,-7.631798 -2.989471 0.5138367,-7.619446 -2.420663 0.64165,-8.083959 -4.529344 0.2044573,-8.027724 -3.27762 0.3683695,-7.986965 -2.491492 0.5826877,-7.959856 -1.820701 0.7589458,-8.389007 -4.594718 0.2704482,-8.37541 -3.430327 0.4254694,-8.34339 -2.689944 0.5912631,-8.296275 -2.056218 0.719014,-8.691538 -4.864633 0.3675211,-8.782202 -4.001345 0.5300807,-8.812903 -3.446746 0.6615569,-8.812784 -2.911987 0.7421578,3.310,8  0
-2.914293 -6.023463 1.531153,-3.517161 -5.85646 2.144966,-4.166019 -5.327967 2.615208,-4.446398 -4.474962 3.014397,-4.129819 -3.906477 3.298946,-3.968088 -3.479157 2.329483,-4.377977 -2.733018 2.939763,-4.611931 -2.394067 3.402033,-4.767935 -2.220865 3.669108,-3.623332 -3.004488 2.344185,-3.932331 -1.627222 2.791584,-3.932331 -1.627222 2.791584,-4.392066 0.2060256 3.500878,-3.221087 -2.920953 2.454755,-3.439598 -1.561399 2.900985,-3.618864 -0.707994 3.237684,-3.788303 0.02525616 3.504169,-2.751374 -3.150852 2.626298,-2.7282 -2.084295 2.916435,-2.764472 -1.381513 3.132477,-2.822081 -0.7354989 3.303795,-8.380698 -7.187036 -0.07200579,-7.826422 -6.900066 0.2176302,-7.371065 -6.29371 0.453406,-7.049994 -5.716504 0.7082585,-6.74884 -5.393493 0.9690412,-7.769952 -4.697339 0.2318643,-7.681175 -3.636829 0.4285735,-7.658247 -2.986973 0.6178402,-7.650708 -2.414527 0.7504887,-8.100964 -4.539461 0.2774732,-8.048446 -3.274184 0.4671925,-8.00852 -2.483051 0.68601,-7.981158 -1.805782 0.8623372,-8.405255 -4.611938 0.3402746,-8.396627 -3.432836 0.5209217,-8.361248 -2.684798 0.7028669,-8.310076 -2.044027 0.8398173,-8.705441 -4.886745 0.434739,-8.797604 -4.017577 0.6241755,-8.826449 -3.45708 0.7708567,-8.823582 -2.925699 0.861306,3.410,8  0
-2.881994 -6.017992 1.375734,-3.488197 -5.835289 2.01126,-4.106328 -5.295392 2.474807,-4.367451 -4.434814 2.864373,-4.077434 -3.856102 3.157239,-3.900364 -3.456268 2.169501,-4.290662 -2.733113 2.742244,-4.519491 -2.390472 3.166416,-4.687229 -2.206352 3.404741,-3.5525 -2.977289 2.15582,-3.885699 -1.693944 2.611901,-3.885699 -1.693944 2.611901,-4.320236 0.0945425 3.276742,-3.189239 -2.95462 2.258021,-3.377273 -1.605946 2.673428,-3.537193 -0.7641425 2.984698,-3.683564 -0.06107235 3.237981,-2.723671 -3.180749 2.408846,-2.697304 -2.120606 2.685634,-2.73693 -1.413266 2.912592,-2.795218 -0.7763171 3.095255,-8.376907 -7.184984 -0.04007674,-7.823052 -6.892595 0.2331759,-7.368416 -6.278789 0.4528536,-7.046028 -5.708072 0.6983805,-6.726704 -5.417465 0.9534597,-7.763203 -4.672945 0.2202003,-7.680298 -3.628757 0.4041464,-7.660658 -2.987741 0.5924987,-7.653601 -2.421949 0.7226034,-8.094124 -4.524026 0.2739146,-8.0483 -3.268265 0.4464064,-8.011859 -2.486767 0.6656622,-7.982853 -1.813117 0.8408718,-8.398568 -4.603143 0.3482269,-8.392929 -3.431364 0.516752,-8.36302 -2.692836 0.6947649,-8.319984 -2.054711 0.8268781,-8.700233 -4.887186 0.451297,-8.788272 -4.022105 0.6329026,-8.816607 -3.465738 0.7703745,-8.818669 -2.938247 0.8541938,3.510,8  0
-2.853632 -5.959718 1.499089,-3.45925 -5.805357 2.155587,-4.103407 -5.227073 2.637273,-4.383423 -4.362779 3.03725,-4.059629 -3.804333 3.342799,-3.876646 -3.413719 2.331452,-4.240934 -2.684006 2.936552,-4.459378 -2.325122 3.388042,-4.613405 -2.139804 3.6413,-3.518364 -2.941664 2.316921,-3.789795 -1.656299 2.721117,-3.789795 -1.656299 2.721117,-4.22666 0.1519356 3.395412,-3.109191 -2.84396 2.402385,-3.307466 -1.538221 2.808803,-3.46646 -0.7054324 3.128888,-3.616792 0.01468372 3.398802,-2.638497 -3.068492 2.562805,-2.6154 -2.028217 2.816022,-2.637538 -1.310939 3.025133,-2.675561 -0.6414771 3.210233,-8.384653 -7.185427 -0.101231,-7.828871 -6.904552 0.1733704,-7.373602 -6.30397 0.3917513,-7.053396 -5.726265 0.6298225,-6.751935 -5.415718 0.867629,-7.769551 -4.70668 0.1755811,-7.677351 -3.652252 0.3606553,-7.65264 -3.006837 0.543536,-7.641943 -2.440731 0.6747279,-8.0985 -4.543256 0.2188765,-8.042284 -3.277809 0.3959265,-8.000568 -2.487842 0.6159123,-7.970824 -1.815425 0.7966778,-8.400927 -4.603212 0.278436,-8.386364 -3.423886 0.4445468,-8.355461 -2.677298 0.6187651,-8.310258 -2.036519 0.7540013,-8.698896 -4.869389 0.3653807,-8.79089 -3.99896 0.5402204,-8.825856 -3.440587 0.676254,-8.831089 -2.909292 0.7638012,3.610,8  0
-2.821205 -5.961751 1.459373,-3.435187 -5.822652 2.111588,-4.089811 -5.25572 2.580369,-4.362385 -4.362403 2.957695,-4.022292 -3.780431 3.234299,-3.830139 -3.426603 2.293948,-4.199282 -2.70094 2.874641,-4.405933 -2.320219 3.289647,-4.56858 -2.09975 3.513751,-3.450879 -2.943359 2.259411,-3.715055 -1.698907 2.651069,-3.715055 -1.698907 2.651069,-4.127843 -0.01150513 3.217141,-3.033499 -2.83646 2.32207,-3.200539 -1.544708 2.707958,-3.341984 -0.7216477 2.992467,-3.495942 -0.03879452 3.235215,-2.55903 -3.058692 2.466312,-2.532157 -2.012062 2.699933,-2.545406 -1.289433 2.902369,-2.589826 -0.635385 3.081734,-8.349186 -7.18116 -0.03193333,-7.794332 -6.898496 0.2472939,-7.340697 -6.269371 0.4709418,-7.024528 -5.681757 0.716459,-6.703533 -5.4031 0.9697026,-7.735789 -4.676033 0.2626514,-7.645878 -3.612818 0.4658977,-7.631653 -2.959387 0.6627975,-7.631143 -2.375575 0.7977446,-8.071456 -4.521251 0.3138054,-8.010312 -3.257963 0.4983985,-7.976766 -2.475819 0.7162191,-7.953899 -1.801404 0.8927202,-8.380886 -4.594314 0.3838672,-8.355497 -3.413668 0.5644557,-8.334304 -2.670274 0.747759,-8.303039 -2.022367 0.8858414,-8.691274 -4.877244 0.4834132,-8.768749 -4.002463 0.6640118,-8.804898 -3.445697 0.8043036,-8.817903 -2.905647 0.8982291,3.710,8  0
-2.840313 -5.889995 1.323623,-3.428501 -5.773551 1.987708,-4.071104 -5.239058 2.491031,-4.347176 -4.388765 2.914971,-3.998772 -3.830118 3.23629,-3.808234 -3.38147 2.125021,-4.176872 -2.66737 2.727175,-4.375912 -2.340975 3.171642,-4.493955 -2.237327 3.40611,-3.438725 -2.904122 2.116427,-3.699696 -1.609568 2.48955,-3.699696 -1.609568 2.48955,-4.109875 0.2022429 3.11343,-3.0207 -2.816674 2.203438,-3.194901 -1.509176 2.593288,-3.347736 -0.6843305 2.872586,-3.487712 0.0217905 3.107162,-2.541417 -3.049062 2.370527,-2.494689 -2.002115 2.603333,-2.497465 -1.288105 2.789881,-2.519506 -0.627564 2.958783,-8.327798 -7.144889 -0.07636689,-7.776199 -6.84579 0.1776285,-7.323511 -6.237073 0.3892288,-7.002397 -5.671161 0.6278031,-6.689724 -5.382513 0.8740356,-7.726065 -4.651166 0.1679565,-7.628619 -3.597664 0.3471828,-7.60126 -2.957492 0.5288597,-7.58725 -2.38551 0.6576444,-8.051969 -4.493045 0.2319728,-7.992599 -3.224247 0.4060111,-7.955518 -2.441254 0.6283689,-7.927729 -1.770064 0.8102263,-8.35192 -4.567064 0.3173713,-8.336727 -3.390149 0.4840673,-8.306895 -2.643828 0.6608321,-8.260336 -2.003767 0.7979816,-8.649991 -4.849747 0.4284918,-8.739901 -3.975129 0.6127557,-8.770729 -3.419252 0.7561364,-8.769928 -2.898778 0.8472126,3.810,8  0
-2.821575 -5.961215 1.439232,-3.418637 -5.770616 2.042379,-4.074667 -5.194784 2.510762,-4.333994 -4.335739 2.917274,-3.97854 -3.781404 3.231173,-3.826015 -3.363144 2.077438,-4.1821 -2.638397 2.611292,-4.366837 -2.300507 3.011187,-4.483241 -2.204666 3.226137,-3.432278 -2.903688 2.063309,-3.654641 -1.729575 2.361003,-3.654641 -1.729575 2.361003,-3.99222 -0.1686683 2.79828,-3.007315 -2.81459 2.157248,-3.134568 -1.590755 2.451507,-3.244745 -0.8141007 2.671301,-3.362776 -0.177609 2.85985,-2.530504 -3.048597 2.33493,-2.474419 -2.029363 2.518332,-2.462804 -1.321818 2.684195,-2.477083 -0.6688323 2.826064,-8.340989 -7.166912 -0.08078273,-7.784955 -6.855472 0.1554177,-7.333136 -6.251764 0.3728787,-7.009003 -5.68407 0.6219605,-6.696254 -5.382427 0.8861869,-7.723334 -4.668519 0.14694,-7.62702 -3.613617 0.3203702,-7.597323 -2.964567 0.4971986,-7.580928 -2.387409 0.6260732,-8.04907 -4.517336 0.2212418,-7.989582 -3.251578 0.3934588,-7.947338 -2.457118 0.609866,-7.918226 -1.78182 0.7890251,-8.3517 -4.591767 0.3146429,-8.339454 -3.41488 0.4761649,-8.302378 -2.66369 0.6457759,-8.249482 -2.025152 0.7766076,-8.655361 -4.868148 0.4339499,-8.746608 -3.974748 0.6163896,-8.772312 -3.39888 0.757782,-8.768187 -2.855978 0.8441048,3.910,8  0
-2.840633 -5.893924 1.375676,-3.441846 -5.747272 2.077344,-4.059843 -5.216293 2.632191,-4.288142 -4.407779 3.09484,-3.96108 -3.841823 3.472806,-3.80941 -3.384092 2.293955,-4.150699 -2.646438 2.939153,-4.341818 -2.328464 3.407642,-4.454502 -2.250777 3.647199,-3.400846 -2.914933 2.274637,-3.621256 -1.664865 2.658704,-3.621256 -1.664865 2.658704,-3.974504 0.1157551 3.238442,-2.952914 -2.840116 2.344526,-3.072433 -1.582228 2.720862,-3.178606 -0.7871747 2.980991,-3.277392 -0.0862298 3.205029,-2.452152 -3.079111 2.500714,-2.398904 -2.030071 2.736721,-2.387138 -1.283195 2.926586,-2.391624 -0.5662608 3.108554,-8.338385 -7.17345 -0.04713055,-7.790187 -6.876523 0.2072312,-7.338391 -6.267717 0.4260621,-7.013595 -5.695192 0.6741698,-6.701303 -5.388567 0.9349381,-7.734286 -4.669754 0.1739199,-7.638261 -3.620002 0.351716,-7.609297 -2.967739 0.5292426,-7.594803 -2.39401 0.6547985,-8.057707 -4.511274 0.2398257,-7.997568 -3.251699 0.4092982,-7.95751 -2.45506 0.6263787,-7.930835 -1.785285 0.8067222,-8.35683 -4.583884 0.3292015,-8.348779 -3.416246 0.491976,-8.315993 -2.66539 0.6640695,-8.264235 -2.030546 0.7942215,-8.657809 -4.860958 0.44686,-8.755878 -3.979858 0.6331987,-8.785024 -3.411929 0.775975,-8.781512 -2.883992 0.8593777,4.010,8  0
-2.850108 -5.928349 1.484434,-3.447062 -5.787504 2.210032,-4.075657 -5.230337 2.762198,-4.30112 -4.429601 3.215705,-3.967499 -3.886047 3.576233,-3.804427 -3.39458 2.422691,-4.145708 -2.666523 3.074211,-4.332928 -2.317741 3.513915,-4.46242 -2.175958 3.732046,-3.38592 -2.912796 2.386233,-3.604721 -1.684188 2.786236,-3.604721 -1.684188 2.786236,-3.945681 0.03816319 3.310227,-2.936288 -2.827903 2.44767,-3.051763 -1.573724 2.827634,-3.1461 -0.7657361 3.078023,-3.248216 -0.08396816 3.295689,-2.43493 -3.0736 2.604675,-2.376595 -2.036009 2.844471,-2.359941 -1.296409 3.056775,-2.366048 -0.5988231 3.252526,-8.352036 -7.169981 -0.1077662,-7.795265 -6.871158 0.1484614,-7.347313 -6.282218 0.374423,-7.032951 -5.703012 0.6279983,-6.725162 -5.391136 0.8862174,-7.742393 -4.685686 0.1440645,-7.643328 -3.632253 0.3234023,-7.611098 -2.989452 0.5075417,-7.595895 -2.423688 0.6362671,-8.070883 -4.527736 0.2002881,-8.016631 -3.259662 0.3718852,-7.976598 -2.463717 0.5873289,-7.950775 -1.785749 0.7627761,-8.373085 -4.593354 0.2731855,-8.363262 -3.413005 0.4338276,-8.331667 -2.664237 0.5997897,-8.285983 -2.027116 0.7248392,-8.672607 -4.856773 0.3750055,-8.759812 -3.968827 0.5472167,-8.787121 -3.401236 0.6808342,-8.785903 -2.865011 0.758806,4.110,8  0
-2.827772 -5.91909 1.388863,-3.432431 -5.765014 2.079725,-4.060783 -5.20256 2.611653,-4.266797 -4.397839 3.051308,-3.930954 -3.886729 3.422835,-3.785067 -3.376626 2.256113,-4.131325 -2.663495 2.861503,-4.333683 -2.334632 3.275887,-4.47136 -2.22685 3.484173,-3.366169 -2.913023 2.221766,-3.580427 -1.741374 2.58646,-3.580427 -1.741374 2.58646,-3.884212 -0.1188154 3.065054,-2.920205 -2.821378 2.280933,-3.032305 -1.601389 2.626704,-3.114449 -0.8282895 2.86453,-3.201925 -0.1640897 3.076543,-2.423079 -3.040098 2.431276,-2.371744 -2.011001 2.654084,-2.343605 -1.267949 2.85158,-2.331877 -0.5493121 3.04078,-8.35495 -7.179986 -0.02135273,-7.799801 -6.892409 0.2388853,-7.346044 -6.275976 0.4526006,-7.026804 -5.694826 0.694352,-6.710033 -5.399143 0.9415951,-7.745882 -4.670209 0.2243025,-7.658125 -3.628052 0.3989143,-7.633486 -2.994937 0.5784864,-7.622987 -2.439889 0.705976,-8.076229 -4.511995 0.2823123,-8.025566 -3.262761 0.4513458,-7.985304 -2.473787 0.6752176,-7.958879 -1.79767 0.8585532,-8.381977 -4.581472 0.3581738,-8.362428 -3.410226 0.5261046,-8.324882 -2.657512 0.7133589,-8.273541 -2.009197 0.8578658,-8.686093 -4.855568 0.4624631,-8.77536 -3.979969 0.6421937,-8.80589 -3.418936 0.7837243,-8.807014 -2.880704 0.8759253,4.210,8  0
-2.819952 -5.935674 1.398185,-3.42882 -5.760176 1.959823,-4.062523 -5.158498 2.397482,-4.259529 -4.335347 2.785346,-3.944132 -3.820623 3.141402,-3.796486 -3.330621 1.98917,-4.14446 -2.65166 2.499103,-4.357664 -2.341592 2.845223,-4.503021 -2.261544 3.005816,-3.380354 -2.873628 1.987149,-3.590801 -1.833488 2.229856,-3.590801 -1.833488 2.229856,-3.886959 -0.4570608 2.483431,-2.932247 -2.767915 2.079007,-3.03212 -1.633485 2.317529,-3.105373 -0.9138827 2.495062,-3.191474 -0.3168635 2.645757,-2.429924 -2.970399 2.261585,-2.379001 -1.984956 2.44532,-2.348263 -1.250782 2.630793,-2.337181 -0.5414767 2.803326,-8.361126 -7.160572 -0.05592325,-7.802237 -6.872019 0.2082327,-7.34901 -6.266832 0.4247463,-7.030723 -5.690822 0.6660841,-6.719563 -5.393081 0.9128376,-7.750596 -4.658493 0.1977006,-7.664363 -3.608675 0.3780241,-7.64237 -2.965236 0.566744,-7.634274 -2.402502 0.6985807,-8.085368 -4.502031 0.2457234,-8.037938 -3.246332 0.4091376,-7.997215 -2.460771 0.6236502,-7.965811 -1.790453 0.8035917,-8.393104 -4.572431 0.3125522,-8.38407 -3.396296 0.4693016,-8.353951 -2.656679 0.6374694,-8.30582 -2.02162 0.7689567,-8.69627 -4.849795 0.4087,-8.786522 -3.983854 0.5699323,-8.81848 -3.431806 0.69511,-8.818005 -2.903452 0.7774519,4.310,8  0
-2.854276 -5.8291 1.147543,-3.478523 -5.765469 1.795768,-4.099881 -5.190197 2.264596,-4.260904 -4.385419 2.655643,-3.986423 -3.810762 3.005482,-3.819422 -3.346261 1.920236,-4.149035 -2.724857 2.44364,-4.35671 -2.347246 2.779804,-4.51203 -2.084707 2.932771,-3.377972 -2.869687 1.893276,-3.573351 -1.894107 2.196085,-3.573351 -1.894107 2.196085,-3.824348 -0.5889287 2.496662,-2.918352 -2.752903 1.95331,-3.004469 -1.65555 2.243871,-3.078896 -0.9430299 2.460066,-3.159078 -0.3459916 2.6403,-2.407927 -2.958933 2.103446,-2.352493 -1.982462 2.315338,-2.319729 -1.261742 2.516171,-2.297516 -0.5825944 2.729436,-8.354737 -7.164646 -0.07042774,-7.806126 -6.867845 0.1844621,-7.355024 -6.259985 0.4001975,-7.035671 -5.692932 0.6438293,-6.718588 -5.407539 0.8994976,-7.751844 -4.668808 0.1769034,-7.653374 -3.622567 0.3552521,-7.629499 -2.983458 0.5435393,-7.61967 -2.416043 0.6771177,-8.081714 -4.510681 0.2368692,-8.020339 -3.246725 0.4024199,-7.98102 -2.460905 0.6161326,-7.950986 -1.786277 0.7933141,-8.38595 -4.582031 0.3134649,-8.365705 -3.40376 0.4726042,-8.3349 -2.654553 0.6452658,-8.290031 -2.010259 0.776849,-8.688598 -4.862184 0.4198628,-8.772057 -3.980449 0.5886433,-8.798848 -3.418849 0.7204877,-8.79853 -2.887348 0.8035396,4.410,8  0
-2.9007 -5.760166 0.9857711,-3.50954 -5.766642 1.677759,-4.131164 -5.211584 2.170563,-4.319729 -4.424837 2.575989,-4.045595 -3.869241 2.916322,-3.824478 -3.366896 1.866354,-4.164923 -2.719838 2.421834,-4.377074 -2.343252 2.761585,-4.537619 -2.062609 2.906182,-3.391167 -2.872346 1.836909,-3.589512 -1.80553 2.197867,-3.589512 -1.80553 2.197867,-3.854148 -0.3321133 2.586623,-2.935201 -2.76695 1.896361,-3.022701 -1.646662 2.231683,-3.107666 -0.8957133 2.465147,-3.194985 -0.2430148 2.681641,-2.429009 -2.986677 2.043686,-2.372571 -2.020476 2.269059,-2.345869 -1.297478 2.47325,-2.331726 -0.6217179 2.69751,-8.379193 -7.162952 -0.1001686,-7.821119 -6.870273 0.1637565,-7.367654 -6.276714 0.3891142,-7.042562 -5.699581 0.6360824,-6.728903 -5.39656 0.8910264,-7.753063 -4.683204 0.1630625,-7.663738 -3.62427 0.3408684,-7.641035 -2.978224 0.5250869,-7.632874 -2.407535 0.6551819,-8.084913 -4.520648 0.2138458,-8.034765 -3.251572 0.3824384,-7.991488 -2.460503 0.5931073,-7.959979 -1.785661 0.7674138,-8.392094 -4.583771 0.2814453,-8.377537 -3.392338 0.4399589,-8.341099 -2.641205 0.6046841,-8.290787 -1.995187 0.7317612,-8.696945 -4.851744 0.3769196,-8.786278 -3.967159 0.5434228,-8.815693 -3.402227 0.6686684,-8.816604 -2.862749 0.745182,4.510,8  0
-2.927439 -5.694943 0.8110219,-3.526661 -5.759183 1.579774,-4.139167 -5.259754 2.102127,-4.351086 -4.470554 2.517091,-4.096193 -3.869719 2.848137,-3.857311 -3.401616 1.791321,-4.198473 -2.734968 2.370219,-4.3988 -2.344539 2.745098,-4.543141 -2.06729 2.921993,-3.427021 -2.884317 1.734724,-3.619064 -1.735467 2.126009,-3.619064 -1.735467 2.126009,-3.918484 -0.05648041 2.680437,-2.966805 -2.776489 1.758761,-3.055067 -1.609243 2.140246,-3.175758 -0.8302703 2.409272,-3.278791 -0.1750484 2.654531,-2.449345 -2.986126 1.87269,-2.402797 -1.985507 2.140285,-2.393102 -1.227458 2.368054,-2.38961 -0.5360484 2.603555,-8.36388 -7.177309 -0.01596893,-7.809476 -6.898934 0.2635075,-7.3526 -6.278408 0.4823705,-7.032486 -5.697107 0.7244596,-6.715771 -5.393861 0.9667891,-7.748587 -4.675924 0.266944,-7.657432 -3.619301 0.4575016,-7.63706 -2.974012 0.6438478,-7.632057 -2.399787 0.7764198,-8.079146 -4.512334 0.3204236,-8.021562 -3.251867 0.4979336,-7.986265 -2.463521 0.7160338,-7.961197 -1.784881 0.8931319,-8.383773 -4.577123 0.3932094,-8.367596 -3.397571 0.5660753,-8.342601 -2.647588 0.7473906,-8.304391 -1.999892 0.8850593,-8.687462 -4.852378 0.4948919,-8.774489 -3.970637 0.6771472,-8.807766 -3.408012 0.8195918,-8.814412 -2.87134 0.9080252,4.610,8  0
-2.939807 -5.775818 1.014097,-3.553186 -5.807409 1.783671,-4.173082 -5.259508 2.295541,-4.392173 -4.479808 2.70971,-4.150517 -3.87715 3.046097,-3.878374 -3.40123 1.940891,-4.214069 -2.751739 2.528575,-4.424208 -2.405013 2.908667,-4.570225 -2.250049 3.095796,-3.440707 -2.886704 1.883557,-3.625539 -1.736541 2.249484,-3.625539 -1.736541 2.249484,-3.908346 -0.09277582 2.794721,-2.972631 -2.793636 1.909274,-3.029987 -1.618341 2.251617,-3.101126 -0.8226905 2.524154,-3.162354 -0.1746254 2.775096,-2.455811 -3.024099 2.033187,-2.400607 -1.999258 2.26653,-2.380684 -1.239242 2.488514,-2.368115 -0.5556111 2.720207,-8.348009 -7.166102 -0.03586354,-7.791352 -6.869245 0.2066094,-7.335378 -6.251073 0.4104951,-7.016292 -5.673032 0.6421996,-6.704111 -5.393018 0.887365,-7.738073 -4.66222 0.1952477,-7.641859 -3.615495 0.3681294,-7.618501 -2.97357 0.5551764,-7.607848 -2.399525 0.6912113,-8.071893 -4.500898 0.2575103,-8.015088 -3.2391 0.4199554,-7.977618 -2.454756 0.6419578,-7.946728 -1.782808 0.8251171,-8.379354 -4.564929 0.334404,-8.357581 -3.389156 0.4934158,-8.328449 -2.64221 0.6687246,-8.283872 -2.000603 0.8048222,-8.683915 -4.83753 0.4388871,-8.773896 -3.961978 0.6074884,-8.808273 -3.400037 0.7407322,-8.812495 -2.864523 0.8277737,4.710,8  0
-2.982653 -5.870197 1.221455,-3.579309 -5.873203 2.022366,-4.199788 -5.372446 2.59626,-4.422299 -4.629832 3.07575,-4.16361 -4.011621 3.463093,-3.911268 -3.477304 2.263252,-4.264526 -2.826377 2.895379,-4.487505 -2.542163 3.313166,-4.627714 -2.50262 3.516935,-3.474653 -2.954988 2.211022,-3.677282 -1.746091 2.618162,-3.677282 -1.746091 2.618162,-3.989092 -0.01299095 3.267944,-3.001222 -2.859369 2.237047,-3.066551 -1.662255 2.595265,-3.123966 -0.829802 2.908112,-3.168575 -0.1452794 3.205992,-2.486099 -3.086989 2.360927,-2.424232 -2.061731 2.595493,-2.394583 -1.291208 2.823097,-2.369167 -0.5904021 3.079201,-8.361916 -7.173219 -0.02923923,-7.807637 -6.881679 0.2361497,-7.35182 -6.263594 0.4574166,-7.034091 -5.676846 0.7016914,-6.714546 -5.388602 0.9532563,-7.749945 -4.670005 0.2540407,-7.664606 -3.619104 0.4413914,-7.642041 -2.982494 0.627152,-7.634246 -2.424135 0.75659,-8.084541 -4.511281 0.3069355,-8.035348 -3.246202 0.4824554,-7.995878 -2.457182 0.7038516,-7.967625 -1.779603 0.8892063,-8.392371 -4.576369 0.3749982,-8.377067 -3.395418 0.5472279,-8.347671 -2.646489 0.7220857,-8.303035 -1.99875 0.8581053,-8.696285 -4.846628 0.4701988,-8.785204 -3.96033 0.6412292,-8.819902 -3.399711 0.7696131,-8.824996 -2.863659 0.8555245,4.810,8  0
-2.965238 -5.951519 1.357306,-3.553806 -5.954616 2.138731,-4.194269 -5.415175 2.67401,-4.413403 -4.60208 3.101886,-4.145245 -3.988277 3.434278,-3.896027 -3.500597 2.318014,-4.25039 -2.827586 2.898983,-4.471317 -2.530642 3.28705,-4.620274 -2.464994 3.490935,-3.470613 -2.967951 2.255304,-3.67057 -1.739192 2.613982,-3.67057 -1.739192 2.613982,-4.015524 0.007596493 3.18399,-3.005979 -2.872893 2.276885,-3.048653 -1.646566 2.593642,-3.097665 -0.8008523 2.862068,-3.151139 -0.1156492 3.127841,-2.494615 -3.11216 2.395879,-2.41782 -2.095186 2.612267,-2.383259 -1.327194 2.840053,-2.372248 -0.6379142 3.086538,-8.383671 -7.186007 -0.04109981,-7.832114 -6.890333 0.2257821,-7.37473 -6.284824 0.446649,-7.045825 -5.713659 0.6930565,-6.732807 -5.403335 0.9445884,-7.763724 -4.684106 0.2240525,-7.677876 -3.625527 0.4106469,-7.658066 -2.976768 0.5968996,-7.653082 -2.410269 0.7257019,-8.093577 -4.527031 0.2803666,-8.041556 -3.267702 0.4555461,-8.003414 -2.476703 0.6747712,-7.97834 -1.803477 0.852285,-8.39947 -4.593486 0.3534036,-8.390501 -3.417222 0.5229242,-8.362289 -2.671508 0.7004198,-8.319614 -2.031105 0.8347617,-8.70265 -4.864755 0.4560965,-8.795249 -3.991405 0.6361393,-8.826389 -3.431421 0.7730997,-8.82625 -2.895097 0.857105,4.910,8  0
-2.979664 -6.083597 1.643587,-3.583092 -6.0144 2.452075,-4.201031 -5.452438 3.025671,-4.436394 -4.658405 3.485482,-4.202251 -4.058578 3.860153,-3.92634 -3.567125 2.699652,-4.300928 -2.873424 3.345108,-4.526448 -2.59862 3.764741,-4.672287 -2.506551 3.97887,-3.499874 -3.048246 2.644905,-3.738073 -1.741894 3.107373,-3.738073 -1.741894 3.107373,-4.122677 0.2195787 3.832147,-3.028574 -2.958316 2.67851,-3.138092 -1.675494 3.074582,-3.231693 -0.8075423 3.369754,-3.319213 -0.03916502 3.652735,-2.51213 -3.193062 2.796855,-2.419287 -2.141652 3.057145,-2.378268 -1.361072 3.291397,-2.362678 -0.5952601 3.539842,-8.370234 -7.18276 -0.04610015,-7.820807 -6.884592 0.2292852,-7.369374 -6.281749 0.4619768,-7.049186 -5.712942 0.7193826,-6.734743 -5.408003 0.9822651,-7.768242 -4.677476 0.2455907,-7.68542 -3.62041 0.4423812,-7.66259 -2.978302 0.6376578,-7.652377 -2.417777 0.7707465,-8.101883 -4.525312 0.2943618,-8.054142 -3.261419 0.4772692,-8.014129 -2.476458 0.6958106,-7.985435 -1.801256 0.8748818,-8.407801 -4.5988 0.3604481,-8.397677 -3.416231 0.528191,-8.36743 -2.674687 0.6936951,-8.324389 -2.032259 0.8213639,-8.709359 -4.879449 0.4547938,-8.796834 -4.002365 0.6245171,-8.826627 -3.445917 0.7454644,-8.829994 -2.913031 0.8205722,5.010,8 8 0
-2.997632 -6.141521 1.837987,-3.59676 -6.045187 2.651505,-4.207017 -5.48664 3.243934,-4.432867 -4.696413 3.732827,-4.19156 -4.096065 4.13149,-3.954842 -3.573981 2.885916,-4.319956 -2.910222 3.552887,-4.540895 -2.627542 3.982906,-4.693678 -2.529985 4.199048,-3.524713 -3.048927 2.84162,-3.751397 -1.734518 3.313132,-3.751397 -1.734518 3.313132,-4.133914 0.1881447 4.051095,-3.053757 -2.96251 2.894809,-3.155312 -1.662914 3.308043,-3.244556 -0.7962337 3.621296,-3.333572 -0.03083229 3.916229,-2.541561 -3.217256 3.029694,-2.436215 -2.162937 3.29849,-2.389852 -1.383665 3.541357,-2.372021 -0.6131682 3.793877,-8.376394 -7.182437 -0.03620959,-7.818909 -6.891798 0.2361264,-7.362989 -6.286156 0.4635404,-7.041301 -5.710747 0.7146069,-6.725568 -5.408882 0.9753391,-7.762184 -4.678628 0.2522547,-7.677998 -3.622376 0.446205,-7.658705 -2.977449 0.6426305,-7.650398 -2.404593 0.77838,-8.098382 -4.523353 0.3061785,-8.051068 -3.260319 0.4829581,-8.011814 -2.47489 0.7002623,-7.980471 -1.802596 0.881075,-8.406994 -4.597704 0.3774871,-8.397471 -3.412266 0.5481361,-8.368736 -2.666942 0.7220357,-8.325038 -2.022591 0.8549249,-8.712642 -4.881424 0.4783539,-8.796106 -3.998695 0.6531422,-8.824501 -3.43609 0.7849536,-8.824873 -2.898615 0.8687493,5.110,8 8 0
-3.019411 -6.166856 1.871338,-3.623669 -6.074046 2.71906,-4.236282 -5.545784 3.33023,-4.469925 -4.773366 3.838888,-4.249285 -4.1332 4.258691,-3.996897 -3.60378 2.964148,-4.372203 -2.905696 3.661777,-4.586028 -2.63202 4.126575,-4.729191 -2.577872 4.362099,-3.559931 -3.07734 2.907982,-3.799471 -1.76241 3.383441,-3.799471 -1.76241 3.383441,-4.185593 0.1286235 4.101551,-3.085732 -2.989906 2.957382,-3.22286 -1.695862 3.383165,-3.331892 -0.8449788 3.690099,-3.438482 -0.08367014 3.976011,-2.567954 -3.239197 3.092846,-2.476569 -2.182654 3.364351,-2.438012 -1.425424 3.604226,-2.426109 -0.6908021 3.853016,-8.381867 -7.189161 -0.1142589,-7.829108 -6.890659 0.146572,-7.374549 -6.290073 0.3667576,-7.054447 -5.710273 0.6102322,-6.751272 -5.397602 0.8543363,-7.773514 -4.708099 0.1572282,-7.692073 -3.641445 0.34788,-7.667053 -2.994484 0.5380214,-7.654621 -2.431416 0.6705394,-8.103478 -4.550386 0.209444,-8.052608 -3.279706 0.3951089,-8.005339 -2.485376 0.6204207,-7.97071 -1.805962 0.806885,-8.409376 -4.615568 0.2756969,-8.396385 -3.43188 0.4501088,-8.358649 -2.683779 0.6209682,-8.305444 -2.041649 0.7542924,-8.711054 -4.884996 0.3692284,-8.808737 -4.007192 0.5436149,-8.843141 -3.449111 0.6737857,-8.847047 -2.910881 0.7594931,5.210,8 8 0
-3.019295 -6.135999 1.908681,-3.612286 -6.02099 2.744991,-4.230959 -5.508781 3.367051,-4.465359 -4.739763 3.884357,-4.217672 -4.101264 4.304623,-4.011011 -3.584749 3.017223,-4.397017 -2.856515 3.724412,-4.607972 -2.586309 4.18249,-4.749002 -2.542582 4.405937,-3.588001 -3.047013 2.965648,-3.829069 -1.709917 3.43665,-3.829069 -1.709917 3.43665,-4.2321 0.1976218 4.130607,-3.114711 -2.961402 3.017087,-3.249586 -1.667202 3.449268,-3.36211 -0.8122554 3.742054,-3.459566 -0.03737593 4.003325,-2.589996 -3.217786 3.152474,-2.498804 -2.167787 3.435787,-2.460278 -1.412992 3.67297,-2.438239 -0.670176 3.910674,-8.402737 -7.200785 -0.1044604,-7.851903 -6.893888 0.1601134,-7.403879 -6.299158 0.3886974,-7.087288 -5.729372 0.6410982,-6.780367 -5.41411 0.8936523,-7.804336 -4.711973 0.1776056,-7.721828 -3.647503 0.3680348,-7.697983 -3.006274 0.5559953,-7.687564 -2.45051 0.6915001,-8.134022 -4.559114 0.2270376,-8.084774 -3.30431 0.4180222,-8.03643 -2.515232 0.6447629,-8.001421 -1.840765 0.8347774,-8.440076 -4.626831 0.2930396,-8.431955 -3.458757 0.4657362,-8.396095 -2.716997 0.642694,-8.34365 -2.078451 0.7829075,-8.742756 -4.897089 0.3852827,-8.830394 -4.030328 0.5585807,-8.855824 -3.474672 0.6933064,-8.850898 -2.938388 0.7832943,5.310,8 8 0
-2.924239 -5.987545 1.729318,-3.547249 -5.783003 2.294236,-4.160282 -5.116675 2.738444,-4.289537 -4.260011 3.118532,-4.010063 -3.704855 3.49145,-3.837839 -3.290468 2.439506,-4.156107 -2.552207 3.005866,-4.384539 -2.233552 3.417759,-4.540514 -2.138259 3.654239,-3.39464 -2.840093 2.448988,-3.566339 -1.786285 2.741857,-3.566339 -1.786285 2.741857,-3.843682 -0.4163718 3.130047,-2.928104 -2.750868 2.52824,-2.979655 -1.581827 2.81673,-3.032349 -0.84549 3.035116,-3.116724 -0.2393208 3.233722,-2.415328 -2.972853 2.699882,-2.350517 -1.949811 2.911585,-2.300741 -1.202779 3.094378,-2.281138 -0.4807382 3.281839,-8.432799 -7.225993 -0.07159411,-7.888832 -6.945459 0.1896024,-7.439773 -6.345382 0.4020692,-7.124214 -5.774036 0.6366917,-6.816477 -5.465077 0.8725703,-7.83298 -4.72771 0.1948169,-7.749939 -3.662369 0.3714504,-7.739217 -3.005225 0.562966,-7.743279 -2.439182 0.7029105,-8.163414 -4.572999 0.2443062,-8.112204 -3.324701 0.4103425,-8.079897 -2.53508 0.6339749,-8.063068 -1.862748 0.8290018,-8.469894 -4.648809 0.3093068,-8.451701 -3.476127 0.4760287,-8.429609 -2.716788 0.6697025,-8.395407 -2.062476 0.8239363,-8.774506 -4.938495 0.401691,-8.870421 -4.086408 0.5600188,-8.907875 -3.539548 0.6910394,-8.914788 -3.006201 0.7850642,5.410,8 8 0
-2.869379 -5.878293 1.526067,-3.472547 -5.707707 2.161073,-4.076027 -5.046286 2.657828,-4.219775 -4.185516 3.066827,-3.92004 -3.695973 3.421596,-3.73983 -3.252674 2.371919,-4.054754 -2.494427 2.934951,-4.243967 -2.095036 3.329819,-4.372641 -1.88625 3.537555,-3.301537 -2.813918 2.358801,-3.472368 -1.694247 2.713621,-3.472368 -1.694247 2.713621,-3.70531 -0.2114582 3.107386,-2.85163 -2.746209 2.414438,-2.882118 -1.546621 2.762701,-2.923972 -0.7652373 3.012203,-2.992218 -0.10325 3.227301,-2.361063 -2.991004 2.555214,-2.280028 -1.974461 2.796468,-2.216352 -1.20998 3.00006,-2.176211 -0.4807773 3.198555,-8.454859 -7.24167 -0.1058396,-7.914902 -6.960314 0.1630839,-7.462026 -6.362371 0.3792039,-7.142292 -5.78548 0.6182246,-6.839738 -5.467734 0.8511354,-7.850552 -4.753105 0.1557806,-7.767308 -3.687485 0.3335963,-7.75071 -3.026812 0.5228027,-7.752681 -2.464555 0.6601627,-8.181468 -4.596644 0.1898832,-8.125822 -3.350134 0.3562739,-8.086791 -2.553229 0.5788004,-8.070353 -1.880252 0.7750343,-8.487862 -4.663372 0.2395653,-8.47146 -3.49965 0.3938649,-8.44853 -2.741745 0.5620996,-8.413443 -2.09608 0.700779,-8.793077 -4.93831 0.3175311,-8.884554 -4.078886 0.4577463,-8.918831 -3.53185 0.5723442,-8.926251 -2.9995 0.6549388,5.510,8 8 0
-2.644105 -6.071046 1.386153,-3.235383 -5.845262 2.112561,-3.820871 -5.208921 2.658566,-4.036783 -4.382774 3.090396,-3.718043 -3.876387 3.448593,-3.465184 -3.504662 2.523813,-3.750269 -2.605026 3.148745,-3.924538 -2.177352 3.535273,-4.061567 -1.907176 3.752429,-3.044182 -3.132476 2.490912,-3.209187 -1.881372 2.956984,-3.209187 -1.881372 2.956984,-3.46685 -0.2368069 3.474003,-2.600694 -3.109318 2.530364,-2.673986 -1.826292 2.962778,-2.75114 -0.9643264 3.246912,-2.845276 -0.2369652 3.504545,-2.124481 -3.414207 2.650886,-2.036156 -2.298532 2.974865,-1.97618 -1.5249 3.239536,-1.951544 -0.8179412 3.485674,-8.488521 -7.300472 -0.08663664,-7.94898 -7.003364 0.17567,-7.502123 -6.398642 0.3899066,-7.18505 -5.816858 0.6271673,-6.883027 -5.490328 0.8641942,-7.891882 -4.798211 0.1651808,-7.81378 -3.733947 0.3390715,-7.803876 -3.070096 0.5292812,-7.813958 -2.496212 0.669495,-8.220405 -4.648677 0.2029724,-8.173478 -3.415269 0.3706646,-8.146758 -2.611306 0.6029747,-8.141939 -1.924392 0.810094,-8.528432 -4.72472 0.2569238,-8.511314 -3.559223 0.413722,-8.492023 -2.79039 0.5946382,-8.461151 -2.132867 0.7425725,-8.838663 -5.006271 0.3402354,-8.928492 -4.141192 0.4823197,-8.962368 -3.590174 0.6007692,-8.96885 -3.055822 0.6883407,5.610,8 8 0
-2.518444 -6.293215 1.086393,-3.088445 -6.009029 1.809301,-3.584293 -5.398807 2.316847,-3.807348 -4.667799 2.741764,-3.717329 -3.997192 3.105673,-3.306993 -3.760454 2.102443,-3.589184 -2.807592 2.780375,-3.733308 -2.568909 3.284474,-3.824709 -2.559305 3.587796,-2.918772 -3.401582 2.065748,-3.080435 -2.025571 2.511739,-3.080435 -2.025571 2.511739,-3.277582 -0.2035441 3.187472,-2.496786 -3.389078 2.108253,-2.591219 -2.048671 2.5379,-2.645062 -1.149655 2.851958,-2.730144 -0.3267088 3.136543,-2.040501 -3.671224 2.223282,-1.968789 -2.570982 2.5524,-1.913881 -1.856264 2.774088,-1.910372 -1.159389 2.976977,-8.474602 -7.331327 -0.01023106,-7.9288 -7.042374 0.2631015,-7.481915 -6.406732 0.4674822,-7.173386 -5.820373 0.6891586,-6.863943 -5.520675 0.9062393,-7.879905 -4.812484 0.2727237,-7.805269 -3.760118 0.4582025,-7.799345 -3.101442 0.6512324,-7.810043 -2.531843 0.7911317,-8.214438 -4.659149 0.3013165,-8.168509 -3.419712 0.4765794,-8.14521 -2.624377 0.7115802,-8.140252 -1.94372 0.9147364,-8.52564 -4.741758 0.3466991,-8.508701 -3.575852 0.5170929,-8.493846 -2.812238 0.7104753,-8.471307 -2.154741 0.8629398,-8.834402 -5.037225 0.4205957,-8.922411 -4.183408 0.5747001,-8.959279 -3.635228 0.7070008,-8.970705 -3.101344 0.8054402,5.710,8 8 0
-2.287383 -7.065085 1.583445,-2.774665 -6.868989 2.441141,-3.182711 -6.240318 2.995173,-3.313631 -5.542734 3.440657,-3.278054 -5.038455 3.850694,-3.040035 -4.321258 2.553635,-3.227766 -3.236199 3.084115,-3.304829 -2.861228 3.519247,-3.363422 -2.735962 3.799563,-2.619486 -3.97183 2.418284,-2.721714 -2.542778 2.745561,-2.721714 -2.542778 2.745561,-2.862927 -0.8818517 3.315994,-2.198441 -3.996633 2.382676,-2.230254 -2.629354 2.700113,-2.260103 -1.86464 2.959445,-2.303856 -1.118803 3.204163,-1.779481 -4.306356 2.441514,-1.666481 -3.27465 2.724411,-1.603992 -2.634868 2.918037,-1.579494 -1.975041 3.096934,-8.451372 -7.362535 0.008611872,-7.9076 -7.063786 0.2693034,-7.45277 -6.435775 0.4697282,-7.134173 -5.846692 0.6890604,-6.822352 -5.556842 0.9108215,-7.846841 -4.844197 0.2762356,-7.764626 -3.791447 0.4348395,-7.758153 -3.135721 0.6185688,-7.767554 -2.567647 0.7525271,-8.181267 -4.68395 0.3030121,-8.123492 -3.443654 0.4500274,-8.092489 -2.662591 0.6677325,-8.077431 -1.993837 0.8612022,-8.490146 -4.75567 0.3431258,-8.463826 -3.587089 0.4871867,-8.44499 -2.838532 0.6607413,-8.419346 -2.193454 0.8010817,-8.795462 -5.037984 0.4098431,-8.881841 -4.175395 0.5430083,-8.920419 -3.631655 0.6595237,-8.93699 -3.100997 0.7468602,5.810,8 8 0
-2.024473 -7.365127 1.37846,-2.554167 -7.218097 2.178897,-3.0567 -6.672202 2.793775,-3.298473 -6.199686 3.299822,-3.362305 -5.924251 3.794016,-2.93069 -4.757307 2.412687,-3.102373 -3.73251 2.999577,-3.137127 -3.445927 3.475516,-3.1705 -3.40332 3.777753,-2.486451 -4.376897 2.305213,-2.57435 -2.983367 2.6762,-2.57435 -2.983367 2.6762,-2.692008 -1.381221 3.288588,-2.045043 -4.351228 2.292925,-2.089808 -2.996583 2.657705,-2.120783 -2.250194 2.946285,-2.189609 -1.522899 3.220524,-1.605293 -4.59881 2.349164,-1.472989 -3.60734 2.662888,-1.407447 -3.036239 2.874879,-1.390428 -2.420171 3.079667,-8.43108 -7.361919 0.02509937,-7.893683 -7.064098 0.3162215,-7.441038 -6.435825 0.5338798,-7.120751 -5.854148 0.7641809,-6.805186 -5.564271 0.9919902,-7.836884 -4.839883 0.3502233,-7.749693 -3.787956 0.5329379,-7.738578 -3.136001 0.7233675,-7.741032 -2.56825 0.86367,-8.169006 -4.684726 0.3771518,-8.108618 -3.439129 0.5589867,-8.082408 -2.652266 0.7868495,-8.070927 -1.974766 0.9889317,-8.477207 -4.764069 0.4186438,-8.451281 -3.596433 0.5952039,-8.435757 -2.8358 0.779879,-8.412142 -2.176425 0.9304657,-8.782131 -5.059671 0.4888205,-8.866787 -4.208772 0.6521469,-8.904722 -3.664197 0.783734,-8.919539 -3.135301 0.8835179,5.910,8 8 0
-1.802745 -8.165371 0.4208107,-2.302954 -7.981691 1.110639,-2.781734 -7.244565 1.538145,-2.921638 -6.390311 1.867777,-2.788495 -5.791751 2.125791,-2.4926 -5.688802 1.277881,-2.722675 -4.745807 1.727572,-2.804192 -4.312767 2.071671,-2.857093 -3.98247 2.287338,-2.093734 -5.39778 1.19597,-2.196553 -4.106588 1.537782,-2.196553 -4.106588 1.537782,-2.257334 -2.692367 2.052999,-1.718084 -5.445304 1.206714,-1.773104 -4.18066 1.567392,-1.802811 -3.443941 1.836323,-1.840334 -2.757402 2.084107,-1.335172 -5.770082 1.279042,-1.249527 -4.808729 1.560771,-1.194751 -4.234613 1.781974,-1.149801 -3.654618 1.974664,-8.363762 -7.354049 0.0427526,-7.815271 -7.064605 0.3087901,-7.358671 -6.441492 0.5317006,-7.034113 -5.85637 0.7776325,-6.712614 -5.574175 1.03328,-7.752216 -4.822656 0.3253623,-7.664275 -3.76733 0.5096154,-7.651959 -3.115506 0.7036077,-7.646358 -2.539184 0.8386834,-8.091329 -4.67048 0.3769997,-8.032291 -3.421586 0.5498502,-7.997922 -2.642042 0.7706968,-7.971191 -1.964037 0.959442,-8.406274 -4.754337 0.4430325,-8.381656 -3.587896 0.6103544,-8.358119 -2.840646 0.785661,-8.322837 -2.185119 0.9210451,-8.718649 -5.054077 0.5367069,-8.80043 -4.192884 0.7054563,-8.834509 -3.640071 0.8331633,-8.844761 -3.102492 0.9228863,6.010,8 8 0
-1.70739 -8.447899 0.2822183,-2.215225 -8.246214 0.9450277,-2.67457 -7.552373 1.36672,-2.820127 -6.763378 1.717873,-2.679079 -6.196235 1.99952,-2.385448 -5.962078 0.9798658,-2.646355 -5.026229 1.363854,-2.764452 -4.564229 1.649833,-2.841622 -4.17523 1.830544,-2.008344 -5.681184 0.8924724,-2.13537 -4.425015 1.192887,-2.13537 -4.425015 1.192887,-2.231308 -2.978706 1.678543,-1.642267 -5.72166 0.8996161,-1.677629 -4.523344 1.183078,-1.726994 -3.826173 1.422738,-1.763981 -3.155338 1.643334,-1.261011 -6.022624 0.9710203,-1.155784 -5.127138 1.219554,-1.101201 -4.570146 1.432908,-1.060383 -3.994102 1.606387,-8.354936 -7.36642 0.0553138,-7.805552 -7.07496 0.3327762,-7.349451 -6.440561 0.559907,-7.020967 -5.854722 0.8087931,-6.701491 -5.566255 1.068013,-7.738824 -4.83348 0.3614978,-7.654755 -3.765747 0.565889,-7.644289 -3.104021 0.7653607,-7.642988 -2.513418 0.9031627,-8.073761 -4.684518 0.4229126,-8.020793 -3.425348 0.6229169,-7.987786 -2.629972 0.8537747,-7.965091 -1.94112 1.04519,-8.385893 -4.774681 0.5015407,-8.370342 -3.604727 0.6963888,-8.342442 -2.845038 0.8855782,-8.302161 -2.180392 1.031452,-8.696338 -5.080745 0.6088369,-8.7822 -4.216663 0.8105818,-8.813377 -3.65606 0.9610167,-8.816856 -3.110408 1.060036,6.110,8 8 0
-1.617478 -8.883801 0.3493489,-2.111302 -8.611458 0.9836752,-2.5906 -7.926591 1.416962,-2.733027 -7.153857 1.785358,-2.525571 -6.666689 2.080665,-2.285586 -6.328786 0.984607,-2.498004 -5.407084 1.381861,-2.603404 -4.975894 1.697489,-2.675294 -4.675094 1.901046,-1.909863 -6.087198 0.9160467,-2.005215 -4.88928 1.194509,-2.005215 -4.88928 1.194509,-2.078555 -3.462892 1.651163,-1.544776 -6.138468 0.9531518,-1.571981 -4.99824 1.221738,-1.615737 -4.306245 1.467082,-1.655299 -3.646845 1.682152,-1.156839 -6.449259 1.057641,-1.059758 -5.590918 1.2808,-1.000699 -5.036909 1.481513,-0.9604831 -4.450783 1.641445,-8.356972 -7.382577 -0.03276819,-7.804123 -7.081277 0.2270596,-7.351549 -6.473575 0.4645348,-7.01994 -5.893817 0.7236387,-6.701676 -5.593606 0.9909482,-7.74516 -4.873683 0.2728389,-7.663731 -3.796824 0.4620981,-7.648786 -3.139835 0.6467708,-7.646797 -2.577106 0.7740394,-8.080588 -4.72437 0.3250514,-8.02264 -3.440298 0.5194916,-7.979449 -2.640449 0.7388384,-7.955033 -1.961301 0.9224259,-8.394103 -4.806771 0.387591,-8.376122 -3.611982 0.5723637,-8.337422 -2.85037 0.7490509,-8.2872 -2.195194 0.8843358,-8.703767 -5.090989 0.4757377,-8.790954 -4.212009 0.6559424,-8.817772 -3.65166 0.7981176,-8.817216 -3.110693 0.8922355,6.210,8 8 0
-1.552104 -9.054768 0.274229,-2.045955 -8.76816 0.8980117,-2.543484 -8.140327 1.354959,-2.706163 -7.369508 1.741788,-2.474823 -6.868981 2.035816,-2.245546 -6.534342 0.9373465,-2.453797 -5.615695 1.342204,-2.534918 -5.190544 1.680812,-2.576808 -4.92464 1.893331,-1.867734 -6.288209 0.8671639,-1.95566 -5.103792 1.138878,-1.95566 -5.103792 1.138878,-2.010195 -3.690761 1.578678,-1.501125 -6.341154 0.8956345,-1.51248 -5.223867 1.151582,-1.549131 -4.531284 1.390932,-1.582812 -3.897149 1.59699,-1.113264 -6.654064 0.992773,-1.011312 -5.799469 1.190981,-0.9550028 -5.244573 1.382215,-0.9183435 -4.678504 1.542105,-8.366083 -7.392553 -0.05581338,-7.810702 -7.090847 0.2113533,-7.354632 -6.483415 0.4502155,-7.023602 -5.91246 0.7089771,-6.703648 -5.622459 0.9765874,-7.746646 -4.894187 0.2778211,-7.658353 -3.817729 0.4817318,-7.641935 -3.161387 0.6719521,-7.639836 -2.587016 0.7996464,-8.083864 -4.745659 0.3305285,-8.026949 -3.463499 0.5389394,-7.992514 -2.668365 0.7623904,-7.974306 -1.984399 0.944581,-8.398231 -4.825734 0.3936933,-8.383596 -3.645328 0.5899194,-8.353004 -2.886761 0.7699115,-8.310846 -2.233866 0.9048825,-8.707019 -5.110082 0.4827926,-8.800198 -4.240316 0.6740853,-8.834024 -3.678878 0.818321,-8.839453 -3.138467 0.9116223,6.310,8 8 0
-1.456096 -9.367632 -0.05439368,-1.938949 -9.064074 0.5989209,-2.411746 -8.465986 1.049213,-2.597512 -7.715795 1.423208,-2.42921 -7.172449 1.703499,-2.097909 -6.970235 0.7500409,-2.296747 -6.067439 1.190509,-2.362444 -5.652669 1.532226,-2.396839 -5.342994 1.740821,-1.733648 -6.726017 0.6695133,-1.825711 -5.531065 0.9788848,-1.825711 -5.531065 0.9788848,-1.847849 -4.093183 1.458472,-1.372764 -6.775614 0.6722708,-1.381351 -5.659063 0.9779496,-1.394115 -4.975269 1.236972,-1.408815 -4.334136 1.463243,-0.9887943 -7.087867 0.7433087,-0.8886628 -6.240966 0.9931524,-0.8234916 -5.708892 1.213439,-0.7847729 -5.162658 1.401839,-8.371072 -7.411555 0.05483604,-7.828362 -7.102792 0.3417644,-7.370206 -6.500385 0.5868784,-7.037307 -5.934482 0.8546911,-6.718531 -5.631271 1.132729,-7.755262 -4.87479 0.3608564,-7.672255 -3.82345 0.5509299,-7.658867 -3.172314 0.7429797,-7.656545 -2.604828 0.8794701,-8.088148 -4.728439 0.410902,-8.036221 -3.48121 0.6003829,-8.00017 -2.691912 0.8258563,-7.976573 -2.013766 1.017024,-8.40068 -4.81365 0.4811719,-8.393012 -3.657718 0.6632102,-8.366368 -2.909408 0.8410206,-8.323122 -2.261294 0.9788566,-8.712384 -5.107523 0.5811934,-8.803744 -4.25473 0.7600479,-8.83702 -3.707742 0.8986403,-8.842009 -3.178675 0.9913858,6.410,8 8 0
-1.385275 -9.467979 -0.1573187,-1.875486 -9.201719 0.448576,-2.376577 -8.618118 0.8844278,-2.555191 -7.850772 1.238798,-2.302886 -7.353633 1.486066,-2.027706 -7.100732 0.6111215,-2.216071 -6.259703 1.031734,-2.275442 -5.832658 1.352962,-2.300485 -5.487184 1.549032,-1.667977 -6.852199 0.546681,-1.759754 -5.706707 0.8262619,-1.759754 -5.706707 0.8262619,-1.787088 -4.3026 1.259308,-1.310948 -6.905077 0.5622697,-1.308555 -5.809454 0.8463036,-1.321964 -5.113445 1.096333,-1.339736 -4.497623 1.313868,-0.926609 -7.234622 0.647348,-0.8243628 -6.381687 0.8613312,-0.7582369 -5.829572 1.074681,-0.7174673 -5.29607 1.256766,-8.372749 -7.412496 0.02185704,-7.82749 -7.105503 0.3063481,-7.366896 -6.491188 0.5436528,-7.033331 -5.925542 0.8001571,-6.715192 -5.636298 1.062561,-7.767331 -4.884024 0.3448241,-7.687668 -3.821015 0.5428785,-7.676676 -3.169994 0.7347055,-7.678516 -2.601331 0.8745694,-8.099475 -4.739861 0.3920918,-8.046937 -3.490393 0.5909264,-8.011584 -2.70238 0.8233009,-7.99267 -2.019071 1.022396,-8.411746 -4.830333 0.4570031,-8.39818 -3.673 0.6508089,-8.368668 -2.922038 0.8415638,-8.326085 -2.268312 0.9899104,-8.722907 -5.128559 0.5492036,-8.811814 -4.278284 0.7388853,-8.843405 -3.72907 0.8861831,-8.846885 -3.19534 0.9899064,6.510,8 8 0
-1.296391 -9.83099 -0.4926176,-1.794487 -9.633345 0.153318,-2.285159 -9.080626 0.6392599,-2.474103 -8.343557 1.029329,-2.207357 -7.838063 1.321484,-1.947235 -7.596955 0.4230977,-2.137487 -6.765728 0.9297441,-2.166932 -6.376368 1.303759,-2.157938 -6.093959 1.531137,-1.575259 -7.360992 0.359853,-1.668665 -6.248404 0.7195916,-1.668665 -6.248404 0.7195916,-1.696586 -4.824045 1.245581,-1.206501 -7.415899 0.3606386,-1.204476 -6.352039 0.7148621,-1.21599 -5.667829 1.004168,-1.229784 -5.042459 1.260393,-0.8141618 -7.742761 0.4316182,-0.7009578 -6.894475 0.682488,-0.6264505 -6.346611 0.9187262,-0.5727615 -5.8069 1.1289,-8.361634 -7.409967 0.06739297,-7.812037 -7.110851 0.3659453,-7.352226 -6.497541 0.597514,-7.026441 -5.930389 0.8492806,-6.713956 -5.628314 1.104261,-7.753759 -4.866623 0.3703098,-7.672509 -3.807507 0.5600113,-7.662229 -3.156541 0.7520894,-7.663054 -2.590764 0.8895588,-8.090456 -4.720416 0.4113781,-8.040985 -3.480123 0.5924056,-8.008766 -2.702346 0.8186441,-7.98859 -2.025772 1.013129,-8.403301 -4.808895 0.4744463,-8.392325 -3.656271 0.6548713,-8.368258 -2.916128 0.8412571,-8.329535 -2.268957 0.9838426,-8.711952 -5.10671 0.5674597,-8.810126 -4.269449 0.7455207,-8.846509 -3.728414 0.8848956,-8.852319 -3.201521 0.982044,6.610,8 8 0
-1.276202 -9.93729 -0.5289632,-1.767066 -9.73757 0.1171608,-2.254837 -9.211561 0.6037819,-2.428696 -8.475763 0.9901606,-2.139945 -7.963872 1.293641,-1.914678 -7.728866 0.4262428,-2.098684 -6.924798 0.9489118,-2.134356 -6.634382 1.338251,-2.12532 -6.470075 1.56964,-1.536051 -7.486715 0.353298,-1.613955 -6.409713 0.6906428,-1.613955 -6.409713 0.6906428,-1.649884 -5.01712 1.19409,-1.162728 -7.544341 0.3357188,-1.154952 -6.515794 0.6805609,-1.163659 -5.838401 0.9597557,-1.172017 -5.242412 1.200466,-0.7646933 -7.879752 0.3864114,-0.6536188 -7.044689 0.6289434,-0.5730228 -6.5065 0.8494793,-0.5080128 -5.985566 1.036782,-8.363709 -7.416276 0.03158633,-7.807642 -7.114761 0.3196297,-7.348926 -6.501165 0.5532428,-7.019013 -5.933298 0.8071345,-6.703234 -5.643434 1.065322,-7.744505 -4.889745 0.3479539,-7.667071 -3.827988 0.5510186,-7.657633 -3.174318 0.7473216,-7.65668 -2.595192 0.8848249,-8.083554 -4.74111 0.3988484,-8.034039 -3.492103 0.5974639,-8.001543 -2.708778 0.8244118,-7.980702 -2.027252 1.012511,-8.400453 -4.823879 0.4699579,-8.383328 -3.65784 0.6633228,-8.355186 -2.907175 0.8534552,-8.315171 -2.249033 0.9960121,-8.713996 -5.114557 0.5688499,-8.805192 -4.259729 0.760862,-8.838559 -3.704101 0.9080656,-8.842283 -3.159973 1.007689,6.710,8 8 0
-1.18272 -10.09326 -0.6530495,-1.665242 -9.915886 0.04592818,-2.135228 -9.425127 0.5521088,-2.306024 -8.774673 0.9517897,-2.06251 -8.275286 1.303238,-1.790894 -7.950307 0.3446122,-1.967737 -7.207212 0.9305222,-2.007159 -7.029129 1.404898,-2.001256 -7.022243 1.693683,-1.396515 -7.68553 0.2551268,-1.441892 -6.676029 0.6107644,-1.441892 -6.676029 0.6107644,-1.426484 -5.357263 1.166525,-1.018125 -7.740705 0.2263871,-0.9956884 -6.748771 0.5969627,-0.9781284 -6.101039 0.9071927,-0.972621 -5.544821 1.159482,-0.6200328 -8.086451 0.2635823,-0.4963837 -7.295799 0.5341409,-0.4057808 -6.771167 0.75726,-0.3362989 -6.26778 0.9230882,-8.350327 -7.409019 0.03861002,-7.801275 -7.111207 0.3184543,-7.340253 -6.48863 0.5413312,-7.00747 -5.924536 0.7893037,-6.691315 -5.638704 1.041097,-7.743486 -4.875385 0.3207089,-7.665215 -3.829085 0.513453,-7.651669 -3.185207 0.7045406,-7.649103 -2.624831 0.8414572,-8.073095 -4.727862 0.3782774,-8.025506 -3.483725 0.5717776,-7.991447 -2.699048 0.8021489,-7.969054 -2.024183 0.9926134,-8.380812 -4.814824 0.4577844,-8.374574 -3.664035 0.6555843,-8.346272 -2.916064 0.8477068,-8.30217 -2.26663 0.9937626,-8.686266 -5.110328 0.5668538,-8.785948 -4.273524 0.7624351,-8.822405 -3.726732 0.9088499,-8.826132 -3.199767 1.008695,6.810,8 8 0
-1.125568 -10.19242 -0.7088813,-1.608768 -10.03631 -0.0094136,-2.078953 -9.521265 0.4968457,-2.251787 -8.877457 0.8927962,-2.044149 -8.3617 1.234257,-1.722587 -8.096621 0.3334601,-1.907983 -7.395569 0.9181724,-1.960288 -7.22154 1.382404,-1.96691 -7.20203 1.661683,-1.335732 -7.823921 0.2563307,-1.370974 -6.830812 0.6608303,-1.370974 -6.830812 0.6608303,-1.349874 -5.47733 1.273311,-0.9571629 -7.867366 0.2334683,-0.9270105 -6.884584 0.6230674,-0.9097433 -6.244062 0.9425144,-0.904108 -5.669607 1.214046,-0.5597334 -8.195587 0.267908,-0.4219651 -7.420173 0.5563194,-0.325521 -6.899929 0.7919737,-0.2490616 -6.380105 0.9790783,-8.349314 -7.388858 0.04345039,-7.799 -7.090784 0.333818,-7.340017 -6.478181 0.5694112,-7.011387 -5.909172 0.8273216,-6.693727 -5.611668 1.090046,-7.734737 -4.860633 0.3485331,-7.645978 -3.808733 0.5479917,-7.635301 -3.163631 0.7421206,-7.637282 -2.600603 0.8762394,-8.070374 -4.708268 0.3967936,-8.012292 -3.454877 0.582802,-7.977859 -2.675396 0.8021569,-7.957173 -2.002983 0.9884455,-8.383675 -4.79062 0.4670036,-8.36401 -3.624534 0.6536814,-8.336005 -2.877614 0.8363555,-8.294039 -2.227252 0.9768679,-8.6939 -5.081336 0.5667674,-8.782659 -4.231641 0.7468791,-8.815551 -3.68956 0.8847219,-8.818422 -3.162487 0.9814869,6.910,8 8 0
-1.069898 -10.25749 -0.8646951,-1.528863 -10.1257 -0.1564962,-1.984279 -9.641403 0.367748,-2.173539 -9.007938 0.7866027,-1.989142 -8.44865 1.158909,-1.615534 -8.210915 0.1004086,-1.816077 -7.57751 0.6923602,-1.890138 -7.40091 1.160902,-1.92675 -7.392343 1.426545,-1.23845 -7.906322 0.03125209,-1.269709 -6.937538 0.4163374,-1.269709 -6.937538 0.4163374,-1.283363 -5.591003 1.035812,-0.8655467 -7.937761 0.02594411,-0.8191614 -6.987403 0.3832765,-0.8005447 -6.369504 0.6921545,-0.789753 -5.812479 0.9523942,-0.478548 -8.256729 0.07873017,-0.3205266 -7.532033 0.3364977,-0.2146511 -7.020137 0.5583165,-0.1343799 -6.491437 0.7453147,-8.35212 -7.377068 0.05503167,-7.801163 -7.083757 0.3396732,-7.341841 -6.470949 0.5751769,-7.011884 -5.903818 0.8318596,-6.693855 -5.612491 1.089902,-7.738655 -4.845266 0.3672677,-7.65913 -3.789102 0.565298,-7.646282 -3.143337 0.7571984,-7.645886 -2.58483 0.8922063,-8.071336 -4.69453 0.4176205,-8.020239 -3.439699 0.6117288,-7.982172 -2.656658 0.8354905,-7.956676 -1.984394 1.025049,-8.382148 -4.78097 0.4888176,-8.371202 -3.617066 0.68528,-8.33988 -2.870449 0.8717969,-8.291896 -2.22405 1.015301,-8.689075 -5.077953 0.58898,-8.786033 -4.235054 0.7776006,-8.824114 -3.687529 0.9212723,-8.827522 -3.158696 1.018773,7.010,8 8 0
-1.040631 -10.24806 -0.8318481,-1.523491 -10.11641 -0.1266852,-1.992084 -9.61393 0.401745,-2.155348 -8.960777 0.8208159,-1.916472 -8.462112 1.183439,-1.608624 -8.202002 0.1764352,-1.805791 -7.55154 0.7596749,-1.875219 -7.362064 1.20001,-1.906984 -7.324672 1.438994,-1.220572 -7.90234 0.1016546,-1.248432 -6.929687 0.4961084,-1.248432 -6.929687 0.4961084,-1.243274 -5.577317 1.070082,-0.8419447 -7.941407 0.09005451,-0.7904234 -6.999031 0.467613,-0.7673216 -6.37577 0.7640815,-0.7471504 -5.80783 1.017467,-0.450388 -8.260702 0.1383094,-0.2991028 -7.5348 0.39569,-0.1894746 -7.013319 0.6131214,-0.09834766 -6.479743 0.8025317,-8.352818 -7.386957 -0.01163792,-7.794854 -7.099332 0.2734905,-7.33497 -6.48858 0.5159992,-7.002704 -5.921014 0.7793027,-6.682682 -5.623535 1.049483,-7.737224 -4.883752 0.317972,-7.651139 -3.817431 0.5247276,-7.634582 -3.170409 0.7193072,-7.633101 -2.602419 0.8514227,-8.070401 -4.726438 0.3691065,-8.0126 -3.45552 0.5751408,-7.97806 -2.660681 0.8025672,-7.959194 -1.973489 0.9900999,-8.380973 -4.805431 0.435452,-8.360361 -3.62153 0.6362484,-8.32608 -2.858444 0.8273503,-8.282548 -2.200553 0.9724232,-8.687446 -5.092905 0.5300081,-8.779011 -4.221981 0.7290158,-8.810004 -3.660163 0.8796841,-8.813332 -3.120245 0.9794835,7.110,8 8 0
-1.02791 -10.20569 -0.6182203,-1.511876 -10.05966 0.1149287,-1.973729 -9.576988 0.6746765,-2.141115 -8.958588 1.13247,-1.924185 -8.431955 1.535478,-1.599914 -8.131254 0.4552233,-1.819176 -7.462669 1.104309,-1.890715 -7.320075 1.595743,-1.90856 -7.364054 1.856865,-1.19827 -7.821092 0.3836261,-1.2266 -6.815805 0.8239866,-1.2266 -6.815805 0.8239866,-1.199556 -5.454912 1.451721,-0.809617 -7.869216 0.3798701,-0.7543688 -6.90541 0.7928014,-0.7221775 -6.278759 1.10205,-0.6909952 -5.709531 1.361231,-0.4167995 -8.203205 0.4299607,-0.2515306 -7.465134 0.7227083,-0.1353483 -6.939508 0.9524369,-0.04284239 -6.389305 1.146849,-8.355545 -7.394998 0.04164352,-7.809661 -7.079403 0.3348016,-7.358011 -6.470935 0.5741805,-7.029711 -5.900484 0.8336969,-6.707505 -5.601589 1.100141,-7.749955 -4.861028 0.3633335,-7.671262 -3.800113 0.5657858,-7.659956 -3.14928 0.7676981,-7.661503 -2.579058 0.9086769,-8.081206 -4.717024 0.4139834,-8.032728 -3.467803 0.6090783,-7.996948 -2.680849 0.8388274,-7.972761 -1.999048 1.031759,-8.391217 -4.805162 0.4856396,-8.3812 -3.640796 0.6775692,-8.354089 -2.888687 0.8646022,-8.312274 -2.234259 1.00612,-8.698153 -5.102533 0.5873736,-8.793945 -4.249637 0.7797605,-8.829236 -3.697146 0.9200011,-8.834308 -3.160934 1.010892,7.210,8 8 0
-1.010571 -10.15191 -0.6084747,-1.49406 -10.07787 0.2035884,-1.957957 -9.626043 0.7832427,-2.12919 -9.045708 1.241217,-2.000488 -8.455317 1.653489,-1.603624 -8.132635 0.5860884,-1.812224 -7.489971 1.268479,-1.864097 -7.318278 1.792381,-1.860097 -7.327451 2.084591,-1.191658 -7.806915 0.4877684,-1.211049 -6.784578 0.9678074,-1.211049 -6.784578 0.9678074,-1.162919 -5.42357 1.692005,-0.7984543 -7.833715 0.4580292,-0.7345743 -6.849819 0.8979181,-0.6977081 -6.22429 1.256163,-0.6629767 -5.650407 1.551194,-0.3982725 -8.15303 0.4837102,-0.2326479 -7.412059 0.8015715,-0.1083302 -6.897195 1.059215,-0.009159088 -6.352018 1.285982,-8.370186 -7.376134 0.06128223,-7.818195 -7.080528 0.3548219,-7.357776 -6.46762 0.5920399,-7.027075 -5.904273 0.8500455,-6.708246 -5.607493 1.11455,-7.758106 -4.838562 0.3694284,-7.678621 -3.786502 0.5661412,-7.669759 -3.136565 0.7647126,-7.671954 -2.569946 0.9053528,-8.091887 -4.690765 0.4180996,-8.041808 -3.452566 0.6042479,-8.008797 -2.672976 0.8279834,-7.986764 -1.998651 1.018494,-8.403078 -4.775551 0.4890037,-8.391194 -3.620512 0.6771858,-8.36378 -2.88151 0.8631446,-8.318383 -2.238359 1.005273,-8.711825 -5.070882 0.591512,-8.805551 -4.231298 0.7771737,-8.840322 -3.688941 0.9181916,-8.841381 -3.162395 1.01825,7.310,8 8 0
-0.9847965 -10.08575 -0.4456323,-1.476643 -9.997711 0.3588569,-1.925431 -9.482119 0.9427848,-2.057735 -8.837545 1.398052,-1.848675 -8.262794 1.81314,-1.552262 -8.029486 0.7690834,-1.734278 -7.40463 1.424436,-1.777128 -7.252935 1.9263,-1.761383 -7.275094 2.206503,-1.135641 -7.695737 0.6689007,-1.149279 -6.684627 1.107042,-1.149279 -6.684627 1.107042,-1.068666 -5.2701 1.771693,-0.7380857 -7.722354 0.6371228,-0.6566486 -6.739135 1.047202,-0.5999165 -6.086873 1.382414,-0.5425987 -5.48977 1.676426,-0.3324428 -8.048712 0.6643581,-0.1591949 -7.314649 0.9592155,-0.01595879 -6.794563 1.197044,0.1099377 -6.24666 1.420884,-8.365932 -7.38667 -0.0216665,-7.813404 -7.083282 0.2460431,-7.364147 -6.475688 0.4675782,-7.043434 -5.902956 0.7117192,-6.728346 -5.606874 0.9610195,-7.761862 -4.867584 0.2580242,-7.680153 -3.813319 0.4440262,-7.667737 -3.167152 0.6329684,-7.668148 -2.600387 0.7673254,-8.096676 -4.72117 0.3102901,-8.041906 -3.476608 0.4884985,-8.004978 -2.6881 0.7077636,-7.981014 -2.011873 0.8975825,-8.410361 -4.80669 0.3811518,-8.391506 -3.637994 0.5558432,-8.362936 -2.879602 0.7390599,-8.320383 -2.220187 0.8834169,-8.722227 -5.099683 0.4806627,-8.813272 -4.2493 0.6510246,-8.844764 -3.699539 0.7875316,-8.84539 -3.160341 0.8850563,7.410,8 8 0
-0.9923067 -10.08162 -0.3802744,-1.48897 -9.951752 0.4079687,-1.937355 -9.403183 0.9857683,-2.04908 -8.7372 1.436392,-1.785801 -8.201731 1.83607,-1.513447 -7.956422 0.7842463,-1.680724 -7.32453 1.436449,-1.723437 -7.179873 1.919165,-1.710218 -7.21768 2.17819,-1.097045 -7.646383 0.6849089,-1.102565 -6.647617 1.11667,-1.102565 -6.647617 1.11667,-1.011588 -5.221675 1.736722,-0.7020884 -7.69157 0.6576391,-0.6095915 -6.706991 1.060257,-0.5452232 -6.038249 1.379009,-0.4863505 -5.432695 1.660104,-0.3016233 -8.039907 0.6905318,-0.1174841 -7.298035 0.9781295,0.02981663 -6.758167 1.213352,0.1590195 -6.201497 1.424401,-8.372704 -7.389112 0.00408251,-7.823363 -7.094141 0.2923732,-7.366475 -6.482662 0.5180883,-7.039476 -5.910673 0.761875,-6.725489 -5.614248 1.005682,-7.765669 -4.868838 0.3220668,-7.679043 -3.812812 0.523088,-7.668041 -3.160985 0.7206597,-7.670712 -2.587836 0.8600781,-8.102488 -4.720045 0.3653862,-8.045816 -3.477743 0.5593154,-8.010434 -2.688081 0.7927586,-7.990475 -2.001025 0.9925534,-8.417121 -4.805662 0.4284576,-8.399765 -3.645579 0.620217,-8.375555 -2.889368 0.8147122,-8.336001 -2.227436 0.9657463,-8.729769 -5.101858 0.5193708,-8.820223 -4.25361 0.7042328,-8.85436 -3.704889 0.8461882,-8.856887 -3.166801 0.9493065,7.510,8 8 0
-0.9553814 -10.03193 -0.2521956,-1.465518 -9.903177 0.5760524,-1.928467 -9.342695 1.177178,-2.030444 -8.677355 1.638893,-1.727232 -8.182104 2.0376,-1.468367 -7.892171 0.9838319,-1.595084 -7.277176 1.652299,-1.622505 -7.163433 2.152933,-1.608269 -7.217906 2.430295,-1.042241 -7.583116 0.8738277,-1.022903 -6.569154 1.324464,-1.022903 -6.569154 1.324464,-0.9216461 -5.082343 2.013125,-0.6422052 -7.631891 0.8307732,-0.5345135 -6.636787 1.238634,-0.4625397 -5.953653 1.566988,-0.4012012 -5.333366 1.864936,-0.2392921 -7.989835 0.8538818,-0.03588676 -7.24809 1.125584,0.1226044 -6.710342 1.353215,0.2600279 -6.15903 1.566463,-8.372231 -7.386474 0.02289416,-7.828026 -7.087924 0.3014396,-7.37489 -6.4739 0.5273691,-7.046129 -5.904506 0.778742,-6.728518 -5.615814 1.028723,-7.771581 -4.853675 0.3040228,-7.682749 -3.805589 0.4970689,-7.668465 -3.159379 0.6912294,-7.668273 -2.598736 0.8288707,-8.10661 -4.707605 0.3540519,-8.051835 -3.461628 0.5411685,-8.018449 -2.674706 0.7714456,-8.000398 -1.995259 0.9664528,-8.418978 -4.796337 0.4268539,-8.407271 -3.635573 0.6174443,-8.384888 -2.882437 0.8065634,-8.346128 -2.22361 0.9510399,-8.727213 -5.097064 0.5271212,-8.819782 -4.254355 0.7095087,-8.856531 -3.713017 0.8476105,-8.861043 -3.181257 0.9455946,7.610,8 8 0
-0.9322 -10.02406 -0.0033897,-1.455397 -9.910564 0.8707263,-1.920571 -9.340504 1.507323,-1.982843 -8.680552 1.988597,-1.647767 -8.172417 2.400209,-1.435923 -7.860933 1.341436,-1.538964 -7.282382 2.040414,-1.558769 -7.225398 2.573054,-1.540262 -7.308247 2.87852,-0.9936876 -7.541982 1.219879,-0.9555864 -6.551271 1.675352,-0.9555864 -6.551271 1.675352,-0.8334866 -5.048099 2.389525,-0.5830297 -7.592185 1.166258,-0.4517813 -6.608811 1.569407,-0.363184 -5.921936 1.908335,-0.2881842 -5.303251 2.218629,-0.171731 -7.966846 1.182407,0.03951263 -7.223531 1.454869,0.2125883 -6.690053 1.687592,0.3613148 -6.140037 1.912155,-8.370522 -7.393611 0.02206916,-7.82611 -7.099699 0.3033372,-7.369155 -6.47792 0.5250534,-7.040534 -5.895149 0.7701014,-6.720489 -5.597286 1.020043,-7.763328 -4.867372 0.322456,-7.673908 -3.803665 0.5156901,-7.663267 -3.146976 0.7095999,-7.666844 -2.561634 0.8468493,-8.094245 -4.718599 0.3729113,-8.041755 -3.472497 0.5554498,-8.013668 -2.681464 0.7738068,-7.996574 -1.994232 0.9568034,-8.404487 -4.802117 0.4445191,-8.393299 -3.640739 0.6298243,-8.376394 -2.886967 0.8179311,-8.344826 -2.228026 0.96086,-8.712741 -5.096237 0.5454834,-8.806725 -4.24504 0.7339307,-8.843155 -3.691769 0.8828408,-8.850241 -3.151113 0.9811653,7.710,8 8 0
-0.8857694 -10.047 0.07303154,-1.403217 -9.911364 0.942287,-1.872337 -9.334934 1.584972,-1.924772 -8.677572 2.075694,-1.557294 -8.198307 2.489557,-1.376781 -7.827608 1.398172,-1.481361 -7.209093 2.103774,-1.489563 -7.161612 2.638816,-1.449124 -7.267189 2.951078,-0.9308109 -7.527699 1.270063,-0.8860531 -6.527942 1.733254,-0.8860531 -6.527942 1.733254,-0.7370005 -5.052562 2.450692,-0.5225973 -7.589637 1.214275,-0.3793936 -6.61542 1.620391,-0.2868748 -5.938587 1.962457,-0.2027302 -5.318946 2.278861,-0.1198187 -7.976974 1.227123,0.09877682 -7.22551 1.486069,0.2854247 -6.688619 1.713268,0.4552965 -6.125139 1.946059,-8.361896 -7.379924 0.04199724,-7.809416 -7.084068 0.3042941,-7.351969 -6.4731 0.5181311,-7.027359 -5.905258 0.7589942,-6.711725 -5.622012 1.009742,-7.75403 -4.838985 0.2821186,-7.671037 -3.789213 0.4553827,-7.659382 -3.14232 0.6432347,-7.659021 -2.57965 0.7776117,-8.089911 -4.691564 0.3332361,-8.037154 -3.454286 0.4956146,-8.001861 -2.673831 0.7113349,-7.977518 -2.001146 0.8942903,-8.403556 -4.779994 0.4058411,-8.384867 -3.625577 0.5704855,-8.357561 -2.881856 0.7476941,-8.313858 -2.234578 0.8828344,-8.712399 -5.078325 0.5063958,-8.806431 -4.239414 0.6703451,-8.840296 -3.690525 0.8054716,-8.841311 -3.158386 0.8972471,7.810,8 8 0
