TiagoOliveira98/Thesis-Project/Difficulty_1_NEW/Motor_Task/Unity_Project/DataLogging/JointData/Logs(1651330124)_d_Motor_Difficulty0.csv
WRIST,THUMB_CMC,THUMB_MCP,THUMB_IP,THUMB_TIP,INDEX_FINGER_MCP,INDEX_FINGER_PIP,INDEX_FINGER_DIP,INDEX_FINGER_TIP,MIDDLE_FINGER_MCP,MIDDLE_FINGER_PIP,MIDDLE_FINGER_DIP,MIDDLE_FINGER_TIP,RING_FINGER_MCP,RING_FINGER_PIP,RING_FINGER_DIP,RING_FINGER_TIP,PINKY_MCP,PINKY_PIP,PINKY_DIP,PINKY_TIP,WRIST2,THUMB_CMC2,THUMB_MCP2,THUMB_IP2,THUMB_TIP2,INDEX_FINGER_MCP2,INDEX_FINGER_PIP2,INDEX_FINGER_DIP2,INDEX_FINGER_TIP2,MIDDLE_FINGER_MCP2,MIDDLE_FINGER_PIP2,MIDDLE_FINGER_DIP2,MIDDLE_FINGER_TIP2,RING_FINGER_MCP2,RING_FINGER_PIP2,RING_FINGER_DIP2,RING_FINGER_TIP2,PINKY_MCP2,PINKY_PIP2,PINKY_DIP2,PINKY_TIP2,Timestamp,Event
-1.668298 -7.797193 -0.2402869,-2.454455 -7.483038 0.01665825,-3.129587 -6.678411 0.1725252,-3.581705 -5.858957 0.3535122,-4.021818 -5.370208 0.5658587,-2.739812 -4.709842 -0.1119202,-3.055944 -3.529992 0.06719244,-3.213709 -2.805078 0.2061165,-3.346563 -2.0934 0.3138062,-2.320857 -4.376758 -0.04721837,-2.525547 -2.998378 0.1783794,-2.654695 -2.107184 0.403585,-2.76418 -1.277393 0.6073362,-1.907024 -4.334787 0.09109417,-2.01771 -2.995025 0.2919756,-2.127162 -2.175405 0.5291862,-2.229258 -1.439664 0.7201931,-1.472383 -4.546511 0.2490154,-1.430574 -3.436143 0.4232039,-1.420815 -2.737274 0.6322459,-1.428778 -2.045938 0.8102316,-9.303905 -7.785351 -0.1533921,-8.537191 -7.358423 0.09027475,-7.875211 -6.544615 0.3046515,-7.418324 -5.675797 0.5880832,-6.999507 -5.16027 0.8993751,-8.310598 -4.487958 -0.02960248,-8.112729 -3.123815 0.147114,-8.013942 -2.307247 0.3493222,-7.928685 -1.58907 0.5170263,-8.746574 -4.210716 0.07882658,-8.572897 -2.660123 0.2186716,-8.444145 -1.680957 0.4832245,-8.333194 -0.8422856 0.6916468,-9.170332 -4.247056 0.2283555,-9.056017 -2.76066 0.3684963,-8.926078 -1.885032 0.5767958,-8.793674 -1.147502 0.7390634,-9.617707 -4.53692 0.4081488,-9.679371 -3.367715 0.605197,-9.669872 -2.620103 0.7724109,-9.624152 -1.904291 0.8751577,0.01667,1 0 1
-1.668298 -7.797193 -0.2402869,-2.454455 -7.483038 0.01665825,-3.129587 -6.678411 0.1725252,-3.581705 -5.858957 0.3535122,-4.021818 -5.370208 0.5658587,-2.739812 -4.709842 -0.1119202,-3.055944 -3.529992 0.06719244,-3.213709 -2.805078 0.2061165,-3.346563 -2.0934 0.3138062,-2.320857 -4.376758 -0.04721837,-2.525547 -2.998378 0.1783794,-2.654695 -2.107184 0.403585,-2.76418 -1.277393 0.6073362,-1.907024 -4.334787 0.09109417,-2.01771 -2.995025 0.2919756,-2.127162 -2.175405 0.5291862,-2.229258 -1.439664 0.7201931,-1.472383 -4.546511 0.2490154,-1.430574 -3.436143 0.4232039,-1.420815 -2.737274 0.6322459,-1.428778 -2.045938 0.8102316,-9.303905 -7.785351 -0.1533921,-8.537191 -7.358423 0.09027475,-7.875211 -6.544615 0.3046515,-7.418324 -5.675797 0.5880832,-6.999507 -5.16027 0.8993751,-8.310598 -4.487958 -0.02960248,-8.112729 -3.123815 0.147114,-8.013942 -2.307247 0.3493222,-7.928685 -1.58907 0.5170263,-8.746574 -4.210716 0.07882658,-8.572897 -2.660123 0.2186716,-8.444145 -1.680957 0.4832245,-8.333194 -0.8422856 0.6916468,-9.170332 -4.247056 0.2283555,-9.056017 -2.76066 0.3684963,-8.926078 -1.885032 0.5767958,-8.793674 -1.147502 0.7390634,-9.617707 -4.53692 0.4081488,-9.679371 -3.367715 0.605197,-9.669872 -2.620103 0.7724109,-9.624152 -1.904291 0.8751577,0.05000,1 0 1
-1.702756 -7.734144 -0.516673,-2.45975 -7.431033 -0.2876461,-3.125149 -6.618471 -0.1596813,-3.57947 -5.798159 -0.0008555651,-4.021374 -5.335742 0.1884918,-2.728422 -4.713201 -0.4160587,-3.049166 -3.53899 -0.2447357,-3.198434 -2.815231 -0.119699,-3.312356 -2.089453 -0.01550901,-2.317357 -4.386011 -0.342238,-2.525908 -3.002794 -0.1309111,-2.642183 -2.099471 0.07615376,-2.732799 -1.276565 0.2639263,-1.911311 -4.341409 -0.1939463,-2.032106 -2.988428 0.00154227,-2.136328 -2.149761 0.2177539,-2.229282 -1.405595 0.3990017,-1.475682 -4.546856 -0.02650252,-1.44211 -3.438025 0.1457923,-1.43346 -2.739184 0.3497642,-1.443224 -2.052312 0.5333011,-9.279145 -7.674728 -0.4257814,-8.525856 -7.264297 -0.1419674,-7.871085 -6.477093 0.09563345,-7.403183 -5.621386 0.3904045,-6.980565 -5.083907 0.7218304,-8.292652 -4.443843 -0.2297177,-8.097004 -3.080026 -0.03705692,-8.01073 -2.267344 0.1710278,-7.939235 -1.554281 0.335903,-8.726482 -4.182897 -0.1319946,-8.546742 -2.623833 0.03685254,-8.431024 -1.662708 0.3000654,-8.329972 -0.8535647 0.5003679,-9.155973 -4.239643 -0.000159502,-9.036277 -2.745666 0.1671206,-8.914879 -1.866928 0.3977112,-8.784385 -1.126581 0.5694963,-9.61047 -4.550565 0.1682433,-9.661654 -3.410615 0.3894153,-9.650928 -2.672597 0.5748061,-9.600847 -1.957205 0.6906542,0.08333,1 0 1
-1.702756 -7.734144 -0.516673,-2.45975 -7.431033 -0.2876461,-3.125149 -6.618471 -0.1596813,-3.57947 -5.798159 -0.0008555651,-4.021374 -5.335742 0.1884918,-2.728422 -4.713201 -0.4160587,-3.049166 -3.53899 -0.2447357,-3.198434 -2.815231 -0.119699,-3.312356 -2.089453 -0.01550901,-2.317357 -4.386011 -0.342238,-2.525908 -3.002794 -0.1309111,-2.642183 -2.099471 0.07615376,-2.732799 -1.276565 0.2639263,-1.911311 -4.341409 -0.1939463,-2.032106 -2.988428 0.00154227,-2.136328 -2.149761 0.2177539,-2.229282 -1.405595 0.3990017,-1.475682 -4.546856 -0.02650252,-1.44211 -3.438025 0.1457923,-1.43346 -2.739184 0.3497642,-1.443224 -2.052312 0.5333011,-9.279145 -7.674728 -0.4257814,-8.525856 -7.264297 -0.1419674,-7.871085 -6.477093 0.09563345,-7.403183 -5.621386 0.3904045,-6.980565 -5.083907 0.7218304,-8.292652 -4.443843 -0.2297177,-8.097004 -3.080026 -0.03705692,-8.01073 -2.267344 0.1710278,-7.939235 -1.554281 0.335903,-8.726482 -4.182897 -0.1319946,-8.546742 -2.623833 0.03685254,-8.431024 -1.662708 0.3000654,-8.329972 -0.8535647 0.5003679,-9.155973 -4.239643 -0.000159502,-9.036277 -2.745666 0.1671206,-8.914879 -1.866928 0.3977112,-8.784385 -1.126581 0.5694963,-9.61047 -4.550565 0.1682433,-9.661654 -3.410615 0.3894153,-9.650928 -2.672597 0.5748061,-9.600847 -1.957205 0.6906542,0.11667,1 0 1
-1.705789 -7.63602 -0.7962853,-2.459949 -7.346193 -0.5531055,-3.121756 -6.568626 -0.4102712,-3.573105 -5.764848 -0.242797,-4.0103 -5.302316 -0.04332328,-2.727339 -4.696375 -0.6643377,-3.048133 -3.525207 -0.4960884,-3.203623 -2.803522 -0.3660969,-3.326294 -2.090758 -0.253576,-2.319303 -4.370306 -0.5993472,-2.535219 -2.983449 -0.3847601,-2.656706 -2.08765 -0.1686836,-2.752542 -1.276624 0.02385497,-1.916267 -4.324128 -0.4642324,-2.040998 -2.982179 -0.26433,-2.148517 -2.149167 -0.03951681,-2.244091 -1.415584 0.1480679,-1.489913 -4.520132 -0.3090878,-1.461717 -3.425945 -0.1321246,-1.46041 -2.742495 0.07519543,-1.479595 -2.082452 0.2598292,-9.214074 -7.58673 -0.5258214,-8.480657 -7.174488 -0.2576922,-7.840509 -6.398893 -0.02066016,-7.381565 -5.557159 0.2742577,-6.96761 -5.036186 0.6153697,-8.28157 -4.380912 -0.3105917,-8.086399 -3.040243 -0.1191399,-8.002365 -2.228685 0.08634353,-7.929854 -1.520427 0.2497432,-8.711296 -4.118903 -0.2030995,-8.522733 -2.586101 -0.02872074,-8.40186 -1.623059 0.238335,-8.295169 -0.8176293 0.4501852,-9.139354 -4.169336 -0.06582388,-9.002428 -2.68894 0.1129387,-8.872574 -1.805811 0.3394594,-8.73448 -1.072914 0.5095363,-9.596439 -4.471061 0.1040401,-9.654232 -3.335029 0.3284285,-9.646996 -2.614179 0.508335,-9.594496 -1.922094 0.628834,0.15000,1 0 1
-1.705789 -7.63602 -0.7962853,-2.459949 -7.346193 -0.5531055,-3.121756 -6.568626 -0.4102712,-3.573105 -5.764848 -0.242797,-4.0103 -5.302316 -0.04332328,-2.727339 -4.696375 -0.6643377,-3.048133 -3.525207 -0.4960884,-3.203623 -2.803522 -0.3660969,-3.326294 -2.090758 -0.253576,-2.319303 -4.370306 -0.5993472,-2.535219 -2.983449 -0.3847601,-2.656706 -2.08765 -0.1686836,-2.752542 -1.276624 0.02385497,-1.916267 -4.324128 -0.4642324,-2.040998 -2.982179 -0.26433,-2.148517 -2.149167 -0.03951681,-2.244091 -1.415584 0.1480679,-1.489913 -4.520132 -0.3090878,-1.461717 -3.425945 -0.1321246,-1.46041 -2.742495 0.07519543,-1.479595 -2.082452 0.2598292,-9.214074 -7.58673 -0.5258214,-8.480657 -7.174488 -0.2576922,-7.840509 -6.398893 -0.02066016,-7.381565 -5.557159 0.2742577,-6.96761 -5.036186 0.6153697,-8.28157 -4.380912 -0.3105917,-8.086399 -3.040243 -0.1191399,-8.002365 -2.228685 0.08634353,-7.929854 -1.520427 0.2497432,-8.711296 -4.118903 -0.2030995,-8.522733 -2.586101 -0.02872074,-8.40186 -1.623059 0.238335,-8.295169 -0.8176293 0.4501852,-9.139354 -4.169336 -0.06582388,-9.002428 -2.68894 0.1129387,-8.872574 -1.805811 0.3394594,-8.73448 -1.072914 0.5095363,-9.596439 -4.471061 0.1040401,-9.654232 -3.335029 0.3284285,-9.646996 -2.614179 0.508335,-9.594496 -1.922094 0.628834,0.18333,1 0 1
-1.742033 -7.58282 -0.8986671,-2.483647 -7.29682 -0.6741112,-3.135189 -6.525643 -0.5406151,-3.58037 -5.730386 -0.377299,-4.004568 -5.26066 -0.1782035,-2.737313 -4.661191 -0.7994102,-3.055428 -3.509037 -0.6319969,-3.209547 -2.795249 -0.5075754,-3.326645 -2.091364 -0.4057717,-2.334054 -4.341875 -0.7200384,-2.542334 -2.971199 -0.5065873,-2.662358 -2.073171 -0.293632,-2.753051 -1.269578 -0.1051992,-1.932746 -4.296374 -0.5706939,-2.054903 -2.959877 -0.3704453,-2.165496 -2.119609 -0.1490716,-2.260966 -1.391279 0.0329529,-1.502885 -4.493824 -0.4067408,-1.467486 -3.396812 -0.2350051,-1.464564 -2.700608 -0.03909743,-1.482474 -2.031839 0.1378539,-9.136941 -7.525636 -0.6407357,-8.404038 -7.146798 -0.4071758,-7.788791 -6.364622 -0.1870334,-7.348807 -5.536166 0.08998686,-6.92971 -5.061656 0.4064181,-8.241503 -4.334701 -0.4523899,-8.045642 -3.008892 -0.2572844,-7.954607 -2.216307 -0.06111842,-7.876334 -1.508605 0.09110463,-8.67382 -4.084536 -0.3282465,-8.497943 -2.554743 -0.1594732,-8.376198 -1.591152 0.0953052,-8.274434 -0.788197 0.2885967,-9.107177 -4.150478 -0.1732914,-8.978948 -2.670737 -0.0114674,-8.852595 -1.776908 0.1942505,-8.723779 -1.036306 0.3452416,-9.567322 -4.471649 0.01253188,-9.624162 -3.327091 0.233313,-9.612831 -2.582384 0.4014283,-9.562822 -1.878831 0.5000625,0.21667,1 0 1
-1.742033 -7.58282 -0.8986671,-2.483647 -7.29682 -0.6741112,-3.135189 -6.525643 -0.5406151,-3.58037 -5.730386 -0.377299,-4.004568 -5.26066 -0.1782035,-2.737313 -4.661191 -0.7994102,-3.055428 -3.509037 -0.6319969,-3.209547 -2.795249 -0.5075754,-3.326645 -2.091364 -0.4057717,-2.334054 -4.341875 -0.7200384,-2.542334 -2.971199 -0.5065873,-2.662358 -2.073171 -0.293632,-2.753051 -1.269578 -0.1051992,-1.932746 -4.296374 -0.5706939,-2.054903 -2.959877 -0.3704453,-2.165496 -2.119609 -0.1490716,-2.260966 -1.391279 0.0329529,-1.502885 -4.493824 -0.4067408,-1.467486 -3.396812 -0.2350051,-1.464564 -2.700608 -0.03909743,-1.482474 -2.031839 0.1378539,-9.136941 -7.525636 -0.6407357,-8.404038 -7.146798 -0.4071758,-7.788791 -6.364622 -0.1870334,-7.348807 -5.536166 0.08998686,-6.92971 -5.061656 0.4064181,-8.241503 -4.334701 -0.4523899,-8.045642 -3.008892 -0.2572844,-7.954607 -2.216307 -0.06111842,-7.876334 -1.508605 0.09110463,-8.67382 -4.084536 -0.3282465,-8.497943 -2.554743 -0.1594732,-8.376198 -1.591152 0.0953052,-8.274434 -0.788197 0.2885967,-9.107177 -4.150478 -0.1732914,-8.978948 -2.670737 -0.0114674,-8.852595 -1.776908 0.1942505,-8.723779 -1.036306 0.3452416,-9.567322 -4.471649 0.01253188,-9.624162 -3.327091 0.233313,-9.612831 -2.582384 0.4014283,-9.562822 -1.878831 0.5000625,0.25000,1 0 1
-1.756191 -7.503486 -1.039825,-2.497952 -7.241117 -0.813244,-3.142291 -6.482019 -0.6897881,-3.577516 -5.680998 -0.5364002,-3.995713 -5.201093 -0.3471152,-2.745677 -4.617733 -0.972096,-3.061206 -3.462417 -0.8225149,-3.215346 -2.750572 -0.7098926,-3.330188 -2.056916 -0.612875,-2.343523 -4.300947 -0.8964057,-2.547366 -2.927004 -0.6981817,-2.662303 -2.024848 -0.494828,-2.744557 -1.22896 -0.3193955,-1.942907 -4.257176 -0.7498313,-2.057461 -2.917714 -0.5587949,-2.160761 -2.072542 -0.3409552,-2.248685 -1.348161 -0.1649182,-1.511673 -4.452905 -0.5876935,-1.470501 -3.35161 -0.4174079,-1.46278 -2.649889 -0.2189494,-1.475978 -1.980318 -0.04124194,-9.077915 -7.484274 -0.8743045,-8.346231 -7.103007 -0.6220622,-7.732406 -6.344717 -0.3911452,-7.294312 -5.52355 -0.09926957,-6.874863 -5.026658 0.2180133,-8.196636 -4.358884 -0.6682136,-7.983026 -3.043367 -0.4227229,-7.881221 -2.274575 -0.2068105,-7.802076 -1.582488 -0.05673701,-8.619436 -4.113128 -0.5313401,-8.433049 -2.572196 -0.3319708,-8.304296 -1.617857 -0.06368959,-8.19913 -0.8238559 0.1397932,-9.044342 -4.181325 -0.3548516,-8.913364 -2.702493 -0.1521779,-8.789659 -1.801104 0.08274353,-8.656909 -1.03737 0.2584406,-9.499668 -4.503227 -0.1456748,-9.566306 -3.359351 0.1108242,-9.55724 -2.606076 0.3132489,-9.499567 -1.87923 0.4383985,0.28333,1 0 1
-1.756191 -7.503486 -1.039825,-2.497952 -7.241117 -0.813244,-3.142291 -6.482019 -0.6897881,-3.577516 -5.680998 -0.5364002,-3.995713 -5.201093 -0.3471152,-2.745677 -4.617733 -0.972096,-3.061206 -3.462417 -0.8225149,-3.215346 -2.750572 -0.7098926,-3.330188 -2.056916 -0.612875,-2.343523 -4.300947 -0.8964057,-2.547366 -2.927004 -0.6981817,-2.662303 -2.024848 -0.494828,-2.744557 -1.22896 -0.3193955,-1.942907 -4.257176 -0.7498313,-2.057461 -2.917714 -0.5587949,-2.160761 -2.072542 -0.3409552,-2.248685 -1.348161 -0.1649182,-1.511673 -4.452905 -0.5876935,-1.470501 -3.35161 -0.4174079,-1.46278 -2.649889 -0.2189494,-1.475978 -1.980318 -0.04124194,-9.077915 -7.484274 -0.8743045,-8.346231 -7.103007 -0.6220622,-7.732406 -6.344717 -0.3911452,-7.294312 -5.52355 -0.09926957,-6.874863 -5.026658 0.2180133,-8.196636 -4.358884 -0.6682136,-7.983026 -3.043367 -0.4227229,-7.881221 -2.274575 -0.2068105,-7.802076 -1.582488 -0.05673701,-8.619436 -4.113128 -0.5313401,-8.433049 -2.572196 -0.3319708,-8.304296 -1.617857 -0.06368959,-8.19913 -0.8238559 0.1397932,-9.044342 -4.181325 -0.3548516,-8.913364 -2.702493 -0.1521779,-8.789659 -1.801104 0.08274353,-8.656909 -1.03737 0.2584406,-9.499668 -4.503227 -0.1456748,-9.566306 -3.359351 0.1108242,-9.55724 -2.606076 0.3132489,-9.499567 -1.87923 0.4383985,0.31667,1 0 1
-1.7767 -7.468275 -1.118022,-2.513058 -7.216997 -0.8732651,-3.158367 -6.463777 -0.735486,-3.595953 -5.682083 -0.5722567,-4.010286 -5.207241 -0.3709557,-2.745381 -4.600824 -1.046157,-3.057915 -3.456085 -0.8835622,-3.215539 -2.746032 -0.7505485,-3.339911 -2.053389 -0.6418918,-2.342124 -4.284569 -0.974053,-2.549265 -2.924942 -0.7650815,-2.673031 -2.031917 -0.545595,-2.769819 -1.240161 -0.3593161,-1.945123 -4.239408 -0.8280983,-2.063958 -2.914162 -0.6294891,-2.174544 -2.076776 -0.4046707,-2.270431 -1.355949 -0.2247288,-1.522751 -4.436044 -0.6655281,-1.482979 -3.353343 -0.4888331,-1.480627 -2.66092 -0.2933111,-1.502199 -2.00126 -0.1197057,-9.072762 -7.49785 -1.010209,-8.328706 -7.14199 -0.7822853,-7.695277 -6.36803 -0.583079,-7.234219 -5.545887 -0.3216107,-6.798727 -5.054441 -0.02256924,-8.148524 -4.389745 -0.8788217,-7.93837 -3.053376 -0.6761007,-7.83922 -2.270191 -0.4923991,-7.762396 -1.566434 -0.3570012,-8.577855 -4.163573 -0.7543334,-8.387089 -2.608389 -0.6026539,-8.267875 -1.642778 -0.3728334,-8.179476 -0.8374286 -0.1841958,-9.005672 -4.272014 -0.5873072,-8.866058 -2.809943 -0.4154902,-8.747882 -1.901237 -0.1964597,-8.624688 -1.131976 -0.01998681,-9.456809 -4.638346 -0.3880334,-9.482667 -3.550258 -0.1278181,-9.445922 -2.824847 0.09212804,-9.362111 -2.126839 0.2272336,0.35000,1 0 1
-1.7767 -7.468275 -1.118022,-2.513058 -7.216997 -0.8732651,-3.158367 -6.463777 -0.735486,-3.595953 -5.682083 -0.5722567,-4.010286 -5.207241 -0.3709557,-2.745381 -4.600824 -1.046157,-3.057915 -3.456085 -0.8835622,-3.215539 -2.746032 -0.7505485,-3.339911 -2.053389 -0.6418918,-2.342124 -4.284569 -0.974053,-2.549265 -2.924942 -0.7650815,-2.673031 -2.031917 -0.545595,-2.769819 -1.240161 -0.3593161,-1.945123 -4.239408 -0.8280983,-2.063958 -2.914162 -0.6294891,-2.174544 -2.076776 -0.4046707,-2.270431 -1.355949 -0.2247288,-1.522751 -4.436044 -0.6655281,-1.482979 -3.353343 -0.4888331,-1.480627 -2.66092 -0.2933111,-1.502199 -2.00126 -0.1197057,-9.072762 -7.49785 -1.010209,-8.328706 -7.14199 -0.7822853,-7.695277 -6.36803 -0.583079,-7.234219 -5.545887 -0.3216107,-6.798727 -5.054441 -0.02256924,-8.148524 -4.389745 -0.8788217,-7.93837 -3.053376 -0.6761007,-7.83922 -2.270191 -0.4923991,-7.762396 -1.566434 -0.3570012,-8.577855 -4.163573 -0.7543334,-8.387089 -2.608389 -0.6026539,-8.267875 -1.642778 -0.3728334,-8.179476 -0.8374286 -0.1841958,-9.005672 -4.272014 -0.5873072,-8.866058 -2.809943 -0.4154902,-8.747882 -1.901237 -0.1964597,-8.624688 -1.131976 -0.01998681,-9.456809 -4.638346 -0.3880334,-9.482667 -3.550258 -0.1278181,-9.445922 -2.824847 0.09212804,-9.362111 -2.126839 0.2272336,0.38333,1 0 1
-1.781527 -7.441632 -1.195098,-2.514152 -7.205083 -0.9127437,-3.164575 -6.474067 -0.7433478,-3.604221 -5.698166 -0.560306,-4.013536 -5.20523 -0.3412861,-2.762058 -4.601274 -1.061602,-3.067234 -3.463163 -0.8891323,-3.222775 -2.758228 -0.7474474,-3.344728 -2.06974 -0.6318171,-2.354557 -4.283983 -1.007043,-2.559392 -2.935369 -0.7884337,-2.682798 -2.051997 -0.5683256,-2.776891 -1.268794 -0.3855993,-1.956693 -4.243345 -0.8794291,-2.073537 -2.933796 -0.6755905,-2.186185 -2.107548 -0.4465297,-2.28317 -1.395179 -0.2631816,-1.536217 -4.441283 -0.7333745,-1.501036 -3.375941 -0.5557313,-1.501479 -2.697292 -0.3580327,-1.524755 -2.050083 -0.1842186,-9.027111 -7.494941 -0.8805162,-8.278682 -7.139773 -0.6823437,-7.649575 -6.37358 -0.5296208,-7.198225 -5.547119 -0.310585,-6.787994 -5.064657 -0.064345,-8.083502 -4.35107 -0.8484852,-7.890797 -3.047039 -0.7218082,-7.800898 -2.255702 -0.5667599,-7.72403 -1.550201 -0.4363234,-8.505737 -4.120347 -0.7393529,-8.324521 -2.610623 -0.6524921,-8.210985 -1.653085 -0.4389729,-8.121552 -0.8568282 -0.2581338,-8.926568 -4.227968 -0.5929608,-8.782542 -2.807824 -0.4819487,-8.658669 -1.927218 -0.2804552,-8.534156 -1.192498 -0.120988,-9.37113 -4.592945 -0.4148195,-9.389276 -3.570476 -0.2093605,-9.353691 -2.885604 -0.01043558,-9.277123 -2.235898 0.1124051,0.41667,1 0 1
-1.781527 -7.441632 -1.195098,-2.514152 -7.205083 -0.9127437,-3.164575 -6.474067 -0.7433478,-3.604221 -5.698166 -0.560306,-4.013536 -5.20523 -0.3412861,-2.762058 -4.601274 -1.061602,-3.067234 -3.463163 -0.8891323,-3.222775 -2.758228 -0.7474474,-3.344728 -2.06974 -0.6318171,-2.354557 -4.283983 -1.007043,-2.559392 -2.935369 -0.7884337,-2.682798 -2.051997 -0.5683256,-2.776891 -1.268794 -0.3855993,-1.956693 -4.243345 -0.8794291,-2.073537 -2.933796 -0.6755905,-2.186185 -2.107548 -0.4465297,-2.28317 -1.395179 -0.2631816,-1.536217 -4.441283 -0.7333745,-1.501036 -3.375941 -0.5557313,-1.501479 -2.697292 -0.3580327,-1.524755 -2.050083 -0.1842186,-9.027111 -7.494941 -0.8805162,-8.278682 -7.139773 -0.6823437,-7.649575 -6.37358 -0.5296208,-7.198225 -5.547119 -0.310585,-6.787994 -5.064657 -0.064345,-8.083502 -4.35107 -0.8484852,-7.890797 -3.047039 -0.7218082,-7.800898 -2.255702 -0.5667599,-7.72403 -1.550201 -0.4363234,-8.505737 -4.120347 -0.7393529,-8.324521 -2.610623 -0.6524921,-8.210985 -1.653085 -0.4389729,-8.121552 -0.8568282 -0.2581338,-8.926568 -4.227968 -0.5929608,-8.782542 -2.807824 -0.4819487,-8.658669 -1.927218 -0.2804552,-8.534156 -1.192498 -0.120988,-9.37113 -4.592945 -0.4148195,-9.389276 -3.570476 -0.2093605,-9.353691 -2.885604 -0.01043558,-9.277123 -2.235898 0.1124051,0.45000,1 0 1
-1.74864 -7.441221 -1.315515,-2.487484 -7.208574 -1.027098,-3.139584 -6.488204 -0.8743997,-3.569391 -5.7084 -0.7167269,-3.989161 -5.220413 -0.5300574,-2.744974 -4.639266 -1.183342,-3.04355 -3.496079 -1.013355,-3.193531 -2.78836 -0.8763735,-3.313657 -2.097436 -0.7561082,-2.339728 -4.321474 -1.136045,-2.543821 -2.979589 -0.9150295,-2.664558 -2.103424 -0.6948367,-2.755623 -1.331944 -0.5046273,-1.944419 -4.274335 -1.011459,-2.06749 -2.973072 -0.7998894,-2.184704 -2.145782 -0.5731999,-2.284546 -1.430647 -0.390513,-1.524301 -4.465599 -0.8689427,-1.49587 -3.40192 -0.6791674,-1.505009 -2.722615 -0.4819648,-1.532094 -2.075619 -0.3047018,-8.99052 -7.5303 -0.956315,-8.253403 -7.171953 -0.7816975,-7.624321 -6.393476 -0.6381352,-7.185665 -5.576177 -0.4175559,-6.783591 -5.129196 -0.1490861,-8.043388 -4.401065 -0.9433722,-7.854189 -3.077632 -0.8318085,-7.768155 -2.268517 -0.6710848,-7.695971 -1.559945 -0.5305872,-8.462377 -4.177817 -0.8385215,-8.279632 -2.669839 -0.7602675,-8.169405 -1.69404 -0.5483587,-8.082628 -0.8756299 -0.3634917,-8.879838 -4.280359 -0.6995837,-8.735927 -2.895694 -0.5954671,-8.611555 -2.014037 -0.4053442,-8.487038 -1.284539 -0.2547157,-9.321642 -4.635328 -0.5240947,-9.345607 -3.627235 -0.3378149,-9.322913 -2.940455 -0.1485742,-9.259284 -2.282322 -0.02636051,0.48333,1 0 1
-1.74864 -7.441221 -1.315515,-2.487484 -7.208574 -1.027098,-3.139584 -6.488204 -0.8743997,-3.569391 -5.7084 -0.7167269,-3.989161 -5.220413 -0.5300574,-2.744974 -4.639266 -1.183342,-3.04355 -3.496079 -1.013355,-3.193531 -2.78836 -0.8763735,-3.313657 -2.097436 -0.7561082,-2.339728 -4.321474 -1.136045,-2.543821 -2.979589 -0.9150295,-2.664558 -2.103424 -0.6948367,-2.755623 -1.331944 -0.5046273,-1.944419 -4.274335 -1.011459,-2.06749 -2.973072 -0.7998894,-2.184704 -2.145782 -0.5731999,-2.284546 -1.430647 -0.390513,-1.524301 -4.465599 -0.8689427,-1.49587 -3.40192 -0.6791674,-1.505009 -2.722615 -0.4819648,-1.532094 -2.075619 -0.3047018,-8.99052 -7.5303 -0.956315,-8.253403 -7.171953 -0.7816975,-7.624321 -6.393476 -0.6381352,-7.185665 -5.576177 -0.4175559,-6.783591 -5.129196 -0.1490861,-8.043388 -4.401065 -0.9433722,-7.854189 -3.077632 -0.8318085,-7.768155 -2.268517 -0.6710848,-7.695971 -1.559945 -0.5305872,-8.462377 -4.177817 -0.8385215,-8.279632 -2.669839 -0.7602675,-8.169405 -1.69404 -0.5483587,-8.082628 -0.8756299 -0.3634917,-8.879838 -4.280359 -0.6995837,-8.735927 -2.895694 -0.5954671,-8.611555 -2.014037 -0.4053442,-8.487038 -1.284539 -0.2547157,-9.321642 -4.635328 -0.5240947,-9.345607 -3.627235 -0.3378149,-9.322913 -2.940455 -0.1485742,-9.259284 -2.282322 -0.02636051,0.51667,1 0 1
-1.705884 -7.501912 -1.283292,-2.421029 -7.257511 -1.012405,-3.051291 -6.478439 -0.8894222,-3.462666 -5.657823 -0.7431934,-3.892745 -5.150593 -0.5598487,-2.687047 -4.687425 -1.219269,-2.978323 -3.556386 -1.063031,-3.130111 -2.858238 -0.9371493,-3.254821 -2.179046 -0.8182057,-2.298902 -4.370236 -1.164469,-2.507604 -3.054027 -0.9629738,-2.637327 -2.191484 -0.7491269,-2.736073 -1.420025 -0.5617791,-1.912665 -4.325485 -1.025064,-2.044956 -3.05442 -0.8253149,-2.179782 -2.241201 -0.6014872,-2.293869 -1.522823 -0.4171685,-1.49766 -4.519913 -0.8634605,-1.481861 -3.47055 -0.6690229,-1.509223 -2.80055 -0.4653347,-1.550814 -2.166298 -0.2798984,-8.965102 -7.56034 -0.8893513,-8.231013 -7.210619 -0.6649454,-7.603388 -6.412792 -0.5055752,-7.159363 -5.593079 -0.2835978,-6.744431 -5.148127 -0.0296666,-8.005944 -4.433444 -0.8272438,-7.819777 -3.133323 -0.6953164,-7.725158 -2.332738 -0.5189171,-7.640848 -1.6336 -0.3770306,-8.425554 -4.191385 -0.7442783,-8.25428 -2.693998 -0.6502204,-8.142037 -1.725412 -0.4274114,-8.051862 -0.9157825 -0.2379941,-8.840913 -4.280128 -0.6234719,-8.697301 -2.885463 -0.5082891,-8.569763 -2.005926 -0.3181169,-8.443608 -1.27688 -0.1753359,-9.279595 -4.623599 -0.4654528,-9.285091 -3.619926 -0.2776042,-9.249649 -2.943387 -0.09612864,-9.179475 -2.298103 0.01556736,0.55000,1 0 1
-1.705884 -7.501912 -1.283292,-2.421029 -7.257511 -1.012405,-3.051291 -6.478439 -0.8894222,-3.462666 -5.657823 -0.7431934,-3.892745 -5.150593 -0.5598487,-2.687047 -4.687425 -1.219269,-2.978323 -3.556386 -1.063031,-3.130111 -2.858238 -0.9371493,-3.254821 -2.179046 -0.8182057,-2.298902 -4.370236 -1.164469,-2.507604 -3.054027 -0.9629738,-2.637327 -2.191484 -0.7491269,-2.736073 -1.420025 -0.5617791,-1.912665 -4.325485 -1.025064,-2.044956 -3.05442 -0.8253149,-2.179782 -2.241201 -0.6014872,-2.293869 -1.522823 -0.4171685,-1.49766 -4.519913 -0.8634605,-1.481861 -3.47055 -0.6690229,-1.509223 -2.80055 -0.4653347,-1.550814 -2.166298 -0.2798984,-8.965102 -7.56034 -0.8893513,-8.231013 -7.210619 -0.6649454,-7.603388 -6.412792 -0.5055752,-7.159363 -5.593079 -0.2835978,-6.744431 -5.148127 -0.0296666,-8.005944 -4.433444 -0.8272438,-7.819777 -3.133323 -0.6953164,-7.725158 -2.332738 -0.5189171,-7.640848 -1.6336 -0.3770306,-8.425554 -4.191385 -0.7442783,-8.25428 -2.693998 -0.6502204,-8.142037 -1.725412 -0.4274114,-8.051862 -0.9157825 -0.2379941,-8.840913 -4.280128 -0.6234719,-8.697301 -2.885463 -0.5082891,-8.569763 -2.005926 -0.3181169,-8.443608 -1.27688 -0.1753359,-9.279595 -4.623599 -0.4654528,-9.285091 -3.619926 -0.2776042,-9.249649 -2.943387 -0.09612864,-9.179475 -2.298103 0.01556736,0.58333,1 0 1
-1.704189 -7.555101 -1.260199,-2.419177 -7.260841 -1.006933,-3.031099 -6.469481 -0.8760684,-3.425737 -5.648133 -0.7202936,-3.842719 -5.135904 -0.5231303,-2.666517 -4.722994 -1.118573,-2.979347 -3.587278 -0.9246861,-3.139672 -2.887548 -0.7875725,-3.26621 -2.200493 -0.6726056,-2.280047 -4.418263 -1.050726,-2.478669 -3.09862 -0.8014445,-2.600945 -2.240743 -0.5778335,-2.694782 -1.453888 -0.3854223,-1.897844 -4.387258 -0.9063827,-2.027639 -3.108525 -0.6731735,-2.152462 -2.2995 -0.4360688,-2.256039 -1.571567 -0.2465017,-1.490907 -4.599004 -0.749417,-1.471219 -3.541588 -0.5382794,-1.485139 -2.866404 -0.3253787,-1.509936 -2.216687 -0.1394874,-8.957715 -7.584657 -0.9019138,-8.225674 -7.255737 -0.714517,-7.589712 -6.429513 -0.5732585,-7.144005 -5.588815 -0.3694276,-6.736937 -5.120409 -0.1322991,-7.994746 -4.464805 -0.916133,-7.801293 -3.156768 -0.8152732,-7.714354 -2.35424 -0.6563951,-7.637972 -1.65897 -0.5205612,-8.408729 -4.218368 -0.8368019,-8.232573 -2.712514 -0.7753494,-8.127858 -1.73175 -0.5789854,-8.037603 -0.9018512 -0.3991528,-8.820145 -4.305799 -0.7219434,-8.675313 -2.909132 -0.6427733,-8.560199 -2.033418 -0.4736947,-8.441935 -1.29359 -0.3411526,-9.251103 -4.651824 -0.571595,-9.254456 -3.642675 -0.4193726,-9.229523 -2.970015 -0.2526227,-9.169298 -2.327214 -0.1430265,0.61667,1 0 1
-1.704189 -7.555101 -1.260199,-2.419177 -7.260841 -1.006933,-3.031099 -6.469481 -0.8760684,-3.425737 -5.648133 -0.7202936,-3.842719 -5.135904 -0.5231303,-2.666517 -4.722994 -1.118573,-2.979347 -3.587278 -0.9246861,-3.139672 -2.887548 -0.7875725,-3.26621 -2.200493 -0.6726056,-2.280047 -4.418263 -1.050726,-2.478669 -3.09862 -0.8014445,-2.600945 -2.240743 -0.5778335,-2.694782 -1.453888 -0.3854223,-1.897844 -4.387258 -0.9063827,-2.027639 -3.108525 -0.6731735,-2.152462 -2.2995 -0.4360688,-2.256039 -1.571567 -0.2465017,-1.490907 -4.599004 -0.749417,-1.471219 -3.541588 -0.5382794,-1.485139 -2.866404 -0.3253787,-1.509936 -2.216687 -0.1394874,-8.957715 -7.584657 -0.9019138,-8.225674 -7.255737 -0.714517,-7.589712 -6.429513 -0.5732585,-7.144005 -5.588815 -0.3694276,-6.736937 -5.120409 -0.1322991,-7.994746 -4.464805 -0.916133,-7.801293 -3.156768 -0.8152732,-7.714354 -2.35424 -0.6563951,-7.637972 -1.65897 -0.5205612,-8.408729 -4.218368 -0.8368019,-8.232573 -2.712514 -0.7753494,-8.127858 -1.73175 -0.5789854,-8.037603 -0.9018512 -0.3991528,-8.820145 -4.305799 -0.7219434,-8.675313 -2.909132 -0.6427733,-8.560199 -2.033418 -0.4736947,-8.441935 -1.29359 -0.3411526,-9.251103 -4.651824 -0.571595,-9.254456 -3.642675 -0.4193726,-9.229523 -2.970015 -0.2526227,-9.169298 -2.327214 -0.1430265,0.65000,1 0 1
-1.684561 -7.604223 -1.273052,-2.388896 -7.288682 -1.015004,-2.981946 -6.480763 -0.8792937,-3.352955 -5.649166 -0.7156391,-3.756188 -5.108787 -0.5095106,-2.638242 -4.766019 -1.138328,-2.947259 -3.631797 -0.9357556,-3.114477 -2.923596 -0.794067,-3.248744 -2.231074 -0.6762095,-2.256353 -4.470519 -1.061514,-2.457481 -3.15405 -0.8023545,-2.588513 -2.307934 -0.573659,-2.691986 -1.52189 -0.3729818,-1.879172 -4.448911 -0.9000612,-2.013887 -3.17141 -0.6529865,-2.14634 -2.358558 -0.4019572,-2.259712 -1.618516 -0.1940639,-1.478073 -4.673627 -0.7262514,-1.460615 -3.610744 -0.5027138,-1.48209 -2.92492 -0.2728853,-1.517289 -2.266312 -0.06911397,-8.968381 -7.606821 -0.8078177,-8.225848 -7.269372 -0.6393249,-7.594759 -6.439524 -0.5071224,-7.160959 -5.587066 -0.3101363,-6.752225 -5.118504 -0.08136421,-7.986966 -4.480627 -0.8424991,-7.80001 -3.197526 -0.7431495,-7.720177 -2.40409 -0.5940033,-7.645833 -1.711211 -0.4721435,-8.406283 -4.215127 -0.7600911,-8.237926 -2.702814 -0.703827,-8.126451 -1.735339 -0.510766,-8.02317 -0.9224992 -0.341902,-8.821967 -4.282916 -0.6430391,-8.68712 -2.856776 -0.567999,-8.56541 -1.99813 -0.4012863,-8.43012 -1.271327 -0.2757721,-9.254278 -4.617695 -0.4983808,-9.264932 -3.609233 -0.3503379,-9.238693 -2.943 -0.1848288,-9.173431 -2.309421 -0.08526558,0.68333,1 0 1
-1.684561 -7.604223 -1.273052,-2.388896 -7.288682 -1.015004,-2.981946 -6.480763 -0.8792937,-3.352955 -5.649166 -0.7156391,-3.756188 -5.108787 -0.5095106,-2.638242 -4.766019 -1.138328,-2.947259 -3.631797 -0.9357556,-3.114477 -2.923596 -0.794067,-3.248744 -2.231074 -0.6762095,-2.256353 -4.470519 -1.061514,-2.457481 -3.15405 -0.8023545,-2.588513 -2.307934 -0.573659,-2.691986 -1.52189 -0.3729818,-1.879172 -4.448911 -0.9000612,-2.013887 -3.17141 -0.6529865,-2.14634 -2.358558 -0.4019572,-2.259712 -1.618516 -0.1940639,-1.478073 -4.673627 -0.7262514,-1.460615 -3.610744 -0.5027138,-1.48209 -2.92492 -0.2728853,-1.517289 -2.266312 -0.06911397,-8.968381 -7.606821 -0.8078177,-8.225848 -7.269372 -0.6393249,-7.594759 -6.439524 -0.5071224,-7.160959 -5.587066 -0.3101363,-6.752225 -5.118504 -0.08136421,-7.986966 -4.480627 -0.8424991,-7.80001 -3.197526 -0.7431495,-7.720177 -2.40409 -0.5940033,-7.645833 -1.711211 -0.4721435,-8.406283 -4.215127 -0.7600911,-8.237926 -2.702814 -0.703827,-8.126451 -1.735339 -0.510766,-8.02317 -0.9224992 -0.341902,-8.821967 -4.282916 -0.6430391,-8.68712 -2.856776 -0.567999,-8.56541 -1.99813 -0.4012863,-8.43012 -1.271327 -0.2757721,-9.254278 -4.617695 -0.4983808,-9.264932 -3.609233 -0.3503379,-9.238693 -2.943 -0.1848288,-9.173431 -2.309421 -0.08526558,0.71667,1 0 1
-1.647889 -7.652347 -1.258137,-2.346624 -7.333278 -0.9824735,-2.934937 -6.525755 -0.8374671,-3.288834 -5.685121 -0.6737727,-3.68631 -5.133667 -0.4754948,-2.61026 -4.818262 -1.062606,-2.915497 -3.689285 -0.8414699,-3.082006 -2.972811 -0.6837823,-3.2158 -2.270858 -0.5529491,-2.224339 -4.518667 -0.9993205,-2.425213 -3.20819 -0.7268329,-2.553825 -2.368321 -0.4881732,-2.654253 -1.59128 -0.2775085,-1.845077 -4.500514 -0.85357,-1.974021 -3.236463 -0.5976563,-2.09647 -2.427318 -0.3303551,-2.199725 -1.686136 -0.1086287,-1.443969 -4.731264 -0.6977394,-1.424751 -3.685611 -0.4625181,-1.44097 -3.007793 -0.2193555,-1.468285 -2.3579 -0.008476853,-9.010858 -7.640317 -0.7461157,-8.25828 -7.309053 -0.5891548,-7.613595 -6.461734 -0.4613107,-7.177003 -5.591163 -0.2610565,-6.760828 -5.09436 -0.0265038,-8.008665 -4.499702 -0.7777513,-7.817855 -3.191726 -0.6842884,-7.734756 -2.384641 -0.5471465,-7.654598 -1.680162 -0.4312184,-8.436993 -4.233162 -0.6747568,-8.262761 -2.709018 -0.6200478,-8.145157 -1.722574 -0.4201292,-8.036248 -0.8993249 -0.2454343,-8.863085 -4.307811 -0.5365948,-8.726065 -2.872468 -0.4548374,-8.598526 -1.993469 -0.2686209,-8.452148 -1.249638 -0.1220726,-9.308159 -4.653148 -0.3746639,-9.318858 -3.625 -0.1967553,-9.285743 -2.949794 -0.008035123,-9.205464 -2.314731 0.1089828,0.75000,1 0 1
-1.647889 -7.652347 -1.258137,-2.346624 -7.333278 -0.9824735,-2.934937 -6.525755 -0.8374671,-3.288834 -5.685121 -0.6737727,-3.68631 -5.133667 -0.4754948,-2.61026 -4.818262 -1.062606,-2.915497 -3.689285 -0.8414699,-3.082006 -2.972811 -0.6837823,-3.2158 -2.270858 -0.5529491,-2.224339 -4.518667 -0.9993205,-2.425213 -3.20819 -0.7268329,-2.553825 -2.368321 -0.4881732,-2.654253 -1.59128 -0.2775085,-1.845077 -4.500514 -0.85357,-1.974021 -3.236463 -0.5976563,-2.09647 -2.427318 -0.3303551,-2.199725 -1.686136 -0.1086287,-1.443969 -4.731264 -0.6977394,-1.424751 -3.685611 -0.4625181,-1.44097 -3.007793 -0.2193555,-1.468285 -2.3579 -0.008476853,-9.010858 -7.640317 -0.7461157,-8.25828 -7.309053 -0.5891548,-7.613595 -6.461734 -0.4613107,-7.177003 -5.591163 -0.2610565,-6.760828 -5.09436 -0.0265038,-8.008665 -4.499702 -0.7777513,-7.817855 -3.191726 -0.6842884,-7.734756 -2.384641 -0.5471465,-7.654598 -1.680162 -0.4312184,-8.436993 -4.233162 -0.6747568,-8.262761 -2.709018 -0.6200478,-8.145157 -1.722574 -0.4201292,-8.036248 -0.8993249 -0.2454343,-8.863085 -4.307811 -0.5365948,-8.726065 -2.872468 -0.4548374,-8.598526 -1.993469 -0.2686209,-8.452148 -1.249638 -0.1220726,-9.308159 -4.653148 -0.3746639,-9.318858 -3.625 -0.1967553,-9.285743 -2.949794 -0.008035123,-9.205464 -2.314731 0.1089828,0.78333,1 0 1
-1.599376 -7.761393 -1.200872,-2.299475 -7.445137 -0.9363749,-2.890065 -6.61336 -0.8017513,-3.231282 -5.741258 -0.6431245,-3.622652 -5.163905 -0.4507312,-2.584216 -4.914223 -1.053129,-2.889671 -3.793434 -0.8338176,-3.057387 -3.08464 -0.6693848,-3.193916 -2.374713 -0.5314801,-2.194834 -4.611137 -0.9873357,-2.398394 -3.331322 -0.7577136,-2.52603 -2.505937 -0.526565,-2.626702 -1.746685 -0.3136705,-1.808313 -4.593914 -0.8390741,-1.934318 -3.373259 -0.6244829,-2.055609 -2.583292 -0.352758,-2.160434 -1.877445 -0.12398,-1.399938 -4.825897 -0.6779471,-1.3897 -3.801326 -0.4567323,-1.421354 -3.149086 -0.2114402,-1.467358 -2.536893 -0.002126098,-9.037647 -7.675319 -0.743147,-8.284979 -7.362783 -0.5744185,-7.639465 -6.501157 -0.4224823,-7.211733 -5.624347 -0.1944947,-6.783959 -5.114091 0.07420647,-8.038766 -4.527631 -0.7359074,-7.844857 -3.215951 -0.6195921,-7.762509 -2.408002 -0.4662881,-7.681252 -1.699919 -0.3318843,-8.474216 -4.267445 -0.6091173,-8.293326 -2.725976 -0.5464736,-8.175057 -1.737993 -0.3455532,-8.065796 -0.9034982 -0.1708661,-8.911367 -4.345189 -0.4495483,-8.772721 -2.878822 -0.3526446,-8.642978 -1.982625 -0.1575409,-8.49406 -1.214941 0.000831008,-9.373628 -4.697891 -0.2624554,-9.39445 -3.632022 -0.06454873,-9.371543 -2.923444 0.1145664,-9.302097 -2.253473 0.2330399,0.81667,1 0 1
-1.599376 -7.761393 -1.200872,-2.299475 -7.445137 -0.9363749,-2.890065 -6.61336 -0.8017513,-3.231282 -5.741258 -0.6431245,-3.622652 -5.163905 -0.4507312,-2.584216 -4.914223 -1.053129,-2.889671 -3.793434 -0.8338176,-3.057387 -3.08464 -0.6693848,-3.193916 -2.374713 -0.5314801,-2.194834 -4.611137 -0.9873357,-2.398394 -3.331322 -0.7577136,-2.52603 -2.505937 -0.526565,-2.626702 -1.746685 -0.3136705,-1.808313 -4.593914 -0.8390741,-1.934318 -3.373259 -0.6244829,-2.055609 -2.583292 -0.352758,-2.160434 -1.877445 -0.12398,-1.399938 -4.825897 -0.6779471,-1.3897 -3.801326 -0.4567323,-1.421354 -3.149086 -0.2114402,-1.467358 -2.536893 -0.002126098,-9.037647 -7.675319 -0.743147,-8.284979 -7.362783 -0.5744185,-7.639465 -6.501157 -0.4224823,-7.211733 -5.624347 -0.1944947,-6.783959 -5.114091 0.07420647,-8.038766 -4.527631 -0.7359074,-7.844857 -3.215951 -0.6195921,-7.762509 -2.408002 -0.4662881,-7.681252 -1.699919 -0.3318843,-8.474216 -4.267445 -0.6091173,-8.293326 -2.725976 -0.5464736,-8.175057 -1.737993 -0.3455532,-8.065796 -0.9034982 -0.1708661,-8.911367 -4.345189 -0.4495483,-8.772721 -2.878822 -0.3526446,-8.642978 -1.982625 -0.1575409,-8.49406 -1.214941 0.000831008,-9.373628 -4.697891 -0.2624554,-9.39445 -3.632022 -0.06454873,-9.371543 -2.923444 0.1145664,-9.302097 -2.253473 0.2330399,0.85000,1 0 1
-1.541365 -7.971218 -1.099089,-2.235782 -7.697208 -0.7037555,-2.836481 -6.829271 -0.557519,-3.134639 -5.886516 -0.379456,-3.491878 -5.224478 -0.1752367,-2.568052 -5.06917 -1.036182,-2.867773 -3.952685 -0.8855318,-3.029253 -3.272554 -0.7505237,-3.163561 -2.577318 -0.6103171,-2.152852 -4.787806 -1.028636,-2.296373 -3.5657 -0.8462613,-2.352428 -2.864591 -0.6094163,-2.40227 -2.342916 -0.4148839,-1.757022 -4.780632 -0.9236547,-1.852746 -3.613963 -0.7020273,-1.890037 -2.964715 -0.3450658,-1.937149 -2.541276 -0.07579184,-1.33318 -5.00043 -0.7876928,-1.33786 -4.040731 -0.5168625,-1.362258 -3.565977 -0.2404739,-1.406276 -3.293591 -0.02558994,-9.053957 -7.751864 -0.666458,-8.320138 -7.41924 -0.4849294,-7.687732 -6.546291 -0.3097475,-7.26587 -5.675954 -0.05669421,-6.826221 -5.168979 0.235531,-8.086066 -4.567937 -0.606931,-7.886611 -3.229066 -0.4442857,-7.793304 -2.406694 -0.271053,-7.707497 -1.670614 -0.12543,-8.521648 -4.320255 -0.4625272,-8.341961 -2.791854 -0.353853,-8.225796 -1.801519 -0.1258427,-8.123274 -0.9549069 0.06480962,-8.955323 -4.410724 -0.2791591,-8.820807 -2.965119 -0.1480423,-8.702394 -2.063267 0.05033636,-8.571018 -1.28815 0.2108764,-9.417864 -4.777168 -0.07218319,-9.418417 -3.68133 0.1618621,-9.382285 -2.959566 0.351591,-9.306471 -2.278064 0.4760445,0.88333,1 0 1
-1.541365 -7.971218 -1.099089,-2.235782 -7.697208 -0.7037555,-2.836481 -6.829271 -0.557519,-3.134639 -5.886516 -0.379456,-3.491878 -5.224478 -0.1752367,-2.568052 -5.06917 -1.036182,-2.867773 -3.952685 -0.8855318,-3.029253 -3.272554 -0.7505237,-3.163561 -2.577318 -0.6103171,-2.152852 -4.787806 -1.028636,-2.296373 -3.5657 -0.8462613,-2.352428 -2.864591 -0.6094163,-2.40227 -2.342916 -0.4148839,-1.757022 -4.780632 -0.9236547,-1.852746 -3.613963 -0.7020273,-1.890037 -2.964715 -0.3450658,-1.937149 -2.541276 -0.07579184,-1.33318 -5.00043 -0.7876928,-1.33786 -4.040731 -0.5168625,-1.362258 -3.565977 -0.2404739,-1.406276 -3.293591 -0.02558994,-9.053957 -7.751864 -0.666458,-8.320138 -7.41924 -0.4849294,-7.687732 -6.546291 -0.3097475,-7.26587 -5.675954 -0.05669421,-6.826221 -5.168979 0.235531,-8.086066 -4.567937 -0.606931,-7.886611 -3.229066 -0.4442857,-7.793304 -2.406694 -0.271053,-7.707497 -1.670614 -0.12543,-8.521648 -4.320255 -0.4625272,-8.341961 -2.791854 -0.353853,-8.225796 -1.801519 -0.1258427,-8.123274 -0.9549069 0.06480962,-8.955323 -4.410724 -0.2791591,-8.820807 -2.965119 -0.1480423,-8.702394 -2.063267 0.05033636,-8.571018 -1.28815 0.2108764,-9.417864 -4.777168 -0.07218319,-9.418417 -3.68133 0.1618621,-9.382285 -2.959566 0.351591,-9.306471 -2.278064 0.4760445,0.91667,1 0 1
-1.463008 -8.13978 -1.246291,-2.162544 -7.853624 -0.6771733,-2.756229 -7.013719 -0.3494143,-3.065469 -6.089933 -0.04748774,-3.406874 -5.382019 0.2550987,-2.609128 -5.293111 -0.8855458,-2.877848 -4.248188 -0.5367371,-2.986892 -3.558189 -0.1610566,-3.059698 -2.944438 0.178252,-2.147358 -5.037759 -0.8585176,-2.218734 -3.686672 -0.1137353,-2.179135 -4.18337 0.3972336,-2.109363 -4.903443 0.6246123,-1.706144 -5.052944 -0.758963,-1.688011 -3.840894 -0.08959949,-1.688989 -4.583405 0.2656789,-1.666081 -5.379319 0.3460165,-1.230572 -5.299863 -0.6144829,-1.203401 -4.341274 -0.06884933,-1.269382 -4.786304 0.2114201,-1.294868 -5.423971 0.3463463,-9.068432 -7.802022 -0.5907282,-8.339681 -7.455178 -0.4656873,-7.706241 -6.57444 -0.3149421,-7.282911 -5.708759 -0.07434899,-6.841115 -5.208216 0.2023235,-8.12854 -4.585918 -0.6166866,-7.940639 -3.242549 -0.492097,-7.852627 -2.419814 -0.3320976,-7.763465 -1.698341 -0.1978039,-8.564684 -4.34089 -0.4543828,-8.395061 -2.799945 -0.3872432,-8.28651 -1.81128 -0.1762948,-8.18666 -0.9913459 0.006089509,-9.002254 -4.42967 -0.2573719,-8.866591 -2.95909 -0.1796614,-8.74526 -2.046845 -0.01229984,-8.611614 -1.285716 0.1261586,-9.467659 -4.79533 -0.03767151,-9.483152 -3.657758 0.1366075,-9.454944 -2.939957 0.2784634,-9.390624 -2.281782 0.3733343,0.95000,1 0 1
-1.463008 -8.13978 -1.246291,-2.162544 -7.853624 -0.6771733,-2.756229 -7.013719 -0.3494143,-3.065469 -6.089933 -0.04748774,-3.406874 -5.382019 0.2550987,-2.609128 -5.293111 -0.8855458,-2.877848 -4.248188 -0.5367371,-2.986892 -3.558189 -0.1610566,-3.059698 -2.944438 0.178252,-2.147358 -5.037759 -0.8585176,-2.218734 -3.686672 -0.1137353,-2.179135 -4.18337 0.3972336,-2.109363 -4.903443 0.6246123,-1.706144 -5.052944 -0.758963,-1.688011 -3.840894 -0.08959949,-1.688989 -4.583405 0.2656789,-1.666081 -5.379319 0.3460165,-1.230572 -5.299863 -0.6144829,-1.203401 -4.341274 -0.06884933,-1.269382 -4.786304 0.2114201,-1.294868 -5.423971 0.3463463,-9.068432 -7.802022 -0.5907282,-8.339681 -7.455178 -0.4656873,-7.706241 -6.57444 -0.3149421,-7.282911 -5.708759 -0.07434899,-6.841115 -5.208216 0.2023235,-8.12854 -4.585918 -0.6166866,-7.940639 -3.242549 -0.492097,-7.852627 -2.419814 -0.3320976,-7.763465 -1.698341 -0.1978039,-8.564684 -4.34089 -0.4543828,-8.395061 -2.799945 -0.3872432,-8.28651 -1.81128 -0.1762948,-8.18666 -0.9913459 0.006089509,-9.002254 -4.42967 -0.2573719,-8.866591 -2.95909 -0.1796614,-8.74526 -2.046845 -0.01229984,-8.611614 -1.285716 0.1261586,-9.467659 -4.79533 -0.03767151,-9.483152 -3.657758 0.1366075,-9.454944 -2.939957 0.2784634,-9.390624 -2.281782 0.3733343,0.98333,1 0 1
-1.446372 -8.351744 -0.9238611,-2.110122 -8.07485 -0.2294499,-2.704171 -7.249122 0.1733452,-3.011877 -6.345888 0.5421374,-3.33278 -5.635049 0.9505571,-2.609068 -5.468128 -0.1580237,-2.85345 -4.550321 0.3444319,-2.960858 -3.892135 0.8113726,-3.07847 -3.300033 1.18279,-2.121442 -5.226443 -0.1390288,-2.188017 -4.116187 0.8286488,-2.147196 -4.81999 1.425172,-2.10359 -5.612204 1.708744,-1.6426 -5.287273 -0.05022866,-1.612597 -4.49201 0.8893158,-1.642424 -5.486971 1.26451,-1.667518 -6.333253 1.316399,-1.135784 -5.598302 0.07212311,-1.085864 -4.947347 0.8516765,-1.203974 -5.640212 1.154558,-1.319633 -6.29457 1.256922,-9.055393 -7.818908 -0.5389321,-8.324669 -7.468519 -0.4172439,-7.705754 -6.577442 -0.2752799,-7.279342 -5.712926 -0.04234195,-6.833632 -5.232544 0.2311009,-8.136888 -4.582922 -0.5862041,-7.939631 -3.250307 -0.4775046,-7.853557 -2.429628 -0.3194024,-7.779553 -1.698661 -0.1886488,-8.572206 -4.339033 -0.4266638,-8.412601 -2.796567 -0.3691042,-8.310735 -1.806604 -0.1598163,-8.226408 -0.9912438 0.01751035,-9.008501 -4.420019 -0.2288058,-8.893393 -2.931224 -0.1505303,-8.782198 -2.01893 0.03401554,-8.66394 -1.257634 0.1751716,-9.472929 -4.768617 -0.006274104,-9.516857 -3.591469 0.1679131,-9.503185 -2.852664 0.3196631,-9.454432 -2.160755 0.4179692,1.01667,1 0 1
-1.446372 -8.351744 -0.9238611,-2.110122 -8.07485 -0.2294499,-2.704171 -7.249122 0.1733452,-3.011877 -6.345888 0.5421374,-3.33278 -5.635049 0.9505571,-2.609068 -5.468128 -0.1580237,-2.85345 -4.550321 0.3444319,-2.960858 -3.892135 0.8113726,-3.07847 -3.300033 1.18279,-2.121442 -5.226443 -0.1390288,-2.188017 -4.116187 0.8286488,-2.147196 -4.81999 1.425172,-2.10359 -5.612204 1.708744,-1.6426 -5.287273 -0.05022866,-1.612597 -4.49201 0.8893158,-1.642424 -5.486971 1.26451,-1.667518 -6.333253 1.316399,-1.135784 -5.598302 0.07212311,-1.085864 -4.947347 0.8516765,-1.203974 -5.640212 1.154558,-1.319633 -6.29457 1.256922,-9.055393 -7.818908 -0.5389321,-8.324669 -7.468519 -0.4172439,-7.705754 -6.577442 -0.2752799,-7.279342 -5.712926 -0.04234195,-6.833632 -5.232544 0.2311009,-8.136888 -4.582922 -0.5862041,-7.939631 -3.250307 -0.4775046,-7.853557 -2.429628 -0.3194024,-7.779553 -1.698661 -0.1886488,-8.572206 -4.339033 -0.4266638,-8.412601 -2.796567 -0.3691042,-8.310735 -1.806604 -0.1598163,-8.226408 -0.9912438 0.01751035,-9.008501 -4.420019 -0.2288058,-8.893393 -2.931224 -0.1505303,-8.782198 -2.01893 0.03401554,-8.66394 -1.257634 0.1751716,-9.472929 -4.768617 -0.006274104,-9.516857 -3.591469 0.1679131,-9.503185 -2.852664 0.3196631,-9.454432 -2.160755 0.4179692,1.05000,1 0 1
-1.470906 -8.281893 -1.183034,-2.138043 -8.063671 -0.4777896,-2.732313 -7.202465 -0.06861007,-3.028284 -6.28758 0.2908627,-3.381099 -5.591559 0.6769468,-2.621615 -5.493026 -0.2735865,-2.87269 -4.685569 0.3177325,-3.026644 -4.102895 0.8186773,-3.190763 -3.561428 1.236739,-2.13852 -5.272493 -0.2583947,-2.285659 -4.354133 0.7195603,-2.248098 -5.23912 1.24424,-2.161957 -6.089612 1.5171,-1.632131 -5.349537 -0.1753472,-1.686856 -4.726871 0.7808686,-1.727663 -5.817411 1.034741,-1.728763 -6.68237 1.060506,-1.090434 -5.662574 -0.04109788,-1.086006 -5.062486 0.772259,-1.222225 -5.846216 0.9856948,-1.320412 -6.564685 1.034951,-9.060318 -7.839394 -0.4519149,-8.321821 -7.48645 -0.3091477,-7.700226 -6.590984 -0.1606502,-7.278708 -5.724281 0.0842616,-6.838792 -5.22447 0.3609863,-8.14105 -4.58131 -0.5170556,-7.951773 -3.246387 -0.4025614,-7.86327 -2.425247 -0.2390846,-7.784693 -1.686038 -0.108479,-8.571708 -4.33463 -0.3574347,-8.425606 -2.805945 -0.2967164,-8.32151 -1.827629 -0.08331376,-8.23646 -1.015804 0.088727,-9.002233 -4.404758 -0.1530146,-8.893699 -2.927091 -0.06574589,-8.780944 -2.020067 0.1168706,-8.658133 -1.262341 0.2554961,-9.46406 -4.739902 0.07955599,-9.517092 -3.567411 0.2559622,-9.507086 -2.821251 0.4079546,-9.459956 -2.114699 0.5032463,1.08333,1 0 1
-1.470906 -8.281893 -1.183034,-2.138043 -8.063671 -0.4777896,-2.732313 -7.202465 -0.06861007,-3.028284 -6.28758 0.2908627,-3.381099 -5.591559 0.6769468,-2.621615 -5.493026 -0.2735865,-2.87269 -4.685569 0.3177325,-3.026644 -4.102895 0.8186773,-3.190763 -3.561428 1.236739,-2.13852 -5.272493 -0.2583947,-2.285659 -4.354133 0.7195603,-2.248098 -5.23912 1.24424,-2.161957 -6.089612 1.5171,-1.632131 -5.349537 -0.1753472,-1.686856 -4.726871 0.7808686,-1.727663 -5.817411 1.034741,-1.728763 -6.68237 1.060506,-1.090434 -5.662574 -0.04109788,-1.086006 -5.062486 0.772259,-1.222225 -5.846216 0.9856948,-1.320412 -6.564685 1.034951,-9.060318 -7.839394 -0.4519149,-8.321821 -7.48645 -0.3091477,-7.700226 -6.590984 -0.1606502,-7.278708 -5.724281 0.0842616,-6.838792 -5.22447 0.3609863,-8.14105 -4.58131 -0.5170556,-7.951773 -3.246387 -0.4025614,-7.86327 -2.425247 -0.2390846,-7.784693 -1.686038 -0.108479,-8.571708 -4.33463 -0.3574347,-8.425606 -2.805945 -0.2967164,-8.32151 -1.827629 -0.08331376,-8.23646 -1.015804 0.088727,-9.002233 -4.404758 -0.1530146,-8.893699 -2.927091 -0.06574589,-8.780944 -2.020067 0.1168706,-8.658133 -1.262341 0.2554961,-9.46406 -4.739902 0.07955599,-9.517092 -3.567411 0.2559622,-9.507086 -2.821251 0.4079546,-9.459956 -2.114699 0.5032463,1.11667,1 0 1
-1.576811 -8.020893 -0.708236,-2.315878 -7.767078 -0.07560855,-2.930861 -6.839092 0.2903572,-3.24633 -5.995435 0.6161929,-3.604205 -5.435342 0.9966184,-2.77903 -5.099173 0.1615108,-3.018234 -4.543802 0.8439435,-3.195385 -3.969741 1.352214,-3.367228 -3.463192 1.762434,-2.288915 -4.863555 0.1705043,-2.422471 -4.39263 1.08996,-2.343554 -5.405807 1.506619,-2.208753 -6.32788 1.65474,-1.749122 -4.932347 0.2620633,-1.796313 -4.8192 1.176709,-1.795337 -6.005926 1.331946,-1.771285 -6.878735 1.291591,-1.173944 -5.2519 0.3876492,-1.178587 -5.054651 1.181551,-1.287962 -5.993864 1.320139,-1.386525 -6.725231 1.28631,-9.066886 -7.886562 -0.3865088,-8.340709 -7.522821 -0.2360706,-7.719145 -6.622756 -0.05908966,-7.292742 -5.755258 0.2152581,-6.849319 -5.227967 0.5322648,-8.164296 -4.606819 -0.3777789,-7.972812 -3.256374 -0.2321238,-7.877859 -2.426914 -0.05142805,-7.79439 -1.688977 0.08499908,-8.609099 -4.362446 -0.1991151,-8.454679 -2.830999 -0.1085206,-8.334645 -1.852288 0.1313972,-8.23859 -1.040936 0.3210824,-9.056116 -4.434776 0.02195591,-8.939538 -2.956916 0.1438358,-8.815153 -2.054284 0.3494078,-8.68611 -1.297033 0.5013683,-9.529678 -4.773319 0.2649665,-9.581297 -3.560588 0.4747914,-9.559664 -2.784466 0.6414653,-9.498756 -2.045149 0.7455893,1.15000,1 0 1
-1.576811 -8.020893 -0.708236,-2.315878 -7.767078 -0.07560855,-2.930861 -6.839092 0.2903572,-3.24633 -5.995435 0.6161929,-3.604205 -5.435342 0.9966184,-2.77903 -5.099173 0.1615108,-3.018234 -4.543802 0.8439435,-3.195385 -3.969741 1.352214,-3.367228 -3.463192 1.762434,-2.288915 -4.863555 0.1705043,-2.422471 -4.39263 1.08996,-2.343554 -5.405807 1.506619,-2.208753 -6.32788 1.65474,-1.749122 -4.932347 0.2620633,-1.796313 -4.8192 1.176709,-1.795337 -6.005926 1.331946,-1.771285 -6.878735 1.291591,-1.173944 -5.2519 0.3876492,-1.178587 -5.054651 1.181551,-1.287962 -5.993864 1.320139,-1.386525 -6.725231 1.28631,-9.066886 -7.886562 -0.3865088,-8.340709 -7.522821 -0.2360706,-7.719145 -6.622756 -0.05908966,-7.292742 -5.755258 0.2152581,-6.849319 -5.227967 0.5322648,-8.164296 -4.606819 -0.3777789,-7.972812 -3.256374 -0.2321238,-7.877859 -2.426914 -0.05142805,-7.79439 -1.688977 0.08499908,-8.609099 -4.362446 -0.1991151,-8.454679 -2.830999 -0.1085206,-8.334645 -1.852288 0.1313972,-8.23859 -1.040936 0.3210824,-9.056116 -4.434776 0.02195591,-8.939538 -2.956916 0.1438358,-8.815153 -2.054284 0.3494078,-8.68611 -1.297033 0.5013683,-9.529678 -4.773319 0.2649665,-9.581297 -3.560588 0.4747914,-9.559664 -2.784466 0.6414653,-9.498756 -2.045149 0.7455893,1.18333,1 0 1
-1.684219 -7.808593 -0.8208554,-2.394536 -7.60529 -0.04946941,-3.009623 -6.740265 0.3558921,-3.300385 -5.911097 0.6801105,-3.657062 -5.339164 1.059644,-2.871682 -4.99743 0.2729831,-3.114534 -4.466256 0.9946582,-3.270998 -3.883981 1.54051,-3.423738 -3.382505 1.975876,-2.370156 -4.733015 0.2299298,-2.509789 -4.316371 1.23695,-2.408907 -5.34596 1.677913,-2.273817 -6.317297 1.82757,-1.818642 -4.775821 0.2709357,-1.856043 -4.758148 1.27669,-1.840628 -5.996772 1.423163,-1.821712 -6.956957 1.354287,-1.238709 -5.073597 0.3490615,-1.238742 -5.002925 1.22121,-1.337244 -6.015686 1.36179,-1.437266 -6.801771 1.315596,-9.104756 -7.920161 -0.3769622,-8.374364 -7.566242 -0.1726919,-7.75563 -6.665828 0.02497667,-7.322639 -5.792541 0.3122315,-6.870675 -5.264467 0.6305281,-8.193901 -4.649759 -0.3267385,-7.995181 -3.310424 -0.1404566,-7.891802 -2.499265 0.05535212,-7.807315 -1.759463 0.1954989,-8.636034 -4.396486 -0.15828,-8.48889 -2.860668 -0.03031486,-8.371101 -1.886126 0.2225899,-8.278613 -1.065566 0.4185458,-9.07775 -4.461214 0.06017527,-8.975525 -2.972623 0.2246182,-8.85455 -2.063291 0.4413958,-8.723436 -1.289383 0.6016536,-9.552212 -4.791824 0.3063656,-9.61524 -3.572402 0.5482447,-9.596539 -2.786942 0.7357548,-9.537876 -2.028747 0.8518182,1.21667,1 0 1
-1.684219 -7.808593 -0.8208554,-2.394536 -7.60529 -0.04946941,-3.009623 -6.740265 0.3558921,-3.300385 -5.911097 0.6801105,-3.657062 -5.339164 1.059644,-2.871682 -4.99743 0.2729831,-3.114534 -4.466256 0.9946582,-3.270998 -3.883981 1.54051,-3.423738 -3.382505 1.975876,-2.370156 -4.733015 0.2299298,-2.509789 -4.316371 1.23695,-2.408907 -5.34596 1.677913,-2.273817 -6.317297 1.82757,-1.818642 -4.775821 0.2709357,-1.856043 -4.758148 1.27669,-1.840628 -5.996772 1.423163,-1.821712 -6.956957 1.354287,-1.238709 -5.073597 0.3490615,-1.238742 -5.002925 1.22121,-1.337244 -6.015686 1.36179,-1.437266 -6.801771 1.315596,-9.104756 -7.920161 -0.3769622,-8.374364 -7.566242 -0.1726919,-7.75563 -6.665828 0.02497667,-7.322639 -5.792541 0.3122315,-6.870675 -5.264467 0.6305281,-8.193901 -4.649759 -0.3267385,-7.995181 -3.310424 -0.1404566,-7.891802 -2.499265 0.05535212,-7.807315 -1.759463 0.1954989,-8.636034 -4.396486 -0.15828,-8.48889 -2.860668 -0.03031486,-8.371101 -1.886126 0.2225899,-8.278613 -1.065566 0.4185458,-9.07775 -4.461214 0.06017527,-8.975525 -2.972623 0.2246182,-8.85455 -2.063291 0.4413958,-8.723436 -1.289383 0.6016536,-9.552212 -4.791824 0.3063656,-9.61524 -3.572402 0.5482447,-9.596539 -2.786942 0.7357548,-9.537876 -2.028747 0.8518182,1.25000,1 0 1
-1.74156 -7.632436 -1.133934,-2.427189 -7.554031 -0.2175536,-3.056631 -6.736981 0.2404444,-3.345962 -5.881147 0.5827415,-3.705096 -5.258085 0.9816304,-2.956293 -5.007249 0.1191701,-3.16775 -4.467003 0.903967,-3.302258 -3.874113 1.504995,-3.446548 -3.364903 1.997463,-2.458109 -4.699449 0.0201385,-2.579031 -4.204032 1.072551,-2.454231 -5.225985 1.51045,-2.312392 -6.214728 1.670333,-1.899811 -4.678848 0.02347505,-1.9097 -4.59365 1.110628,-1.875002 -5.859316 1.255425,-1.850373 -6.858464 1.174984,-1.318303 -4.90148 0.06984746,-1.295878 -4.847499 1.038706,-1.38507 -5.876629 1.203429,-1.483382 -6.679925 1.178027,-9.114116 -7.974004 -0.3542808,-8.389849 -7.615045 -0.1240828,-7.774575 -6.705686 0.08391061,-7.342842 -5.819899 0.3740681,-6.890686 -5.296279 0.6894358,-8.214522 -4.694601 -0.2322305,-8.021316 -3.345042 -0.03194878,-7.925624 -2.524256 0.1622432,-7.852043 -1.7725 0.2976981,-8.65648 -4.445556 -0.08922532,-8.515918 -2.899863 0.0493505,-8.406751 -1.91777 0.2947034,-8.321086 -1.093067 0.4740346,-9.097934 -4.506855 0.09860149,-9.005991 -3.009804 0.2620702,-8.895819 -2.091668 0.466434,-8.775416 -1.316606 0.6103294,-9.565374 -4.825902 0.3144246,-9.625728 -3.602435 0.5430455,-9.614224 -2.826459 0.7152357,-9.562654 -2.093441 0.8128446,1.28333,1 0 1
-1.74156 -7.632436 -1.133934,-2.427189 -7.554031 -0.2175536,-3.056631 -6.736981 0.2404444,-3.345962 -5.881147 0.5827415,-3.705096 -5.258085 0.9816304,-2.956293 -5.007249 0.1191701,-3.16775 -4.467003 0.903967,-3.302258 -3.874113 1.504995,-3.446548 -3.364903 1.997463,-2.458109 -4.699449 0.0201385,-2.579031 -4.204032 1.072551,-2.454231 -5.225985 1.51045,-2.312392 -6.214728 1.670333,-1.899811 -4.678848 0.02347505,-1.9097 -4.59365 1.110628,-1.875002 -5.859316 1.255425,-1.850373 -6.858464 1.174984,-1.318303 -4.90148 0.06984746,-1.295878 -4.847499 1.038706,-1.38507 -5.876629 1.203429,-1.483382 -6.679925 1.178027,-9.114116 -7.974004 -0.3542808,-8.389849 -7.615045 -0.1240828,-7.774575 -6.705686 0.08391061,-7.342842 -5.819899 0.3740681,-6.890686 -5.296279 0.6894358,-8.214522 -4.694601 -0.2322305,-8.021316 -3.345042 -0.03194878,-7.925624 -2.524256 0.1622432,-7.852043 -1.7725 0.2976981,-8.65648 -4.445556 -0.08922532,-8.515918 -2.899863 0.0493505,-8.406751 -1.91777 0.2947034,-8.321086 -1.093067 0.4740346,-9.097934 -4.506855 0.09860149,-9.005991 -3.009804 0.2620702,-8.895819 -2.091668 0.466434,-8.775416 -1.316606 0.6103294,-9.565374 -4.825902 0.3144246,-9.625728 -3.602435 0.5430455,-9.614224 -2.826459 0.7152357,-9.562654 -2.093441 0.8128446,1.31667,1 0 1
-1.797259 -7.486889 -1.088357,-2.479574 -7.502556 -0.1338941,-3.101658 -6.692575 0.3437546,-3.40649 -5.831342 0.6942211,-3.769756 -5.195495 1.103811,-2.984074 -4.946037 0.3394849,-3.202674 -4.469324 1.173263,-3.334215 -3.890823 1.791708,-3.475571 -3.363426 2.280207,-2.486145 -4.601865 0.2283247,-2.581149 -4.217933 1.288478,-2.439404 -5.086933 1.829537,-2.302296 -5.942012 2.10552,-1.926095 -4.552957 0.2133418,-1.921491 -4.623976 1.310009,-1.861378 -5.868313 1.48664,-1.833854 -6.872039 1.42686,-1.352584 -4.770612 0.2310699,-1.325972 -4.914217 1.244455,-1.408797 -5.935033 1.419868,-1.522969 -6.740488 1.394407,-9.144629 -8.029339 -0.2523599,-8.414341 -7.656084 0.01881248,-7.791862 -6.730306 0.2349612,-7.358322 -5.850117 0.5260367,-6.91149 -5.346885 0.8435647,-8.241523 -4.7042 -0.1182995,-8.050945 -3.367306 0.09552744,-7.959804 -2.546798 0.3143399,-7.887398 -1.79137 0.4705971,-8.691957 -4.470285 0.005953044,-8.554749 -2.943293 0.1460707,-8.455447 -1.973676 0.4026888,-8.37567 -1.133549 0.59953,-9.130116 -4.550588 0.1767927,-9.04323 -3.086603 0.3350235,-8.943264 -2.181147 0.5375174,-8.837427 -1.389657 0.6867557,-9.586104 -4.889608 0.3789058,-9.633512 -3.71769 0.5997157,-9.61925 -2.968383 0.7638687,-9.575218 -2.230438 0.8651848,1.35000,1 0 1
-1.797259 -7.486889 -1.088357,-2.479574 -7.502556 -0.1338941,-3.101658 -6.692575 0.3437546,-3.40649 -5.831342 0.6942211,-3.769756 -5.195495 1.103811,-2.984074 -4.946037 0.3394849,-3.202674 -4.469324 1.173263,-3.334215 -3.890823 1.791708,-3.475571 -3.363426 2.280207,-2.486145 -4.601865 0.2283247,-2.581149 -4.217933 1.288478,-2.439404 -5.086933 1.829537,-2.302296 -5.942012 2.10552,-1.926095 -4.552957 0.2133418,-1.921491 -4.623976 1.310009,-1.861378 -5.868313 1.48664,-1.833854 -6.872039 1.42686,-1.352584 -4.770612 0.2310699,-1.325972 -4.914217 1.244455,-1.408797 -5.935033 1.419868,-1.522969 -6.740488 1.394407,-9.144629 -8.029339 -0.2523599,-8.414341 -7.656084 0.01881248,-7.791862 -6.730306 0.2349612,-7.358322 -5.850117 0.5260367,-6.91149 -5.346885 0.8435647,-8.241523 -4.7042 -0.1182995,-8.050945 -3.367306 0.09552744,-7.959804 -2.546798 0.3143399,-7.887398 -1.79137 0.4705971,-8.691957 -4.470285 0.005953044,-8.554749 -2.943293 0.1460707,-8.455447 -1.973676 0.4026888,-8.37567 -1.133549 0.59953,-9.130116 -4.550588 0.1767927,-9.04323 -3.086603 0.3350235,-8.943264 -2.181147 0.5375174,-8.837427 -1.389657 0.6867557,-9.586104 -4.889608 0.3789058,-9.633512 -3.71769 0.5997157,-9.61925 -2.968383 0.7638687,-9.575218 -2.230438 0.8651848,1.38333,1 0 1
-1.813505 -7.34559 -1.204175,-2.497977 -7.441912 -0.1704432,-3.12467 -6.679407 0.3343995,-3.43269 -5.815851 0.6914101,-3.787619 -5.159643 1.111268,-2.995156 -4.843193 0.2418069,-3.21163 -4.397048 1.048911,-3.337389 -3.85285 1.641056,-3.464609 -3.337286 2.099117,-2.507234 -4.495607 0.1050674,-2.565845 -4.218652 1.141007,-2.441478 -5.036324 1.697457,-2.310061 -5.846004 2.003619,-1.956686 -4.461556 0.07598233,-1.936681 -4.615393 1.186052,-1.869205 -5.854284 1.407619,-1.820207 -6.874453 1.370557,-1.39862 -4.70461 0.08511519,-1.354299 -4.920316 1.143305,-1.41013 -5.937212 1.357267,-1.500591 -6.772472 1.36609,-9.149817 -8.047806 -0.216339,-8.428854 -7.661605 0.0346913,-7.813398 -6.748182 0.2498394,-7.380866 -5.882583 0.5383607,-6.930244 -5.375795 0.8489575,-8.256825 -4.708784 -0.07175857,-8.060221 -3.367378 0.1432751,-7.970788 -2.552703 0.3521767,-7.905579 -1.812665 0.4975443,-8.70552 -4.479049 0.06452176,-8.56782 -2.93843 0.2136517,-8.478255 -1.963409 0.4608226,-8.40817 -1.136156 0.6478037,-9.141397 -4.568599 0.2458,-9.067675 -3.08532 0.4128736,-8.97685 -2.170606 0.6215342,-8.880148 -1.381499 0.7731546,-9.594256 -4.92337 0.4554201,-9.644654 -3.740419 0.6831675,-9.630775 -2.997111 0.8504231,-9.588585 -2.28222 0.9563134,1.41667,1 0 1
-1.813505 -7.34559 -1.204175,-2.497977 -7.441912 -0.1704432,-3.12467 -6.679407 0.3343995,-3.43269 -5.815851 0.6914101,-3.787619 -5.159643 1.111268,-2.995156 -4.843193 0.2418069,-3.21163 -4.397048 1.048911,-3.337389 -3.85285 1.641056,-3.464609 -3.337286 2.099117,-2.507234 -4.495607 0.1050674,-2.565845 -4.218652 1.141007,-2.441478 -5.036324 1.697457,-2.310061 -5.846004 2.003619,-1.956686 -4.461556 0.07598233,-1.936681 -4.615393 1.186052,-1.869205 -5.854284 1.407619,-1.820207 -6.874453 1.370557,-1.39862 -4.70461 0.08511519,-1.354299 -4.920316 1.143305,-1.41013 -5.937212 1.357267,-1.500591 -6.772472 1.36609,-9.149817 -8.047806 -0.216339,-8.428854 -7.661605 0.0346913,-7.813398 -6.748182 0.2498394,-7.380866 -5.882583 0.5383607,-6.930244 -5.375795 0.8489575,-8.256825 -4.708784 -0.07175857,-8.060221 -3.367378 0.1432751,-7.970788 -2.552703 0.3521767,-7.905579 -1.812665 0.4975443,-8.70552 -4.479049 0.06452176,-8.56782 -2.93843 0.2136517,-8.478255 -1.963409 0.4608226,-8.40817 -1.136156 0.6478037,-9.141397 -4.568599 0.2458,-9.067675 -3.08532 0.4128736,-8.97685 -2.170606 0.6215342,-8.880148 -1.381499 0.7731546,-9.594256 -4.92337 0.4554201,-9.644654 -3.740419 0.6831675,-9.630775 -2.997111 0.8504231,-9.588585 -2.28222 0.9563134,1.45000,1 0 1
-1.801133 -7.234434 -1.37148,-2.499314 -7.384442 -0.254685,-3.110013 -6.633138 0.307767,-3.368813 -5.807668 0.7130634,-3.717848 -5.186006 1.201114,-2.985493 -4.895627 0.2916254,-3.18261 -4.372534 1.172426,-3.291543 -3.843709 1.774008,-3.402679 -3.369651 2.233517,-2.478106 -4.537103 0.1383709,-2.475351 -4.015256 1.26176,-2.407216 -4.492107 1.941969,-2.344273 -5.066108 2.376987,-1.93507 -4.478364 0.07800877,-1.867296 -4.431713 1.303589,-1.779676 -5.716187 1.56965,-1.731033 -6.786352 1.531627,-1.389717 -4.74378 0.0600462,-1.313373 -4.829799 1.237898,-1.334077 -5.840791 1.512722,-1.407421 -6.64805 1.550306,-9.175106 -8.068279 -0.1700975,-8.454245 -7.674453 0.09986794,-7.839378 -6.755753 0.3235934,-7.402639 -5.877414 0.6164399,-6.948104 -5.370908 0.9329978,-8.276237 -4.718075 0.007911757,-8.079833 -3.370123 0.227914,-7.993048 -2.55356 0.4367647,-7.933008 -1.812161 0.5786036,-8.725023 -4.488739 0.1334119,-8.593194 -2.934901 0.2915798,-8.505898 -1.953569 0.5357311,-8.438001 -1.12209 0.7162467,-9.15958 -4.585236 0.3029116,-9.100425 -3.088132 0.4785732,-9.018105 -2.16527 0.6860496,-8.926927 -1.362443 0.8337644,-9.609136 -4.947502 0.5019531,-9.668926 -3.761319 0.7375081,-9.660019 -3.018574 0.9061067,-9.620151 -2.302263 1.003067,1.48333,1 0 1
-1.801133 -7.234434 -1.37148,-2.499314 -7.384442 -0.254685,-3.110013 -6.633138 0.307767,-3.368813 -5.807668 0.7130634,-3.717848 -5.186006 1.201114,-2.985493 -4.895627 0.2916254,-3.18261 -4.372534 1.172426,-3.291543 -3.843709 1.774008,-3.402679 -3.369651 2.233517,-2.478106 -4.537103 0.1383709,-2.475351 -4.015256 1.26176,-2.407216 -4.492107 1.941969,-2.344273 -5.066108 2.376987,-1.93507 -4.478364 0.07800877,-1.867296 -4.431713 1.303589,-1.779676 -5.716187 1.56965,-1.731033 -6.786352 1.531627,-1.389717 -4.74378 0.0600462,-1.313373 -4.829799 1.237898,-1.334077 -5.840791 1.512722,-1.407421 -6.64805 1.550306,-9.175106 -8.068279 -0.1700975,-8.454245 -7.674453 0.09986794,-7.839378 -6.755753 0.3235934,-7.402639 -5.877414 0.6164399,-6.948104 -5.370908 0.9329978,-8.276237 -4.718075 0.007911757,-8.079833 -3.370123 0.227914,-7.993048 -2.55356 0.4367647,-7.933008 -1.812161 0.5786036,-8.725023 -4.488739 0.1334119,-8.593194 -2.934901 0.2915798,-8.505898 -1.953569 0.5357311,-8.438001 -1.12209 0.7162467,-9.15958 -4.585236 0.3029116,-9.100425 -3.088132 0.4785732,-9.018105 -2.16527 0.6860496,-8.926927 -1.362443 0.8337644,-9.609136 -4.947502 0.5019531,-9.668926 -3.761319 0.7375081,-9.660019 -3.018574 0.9061067,-9.620151 -2.302263 1.003067,1.51667,1 0 1
-1.829267 -7.175143 -1.112171,-2.519938 -7.311596 0.1052068,-3.076161 -6.612428 0.7353275,-3.324928 -5.808982 1.178227,-3.67255 -5.125594 1.703968,-2.975907 -4.740533 0.6824071,-3.164584 -4.245975 1.641809,-3.233343 -3.735805 2.320214,-3.293079 -3.284365 2.831389,-2.432665 -4.414548 0.4699135,-2.395508 -3.981911 1.671528,-2.248235 -4.732128 2.340748,-2.13913 -5.446778 2.717638,-1.86305 -4.406967 0.3565155,-1.772996 -4.488505 1.611777,-1.708444 -5.803939 1.867672,-1.695746 -6.812088 1.793624,-1.328039 -4.71206 0.3037845,-1.231566 -4.904371 1.474621,-1.278355 -5.916549 1.726217,-1.401118 -6.655599 1.749122,-9.198876 -8.097731 -0.1081637,-8.471761 -7.719442 0.1688634,-7.849366 -6.797516 0.3917899,-7.415612 -5.905117 0.6854696,-6.96654 -5.37335 1.001853,-8.294776 -4.733398 0.0223919,-8.102019 -3.382883 0.2302971,-8.013211 -2.558355 0.4343753,-7.946528 -1.809897 0.5759718,-8.745681 -4.496387 0.1396817,-8.614396 -2.941424 0.2781657,-8.522463 -1.958049 0.5184405,-8.447378 -1.118885 0.6930767,-9.181173 -4.580499 0.3061754,-9.117629 -3.07631 0.4629367,-9.031822 -2.157033 0.6668472,-8.935004 -1.355107 0.8143882,-9.631337 -4.929662 0.5061656,-9.694624 -3.726298 0.7251533,-9.685011 -2.972002 0.8939493,-9.640437 -2.24368 0.9936754,1.55000,1 0 1
-1.829267 -7.175143 -1.112171,-2.519938 -7.311596 0.1052068,-3.076161 -6.612428 0.7353275,-3.324928 -5.808982 1.178227,-3.67255 -5.125594 1.703968,-2.975907 -4.740533 0.6824071,-3.164584 -4.245975 1.641809,-3.233343 -3.735805 2.320214,-3.293079 -3.284365 2.831389,-2.432665 -4.414548 0.4699135,-2.395508 -3.981911 1.671528,-2.248235 -4.732128 2.340748,-2.13913 -5.446778 2.717638,-1.86305 -4.406967 0.3565155,-1.772996 -4.488505 1.611777,-1.708444 -5.803939 1.867672,-1.695746 -6.812088 1.793624,-1.328039 -4.71206 0.3037845,-1.231566 -4.904371 1.474621,-1.278355 -5.916549 1.726217,-1.401118 -6.655599 1.749122,-9.198876 -8.097731 -0.1081637,-8.471761 -7.719442 0.1688634,-7.849366 -6.797516 0.3917899,-7.415612 -5.905117 0.6854696,-6.96654 -5.37335 1.001853,-8.294776 -4.733398 0.0223919,-8.102019 -3.382883 0.2302971,-8.013211 -2.558355 0.4343753,-7.946528 -1.809897 0.5759718,-8.745681 -4.496387 0.1396817,-8.614396 -2.941424 0.2781657,-8.522463 -1.958049 0.5184405,-8.447378 -1.118885 0.6930767,-9.181173 -4.580499 0.3061754,-9.117629 -3.07631 0.4629367,-9.031822 -2.157033 0.6668472,-8.935004 -1.355107 0.8143882,-9.631337 -4.929662 0.5061656,-9.694624 -3.726298 0.7251533,-9.685011 -2.972002 0.8939493,-9.640437 -2.24368 0.9936754,1.58333,1 0 1
-1.828479 -7.145157 -1.016657,-2.529158 -7.30054 0.1665207,-3.069943 -6.59865 0.8123301,-3.288504 -5.768144 1.286231,-3.616644 -5.063871 1.837579,-2.957261 -4.639261 0.7244058,-3.135566 -4.168022 1.682959,-3.169441 -3.689806 2.372382,-3.176465 -3.339791 2.889185,-2.389164 -4.333983 0.5481453,-2.33512 -3.967299 1.748663,-2.225545 -4.764909 2.418211,-2.151848 -5.528202 2.797638,-1.795835 -4.370471 0.4679325,-1.702944 -4.560278 1.690444,-1.683653 -5.824489 1.956682,-1.707352 -6.733636 1.904905,-1.247799 -4.703746 0.4600717,-1.157688 -5.033903 1.585224,-1.242899 -6.043737 1.845406,-1.388206 -6.683913 1.89787,-9.198876 -8.097731 -0.1081637,-8.471761 -7.719442 0.1688634,-7.849366 -6.797516 0.3917899,-7.415612 -5.905117 0.6854696,-6.96654 -5.37335 1.001853,-8.294776 -4.733398 0.0223919,-8.102019 -3.382883 0.2302971,-8.013211 -2.558355 0.4343753,-7.946528 -1.809897 0.5759718,-8.745681 -4.496387 0.1396817,-8.614396 -2.941424 0.2781657,-8.522463 -1.958049 0.5184405,-8.447378 -1.118885 0.6930767,-9.181173 -4.580499 0.3061754,-9.117629 -3.07631 0.4629367,-9.031822 -2.157033 0.6668472,-8.935004 -1.355107 0.8143882,-9.631337 -4.929662 0.5061656,-9.694624 -3.726298 0.7251533,-9.685011 -2.972002 0.8939493,-9.640437 -2.24368 0.9936754,1.61667,1 0 1
-1.828479 -7.145157 -1.016657,-2.529158 -7.30054 0.1665207,-3.069943 -6.59865 0.8123301,-3.288504 -5.768144 1.286231,-3.616644 -5.063871 1.837579,-2.957261 -4.639261 0.7244058,-3.135566 -4.168022 1.682959,-3.169441 -3.689806 2.372382,-3.176465 -3.339791 2.889185,-2.389164 -4.333983 0.5481453,-2.33512 -3.967299 1.748663,-2.225545 -4.764909 2.418211,-2.151848 -5.528202 2.797638,-1.795835 -4.370471 0.4679325,-1.702944 -4.560278 1.690444,-1.683653 -5.824489 1.956682,-1.707352 -6.733636 1.904905,-1.247799 -4.703746 0.4600717,-1.157688 -5.033903 1.585224,-1.242899 -6.043737 1.845406,-1.388206 -6.683913 1.89787,-9.195127 -8.140905 -0.0186027,-8.46589 -7.739903 0.2716694,-7.842007 -6.803566 0.506729,-7.407676 -5.909643 0.8105763,-6.952681 -5.370022 1.13683,-8.306785 -4.742312 0.1599387,-8.114538 -3.384533 0.3793818,-8.02666 -2.548554 0.592369,-7.957726 -1.793321 0.7399504,-8.760218 -4.514623 0.2713766,-8.635079 -2.947517 0.4273678,-8.549578 -1.959594 0.6731622,-8.478811 -1.121067 0.8517482,-9.191111 -4.606702 0.4276132,-9.138285 -3.095691 0.5951786,-9.063298 -2.169673 0.7929617,-8.974657 -1.360336 0.9298875,-9.633184 -4.961962 0.6156186,-9.691769 -3.753643 0.8383068,-9.681277 -2.997736 0.9949282,-9.6379 -2.271356 1.081218,1.65000,1 0 1
-1.682358 -7.066746 -0.8736296,-2.399667 -7.254766 0.1558994,-2.946817 -6.588792 0.7772614,-3.173451 -5.812013 1.226055,-3.512299 -5.204632 1.785088,-2.794473 -4.554407 0.8914759,-3.008171 -3.999118 1.820917,-2.988153 -3.598436 2.504095,-2.88945 -3.426657 3.003289,-2.225201 -4.240824 0.7555102,-2.130106 -4.047021 1.845632,-2.055595 -4.837263 2.421609,-2.016274 -5.541219 2.744217,-1.646543 -4.336055 0.6630327,-1.526715 -4.951257 1.734201,-1.536054 -6.052978 2.036893,-1.580873 -6.752573 2.050814,-1.153335 -4.717271 0.6436855,-1.054821 -5.395211 1.572115,-1.137872 -6.279155 1.826998,-1.287812 -6.717175 1.90319,-9.224083 -8.185509 -0.003095955,-8.487426 -7.769584 0.2797669,-7.86364 -6.840026 0.5038487,-7.435093 -5.942984 0.7997384,-6.989309 -5.401984 1.102622,-8.321879 -4.798928 0.1672922,-8.126008 -3.439633 0.4039748,-8.031877 -2.614199 0.6204479,-7.959692 -1.865999 0.7706344,-8.770391 -4.55705 0.2865672,-8.636091 -3.000122 0.4473117,-8.5487 -2.0123 0.6985811,-8.481308 -1.165893 0.8882149,-9.198442 -4.640867 0.4547621,-9.145196 -3.149865 0.6190233,-9.075402 -2.221806 0.8167809,-8.993679 -1.401145 0.9700702,-9.642725 -4.995918 0.6513767,-9.696325 -3.802845 0.8831736,-9.675548 -3.047883 1.053729,-9.62051 -2.319582 1.158309,1.68333,1 0 1
-1.682358 -7.066746 -0.8736296,-2.399667 -7.254766 0.1558994,-2.946817 -6.588792 0.7772614,-3.173451 -5.812013 1.226055,-3.512299 -5.204632 1.785088,-2.794473 -4.554407 0.8914759,-3.008171 -3.999118 1.820917,-2.988153 -3.598436 2.504095,-2.88945 -3.426657 3.003289,-2.225201 -4.240824 0.7555102,-2.130106 -4.047021 1.845632,-2.055595 -4.837263 2.421609,-2.016274 -5.541219 2.744217,-1.646543 -4.336055 0.6630327,-1.526715 -4.951257 1.734201,-1.536054 -6.052978 2.036893,-1.580873 -6.752573 2.050814,-1.153335 -4.717271 0.6436855,-1.054821 -5.395211 1.572115,-1.137872 -6.279155 1.826998,-1.287812 -6.717175 1.90319,-9.224083 -8.185509 -0.003095955,-8.487426 -7.769584 0.2797669,-7.86364 -6.840026 0.5038487,-7.435093 -5.942984 0.7997384,-6.989309 -5.401984 1.102622,-8.321879 -4.798928 0.1672922,-8.126008 -3.439633 0.4039748,-8.031877 -2.614199 0.6204479,-7.959692 -1.865999 0.7706344,-8.770391 -4.55705 0.2865672,-8.636091 -3.000122 0.4473117,-8.5487 -2.0123 0.6985811,-8.481308 -1.165893 0.8882149,-9.198442 -4.640867 0.4547621,-9.145196 -3.149865 0.6190233,-9.075402 -2.221806 0.8167809,-8.993679 -1.401145 0.9700702,-9.642725 -4.995918 0.6513767,-9.696325 -3.802845 0.8831736,-9.675548 -3.047883 1.053729,-9.62051 -2.319582 1.158309,1.71667,1 0 1
-1.594388 -7.030349 -1.37823,-2.328363 -7.253377 -0.4198978,-2.88545 -6.614466 0.1953813,-3.086483 -5.833505 0.6585369,-3.359955 -5.244016 1.250467,-2.638717 -4.625251 0.319013,-2.83532 -3.940799 1.283087,-2.810947 -3.60076 1.972654,-2.678676 -3.553408 2.454925,-2.087259 -4.334611 0.2001624,-1.949413 -4.457637 1.286232,-1.900047 -5.437989 1.741323,-1.864421 -6.183707 1.920523,-1.535986 -4.505723 0.1243063,-1.390426 -5.149105 1.177299,-1.395103 -6.162332 1.478996,-1.419986 -6.81122 1.476063,-1.081368 -4.889198 0.1146322,-0.959404 -5.517053 1.024677,-1.021666 -6.346183 1.324319,-1.142944 -6.763962 1.405648,-9.220131 -8.20858 0.0816374,-8.489701 -7.770287 0.3520758,-7.870693 -6.82385 0.5760049,-7.438616 -5.937815 0.8659654,-6.982853 -5.422821 1.176983,-8.325896 -4.794242 0.2607798,-8.13371 -3.458524 0.4768358,-8.046403 -2.640363 0.6884612,-7.977234 -1.900946 0.8383029,-8.770642 -4.556154 0.3837726,-8.650393 -3.006347 0.52431,-8.563231 -2.018489 0.7619256,-8.48642 -1.176682 0.9377146,-9.195775 -4.643539 0.5495363,-9.147033 -3.15347 0.7069097,-9.072882 -2.224945 0.9075451,-8.98278 -1.408447 1.057043,-9.636889 -4.997659 0.7473501,-9.699032 -3.804221 0.975403,-9.688113 -3.046467 1.142003,-9.642084 -2.31899 1.242008,1.75000,1 0 1
-1.594388 -7.030349 -1.37823,-2.328363 -7.253377 -0.4198978,-2.88545 -6.614466 0.1953813,-3.086483 -5.833505 0.6585369,-3.359955 -5.244016 1.250467,-2.638717 -4.625251 0.319013,-2.83532 -3.940799 1.283087,-2.810947 -3.60076 1.972654,-2.678676 -3.553408 2.454925,-2.087259 -4.334611 0.2001624,-1.949413 -4.457637 1.286232,-1.900047 -5.437989 1.741323,-1.864421 -6.183707 1.920523,-1.535986 -4.505723 0.1243063,-1.390426 -5.149105 1.177299,-1.395103 -6.162332 1.478996,-1.419986 -6.81122 1.476063,-1.081368 -4.889198 0.1146322,-0.959404 -5.517053 1.024677,-1.021666 -6.346183 1.324319,-1.142944 -6.763962 1.405648,-9.220131 -8.20858 0.0816374,-8.489701 -7.770287 0.3520758,-7.870693 -6.82385 0.5760049,-7.438616 -5.937815 0.8659654,-6.982853 -5.422821 1.176983,-8.325896 -4.794242 0.2607798,-8.13371 -3.458524 0.4768358,-8.046403 -2.640363 0.6884612,-7.977234 -1.900946 0.8383029,-8.770642 -4.556154 0.3837726,-8.650393 -3.006347 0.52431,-8.563231 -2.018489 0.7619256,-8.48642 -1.176682 0.9377146,-9.195775 -4.643539 0.5495363,-9.147033 -3.15347 0.7069097,-9.072882 -2.224945 0.9075451,-8.98278 -1.408447 1.057043,-9.636889 -4.997659 0.7473501,-9.699032 -3.804221 0.975403,-9.688113 -3.046467 1.142003,-9.642084 -2.31899 1.242008,1.78333,1 0 1
-1.451366 -6.878805 -1.21711,-2.203224 -7.149797 -0.4719554,-2.757771 -6.533327 0.1996075,-2.955646 -5.751107 0.7478409,-3.212988 -5.121054 1.343411,-2.529115 -4.633016 0.5184138,-2.685498 -3.962111 1.556704,-2.631938 -3.716812 2.207398,-2.453409 -3.747694 2.617827,-1.997383 -4.213138 0.4826777,-1.768593 -5.110617 1.552896,-1.764443 -5.915753 1.813773,-1.753801 -6.162487 1.904388,-1.447622 -4.436264 0.4953625,-1.287159 -5.73883 1.362706,-1.365596 -6.403274 1.376969,-1.398587 -6.445322 1.282043,-1.000563 -4.840718 0.5636185,-0.8764687 -6.239222 1.205489,-0.9592466 -6.796688 1.295237,-1.05124 -6.6931 1.33039,-9.214973 -8.199562 0.00515456,-8.471967 -7.764118 0.3067382,-7.848528 -6.818738 0.5424401,-7.417357 -5.927778 0.8317192,-6.958187 -5.415866 1.135383,-8.320216 -4.801778 0.2474138,-8.120534 -3.437477 0.491038,-8.027033 -2.606281 0.7194153,-7.955009 -1.842436 0.8853446,-8.771274 -4.572811 0.3552332,-8.643219 -3.007366 0.5361967,-8.559279 -2.027406 0.8008125,-8.487273 -1.18265 1.001822,-9.197057 -4.654985 0.502017,-9.144559 -3.143296 0.6869476,-9.074814 -2.226505 0.8973774,-8.991726 -1.416986 1.053506,-9.637609 -4.995106 0.6820743,-9.695543 -3.789146 0.9157384,-9.687029 -3.022176 1.080926,-9.647293 -2.272981 1.17915,1.81667,1 0 1
-1.451366 -6.878805 -1.21711,-2.203224 -7.149797 -0.4719554,-2.757771 -6.533327 0.1996075,-2.955646 -5.751107 0.7478409,-3.212988 -5.121054 1.343411,-2.529115 -4.633016 0.5184138,-2.685498 -3.962111 1.556704,-2.631938 -3.716812 2.207398,-2.453409 -3.747694 2.617827,-1.997383 -4.213138 0.4826777,-1.768593 -5.110617 1.552896,-1.764443 -5.915753 1.813773,-1.753801 -6.162487 1.904388,-1.447622 -4.436264 0.4953625,-1.287159 -5.73883 1.362706,-1.365596 -6.403274 1.376969,-1.398587 -6.445322 1.282043,-1.000563 -4.840718 0.5636185,-0.8764687 -6.239222 1.205489,-0.9592466 -6.796688 1.295237,-1.05124 -6.6931 1.33039,-9.214973 -8.199562 0.00515456,-8.471967 -7.764118 0.3067382,-7.848528 -6.818738 0.5424401,-7.417357 -5.927778 0.8317192,-6.958187 -5.415866 1.135383,-8.320216 -4.801778 0.2474138,-8.120534 -3.437477 0.491038,-8.027033 -2.606281 0.7194153,-7.955009 -1.842436 0.8853446,-8.771274 -4.572811 0.3552332,-8.643219 -3.007366 0.5361967,-8.559279 -2.027406 0.8008125,-8.487273 -1.18265 1.001822,-9.197057 -4.654985 0.502017,-9.144559 -3.143296 0.6869476,-9.074814 -2.226505 0.8973774,-8.991726 -1.416986 1.053506,-9.637609 -4.995106 0.6820743,-9.695543 -3.789146 0.9157384,-9.687029 -3.022176 1.080926,-9.647293 -2.272981 1.17915,1.85000,1 0 1
-1.445755 -6.896101 -0.7064101,-2.196969 -7.060846 0.1224486,-2.730192 -6.524564 0.9108453,-2.901413 -5.870733 1.560824,-3.010777 -5.177061 2.207122,-2.370934 -4.450036 1.105385,-2.529851 -3.885597 2.194314,-2.490231 -3.728818 2.796173,-2.359359 -3.739563 3.164549,-1.788059 -4.044002 1.025004,-1.549108 -5.152956 2.2095,-1.55999 -5.8558 2.488687,-1.580637 -5.989131 2.565575,-1.232013 -4.294618 1.014389,-1.121465 -6.043582 1.932016,-1.341848 -6.685724 1.841031,-1.488692 -6.581455 1.632443,-0.8313112 -4.807056 1.081581,-0.7879686 -6.503921 1.623791,-0.9876876 -7.050501 1.579501,-1.154044 -6.893413 1.515567,-9.182065 -8.150822 -0.1023278,-8.44279 -7.719834 0.1752949,-7.829323 -6.775877 0.41976,-7.396408 -5.894714 0.7255716,-6.934602 -5.384846 1.0559,-8.299208 -4.781828 0.1482677,-8.090588 -3.40942 0.3952373,-7.993049 -2.583462 0.6261149,-7.91889 -1.821706 0.7908059,-8.747233 -4.556653 0.2731472,-8.608124 -2.972799 0.4673655,-8.509944 -1.994535 0.7282475,-8.424632 -1.153317 0.9177099,-9.173501 -4.638585 0.4334491,-9.107499 -3.090781 0.6279343,-9.02248 -2.163132 0.8506677,-8.921251 -1.350485 1.008319,-9.615098 -4.975364 0.6249362,-9.672476 -3.742436 0.8709673,-9.666371 -2.960865 1.046673,-9.623941 -2.205022 1.148176,1.88333,1 0 1
-1.445755 -6.896101 -0.7064101,-2.196969 -7.060846 0.1224486,-2.730192 -6.524564 0.9108453,-2.901413 -5.870733 1.560824,-3.010777 -5.177061 2.207122,-2.370934 -4.450036 1.105385,-2.529851 -3.885597 2.194314,-2.490231 -3.728818 2.796173,-2.359359 -3.739563 3.164549,-1.788059 -4.044002 1.025004,-1.549108 -5.152956 2.2095,-1.55999 -5.8558 2.488687,-1.580637 -5.989131 2.565575,-1.232013 -4.294618 1.014389,-1.121465 -6.043582 1.932016,-1.341848 -6.685724 1.841031,-1.488692 -6.581455 1.632443,-0.8313112 -4.807056 1.081581,-0.7879686 -6.503921 1.623791,-0.9876876 -7.050501 1.579501,-1.154044 -6.893413 1.515567,-9.182065 -8.150822 -0.1023278,-8.44279 -7.719834 0.1752949,-7.829323 -6.775877 0.41976,-7.396408 -5.894714 0.7255716,-6.934602 -5.384846 1.0559,-8.299208 -4.781828 0.1482677,-8.090588 -3.40942 0.3952373,-7.993049 -2.583462 0.6261149,-7.91889 -1.821706 0.7908059,-8.747233 -4.556653 0.2731472,-8.608124 -2.972799 0.4673655,-8.509944 -1.994535 0.7282475,-8.424632 -1.153317 0.9177099,-9.173501 -4.638585 0.4334491,-9.107499 -3.090781 0.6279343,-9.02248 -2.163132 0.8506677,-8.921251 -1.350485 1.008319,-9.615098 -4.975364 0.6249362,-9.672476 -3.742436 0.8709673,-9.666371 -2.960865 1.046673,-9.623941 -2.205022 1.148176,1.91667,1 0 1
-1.253843 -7.013872 0.4309202,-2.057246 -7.066957 1.272577,-2.642587 -6.482219 2.101618,-2.851709 -5.866248 2.765303,-2.857748 -5.10987 3.359773,-2.302366 -4.355444 2.335935,-2.416337 -3.861778 3.424319,-2.384199 -3.725919 3.965215,-2.256775 -3.683956 4.295585,-1.692148 -3.840631 2.240707,-1.546046 -5.253496 3.412903,-1.583121 -5.935098 3.476559,-1.568451 -5.945511 3.446054,-1.119467 -4.068454 2.22988,-1.110304 -6.128184 3.071325,-1.352499 -6.658179 2.781293,-1.437999 -6.296497 2.506338,-0.6958556 -4.521884 2.310635,-0.7533741 -6.460084 2.627373,-0.9534464 -6.939294 2.428839,-1.043067 -6.5104 2.343623,-9.150741 -8.109295 -0.1517642,-8.412404 -7.700572 0.1125554,-7.801181 -6.762723 0.3509009,-7.365945 -5.873949 0.6592135,-6.897428 -5.359368 0.9918778,-8.273212 -4.758741 0.05627471,-8.063525 -3.377228 0.2901477,-7.961101 -2.542143 0.5060665,-7.88183 -1.779172 0.6553075,-8.723192 -4.525047 0.1890762,-8.585041 -2.926084 0.372896,-8.483089 -1.938776 0.6275076,-8.393274 -1.100251 0.8097821,-9.153903 -4.591899 0.3592143,-9.084288 -3.030727 0.5462949,-8.991572 -2.087647 0.7652898,-8.878413 -1.273839 0.916554,-9.601243 -4.90924 0.5614481,-9.661843 -3.639437 0.807544,-9.652257 -2.838767 0.9879256,-9.599231 -2.076005 1.090877,1.95000,1 0 1
-1.253843 -7.013872 0.4309202,-2.057246 -7.066957 1.272577,-2.642587 -6.482219 2.101618,-2.851709 -5.866248 2.765303,-2.857748 -5.10987 3.359773,-2.302366 -4.355444 2.335935,-2.416337 -3.861778 3.424319,-2.384199 -3.725919 3.965215,-2.256775 -3.683956 4.295585,-1.692148 -3.840631 2.240707,-1.546046 -5.253496 3.412903,-1.583121 -5.935098 3.476559,-1.568451 -5.945511 3.446054,-1.119467 -4.068454 2.22988,-1.110304 -6.128184 3.071325,-1.352499 -6.658179 2.781293,-1.437999 -6.296497 2.506338,-0.6958556 -4.521884 2.310635,-0.7533741 -6.460084 2.627373,-0.9534464 -6.939294 2.428839,-1.043067 -6.5104 2.343623,-9.150741 -8.109295 -0.1517642,-8.412404 -7.700572 0.1125554,-7.801181 -6.762723 0.3509009,-7.365945 -5.873949 0.6592135,-6.897428 -5.359368 0.9918778,-8.273212 -4.758741 0.05627471,-8.063525 -3.377228 0.2901477,-7.961101 -2.542143 0.5060665,-7.88183 -1.779172 0.6553075,-8.723192 -4.525047 0.1890762,-8.585041 -2.926084 0.372896,-8.483089 -1.938776 0.6275076,-8.393274 -1.100251 0.8097821,-9.153903 -4.591899 0.3592143,-9.084288 -3.030727 0.5462949,-8.991572 -2.087647 0.7652898,-8.878413 -1.273839 0.916554,-9.601243 -4.90924 0.5614481,-9.661843 -3.639437 0.807544,-9.652257 -2.838767 0.9879256,-9.599231 -2.076005 1.090877,1.98333,1 1 2
-1.135739 -7.074312 0.451193,-1.915134 -7.192048 1.356699,-2.517612 -6.493606 2.15534,-2.734434 -5.718446 2.801439,-2.874743 -4.991205 3.471379,-2.205055 -4.362486 2.402744,-2.305464 -3.830911 3.512195,-2.259887 -3.650596 4.153966,-2.137387 -3.632926 4.549742,-1.626676 -3.928884 2.307236,-1.439998 -4.95078 3.490261,-1.478311 -5.81594 3.774745,-1.518506 -6.021795 3.863194,-1.050629 -4.145824 2.277672,-0.9457073 -5.760808 3.211489,-1.159229 -6.489797 3.171879,-1.296095 -6.426992 3.044876,-0.5906434 -4.600453 2.325058,-0.5360184 -6.150257 2.936845,-0.7539082 -6.769399 2.966212,-0.946496 -6.620908 2.953688,-9.141421 -8.111273 -0.06237212,-8.40315 -7.696143 0.1979086,-7.786977 -6.76324 0.4208263,-7.350424 -5.878477 0.7137627,-6.887201 -5.371648 1.02293,-8.257221 -4.719257 0.09543236,-8.056922 -3.366041 0.3060097,-7.957368 -2.541536 0.5116299,-7.877581 -1.789701 0.6529434,-8.712628 -4.496507 0.222942,-8.589181 -2.922187 0.3700408,-8.489405 -1.942138 0.6118532,-8.40274 -1.108888 0.7828684,-9.149417 -4.587158 0.3908526,-9.089571 -3.05802 0.5519315,-8.994754 -2.136793 0.754041,-8.882606 -1.337826 0.8902057,-9.595751 -4.935709 0.5907472,-9.661735 -3.716111 0.8136517,-9.649108 -2.945848 0.978928,-9.596171 -2.203397 1.069262,2.01667,1 1 2
-1.135739 -7.074312 0.451193,-1.915134 -7.192048 1.356699,-2.517612 -6.493606 2.15534,-2.734434 -5.718446 2.801439,-2.874743 -4.991205 3.471379,-2.205055 -4.362486 2.402744,-2.305464 -3.830911 3.512195,-2.259887 -3.650596 4.153966,-2.137387 -3.632926 4.549742,-1.626676 -3.928884 2.307236,-1.439998 -4.95078 3.490261,-1.478311 -5.81594 3.774745,-1.518506 -6.021795 3.863194,-1.050629 -4.145824 2.277672,-0.9457073 -5.760808 3.211489,-1.159229 -6.489797 3.171879,-1.296095 -6.426992 3.044876,-0.5906434 -4.600453 2.325058,-0.5360184 -6.150257 2.936845,-0.7539082 -6.769399 2.966212,-0.946496 -6.620908 2.953688,-9.141421 -8.111273 -0.06237212,-8.40315 -7.696143 0.1979086,-7.786977 -6.76324 0.4208263,-7.350424 -5.878477 0.7137627,-6.887201 -5.371648 1.02293,-8.257221 -4.719257 0.09543236,-8.056922 -3.366041 0.3060097,-7.957368 -2.541536 0.5116299,-7.877581 -1.789701 0.6529434,-8.712628 -4.496507 0.222942,-8.589181 -2.922187 0.3700408,-8.489405 -1.942138 0.6118532,-8.40274 -1.108888 0.7828684,-9.149417 -4.587158 0.3908526,-9.089571 -3.05802 0.5519315,-8.994754 -2.136793 0.754041,-8.882606 -1.337826 0.8902057,-9.595751 -4.935709 0.5907472,-9.661735 -3.716111 0.8136517,-9.649108 -2.945848 0.978928,-9.596171 -2.203397 1.069262,2.05000,1 1 2
-1.131839 -7.02617 0.4070015,-1.927229 -7.106157 1.382916,-2.528356 -6.526408 2.268949,-2.736595 -5.81294 2.961814,-2.912603 -5.080982 3.644946,-2.206819 -4.395107 2.566897,-2.295698 -3.945566 3.697859,-2.232613 -3.789618 4.349327,-2.065853 -3.740132 4.760444,-1.571457 -4.002718 2.444584,-1.36377 -5.222061 3.574166,-1.473415 -6.06458 3.77981,-1.531871 -6.161039 3.882854,-0.9506578 -4.278068 2.403934,-0.8268394 -5.883817 3.272144,-1.100474 -6.559223 3.147446,-1.230701 -6.435415 3.006986,-0.4490242 -4.772729 2.437909,-0.3885078 -6.233455 2.977677,-0.6574326 -6.787694 2.944408,-0.8315301 -6.577483 2.946513,-9.159262 -8.120453 -0.1097218,-8.427696 -7.699157 0.1707058,-7.807962 -6.791975 0.4161327,-7.369891 -5.902597 0.7274795,-6.909389 -5.37186 1.058228,-8.26686 -4.756076 0.1052417,-8.076102 -3.382869 0.3249961,-7.986686 -2.553301 0.5310436,-7.917344 -1.805158 0.6769152,-8.720641 -4.524376 0.2206761,-8.589697 -2.957786 0.38917,-8.490308 -1.975822 0.6283408,-8.407704 -1.140977 0.8010346,-9.158594 -4.603614 0.3762348,-9.087044 -3.080691 0.5494865,-8.98965 -2.154233 0.7403146,-8.881533 -1.349208 0.8727772,-9.610882 -4.943128 0.5624133,-9.664818 -3.722581 0.7858683,-9.649758 -2.952978 0.9426196,-9.601501 -2.210119 1.02948,2.08333,1 1 2
-1.131839 -7.02617 0.4070015,-1.927229 -7.106157 1.382916,-2.528356 -6.526408 2.268949,-2.736595 -5.81294 2.961814,-2.912603 -5.080982 3.644946,-2.206819 -4.395107 2.566897,-2.295698 -3.945566 3.697859,-2.232613 -3.789618 4.349327,-2.065853 -3.740132 4.760444,-1.571457 -4.002718 2.444584,-1.36377 -5.222061 3.574166,-1.473415 -6.06458 3.77981,-1.531871 -6.161039 3.882854,-0.9506578 -4.278068 2.403934,-0.8268394 -5.883817 3.272144,-1.100474 -6.559223 3.147446,-1.230701 -6.435415 3.006986,-0.4490242 -4.772729 2.437909,-0.3885078 -6.233455 2.977677,-0.6574326 -6.787694 2.944408,-0.8315301 -6.577483 2.946513,-9.159262 -8.120453 -0.1097218,-8.427696 -7.699157 0.1707058,-7.807962 -6.791975 0.4161327,-7.369891 -5.902597 0.7274795,-6.909389 -5.37186 1.058228,-8.26686 -4.756076 0.1052417,-8.076102 -3.382869 0.3249961,-7.986686 -2.553301 0.5310436,-7.917344 -1.805158 0.6769152,-8.720641 -4.524376 0.2206761,-8.589697 -2.957786 0.38917,-8.490308 -1.975822 0.6283408,-8.407704 -1.140977 0.8010346,-9.158594 -4.603614 0.3762348,-9.087044 -3.080691 0.5494865,-8.98965 -2.154233 0.7403146,-8.881533 -1.349208 0.8727772,-9.610882 -4.943128 0.5624133,-9.664818 -3.722581 0.7858683,-9.649758 -2.952978 0.9426196,-9.601501 -2.210119 1.02948,2.11667,1 1 2
-1.062694 -7.197402 0.2781749,-1.89777 -7.274982 1.105393,-2.456474 -6.641355 1.942395,-2.657138 -5.901441 2.662752,-2.909701 -5.207868 3.396311,-2.148434 -4.536673 2.261419,-2.244885 -3.885011 3.380504,-2.192053 -3.720665 4.104438,-2.030338 -3.850896 4.546245,-1.514178 -4.164065 2.23109,-1.287431 -5.14601 3.34958,-1.392397 -6.133083 3.576158,-1.465578 -6.467658 3.677907,-0.8934035 -4.466115 2.254182,-0.7529631 -5.808732 3.080137,-0.9586639 -6.588382 2.998566,-1.081919 -6.643488 2.899547,-0.3807392 -4.971719 2.354985,-0.3036757 -6.283664 2.87839,-0.5280981 -6.91753 2.9017,-0.6960707 -6.80297 2.966238,-9.191095 -8.152777 -0.04856235,-8.46774 -7.755332 0.2278022,-7.845961 -6.826162 0.452513,-7.405622 -5.938951 0.7459966,-6.949819 -5.413929 1.056774,-8.293447 -4.773508 0.1301808,-8.09651 -3.41909 0.356519,-8.003522 -2.598465 0.5702552,-7.930041 -1.852265 0.7177604,-8.74481 -4.537572 0.2540301,-8.611619 -2.986148 0.4156635,-8.521505 -2.007316 0.6702638,-8.446706 -1.172972 0.8626001,-9.179751 -4.627124 0.4239738,-9.123446 -3.133531 0.5971957,-9.043687 -2.211022 0.8010379,-8.949809 -1.404312 0.9535035,-9.629838 -4.986644 0.6228152,-9.696271 -3.790474 0.8564309,-9.684899 -3.025956 1.02983,-9.639354 -2.288043 1.133718,2.15000,1 1 2
-1.062694 -7.197402 0.2781749,-1.89777 -7.274982 1.105393,-2.456474 -6.641355 1.942395,-2.657138 -5.901441 2.662752,-2.909701 -5.207868 3.396311,-2.148434 -4.536673 2.261419,-2.244885 -3.885011 3.380504,-2.192053 -3.720665 4.104438,-2.030338 -3.850896 4.546245,-1.514178 -4.164065 2.23109,-1.287431 -5.14601 3.34958,-1.392397 -6.133083 3.576158,-1.465578 -6.467658 3.677907,-0.8934035 -4.466115 2.254182,-0.7529631 -5.808732 3.080137,-0.9586639 -6.588382 2.998566,-1.081919 -6.643488 2.899547,-0.3807392 -4.971719 2.354985,-0.3036757 -6.283664 2.87839,-0.5280981 -6.91753 2.9017,-0.6960707 -6.80297 2.966238,-9.191095 -8.152777 -0.04856235,-8.46774 -7.755332 0.2278022,-7.845961 -6.826162 0.452513,-7.405622 -5.938951 0.7459966,-6.949819 -5.413929 1.056774,-8.293447 -4.773508 0.1301808,-8.09651 -3.41909 0.356519,-8.003522 -2.598465 0.5702552,-7.930041 -1.852265 0.7177604,-8.74481 -4.537572 0.2540301,-8.611619 -2.986148 0.4156635,-8.521505 -2.007316 0.6702638,-8.446706 -1.172972 0.8626001,-9.179751 -4.627124 0.4239738,-9.123446 -3.133531 0.5971957,-9.043687 -2.211022 0.8010379,-8.949809 -1.404312 0.9535035,-9.629838 -4.986644 0.6228152,-9.696271 -3.790474 0.8564309,-9.684899 -3.025956 1.02983,-9.639354 -2.288043 1.133718,2.18333,1 1 2
-1.019387 -7.538681 -0.2072541,-1.794626 -7.725477 0.7491691,-2.310179 -7.104501 1.558266,-2.498977 -6.251718 2.249679,-2.764606 -5.498575 2.93744,-1.97144 -4.926908 1.77221,-2.04656 -4.169752 2.876055,-2.035583 -3.994191 3.641737,-1.95881 -4.076292 4.089798,-1.359436 -4.633701 1.709661,-1.1525 -5.140497 2.896755,-1.206501 -6.096056 3.292942,-1.267679 -6.565828 3.454143,-0.7725105 -4.90814 1.689701,-0.623549 -5.905756 2.613423,-0.7553062 -6.783914 2.754484,-0.8745852 -7.047867 2.7466,-0.2808938 -5.401044 1.766429,-0.183403 -6.489913 2.425353,-0.3493056 -7.241317 2.59766,-0.5133181 -7.373285 2.706832,-9.25128 -8.209349 0.01067888,-8.522105 -7.786951 0.2980214,-7.888371 -6.847475 0.5260258,-7.44522 -5.957044 0.8239124,-7.000519 -5.407123 1.142037,-8.350014 -4.809957 0.1676385,-8.15276 -3.460351 0.3846012,-8.064213 -2.636659 0.5900469,-7.992817 -1.88504 0.7329615,-8.805437 -4.574188 0.2772966,-8.67464 -3.030849 0.4100868,-8.593524 -2.061555 0.6517956,-8.526198 -1.235831 0.8387462,-9.235215 -4.669572 0.4364923,-9.188499 -3.194169 0.5865662,-9.12624 -2.281941 0.780884,-9.055079 -1.47995 0.9258294,-9.676311 -5.03399 0.6245198,-9.747291 -3.860362 0.84965,-9.737598 -3.118592 1.02124,-9.699072 -2.410306 1.123715,2.21667,1 1 2
-1.019387 -7.538681 -0.2072541,-1.794626 -7.725477 0.7491691,-2.310179 -7.104501 1.558266,-2.498977 -6.251718 2.249679,-2.764606 -5.498575 2.93744,-1.97144 -4.926908 1.77221,-2.04656 -4.169752 2.876055,-2.035583 -3.994191 3.641737,-1.95881 -4.076292 4.089798,-1.359436 -4.633701 1.709661,-1.1525 -5.140497 2.896755,-1.206501 -6.096056 3.292942,-1.267679 -6.565828 3.454143,-0.7725105 -4.90814 1.689701,-0.623549 -5.905756 2.613423,-0.7553062 -6.783914 2.754484,-0.8745852 -7.047867 2.7466,-0.2808938 -5.401044 1.766429,-0.183403 -6.489913 2.425353,-0.3493056 -7.241317 2.59766,-0.5133181 -7.373285 2.706832,-9.25128 -8.209349 0.01067888,-8.522105 -7.786951 0.2980214,-7.888371 -6.847475 0.5260258,-7.44522 -5.957044 0.8239124,-7.000519 -5.407123 1.142037,-8.350014 -4.809957 0.1676385,-8.15276 -3.460351 0.3846012,-8.064213 -2.636659 0.5900469,-7.992817 -1.88504 0.7329615,-8.805437 -4.574188 0.2772966,-8.67464 -3.030849 0.4100868,-8.593524 -2.061555 0.6517956,-8.526198 -1.235831 0.8387462,-9.235215 -4.669572 0.4364923,-9.188499 -3.194169 0.5865662,-9.12624 -2.281941 0.780884,-9.055079 -1.47995 0.9258294,-9.676311 -5.03399 0.6245198,-9.747291 -3.860362 0.84965,-9.737598 -3.118592 1.02124,-9.699072 -2.410306 1.123715,2.25000,1 1 2
-1.14571 -7.772256 0.9715683,-1.893837 -7.760293 1.82452,-2.380013 -7.036832 2.655213,-2.555911 -6.280859 3.338477,-2.86436 -5.535137 4.024552,-1.99257 -4.907068 3.001528,-2.08356 -4.478209 3.985105,-2.10069 -4.246036 4.555513,-2.024929 -4.143163 4.938874,-1.350902 -4.471693 2.911106,-1.216618 -5.74287 3.915953,-1.331921 -6.705335 3.948864,-1.387341 -6.911907 3.912436,-0.7535634 -4.767049 2.877798,-0.7064962 -6.305932 3.596136,-0.9233885 -7.121469 3.381604,-1.021997 -7.144771 3.211197,-0.2790713 -5.28337 2.921857,-0.2707415 -6.627233 3.345753,-0.5137062 -7.294261 3.24178,-0.6565409 -7.217086 3.211759,-9.292409 -8.25787 0.03388201,-8.569295 -7.831058 0.3267927,-7.937203 -6.871967 0.5519362,-7.50108 -5.976132 0.8371785,-7.044588 -5.446426 1.142844,-8.394564 -4.851775 0.2188984,-8.199483 -3.505876 0.4263623,-8.10891 -2.679794 0.6185743,-8.032801 -1.928509 0.7568932,-8.844261 -4.617784 0.3199701,-8.717285 -3.078379 0.4507809,-8.637109 -2.115789 0.6825052,-8.568125 -1.300206 0.8569829,-9.269382 -4.715221 0.4708681,-9.223533 -3.236532 0.621531,-9.161698 -2.334378 0.8137912,-9.088977 -1.537462 0.956351,-9.709281 -5.076578 0.649235,-9.781331 -3.904632 0.8767855,-9.773404 -3.176598 1.047558,-9.738111 -2.486023 1.151066,2.28333,1 1 2
-1.14571 -7.772256 0.9715683,-1.893837 -7.760293 1.82452,-2.380013 -7.036832 2.655213,-2.555911 -6.280859 3.338477,-2.86436 -5.535137 4.024552,-1.99257 -4.907068 3.001528,-2.08356 -4.478209 3.985105,-2.10069 -4.246036 4.555513,-2.024929 -4.143163 4.938874,-1.350902 -4.471693 2.911106,-1.216618 -5.74287 3.915953,-1.331921 -6.705335 3.948864,-1.387341 -6.911907 3.912436,-0.7535634 -4.767049 2.877798,-0.7064962 -6.305932 3.596136,-0.9233885 -7.121469 3.381604,-1.021997 -7.144771 3.211197,-0.2790713 -5.28337 2.921857,-0.2707415 -6.627233 3.345753,-0.5137062 -7.294261 3.24178,-0.6565409 -7.217086 3.211759,-9.292409 -8.25787 0.03388201,-8.569295 -7.831058 0.3267927,-7.937203 -6.871967 0.5519362,-7.50108 -5.976132 0.8371785,-7.044588 -5.446426 1.142844,-8.394564 -4.851775 0.2188984,-8.199483 -3.505876 0.4263623,-8.10891 -2.679794 0.6185743,-8.032801 -1.928509 0.7568932,-8.844261 -4.617784 0.3199701,-8.717285 -3.078379 0.4507809,-8.637109 -2.115789 0.6825052,-8.568125 -1.300206 0.8569829,-9.269382 -4.715221 0.4708681,-9.223533 -3.236532 0.621531,-9.161698 -2.334378 0.8137912,-9.088977 -1.537462 0.956351,-9.709281 -5.076578 0.649235,-9.781331 -3.904632 0.8767855,-9.773404 -3.176598 1.047558,-9.738111 -2.486023 1.151066,2.31667,1 1 2
-1.138433 -7.920304 0.1196548,-1.836608 -7.856716 1.191284,-2.404777 -7.055777 1.865687,-2.626645 -6.255971 2.401752,-2.964527 -5.593402 3.071352,-2.078578 -5.055192 1.971604,-2.217899 -4.491189 2.915731,-2.189547 -4.162918 3.588346,-2.126011 -4.066516 4.052022,-1.478634 -4.777392 1.821909,-1.372839 -4.930065 2.951851,-1.395951 -6.116955 3.330887,-1.41667 -7.011623 3.440362,-0.9056907 -4.972684 1.751573,-0.8027058 -5.568725 2.81747,-0.9092379 -6.728521 3.044486,-1.004575 -7.445822 3.034428,-0.409502 -5.375953 1.732187,-0.2789326 -5.844866 2.612406,-0.4242959 -6.779542 2.839179,-0.5891619 -7.287513 2.956998,-9.326406 -8.274094 0.1042886,-8.598041 -7.836574 0.3895651,-7.973739 -6.890479 0.6048941,-7.538816 -6.000877 0.8830103,-7.084741 -5.462706 1.176515,-8.436588 -4.844298 0.2275665,-8.235337 -3.530377 0.4081945,-8.143403 -2.709275 0.5996648,-8.063586 -1.959766 0.7450705,-8.880091 -4.609187 0.3292997,-8.754643 -3.099 0.4231822,-8.682154 -2.160563 0.6451035,-8.614059 -1.355514 0.8169449,-9.298297 -4.702372 0.4790624,-9.255365 -3.2528 0.6004214,-9.201305 -2.359717 0.7874469,-9.130333 -1.558656 0.9275767,-9.731895 -5.061975 0.6609278,-9.803294 -3.917939 0.865624,-9.790973 -3.200597 1.029173,-9.74769 -2.512194 1.131866,2.35000,1 1 2
-1.138433 -7.920304 0.1196548,-1.836608 -7.856716 1.191284,-2.404777 -7.055777 1.865687,-2.626645 -6.255971 2.401752,-2.964527 -5.593402 3.071352,-2.078578 -5.055192 1.971604,-2.217899 -4.491189 2.915731,-2.189547 -4.162918 3.588346,-2.126011 -4.066516 4.052022,-1.478634 -4.777392 1.821909,-1.372839 -4.930065 2.951851,-1.395951 -6.116955 3.330887,-1.41667 -7.011623 3.440362,-0.9056907 -4.972684 1.751573,-0.8027058 -5.568725 2.81747,-0.9092379 -6.728521 3.044486,-1.004575 -7.445822 3.034428,-0.409502 -5.375953 1.732187,-0.2789326 -5.844866 2.612406,-0.4242959 -6.779542 2.839179,-0.5891619 -7.287513 2.956998,-9.326406 -8.274094 0.1042886,-8.598041 -7.836574 0.3895651,-7.973739 -6.890479 0.6048941,-7.538816 -6.000877 0.8830103,-7.084741 -5.462706 1.176515,-8.436588 -4.844298 0.2275665,-8.235337 -3.530377 0.4081945,-8.143403 -2.709275 0.5996648,-8.063586 -1.959766 0.7450705,-8.880091 -4.609187 0.3292997,-8.754643 -3.099 0.4231822,-8.682154 -2.160563 0.6451035,-8.614059 -1.355514 0.8169449,-9.298297 -4.702372 0.4790624,-9.255365 -3.2528 0.6004214,-9.201305 -2.359717 0.7874469,-9.130333 -1.558656 0.9275767,-9.731895 -5.061975 0.6609278,-9.803294 -3.917939 0.865624,-9.790973 -3.200597 1.029173,-9.74769 -2.512194 1.131866,2.38333,1 1 2
-1.167594 -8.031906 -0.2995096,-1.846084 -7.932525 0.7120863,-2.409672 -7.131472 1.309911,-2.629045 -6.298952 1.790997,-2.935475 -5.635423 2.359746,-2.087118 -5.183557 1.327666,-2.225086 -4.548219 2.228128,-2.216744 -4.196426 2.875247,-2.208899 -4.025591 3.2982,-1.519753 -4.932645 1.222117,-1.427167 -4.828346 2.384638,-1.443832 -5.99961 2.853512,-1.48244 -6.931356 2.994925,-0.9648609 -5.10972 1.189004,-0.8610783 -5.480446 2.282804,-0.9499159 -6.669496 2.538357,-1.054871 -7.440021 2.520186,-0.4768877 -5.506567 1.21471,-0.3261247 -5.775985 2.129572,-0.456326 -6.719091 2.378705,-0.6374712 -7.283683 2.471228,-9.325994 -8.306313 0.1533136,-8.592385 -7.864797 0.4399254,-7.964159 -6.912847 0.6430573,-7.529745 -6.013615 0.9063445,-7.079964 -5.47165 1.177383,-8.443811 -4.843702 0.2287809,-8.242777 -3.527898 0.3798328,-8.152832 -2.720796 0.5568844,-8.072458 -1.999656 0.6893349,-8.888898 -4.622863 0.315618,-8.780338 -3.136256 0.3716121,-8.715558 -2.230115 0.5805769,-8.656681 -1.45575 0.7363146,-9.305226 -4.721323 0.453984,-9.267032 -3.296386 0.538656,-9.220968 -2.431415 0.7178968,-9.154904 -1.653486 0.8580234,-9.731133 -5.080192 0.6274906,-9.794355 -3.962581 0.7996737,-9.779099 -3.268459 0.9586725,-9.731236 -2.604663 1.060235,2.41667,1 1 2
-1.167594 -8.031906 -0.2995096,-1.846084 -7.932525 0.7120863,-2.409672 -7.131472 1.309911,-2.629045 -6.298952 1.790997,-2.935475 -5.635423 2.359746,-2.087118 -5.183557 1.327666,-2.225086 -4.548219 2.228128,-2.216744 -4.196426 2.875247,-2.208899 -4.025591 3.2982,-1.519753 -4.932645 1.222117,-1.427167 -4.828346 2.384638,-1.443832 -5.99961 2.853512,-1.48244 -6.931356 2.994925,-0.9648609 -5.10972 1.189004,-0.8610783 -5.480446 2.282804,-0.9499159 -6.669496 2.538357,-1.054871 -7.440021 2.520186,-0.4768877 -5.506567 1.21471,-0.3261247 -5.775985 2.129572,-0.456326 -6.719091 2.378705,-0.6374712 -7.283683 2.471228,-9.325994 -8.306313 0.1533136,-8.592385 -7.864797 0.4399254,-7.964159 -6.912847 0.6430573,-7.529745 -6.013615 0.9063445,-7.079964 -5.47165 1.177383,-8.443811 -4.843702 0.2287809,-8.242777 -3.527898 0.3798328,-8.152832 -2.720796 0.5568844,-8.072458 -1.999656 0.6893349,-8.888898 -4.622863 0.315618,-8.780338 -3.136256 0.3716121,-8.715558 -2.230115 0.5805769,-8.656681 -1.45575 0.7363146,-9.305226 -4.721323 0.453984,-9.267032 -3.296386 0.538656,-9.220968 -2.431415 0.7178968,-9.154904 -1.653486 0.8580234,-9.731133 -5.080192 0.6274906,-9.794355 -3.962581 0.7996737,-9.779099 -3.268459 0.9586725,-9.731236 -2.604663 1.060235,2.45000,1 1 2
-1.163793 -8.081491 -0.5931257,-1.810217 -7.977514 0.3567989,-2.351636 -7.155319 0.919395,-2.545383 -6.302279 1.374145,-2.829456 -5.677894 1.912832,-2.074081 -5.246959 0.9302387,-2.206116 -4.592941 1.801384,-2.187989 -4.162187 2.41874,-2.162433 -3.887848 2.830092,-1.514912 -5.034964 0.8443588,-1.415953 -4.696926 1.97077,-1.392906 -5.699787 2.529102,-1.412672 -6.539686 2.768976,-0.9629354 -5.220162 0.8226516,-0.8518124 -5.46293 1.875504,-0.9241428 -6.604503 2.132727,-1.025364 -7.318559 2.132005,-0.4673653 -5.636446 0.8489689,-0.3247681 -5.887031 1.712739,-0.4574971 -6.788396 1.942682,-0.6335125 -7.290425 2.027812,-9.30883 -8.298555 0.08579885,-8.573593 -7.844921 0.3580918,-7.945971 -6.892853 0.5494366,-7.51043 -6.009933 0.8014249,-7.050144 -5.48475 1.076486,-8.423036 -4.843204 0.1663844,-8.204762 -3.543272 0.3304571,-8.10752 -2.752666 0.5163296,-8.024001 -2.03268 0.6560282,-8.861955 -4.636325 0.2610689,-8.74994 -3.194548 0.3196212,-8.6849 -2.352151 0.5137162,-8.623722 -1.628226 0.6526756,-9.272377 -4.724039 0.4090253,-9.233922 -3.323909 0.5077827,-9.191908 -2.502893 0.6864383,-9.128936 -1.762054 0.8208348,-9.690152 -5.059749 0.5896119,-9.744891 -3.955059 0.7696109,-9.732202 -3.26364 0.9176514,-9.683632 -2.599817 1.009456,2.48333,1 1 2
-1.163793 -8.081491 -0.5931257,-1.810217 -7.977514 0.3567989,-2.351636 -7.155319 0.919395,-2.545383 -6.302279 1.374145,-2.829456 -5.677894 1.912832,-2.074081 -5.246959 0.9302387,-2.206116 -4.592941 1.801384,-2.187989 -4.162187 2.41874,-2.162433 -3.887848 2.830092,-1.514912 -5.034964 0.8443588,-1.415953 -4.696926 1.97077,-1.392906 -5.699787 2.529102,-1.412672 -6.539686 2.768976,-0.9629354 -5.220162 0.8226516,-0.8518124 -5.46293 1.875504,-0.9241428 -6.604503 2.132727,-1.025364 -7.318559 2.132005,-0.4673653 -5.636446 0.8489689,-0.3247681 -5.887031 1.712739,-0.4574971 -6.788396 1.942682,-0.6335125 -7.290425 2.027812,-9.30883 -8.298555 0.08579885,-8.573593 -7.844921 0.3580918,-7.945971 -6.892853 0.5494366,-7.51043 -6.009933 0.8014249,-7.050144 -5.48475 1.076486,-8.423036 -4.843204 0.1663844,-8.204762 -3.543272 0.3304571,-8.10752 -2.752666 0.5163296,-8.024001 -2.03268 0.6560282,-8.861955 -4.636325 0.2610689,-8.74994 -3.194548 0.3196212,-8.6849 -2.352151 0.5137162,-8.623722 -1.628226 0.6526756,-9.272377 -4.724039 0.4090253,-9.233922 -3.323909 0.5077827,-9.191908 -2.502893 0.6864383,-9.128936 -1.762054 0.8208348,-9.690152 -5.059749 0.5896119,-9.744891 -3.955059 0.7696109,-9.732202 -3.26364 0.9176514,-9.683632 -2.599817 1.009456,2.51667,1 1 2
-1.149163 -7.991018 -1.1069,-1.81176 -7.928726 -0.03304458,-2.340543 -7.132459 0.5234338,-2.523224 -6.264997 0.9450319,-2.798524 -5.569385 1.416147,-2.047028 -5.299572 0.4661468,-2.201545 -4.648593 1.320207,-2.175864 -4.128132 1.923821,-2.146238 -3.765115 2.343348,-1.500261 -5.107225 0.327942,-1.413368 -4.563888 1.483675,-1.357901 -5.453726 2.120552,-1.348189 -6.344729 2.443155,-0.9666185 -5.258294 0.2663728,-0.8416338 -5.265363 1.41075,-0.8950591 -6.449226 1.698962,-0.9867134 -7.32512 1.695878,-0.4773192 -5.658835 0.2579697,-0.3148918 -5.699208 1.253344,-0.4457674 -6.619691 1.518651,-0.6267462 -7.256673 1.598799,-9.273152 -8.244774 -0.05384704,-8.537804 -7.810237 0.2150497,-7.90731 -6.866981 0.4143462,-7.466081 -6.009154 0.6790822,-7.010253 -5.474301 0.9637988,-8.376848 -4.826089 0.02447575,-8.14146 -3.52206 0.1891051,-8.038596 -2.727062 0.3967653,-7.948106 -2.002 0.5488467,-8.816036 -4.624181 0.1240424,-8.691539 -3.220382 0.1788777,-8.622293 -2.407049 0.3753419,-8.546387 -1.707942 0.5203264,-9.228774 -4.694604 0.2786872,-9.182605 -3.310553 0.3631815,-9.142576 -2.49986 0.5345504,-9.070698 -1.777238 0.6628127,-9.648993 -4.997564 0.470632,-9.704613 -3.879711 0.6146448,-9.698822 -3.181913 0.7344177,-9.648027 -2.501543 0.807369,2.55000,1 1 2
-1.149163 -7.991018 -1.1069,-1.81176 -7.928726 -0.03304458,-2.340543 -7.132459 0.5234338,-2.523224 -6.264997 0.9450319,-2.798524 -5.569385 1.416147,-2.047028 -5.299572 0.4661468,-2.201545 -4.648593 1.320207,-2.175864 -4.128132 1.923821,-2.146238 -3.765115 2.343348,-1.500261 -5.107225 0.327942,-1.413368 -4.563888 1.483675,-1.357901 -5.453726 2.120552,-1.348189 -6.344729 2.443155,-0.9666185 -5.258294 0.2663728,-0.8416338 -5.265363 1.41075,-0.8950591 -6.449226 1.698962,-0.9867134 -7.32512 1.695878,-0.4773192 -5.658835 0.2579697,-0.3148918 -5.699208 1.253344,-0.4457674 -6.619691 1.518651,-0.6267462 -7.256673 1.598799,-9.273152 -8.244774 -0.05384704,-8.537804 -7.810237 0.2150497,-7.90731 -6.866981 0.4143462,-7.466081 -6.009154 0.6790822,-7.010253 -5.474301 0.9637988,-8.376848 -4.826089 0.02447575,-8.14146 -3.52206 0.1891051,-8.038596 -2.727062 0.3967653,-7.948106 -2.002 0.5488467,-8.816036 -4.624181 0.1240424,-8.691539 -3.220382 0.1788777,-8.622293 -2.407049 0.3753419,-8.546387 -1.707942 0.5203264,-9.228774 -4.694604 0.2786872,-9.182605 -3.310553 0.3631815,-9.142576 -2.49986 0.5345504,-9.070698 -1.777238 0.6628127,-9.648993 -4.997564 0.470632,-9.704613 -3.879711 0.6146448,-9.698822 -3.181913 0.7344177,-9.648027 -2.501543 0.807369,2.58333,1 1 2
