TiagoOliveira98/Thesis-Project/Difficulty_0/Dual_Task/Unity_Project/DataLogging/JointData/Logs(1646783889)_dffff_Dual.csv
WRIST,THUMB_CMC,THUMB_MCP,THUMB_IP,THUMB_TIP,INDEX_FINGER_MCP,INDEX_FINGER_PIP,INDEX_FINGER_DIP,INDEX_FINGER_TIP,MIDDLE_FINGER_MCP,MIDDLE_FINGER_PIP,MIDDLE_FINGER_DIP,MIDDLE_FINGER_TIP,RING_FINGER_MCP,RING_FINGER_PIP,RING_FINGER_DIP,RING_FINGER_TIP,PINKY_MCP,PINKY_PIP,PINKY_DIP,PINKY_TIP,WRIST2,THUMB_CMC2,THUMB_MCP2,THUMB_IP2,THUMB_TIP2,INDEX_FINGER_MCP2,INDEX_FINGER_PIP2,INDEX_FINGER_DIP2,INDEX_FINGER_TIP2,MIDDLE_FINGER_MCP2,MIDDLE_FINGER_PIP2,MIDDLE_FINGER_DIP2,MIDDLE_FINGER_TIP2,RING_FINGER_MCP2,RING_FINGER_PIP2,RING_FINGER_DIP2,RING_FINGER_TIP2,PINKY_MCP2,PINKY_PIP2,PINKY_DIP2,PINKY_TIP2,Timestamp,Event
-2.867682 -6.875513 -0.09804311,-3.544479 -6.597355 0.1448082,-4.136343 -6.006613 0.281386,-4.58964 -5.418041 0.4271857,-4.908609 -5.115797 0.5968487,-3.721191 -4.220459 -0.01862086,-4.035986 -3.105053 0.1562352,-4.204344 -2.433195 0.3108801,-4.333786 -1.795208 0.4554277,-3.381347 -3.955516 0.05470192,-3.608474 -2.630879 0.2047863,-3.608474 -2.630879 0.2047863,-3.834434 -1.092776 0.5883649,-3.031906 -3.942173 0.2003806,-3.15533 -2.645719 0.3815647,-3.256065 -1.838554 0.5742647,-3.370489 -1.146649 0.7435298,-2.657852 -4.16587 0.378129,-2.541096 -3.186633 0.5466444,-2.491179 -2.553729 0.7048528,-2.461569 -1.9473 0.8305154,-9.6101 -7.085269 -0.05076795,-8.939678 -6.730722 0.2302036,-8.319403 -6.007028 0.4775284,-7.86418 -5.39137 0.7713649,-7.451584 -5.104227 1.074785,-8.853044 -3.937388 0.1330679,-8.732681 -2.662493 0.3082503,-8.68344 -1.869546 0.5197683,-8.642241 -1.187844 0.6884397,-9.269381 -3.766777 0.2027782,-9.192351 -2.281353 0.3687808,-9.139323 -1.334853 0.6241763,-9.108562 -0.5433469 0.8411164,-9.666357 -3.873118 0.3039865,-9.638947 -2.518692 0.4481227,-9.593769 -1.656051 0.6327115,-9.533392 -0.9282832 0.7646163,-10.06139 -4.237572 0.437449,-10.18709 -3.254224 0.5739834,-10.22892 -2.631558 0.699973,-10.24049 -2.022062 0.7948835,0.010, 1 0
-2.879089 -6.864992 -0.0304827,-3.542765 -6.608072 0.1560905,-4.123556 -5.990724 0.270045,-4.574073 -5.402389 0.4142804,-4.902276 -5.099364 0.5871701,-3.718246 -4.181249 -0.03932558,-4.026312 -3.079246 0.1056808,-4.189892 -2.437633 0.2312477,-4.317244 -1.820011 0.3545638,-3.393561 -3.923864 0.08939782,-3.60881 -2.606337 0.2157538,-3.60881 -2.606337 0.2157538,-3.837278 -1.083752 0.5677891,-3.050933 -3.922016 0.2769884,-3.162968 -2.595187 0.4571205,-3.269446 -1.773994 0.6227027,-3.38365 -1.077674 0.773759,-2.672185 -4.176157 0.5065705,-2.521924 -3.177015 0.667972,-2.446522 -2.525638 0.8112907,-2.389713 -1.902256 0.9416106,-9.59036 -7.083645 -0.0677857,-8.936059 -6.713085 0.2080355,-8.327269 -5.979854 0.4449447,-7.88826 -5.358175 0.7245475,-7.481756 -5.09144 1.014627,-8.855187 -3.941553 0.1228633,-8.733847 -2.686253 0.2866756,-8.685314 -1.908469 0.4883762,-8.647971 -1.234632 0.6599072,-9.271192 -3.768312 0.1907228,-9.186626 -2.282802 0.3448029,-9.126382 -1.333709 0.5949353,-9.090025 -0.545917 0.8054552,-9.665379 -3.874531 0.2891176,-9.635078 -2.516877 0.4208409,-9.587699 -1.648681 0.5934169,-9.525328 -0.9213138 0.7207063,-10.05045 -4.241968 0.4206673,-10.17804 -3.260757 0.5497478,-10.21969 -2.634918 0.6730552,-10.23093 -2.031204 0.7637203,0.110, 1 0
-2.874084 -6.878826 -0.02257461,-3.544676 -6.620347 0.1908548,-4.125125 -6.037794 0.3196093,-4.572505 -5.447271 0.4698725,-4.901484 -5.138896 0.6597195,-3.722322 -4.201712 0.0008797608,-4.032825 -3.102425 0.1398251,-4.198739 -2.456888 0.2571509,-4.323944 -1.83402 0.3769313,-3.38766 -3.935521 0.1030761,-3.612577 -2.618191 0.2264717,-3.612577 -2.618191 0.2264717,-3.839146 -1.100708 0.5673413,-3.0414 -3.923547 0.2654167,-3.155102 -2.620281 0.4236008,-3.262696 -1.817746 0.5860868,-3.376362 -1.130244 0.7406915,-2.663992 -4.168294 0.467658,-2.515351 -3.187536 0.6257215,-2.442868 -2.542369 0.7768404,-2.389944 -1.91924 0.9134594,-9.642317 -7.073257 -0.06898063,-8.969245 -6.744648 0.2751804,-8.331394 -6.004087 0.5381759,-7.8822 -5.365757 0.8289414,-7.463062 -5.104646 1.118815,-8.865744 -3.953481 0.2115228,-8.738734 -2.694271 0.4014747,-8.693872 -1.923441 0.6061064,-8.660748 -1.260291 0.7653752,-9.289974 -3.766753 0.2483632,-9.194908 -2.269964 0.4249092,-9.140835 -1.326798 0.6674631,-9.113585 -0.5365853 0.879921,-9.691092 -3.865591 0.318655,-9.642841 -2.489314 0.4772206,-9.601911 -1.60923 0.6647872,-9.549834 -0.8639684 0.8079095,-10.08955 -4.233169 0.4274212,-10.19316 -3.24183 0.5628033,-10.23474 -2.63025 0.6885651,-10.24951 -2.040883 0.798597,0.210, 1 0
-2.855946 -6.876955 -0.09493653,-3.528606 -6.595987 0.1521719,-4.113666 -6.031435 0.3106019,-4.566124 -5.450634 0.4808376,-4.895088 -5.144922 0.6836188,-3.729662 -4.225723 0.004857972,-4.032306 -3.106739 0.1827486,-4.191855 -2.448586 0.3187366,-4.307777 -1.819903 0.4483168,-3.388139 -3.961041 0.0885129,-3.614559 -2.636344 0.235502,-3.614559 -2.636344 0.235502,-3.828136 -1.102909 0.5888723,-3.035743 -3.952955 0.2347583,-3.153891 -2.651648 0.3992562,-3.256774 -1.861471 0.5636942,-3.367317 -1.179764 0.7166794,-2.651582 -4.195914 0.4195808,-2.515449 -3.21227 0.5812134,-2.449421 -2.574941 0.7344363,-2.404964 -1.95672 0.8632532,-9.661593 -7.095827 0.01269626,-8.988957 -6.750398 0.3254181,-8.350121 -6.005285 0.5791186,-7.89588 -5.369226 0.8720917,-7.476218 -5.098663 1.178387,-8.866755 -3.950542 0.2352627,-8.739957 -2.703603 0.4094045,-8.690323 -1.934414 0.6009031,-8.650539 -1.273898 0.7515008,-9.283347 -3.765163 0.2914532,-9.189081 -2.292151 0.4509091,-9.123294 -1.358883 0.6892686,-9.084536 -0.5719466 0.8966499,-9.682891 -3.867228 0.385701,-9.636164 -2.52598 0.5239056,-9.579486 -1.671526 0.6972189,-9.514406 -0.9495301 0.8244326,-10.08309 -4.232288 0.5149673,-10.20049 -3.253898 0.6523322,-10.23966 -2.634745 0.7796436,-10.25317 -2.039593 0.8832793,0.310, 1 0
-2.860951 -6.882437 -0.09310005,-3.522629 -6.633726 0.1431774,-4.107664 -6.052269 0.2929001,-4.567492 -5.458492 0.466785,-4.899712 -5.123441 0.6822265,-3.719284 -4.235035 -0.04760249,-4.02511 -3.120842 0.107045,-4.183935 -2.468531 0.2359257,-4.303776 -1.836401 0.3632209,-3.382708 -3.961728 0.04843618,-3.602087 -2.651014 0.1774698,-3.602087 -2.651014 0.1774698,-3.822464 -1.127159 0.5245833,-3.033655 -3.947889 0.2090606,-3.142709 -2.646366 0.3795542,-3.253361 -1.842709 0.5477817,-3.370478 -1.160818 0.7025971,-2.653401 -4.195644 0.4097372,-2.487163 -3.21466 0.5708897,-2.407232 -2.567849 0.721507,-2.344164 -1.949174 0.8526465,-9.651822 -7.129198 0.04170372,-8.977499 -6.77567 0.3588552,-8.335558 -6.026084 0.6129847,-7.875997 -5.386266 0.9039651,-7.463943 -5.10989 1.19218,-8.862866 -3.973672 0.2783383,-8.72481 -2.711851 0.4553416,-8.669676 -1.935345 0.6560672,-8.626082 -1.269046 0.8109371,-9.276854 -3.790148 0.3245305,-9.180882 -2.303802 0.4935096,-9.12054 -1.355743 0.7393934,-9.089805 -0.559032 0.9540802,-9.669201 -3.893535 0.4067087,-9.629011 -2.534593 0.5589697,-9.578333 -1.655922 0.7395717,-9.518094 -0.9126134 0.8752149,-10.06219 -4.261536 0.5234466,-10.18215 -3.263368 0.6682188,-10.22388 -2.650104 0.7949257,-10.23902 -2.063982 0.896795,0.410, 1 0
-2.862223 -6.92941 -0.06241182,-3.524536 -6.643333 0.155738,-4.103098 -6.041312 0.2984537,-4.565828 -5.447393 0.4698141,-4.895973 -5.109886 0.6816145,-3.709846 -4.261748 -0.02590379,-4.010324 -3.147192 0.1414,-4.171324 -2.478918 0.2804875,-4.293142 -1.848218 0.4189503,-3.37656 -3.998528 0.0791837,-3.589331 -2.675526 0.2159239,-3.589331 -2.675526 0.2159239,-3.810051 -1.127435 0.5592129,-3.029932 -3.988806 0.2486369,-3.135054 -2.682934 0.4122768,-3.238729 -1.865779 0.5697963,-3.351389 -1.174297 0.7146648,-2.650455 -4.233076 0.4582317,-2.500528 -3.24844 0.6125669,-2.42992 -2.596649 0.7522718,-2.377767 -1.975903 0.8701793,-9.630136 -7.087673 -0.005259505,-8.95634 -6.740498 0.3370101,-8.328703 -6.002108 0.6015915,-7.873985 -5.36337 0.8934842,-7.445532 -5.10919 1.182317,-8.850039 -3.956578 0.2876294,-8.714167 -2.697872 0.4917831,-8.665853 -1.925316 0.7050211,-8.632168 -1.255428 0.8784711,-9.271874 -3.764513 0.3238184,-9.163963 -2.252539 0.5180801,-9.110397 -1.306055 0.7743648,-9.086256 -0.5140548 0.9941425,-9.668947 -3.860878 0.3902128,-9.620809 -2.469836 0.5705855,-9.578674 -1.584238 0.7639796,-9.524979 -0.8308415 0.9082109,-10.0675 -4.228678 0.4931407,-10.17867 -3.239339 0.64807,-10.22247 -2.628692 0.7750151,-10.23512 -2.034805 0.8806846,0.510, 1 0
-2.846147 -6.916862 -0.03456501,-3.51571 -6.655159 0.155827,-4.102893 -6.053844 0.2739619,-4.567598 -5.45582 0.4248081,-4.891066 -5.142173 0.6128669,-3.70472 -4.242012 -0.06563774,-4.009856 -3.131236 0.074507,-4.174752 -2.474489 0.2023076,-4.300241 -1.850013 0.3303074,-3.375158 -3.978138 0.04418425,-3.594716 -2.657489 0.1554713,-3.594716 -2.657489 0.1554713,-3.812789 -1.121731 0.4948742,-3.029585 -3.965965 0.215966,-3.143852 -2.669538 0.365595,-3.24895 -1.862582 0.5182956,-3.357999 -1.171588 0.6593906,-2.65204 -4.204971 0.4262219,-2.501863 -3.235044 0.5692843,-2.428946 -2.59325 0.7060235,-2.36968 -1.970579 0.8186901,-9.597535 -7.105867 0.009745372,-8.93549 -6.755959 0.3355242,-8.313067 -6.009681 0.593978,-7.870498 -5.356665 0.8834332,-7.456077 -5.072829 1.169891,-8.831266 -3.967106 0.2715143,-8.701205 -2.714036 0.4508225,-8.653744 -1.941288 0.6475408,-8.619714 -1.266635 0.8121315,-9.250084 -3.775076 0.3160543,-9.150717 -2.274809 0.4931266,-9.092945 -1.324788 0.7519966,-9.064116 -0.5289874 0.973507,-9.646182 -3.874646 0.3914069,-9.609251 -2.49773 0.5510091,-9.566316 -1.610226 0.7412934,-9.511209 -0.8602118 0.8872548,-10.0439 -4.243402 0.5021405,-10.16858 -3.246372 0.6468594,-10.21189 -2.624362 0.7710812,-10.22639 -2.025813 0.8708658,0.610, 1 0
-2.831708 -6.905378 -0.06630622,-3.498136 -6.664331 0.1345918,-4.092342 -6.061052 0.2576578,-4.561378 -5.462305 0.4087218,-4.886023 -5.142501 0.5914133,-3.69775 -4.245534 -0.063285,-4.006754 -3.139259 0.08898796,-4.172038 -2.483728 0.2135661,-4.300546 -1.848399 0.3302346,-3.372854 -3.979493 0.05348308,-3.593406 -2.659294 0.1886031,-3.593406 -2.659294 0.1886031,-3.820938 -1.13546 0.5473348,-3.03163 -3.963748 0.2316489,-3.1442 -2.645663 0.4094647,-3.253893 -1.837759 0.5756143,-3.36833 -1.147286 0.7302508,-2.656519 -4.20556 0.4493414,-2.492768 -3.225469 0.6086984,-2.417791 -2.584053 0.750976,-2.35827 -1.972945 0.8709671,-9.609852 -7.107478 -0.01989972,-8.934364 -6.756473 0.2916625,-8.307563 -6.019186 0.544598,-7.857295 -5.385859 0.8378806,-7.448431 -5.10909 1.128754,-8.834874 -3.960426 0.1920829,-8.705915 -2.690803 0.359294,-8.654043 -1.910337 0.5566967,-8.612255 -1.243415 0.7161599,-9.247894 -3.782847 0.2399473,-9.163506 -2.285842 0.4021159,-9.107908 -1.348266 0.6538975,-9.075034 -0.5610814 0.8682758,-9.640032 -3.881956 0.3207215,-9.604088 -2.513982 0.4602715,-9.55633 -1.65111 0.6489666,-9.493402 -0.9195647 0.784371,-10.03085 -4.239563 0.4355648,-10.15554 -3.252058 0.5653114,-10.20093 -2.641492 0.6907194,-10.21585 -2.046232 0.7887819,0.710, 1 0
-2.807693 -6.878091 -0.1235615,-3.460554 -6.646307 0.1165429,-4.056807 -6.039838 0.2612826,-4.530301 -5.453198 0.4293364,-4.861116 -5.127227 0.6294191,-3.681711 -4.241106 -0.05448869,-3.994133 -3.13071 0.1076961,-4.157521 -2.470672 0.2474816,-4.284662 -1.834531 0.386106,-3.349694 -3.970941 0.03658336,-3.565371 -2.647995 0.1755839,-3.565371 -2.647995 0.1755839,-3.784224 -1.106219 0.5414585,-3.00163 -3.951879 0.1872592,-3.119211 -2.658947 0.3562866,-3.228645 -1.849434 0.519635,-3.34584 -1.158826 0.6775732,-2.620728 -4.17777 0.3794755,-2.472002 -3.199086 0.5372019,-2.400358 -2.549146 0.6839107,-2.346945 -1.922695 0.8113549,-9.568069 -7.110603 -0.01432589,-8.898441 -6.745143 0.3230413,-8.274827 -5.995702 0.5899304,-7.829075 -5.357648 0.8883647,-7.413013 -5.066511 1.189791,-8.820259 -3.96961 0.2494076,-8.681458 -2.697317 0.436637,-8.626935 -1.922969 0.6489889,-8.587613 -1.253678 0.8159773,-9.235997 -3.784936 0.2891122,-9.13822 -2.287092 0.4721415,-9.080855 -1.340718 0.7300248,-9.051666 -0.5479894 0.9549275,-9.626203 -3.891225 0.3615502,-9.590468 -2.513413 0.525987,-9.543698 -1.621345 0.7257977,-9.486031 -0.8690724 0.8783261,-10.0138 -4.264469 0.4718068,-10.13773 -3.266061 0.6206432,-10.17885 -2.641535 0.756382,-10.1894 -2.039605 0.8673226,0.810, 1 0
-2.753432 -6.836582 -0.2138967,-3.413848 -6.634566 0.03834254,-4.014179 -6.067672 0.1883534,-4.484331 -5.487363 0.3530356,-4.822277 -5.157592 0.5487302,-3.627146 -4.234361 -0.1362537,-3.941868 -3.131521 0.003390893,-4.103116 -2.473234 0.1250599,-4.223806 -1.844458 0.2499926,-3.289968 -3.954322 -0.06142251,-3.516766 -2.63102 0.06789157,-3.516766 -2.63102 0.06789157,-3.737551 -1.117859 0.4263295,-2.942541 -3.925758 0.07639745,-3.06848 -2.635036 0.2304544,-3.184822 -1.833697 0.3995756,-3.303976 -1.150146 0.5610375,-2.564008 -4.144527 0.253287,-2.421205 -3.163631 0.4015578,-2.360332 -2.515959 0.5550831,-2.315099 -1.896072 0.6924816,-9.555704 -7.12746 0.01374987,-8.87676 -6.760639 0.3172808,-8.243528 -6.016239 0.5777965,-7.783876 -5.387994 0.8824935,-7.364717 -5.100159 1.191054,-8.772278 -3.962284 0.2392099,-8.653598 -2.682235 0.4205381,-8.602931 -1.904859 0.6266826,-8.561778 -1.236809 0.7855321,-9.189227 -3.79617 0.3045214,-9.109024 -2.309453 0.4750678,-9.058538 -1.36156 0.7326648,-9.026226 -0.563519 0.9552051,-9.587343 -3.913725 0.4056565,-9.553448 -2.544158 0.5580984,-9.508005 -1.66468 0.7470808,-9.447894 -0.9275641 0.8862584,-9.982648 -4.28848 0.5376575,-10.10225 -3.281377 0.6830552,-10.14335 -2.634533 0.8095224,-10.15411 -2.012828 0.9018241,0.910, 1 0
-2.754051 -6.88492 -0.1158359,-3.412184 -6.658773 0.1072145,-4.002605 -6.073646 0.2364188,-4.471079 -5.507713 0.3913984,-4.803033 -5.20597 0.5783823,-3.615512 -4.244327 -0.100594,-3.919329 -3.140224 0.03437296,-4.08355 -2.474475 0.1633431,-4.206009 -1.844158 0.2951286,-3.286489 -3.971625 -0.0009321496,-3.501741 -2.654797 0.1119802,-3.501741 -2.654797 0.1119802,-3.734673 -1.122877 0.4657776,-2.942819 -3.950258 0.1580734,-3.062946 -2.669522 0.3070019,-3.179376 -1.85704 0.4715421,-3.297558 -1.168417 0.6277605,-2.567425 -4.172783 0.3614054,-2.422782 -3.192124 0.5153849,-2.356532 -2.533538 0.6669866,-2.307259 -1.902951 0.8029551,-9.472865 -7.127924 -0.01252976,-8.774134 -6.740386 0.2983681,-8.151427 -6.011755 0.5762892,-7.694703 -5.387453 0.8994911,-7.258861 -5.084126 1.237387,-8.696807 -3.96069 0.2047803,-8.573249 -2.695897 0.3694429,-8.515812 -1.930175 0.5648263,-8.471314 -1.274605 0.7191019,-9.116932 -3.801968 0.2660982,-9.044125 -2.328811 0.409925,-8.989222 -1.403001 0.6490927,-8.949627 -0.6272721 0.8565638,-9.515122 -3.918158 0.3617404,-9.483693 -2.566811 0.4906768,-9.425246 -1.710596 0.6661472,-9.357903 -1.003092 0.7845736,-9.910465 -4.28083 0.4993722,-10.0361 -3.276009 0.6239196,-10.07496 -2.624944 0.7441826,-10.08242 -2.005813 0.824937,1.010, 1 0
-2.694647 -6.872043 -0.1563477,-3.360443 -6.659353 0.08862704,-3.964617 -6.079551 0.234053,-4.43426 -5.506397 0.3986108,-4.770798 -5.176883 0.5914521,-3.5877 -4.247642 -0.1001906,-3.897545 -3.146977 0.05768645,-4.063381 -2.491495 0.1930519,-4.187581 -1.858343 0.3238264,-3.255367 -3.97731 -0.009743661,-3.470695 -2.664582 0.124454,-3.470695 -2.664582 0.124454,-3.684348 -1.15616 0.4861327,-2.909729 -3.95568 0.1421742,-3.031675 -2.680788 0.301146,-3.145754 -1.88447 0.4681057,-3.25855 -1.201632 0.6316178,-2.531915 -4.172098 0.3380058,-2.392426 -3.187999 0.4923555,-2.330851 -2.530784 0.6479817,-2.286539 -1.901435 0.7895086,-9.389994 -7.113394 -0.02040991,-8.700148 -6.732656 0.2891096,-8.079824 -5.970461 0.5631032,-7.633361 -5.317213 0.8783113,-7.18834 -5.004385 1.209292,-8.622098 -3.960487 0.2215141,-8.508483 -2.711878 0.3957002,-8.457727 -1.942127 0.5929904,-8.413615 -1.282758 0.7564862,-9.043444 -3.790617 0.2797287,-8.962399 -2.315578 0.4332163,-8.910484 -1.390405 0.672014,-8.872813 -0.6245866 0.8833435,-9.439662 -3.899022 0.3707195,-9.40633 -2.536412 0.5102414,-9.362461 -1.682305 0.6745576,-9.303366 -0.9684434 0.786827,-9.837363 -4.265953 0.5012739,-9.952189 -3.249988 0.6274362,-9.993205 -2.611783 0.731223,-10.00344 -1.999876 0.8076922,1.110, 1 0
-2.685332 -6.857233 -0.1434995,-3.341711 -6.640611 0.08805935,-3.935645 -6.051034 0.2276049,-4.410976 -5.481029 0.389217,-4.755294 -5.17101 0.5799412,-3.57124 -4.223882 -0.1079567,-3.880772 -3.133352 0.0401171,-4.043993 -2.479122 0.1664518,-4.166047 -1.845397 0.2933534,-3.241809 -3.957176 -0.01327306,-3.459241 -2.645892 0.113205,-3.459241 -2.645892 0.113205,-3.667727 -1.12437 0.4666703,-2.900177 -3.941028 0.14035,-3.023203 -2.660135 0.2876675,-3.137541 -1.859774 0.4467579,-3.250095 -1.173675 0.6010659,-2.52541 -4.162626 0.3381237,-2.382706 -3.174428 0.4827335,-2.320487 -2.512666 0.6310197,-2.275334 -1.873733 0.7649169,-9.369967 -7.11407 0.02752479,-8.684063 -6.754356 0.355891,-8.051517 -5.973045 0.6391181,-7.602617 -5.309904 0.9552615,-7.15721 -4.995729 1.286582,-8.597993 -3.960059 0.2926526,-8.473323 -2.73052 0.4792758,-8.420965 -1.965558 0.6894827,-8.378418 -1.304126 0.8619949,-9.021248 -3.779497 0.3466054,-8.932383 -2.323506 0.4991389,-8.882542 -1.401248 0.7364031,-8.848747 -0.6311259 0.9502784,-9.418507 -3.882579 0.4346576,-9.385756 -2.538452 0.5780637,-9.346017 -1.689147 0.7421857,-9.289985 -0.9735675 0.8567772,-9.817174 -4.249298 0.5643389,-9.928306 -3.244804 0.7023815,-9.970284 -2.608368 0.8073024,-9.979537 -1.992095 0.8845896,1.210, 1 0
-2.667875 -6.854564 -0.1368411,-3.329085 -6.634136 0.07372482,-3.921866 -6.031015 0.2103337,-4.394688 -5.44359 0.3710939,-4.732269 -5.127231 0.5563338,-3.548949 -4.217685 -0.1028604,-3.859276 -3.119823 0.04364945,-4.023267 -2.456546 0.1680932,-4.144608 -1.819994 0.2888628,-3.216329 -3.951137 -0.005253091,-3.440327 -2.63169 0.1244949,-3.440327 -2.63169 0.1244949,-3.65329 -1.100523 0.4788923,-2.872159 -3.925098 0.1517965,-3.005056 -2.641138 0.3052889,-3.118781 -1.837072 0.4637395,-3.229056 -1.148244 0.6164021,-2.496075 -4.132816 0.3471128,-2.362693 -3.143444 0.4894474,-2.299951 -2.483276 0.6338592,-2.252885 -1.845404 0.7620369,-9.32674 -7.148547 0.06625913,-8.63867 -6.762649 0.3767553,-8.013891 -5.978194 0.6559058,-7.565548 -5.321706 0.9712859,-7.118616 -5.023422 1.301813,-8.540561 -3.985624 0.3289475,-8.430639 -2.768153 0.5097526,-8.37465 -2.009441 0.7086668,-8.322941 -1.359017 0.8677518,-8.964732 -3.805093 0.3943043,-8.882613 -2.37031 0.5486386,-8.824492 -1.464087 0.7868707,-8.777964 -0.7087111 0.9951559,-9.366996 -3.903432 0.4932019,-9.324451 -2.57192 0.6350701,-9.271533 -1.74211 0.7952545,-9.204561 -1.04825 0.9054892,-9.771466 -4.256721 0.6286044,-9.873908 -3.252828 0.7754247,-9.903472 -2.607252 0.8875065,-9.901449 -1.981104 0.9669154,1.310, 1 0
-2.669356 -6.867128 -0.05990309,-3.321835 -6.639522 0.1611938,-3.910139 -6.014438 0.298764,-4.38451 -5.423463 0.4597579,-4.723041 -5.12285 0.6502399,-3.556808 -4.21096 -0.01983688,-3.865741 -3.120073 0.1378226,-4.024755 -2.452306 0.2690763,-4.144985 -1.807474 0.393611,-3.226536 -3.943318 0.08070418,-3.445635 -2.630214 0.2245155,-3.445635 -2.630214 0.2245155,-3.647673 -1.094577 0.5886986,-2.88093 -3.919334 0.2425023,-3.015746 -2.635979 0.4147974,-3.128666 -1.835455 0.5794335,-3.240516 -1.140717 0.7324456,-2.499595 -4.135106 0.4425432,-2.363557 -3.139255 0.6024471,-2.291206 -2.481379 0.7548166,-2.23519 -1.839147 0.8880972,-9.269655 -7.1638 0.0581985,-8.586766 -6.74851 0.3520738,-7.981633 -5.947141 0.6112359,-7.547098 -5.304154 0.9163333,-7.099563 -5.002439 1.240847,-8.515486 -3.970724 0.2348977,-8.39387 -2.761656 0.3936148,-8.323647 -2.003711 0.5756493,-8.258439 -1.343963 0.7273664,-8.940442 -3.812177 0.3038472,-8.866881 -2.414802 0.4292721,-8.803671 -1.556384 0.6534641,-8.745852 -0.8466897 0.8376728,-9.340427 -3.913656 0.4156666,-9.31776 -2.602878 0.5435063,-9.276566 -1.790173 0.7110955,-9.21349 -1.101244 0.8191578,-9.741914 -4.265628 0.5627235,-9.854358 -3.290784 0.6920246,-9.882922 -2.66642 0.7961259,-9.875008 -2.054501 0.8656461,1.410, 1 0
-2.6292 -6.837516 -0.03639925,-3.282457 -6.620693 0.1765475,-3.877307 -5.996237 0.3134575,-4.358751 -5.411167 0.4822477,-4.712814 -5.115627 0.6871648,-3.533648 -4.175828 -0.03396086,-3.842019 -3.090847 0.1143345,-4.003977 -2.438525 0.2415496,-4.120914 -1.805125 0.3631806,-3.204066 -3.908992 0.07369839,-3.419236 -2.602031 0.2045496,-3.419236 -2.602031 0.2045496,-3.603301 -1.075277 0.5526333,-2.85957 -3.885413 0.242185,-2.985622 -2.616036 0.3872214,-3.095838 -1.827867 0.5320751,-3.197454 -1.135624 0.6713792,-2.481116 -4.095915 0.4517326,-2.346047 -3.105905 0.5915097,-2.279876 -2.45286 0.7264825,-2.225645 -1.808008 0.8462369,-9.24994 -7.164052 -0.08958363,-8.604568 -6.766805 0.2134712,-8.006426 -5.930922 0.4508791,-7.564525 -5.279453 0.7369995,-7.10026 -4.926359 1.032594,-8.476829 -4.0208 -0.009665482,-8.291818 -2.83246 0.1685331,-8.206287 -2.091353 0.433745,-8.123133 -1.461341 0.6492768,-8.924204 -3.85238 0.1238538,-8.901954 -2.577901 0.4804525,-8.866741 -2.181551 0.9407398,-8.832963 -2.181227 1.264868,-9.330834 -3.930557 0.3125367,-9.366559 -2.766662 0.5995935,-9.310866 -2.346385 0.9715451,-9.234472 -2.265397 1.216659,-9.740163 -4.247217 0.5398062,-9.854581 -3.305716 0.8235791,-9.829765 -2.938004 1.088091,-9.757085 -2.861274 1.281308,1.510, 1 0
-2.643228 -6.839515 -0.004982023,-3.298391 -6.617292 0.2177315,-3.887032 -5.991901 0.3614712,-4.364147 -5.397368 0.5409164,-4.715445 -5.074897 0.7562569,-3.538319 -4.169071 0.004611565,-3.851423 -3.092762 0.1625877,-4.015481 -2.438129 0.2893245,-4.138014 -1.797126 0.4084572,-3.205503 -3.899784 0.1144306,-3.428782 -2.603111 0.2526732,-3.428782 -2.603111 0.2526732,-3.633611 -1.095728 0.6074694,-2.861186 -3.878992 0.2895239,-2.98944 -2.607248 0.446499,-3.107222 -1.811893 0.6073349,-3.224772 -1.12021 0.7594652,-2.481314 -4.100128 0.5048597,-2.348436 -3.12106 0.6491938,-2.287324 -2.473073 0.7932831,-2.243945 -1.834965 0.922045,-9.296072 -7.056529 -0.3683561,-8.629561 -6.732791 0.02464524,-8.063107 -5.936813 0.3239202,-7.630099 -5.303863 0.6421641,-7.176698 -4.870821 0.9464452,-8.468648 -3.984674 -0.2450166,-8.262589 -2.873851 -0.01367345,-8.175696 -2.118225 0.2554847,-8.113818 -1.485492 0.4762961,-8.890846 -3.835858 -0.1277875,-8.859034 -2.490837 0.4034761,-8.830262 -2.592249 0.9076388,-8.836477 -3.064129 1.171653,-9.300894 -3.930429 0.05924118,-9.333044 -2.667425 0.5301673,-9.282856 -2.838418 0.9343512,-9.267987 -3.384861 1.11314,-9.72955 -4.260104 0.2815698,-9.848258 -3.233633 0.6939642,-9.803116 -3.099562 0.9707733,-9.760515 -3.396432 1.13708,1.610, 1 0
-2.640058 -6.852972 -0.00655855,-3.295118 -6.63614 0.2101783,-3.886785 -6.022878 0.34614,-4.356567 -5.430028 0.5119336,-4.697233 -5.099294 0.7122848,-3.535569 -4.190368 -0.01383931,-3.850631 -3.094084 0.1346124,-4.017699 -2.43243 0.2659608,-4.139543 -1.798644 0.3909763,-3.204019 -3.912888 0.08071874,-3.425979 -2.607177 0.1987337,-3.425979 -2.607177 0.1987337,-3.616553 -1.088052 0.5420431,-2.859631 -3.879507 0.238292,-2.99451 -2.622048 0.3662636,-3.108138 -1.8245 0.5149581,-3.219803 -1.140822 0.6579504,-2.480675 -4.08606 0.437077,-2.351766 -3.11565 0.5605348,-2.292818 -2.475416 0.6893061,-2.252176 -1.858276 0.8060182,-9.379631 -7.289173 -1.117324,-8.716206 -6.92885 -0.6841638,-8.153327 -6.227834 -0.3435306,-7.917783 -5.425262 -0.001004219,-8.109772 -4.852207 0.2397836,-8.561605 -4.404163 -1.017106,-8.356269 -3.172217 -0.6814412,-8.20826 -2.397026 -0.3802569,-8.098791 -1.725948 -0.1419328,-8.954674 -4.283037 -0.9446855,-8.861952 -2.829771 -0.3182163,-8.772184 -3.58222 0.08855629,-8.786801 -4.37677 0.180733,-9.346353 -4.297808 -0.8039725,-9.31881 -2.931922 -0.2879384,-9.205396 -3.58589 0.04230332,-9.207149 -4.361446 0.07278121,-9.788454 -4.462135 -0.6373112,-9.836675 -3.369865 -0.1888866,-9.692408 -3.606994 0.0617193,-9.62245 -4.19951 0.1089287,1.710, 1 0
-2.636556 -6.886041 0.0298768,-3.297795 -6.667988 0.2742459,-3.894737 -6.024827 0.4275198,-4.370715 -5.40525 0.6047734,-4.717994 -5.074069 0.8176074,-3.542355 -4.209666 0.07387027,-3.850443 -3.118443 0.23272,-4.012259 -2.457346 0.3549376,-4.131182 -1.825798 0.4740146,-3.208525 -3.938507 0.1606945,-3.434963 -2.625196 0.2980295,-3.434963 -2.625196 0.2980295,-3.643166 -1.110081 0.6335571,-2.862617 -3.920577 0.3159606,-2.990541 -2.634108 0.474589,-3.103412 -1.833824 0.6340883,-3.216843 -1.134935 0.7835048,-2.48319 -4.150598 0.5106493,-2.351998 -3.166515 0.6581782,-2.290036 -2.519836 0.808567,-2.243862 -1.883905 0.9347395,-9.342231 -7.138033 -1.396455,-8.725774 -6.824017 -0.8065932,-8.245662 -6.051681 -0.4033062,-8.160739 -5.185884 0.01181376,-8.493443 -4.751638 0.3033524,-8.561148 -4.342532 -1.418415,-8.362499 -3.156532 -1.000511,-8.188092 -2.438013 -0.6242962,-8.065106 -1.7865 -0.3720123,-8.941604 -4.204124 -1.368233,-8.795543 -3.026511 -0.5344986,-8.716817 -3.941305 -0.01149297,-8.767222 -4.766171 0.07738912,-9.331835 -4.209039 -1.202682,-9.258564 -3.029629 -0.5109547,-9.153308 -3.865602 -0.1736202,-9.17505 -4.664855 -0.2173254,-9.767486 -4.372842 -0.9943984,-9.775434 -3.360376 -0.5106127,-9.607677 -3.674798 -0.281804,-9.528053 -4.304008 -0.2902886,1.810, 1 0
-2.658763 -6.893854 0.05661456,-3.325521 -6.661561 0.2927282,-3.91922 -6.027347 0.4389017,-4.386259 -5.414565 0.6142617,-4.727402 -5.063249 0.8200429,-3.553251 -4.200344 0.06021798,-3.859163 -3.109664 0.221025,-4.018955 -2.45176 0.3432522,-4.136532 -1.814575 0.4600173,-3.216646 -3.934509 0.1523428,-3.437712 -2.629235 0.2803642,-3.437712 -2.629235 0.2803642,-3.633253 -1.113714 0.6309988,-2.868917 -3.915567 0.3128425,-2.99898 -2.640766 0.4618238,-3.111094 -1.838301 0.6204281,-3.223007 -1.142294 0.7719318,-2.486591 -4.142045 0.5144032,-2.358589 -3.157563 0.6567842,-2.300633 -2.515409 0.8007091,-2.260093 -1.891866 0.9244003,-9.36168 -7.06173 -1.555453,-8.74011 -6.769929 -0.9687186,-8.253862 -5.994831 -0.5966161,-8.180971 -5.129236 -0.2139709,-8.524129 -4.682182 0.04704583,-8.566524 -4.309139 -1.607122,-8.373395 -3.160709 -1.194768,-8.195693 -2.474555 -0.8330062,-8.061749 -1.857524 -0.5929633,-8.949529 -4.175153 -1.553211,-8.829756 -3.034715 -0.7335833,-8.761162 -3.941183 -0.2114477,-8.797042 -4.773608 -0.113435,-9.342844 -4.189731 -1.375634,-9.289321 -3.057764 -0.6803022,-9.186233 -3.897267 -0.3103921,-9.187352 -4.721246 -0.3210196,-9.78241 -4.368126 -1.157615,-9.804403 -3.390957 -0.6823321,-9.641167 -3.719726 -0.4202037,-9.542791 -4.373163 -0.3936992,1.910, 1 0
-2.650433 -6.947468 0.08070087,-3.311359 -6.706443 0.3138353,-3.910034 -6.056662 0.4632351,-4.380732 -5.420611 0.6365394,-4.72049 -5.057683 0.8481646,-3.547283 -4.254364 0.1046079,-3.851695 -3.148845 0.2623571,-4.016906 -2.47477 0.3890001,-4.139923 -1.825199 0.512956,-3.213931 -3.982728 0.1935155,-3.433308 -2.663138 0.3210769,-3.433308 -2.663138 0.3210769,-3.643646 -1.133331 0.6748431,-2.866207 -3.953025 0.3471889,-3.004127 -2.669196 0.4958718,-3.117509 -1.87073 0.6572016,-3.233458 -1.169766 0.811979,-2.480567 -4.163694 0.5422691,-2.360429 -3.174741 0.6856828,-2.294385 -2.530707 0.831381,-2.244045 -1.898096 0.9597756,-9.355816 -7.068174 -1.642209,-8.750993 -6.789255 -1.063286,-8.25653 -6.010387 -0.636807,-8.202929 -5.155122 -0.206731,-8.557669 -4.774051 0.09706879,-8.549942 -4.352623 -1.621885,-8.327653 -3.22997 -1.105675,-8.140935 -2.639366 -0.7017031,-7.999261 -2.060555 -0.4737172,-8.939125 -4.208482 -1.559082,-8.821406 -3.168824 -0.6842033,-8.816376 -4.203522 -0.3128606,-8.890753 -4.957521 -0.4035357,-9.344284 -4.248161 -1.353465,-9.288223 -3.232042 -0.6081808,-9.231825 -4.203878 -0.395287,-9.26851 -4.925409 -0.557935,-9.803276 -4.477562 -1.099312,-9.798059 -3.539527 -0.6497375,-9.675857 -4.07681 -0.4853811,-9.633179 -4.707814 -0.5774887,2.010, 1 0
-2.650313 -6.993232 0.1930117,-3.311052 -6.73145 0.4167184,-3.908856 -6.079175 0.5386358,-4.361249 -5.419599 0.6836306,-4.692984 -5.052135 0.855437,-3.546125 -4.26736 0.1807436,-3.847441 -3.162038 0.3261442,-4.014866 -2.496688 0.4415706,-4.145214 -1.846044 0.549428,-3.215309 -3.995158 0.2776965,-3.444926 -2.68695 0.3890758,-3.444926 -2.68695 0.3890758,-3.666594 -1.142096 0.7512962,-2.864004 -3.970644 0.4446118,-3.019861 -2.698422 0.5957079,-3.131895 -1.908824 0.7665086,-3.253645 -1.212251 0.9299181,-2.474289 -4.186613 0.6496693,-2.371199 -3.213183 0.795378,-2.299995 -2.571285 0.9497065,-2.24491 -1.943685 1.079947,-9.372882 -7.112871 -1.796185,-8.775576 -6.849121 -1.176714,-8.273625 -6.115654 -0.7381253,-8.190736 -5.251132 -0.3094665,-8.525677 -4.835089 -0.01257682,-8.55144 -4.46151 -1.702412,-8.317266 -3.378875 -1.101406,-8.13393 -2.82356 -0.6511372,-7.978237 -2.265152 -0.4254158,-8.943391 -4.301347 -1.666862,-8.824549 -3.26373 -0.7169819,-8.832813 -4.309721 -0.3520411,-8.897809 -5.032474 -0.4826331,-9.347974 -4.33715 -1.481514,-9.300419 -3.36156 -0.6771314,-9.256674 -4.348169 -0.4703438,-9.284999 -5.026237 -0.6637424,-9.800337 -4.557201 -1.250058,-9.808034 -3.646982 -0.7779156,-9.698274 -4.201538 -0.6111407,-9.654318 -4.805814 -0.719804,2.110, 1 0
-2.685487 -6.940489 0.1945717,-3.339061 -6.688404 0.372784,-3.931435 -6.040279 0.4989012,-4.378084 -5.415443 0.667214,-4.707492 -5.050689 0.8689931,-3.546312 -4.191694 0.1213663,-3.852383 -3.103748 0.2354597,-4.021389 -2.456779 0.3208205,-4.146994 -1.826705 0.40685,-3.216768 -3.935043 0.2405971,-3.429525 -2.608435 0.3422135,-3.429525 -2.608435 0.3422135,-3.646992 -1.087146 0.6627678,-2.880286 -3.911687 0.4280463,-2.998696 -2.628522 0.545541,-3.101807 -1.850863 0.6894336,-3.206789 -1.160873 0.8328769,-2.508676 -4.131918 0.652886,-2.379395 -3.153228 0.7750647,-2.319924 -2.516617 0.9132915,-2.278554 -1.891304 1.030138,-9.395464 -7.066645 -2.119988,-8.805732 -6.930499 -1.440787,-8.276301 -6.217329 -0.9893632,-8.191615 -5.403116 -0.5679392,-8.513517 -5.031251 -0.2529104,-8.534007 -4.563889 -1.85333,-8.296517 -3.613205 -1.234871,-8.121647 -3.101614 -0.7340888,-7.963339 -2.610404 -0.439598,-8.937511 -4.365333 -1.83503,-8.823617 -3.363531 -0.8720866,-8.830252 -4.372463 -0.4343867,-8.886873 -5.135006 -0.4551928,-9.35718 -4.379381 -1.666523,-9.315851 -3.435575 -0.8509005,-9.274736 -4.398404 -0.5758179,-9.292658 -5.11952 -0.690935,-9.813572 -4.591245 -1.449634,-9.858778 -3.739838 -0.9158629,-9.752302 -4.266952 -0.6993021,-9.690499 -4.879953 -0.7448452,2.210, 1 0
-2.859629 -6.596214 -1.048095,-3.442396 -6.596775 -0.8102245,-3.988499 -5.95926 -0.7251593,-4.385063 -5.379718 -0.642871,-4.725702 -5.108238 -0.547219,-3.598139 -4.158744 -0.790375,-3.864436 -3.186548 -0.7268351,-4.028135 -2.42791 -0.5762019,-4.155077 -1.784378 -0.3711999,-3.270746 -3.950819 -0.7166942,-3.472969 -2.743837 -0.5311472,-3.472969 -2.743837 -0.5311472,-3.627546 -1.054046 -0.1264395,-2.937871 -3.99623 -0.6259592,-3.06561 -2.809906 -0.4502096,-3.136915 -1.997123 -0.265402,-3.192583 -1.275643 -0.1309717,-2.617751 -4.287643 -0.5367558,-2.564212 -3.513046 -0.2569363,-2.520995 -2.964502 -0.07784414,-2.458811 -2.394115 -0.0037148,-9.382058 -7.114468 -2.316161,-8.814103 -7.04096 -1.580507,-8.275936 -6.372665 -1.103338,-8.161166 -5.614604 -0.689486,-8.465888 -5.189697 -0.3512371,-8.521538 -4.708148 -1.845268,-8.28169 -3.787356 -1.217182,-8.101267 -3.32022 -0.7133837,-7.92815 -2.903766 -0.3950406,-8.933954 -4.49325 -1.856854,-8.815643 -3.516901 -0.9023377,-8.808951 -4.512088 -0.4499289,-8.847518 -5.306754 -0.4147216,-9.361423 -4.495207 -1.720457,-9.323246 -3.58879 -0.8608663,-9.271552 -4.546562 -0.5049222,-9.268399 -5.310005 -0.5533891,-9.814758 -4.67511 -1.542108,-9.872098 -3.822097 -0.9334635,-9.762131 -4.3386 -0.648109,-9.682421 -4.984725 -0.6257834,2.310, 1 0
-2.803421 -6.679367 -0.70173,-3.386135 -6.574151 -0.4199817,-3.934542 -5.941267 -0.2950781,-4.35803 -5.353202 -0.1621593,-4.699587 -5.062982 0.01009268,-3.576307 -4.208616 -0.5147237,-3.855219 -3.144763 -0.3600719,-4.016043 -2.48116 -0.2338861,-4.143526 -1.871749 -0.1206257,-3.238653 -3.929419 -0.4388607,-3.410477 -2.67274 -0.2752353,-3.410477 -2.67274 -0.2752353,-3.633169 -1.123844 0.07553524,-2.889868 -3.902786 -0.3142527,-2.988641 -2.657211 -0.1255198,-3.114243 -1.858841 0.04703289,-3.241931 -1.195045 0.2148511,-2.527856 -4.133708 -0.1506118,-2.386015 -3.14471 0.02350682,-2.328954 -2.467571 0.1935352,-2.296763 -1.813715 0.3558023,-9.392374 -7.095979 -2.568611,-8.835907 -7.035791 -1.838575,-8.288436 -6.406833 -1.36495,-8.164047 -5.680961 -0.9432454,-8.467671 -5.295866 -0.6054209,-8.533389 -4.760591 -2.142261,-8.291536 -3.877843 -1.493431,-8.102489 -3.463217 -0.969799,-7.923037 -3.060297 -0.6413492,-8.930751 -4.543187 -2.158092,-8.812966 -3.589705 -1.172398,-8.812768 -4.610218 -0.7165051,-8.857447 -5.365606 -0.7045075,-9.352216 -4.534782 -2.02206,-9.321383 -3.617456 -1.172536,-9.274466 -4.585311 -0.8541676,-9.278551 -5.309435 -0.9276285,-9.803559 -4.702907 -1.840494,-9.871735 -3.856603 -1.265793,-9.764487 -4.394985 -1.017817,-9.690678 -5.028524 -1.031127,2.410, 1 0
-2.801328 -6.744628 -0.62519,-3.410002 -6.613807 -0.3104294,-3.963548 -5.995405 -0.1678521,-4.384158 -5.38703 -0.0279758,-4.717634 -5.060102 0.1439072,-3.588085 -4.259765 -0.3848242,-3.866755 -3.173649 -0.2025678,-4.025668 -2.516506 -0.05175972,-4.154767 -1.909111 0.07701558,-3.244843 -3.9769 -0.3305542,-3.430731 -2.699215 -0.1340456,-3.430731 -2.699215 -0.1340456,-3.649899 -1.111416 0.2410567,-2.891786 -3.94412 -0.2257392,-3.004824 -2.690898 -0.01754105,-3.132843 -1.888288 0.153977,-3.26079 -1.214608 0.3207181,-2.521705 -4.156484 -0.07877147,-2.388914 -3.149883 0.1017546,-2.333112 -2.473741 0.2741206,-2.29952 -1.821163 0.4321404,-9.392426 -7.111525 -2.782498,-8.862004 -7.141702 -1.973204,-8.315053 -6.532794 -1.454909,-8.1877 -5.829545 -1.014282,-8.484735 -5.396813 -0.6590631,-8.522886 -4.873693 -2.200207,-8.269719 -3.961393 -1.517166,-8.088133 -3.486426 -0.9990476,-7.908381 -3.037445 -0.6666017,-8.92442 -4.646595 -2.247691,-8.813891 -3.716262 -1.205089,-8.826816 -4.740839 -0.7906588,-8.859644 -5.480529 -0.826345,-9.349985 -4.62351 -2.137685,-9.32476 -3.728426 -1.230239,-9.285322 -4.700885 -0.9134012,-9.278074 -5.419345 -0.9986027,-9.794406 -4.764282 -1.977382,-9.859883 -3.931024 -1.358023,-9.761419 -4.469426 -1.09157,-9.681248 -5.088094 -1.088519,2.510, 1 0
-2.839224 -6.947364 -0.07923273,-3.455423 -6.762458 0.1011491,-4.009487 -6.032796 0.1493292,-4.395338 -5.449008 0.214418,-4.761795 -5.186653 0.3141191,-3.645566 -4.203794 0.04413292,-3.887735 -3.167694 0.174357,-4.042033 -2.408856 0.3686024,-4.164742 -1.758869 0.5738471,-3.309757 -4.018711 0.1411889,-3.488794 -2.765548 0.35356,-3.488794 -2.765548 0.35356,-3.687941 -1.07897 0.7717406,-2.968442 -4.082695 0.2752796,-3.087065 -2.79863 0.4676275,-3.157266 -2.004842 0.633995,-3.219419 -1.284698 0.7528815,-2.619696 -4.398937 0.4126116,-2.540921 -3.480595 0.6807677,-2.491943 -2.89048 0.842402,-2.424862 -2.272505 0.9054505,-9.404984 -7.142519 -2.894226,-8.85912 -7.178769 -2.133799,-8.298159 -6.575485 -1.648117,-8.186202 -5.858131 -1.235724,-8.508074 -5.467366 -0.9145707,-8.526113 -4.945525 -2.355631,-8.271877 -4.023479 -1.673558,-8.083208 -3.555332 -1.162143,-7.901391 -3.096753 -0.8419849,-8.925409 -4.706377 -2.390923,-8.811496 -3.778081 -1.352163,-8.828972 -4.798379 -0.9416234,-8.869259 -5.522819 -0.9855723,-9.351951 -4.668499 -2.274498,-9.321323 -3.783817 -1.365523,-9.290953 -4.755731 -1.063544,-9.29272 -5.470993 -1.154627,-9.806136 -4.795917 -2.107175,-9.8641 -3.963502 -1.49497,-9.76396 -4.504465 -1.226594,-9.682927 -5.124824 -1.221088,2.610, 1 0
-2.824635 -6.961034 -0.06755918,-3.45643 -6.820739 0.09584564,-4.020087 -6.079607 0.1281545,-4.398002 -5.472037 0.1802418,-4.748352 -5.162344 0.2629917,-3.667247 -4.228319 0.09941162,-3.905624 -3.150343 0.2156517,-4.05953 -2.443695 0.3947639,-4.176453 -1.807395 0.5803638,-3.323978 -4.034584 0.1622022,-3.470942 -2.751915 0.3665815,-3.470942 -2.751915 0.3665815,-3.635269 -1.10573 0.787003,-2.974124 -4.096502 0.2627696,-3.069635 -2.808952 0.4432678,-3.12462 -2.023052 0.5800325,-3.163677 -1.279735 0.7162284,-2.612079 -4.390071 0.359749,-2.513113 -3.448228 0.6144804,-2.477965 -2.86614 0.759058,-2.421196 -2.254132 0.8443314,-9.416801 -7.243213 -2.827389,-8.88695 -7.274508 -2.038596,-8.331455 -6.680149 -1.512014,-8.216419 -6.001631 -1.076102,-8.533596 -5.632329 -0.7148641,-8.560117 -5.06734 -2.107241,-8.293103 -4.170248 -1.416361,-8.094308 -3.732782 -0.8927695,-7.904072 -3.323682 -0.5411309,-8.968661 -4.825681 -2.141922,-8.849135 -3.913404 -1.108417,-8.861745 -4.935537 -0.7028099,-8.89767 -5.672256 -0.6918861,-9.40481 -4.791584 -2.036398,-9.365539 -3.917919 -1.120061,-9.328013 -4.890179 -0.8034886,-9.328383 -5.610664 -0.8497869,-9.861692 -4.919721 -1.884264,-9.916644 -4.106275 -1.235497,-9.812363 -4.664772 -0.9456335,-9.722314 -5.282691 -0.8917896,2.710, 1 0
-2.714489 -6.937585 -0.07911842,-3.351684 -6.714289 0.1522557,-3.931519 -6.064419 0.2734123,-4.360623 -5.44037 0.4127917,-4.709328 -5.110735 0.5923078,-3.547029 -4.274677 0.001947977,-3.844481 -3.169623 0.1504576,-4.004271 -2.501881 0.2835225,-4.126333 -1.87181 0.4032099,-3.210117 -4.009855 0.09224941,-3.410774 -2.700149 0.2332418,-3.410774 -2.700149 0.2332418,-3.630672 -1.18037 0.5716572,-2.868153 -3.986513 0.2390471,-2.984911 -2.701028 0.4031731,-3.106638 -1.91034 0.5452802,-3.227947 -1.2377 0.6897992,-2.500925 -4.200116 0.4315239,-2.378698 -3.2078 0.5802412,-2.326597 -2.544477 0.725199,-2.296519 -1.910681 0.8650209,-9.471232 -7.336065 -2.869364,-8.938044 -7.418571 -2.010196,-8.38353 -6.876991 -1.446467,-8.239977 -6.228901 -0.984763,-8.523498 -5.814445 -0.5803589,-8.575407 -5.195155 -2.050364,-8.29521 -4.299505 -1.3216,-8.072619 -3.878952 -0.759102,-7.855532 -3.516208 -0.3707427,-8.997896 -4.960425 -2.10367,-8.86419 -4.036767 -1.030427,-8.870373 -5.063951 -0.5831414,-8.908161 -5.830272 -0.525097,-9.450106 -4.938041 -2.008329,-9.400059 -4.039838 -1.016477,-9.36005 -5.010162 -0.6375355,-9.35708 -5.76181 -0.6407276,-9.918032 -5.058214 -1.877693,-9.967496 -4.240609 -1.147752,-9.870429 -4.808145 -0.8142956,-9.779111 -5.437572 -0.7182466,2.810, 1 0
-2.720197 -6.95466 -0.0543755,-3.351822 -6.74006 0.1675691,-3.937078 -6.076709 0.2770779,-4.372666 -5.442271 0.4088389,-4.716681 -5.104393 0.5679702,-3.569216 -4.302821 -0.002532221,-3.856386 -3.2177 0.1453212,-4.012688 -2.57057 0.2862305,-4.138803 -1.950676 0.4183726,-3.226168 -4.020068 0.09079838,-3.416594 -2.73022 0.2224068,-3.416594 -2.73022 0.2224068,-3.62521 -1.198865 0.5742248,-2.877194 -3.98862 0.2355411,-2.994005 -2.727659 0.3923075,-3.114855 -1.942258 0.5326996,-3.235395 -1.285158 0.6740732,-2.503183 -4.208199 0.4308311,-2.387979 -3.22326 0.579726,-2.338998 -2.550328 0.7201698,-2.30882 -1.910307 0.8415725,-9.471134 -7.449126 -2.81655,-8.932325 -7.509054 -1.957141,-8.375061 -6.991342 -1.372926,-8.244674 -6.374613 -0.8939774,-8.534372 -5.959334 -0.4719994,-8.583468 -5.288175 -1.986959,-8.318344 -4.376605 -1.224715,-8.083776 -3.971481 -0.6325324,-7.844866 -3.613299 -0.2279763,-9.008475 -5.060665 -2.034408,-8.875001 -4.106718 -0.9261509,-8.872328 -5.179352 -0.4489074,-8.904521 -5.951293 -0.3837676,-9.466286 -5.037781 -1.931857,-9.415173 -4.135749 -0.9451675,-9.366589 -5.138988 -0.5550065,-9.367633 -5.885751 -0.5629985,-9.946648 -5.153251 -1.789405,-9.991248 -4.322074 -1.09132,-9.887828 -4.91254 -0.7767472,-9.807248 -5.559041 -0.699523,2.910, 1 0
-2.798303 -6.90699 -0.2275091,-3.436427 -6.797622 -0.1120182,-3.99666 -6.022104 -0.1057291,-4.384401 -5.445489 -0.08646204,-4.74099 -5.23578 -0.01849735,-3.663683 -4.2304 -0.1170501,-3.904368 -3.157827 -0.03284504,-4.043919 -2.466806 0.1297947,-4.147913 -1.846035 0.2912253,-3.312959 -4.026391 -0.04558702,-3.4823 -2.74217 0.1303258,-3.4823 -2.74217 0.1303258,-3.645209 -1.091235 0.5085475,-2.955148 -4.07431 0.0584642,-3.0758 -2.772321 0.2315732,-3.14703 -1.985819 0.3557457,-3.199572 -1.259828 0.4833759,-2.594122 -4.348272 0.1494187,-2.490985 -3.394614 0.4070287,-2.456831 -2.800905 0.5316545,-2.406652 -2.199743 0.5920721,-9.476189 -7.530935 -2.733156,-8.934809 -7.571521 -1.860739,-8.378135 -7.041389 -1.258686,-8.237078 -6.411426 -0.7543246,-8.519984 -5.999389 -0.2979809,-8.586141 -5.350192 -1.847994,-8.309248 -4.442763 -1.067058,-8.074378 -4.021401 -0.4633673,-7.846666 -3.666044 -0.04401004,-9.021366 -5.138939 -1.882002,-8.896423 -4.180385 -0.7449936,-8.879994 -5.216974 -0.245463,-8.908271 -5.994258 -0.1471411,-9.482428 -5.132352 -1.773214,-9.440122 -4.195047 -0.7370104,-9.381851 -5.161556 -0.3075551,-9.380572 -5.929443 -0.2821747,-9.95605 -5.263463 -1.626646,-10.01769 -4.381813 -0.8862399,-9.912462 -4.904236 -0.5316337,-9.826741 -5.541215 -0.4186553,3.010, 1 0
-2.697146 -6.936813 -0.1068811,-3.346669 -6.705307 0.1251413,-3.938135 -6.086224 0.2636306,-4.368931 -5.465003 0.4232212,-4.685493 -5.094062 0.6062815,-3.55978 -4.283018 -0.05599773,-3.860499 -3.180752 0.09993422,-4.030157 -2.510557 0.2214244,-4.162004 -1.878086 0.3306603,-3.223383 -4.020751 0.02987614,-3.432005 -2.705156 0.1753285,-3.432005 -2.705156 0.1753285,-3.659618 -1.151163 0.5108917,-2.88113 -3.993819 0.188995,-3.005737 -2.716823 0.3390839,-3.108982 -1.916213 0.4984438,-3.213093 -1.228665 0.6470299,-2.50811 -4.197971 0.3848655,-2.390736 -3.203135 0.525488,-2.336066 -2.553068 0.6778886,-2.30175 -1.931976 0.8082205,-9.474781 -7.62095 -2.506776,-8.932754 -7.652902 -1.618403,-8.355783 -7.143639 -0.9917171,-8.216565 -6.540847 -0.4772992,-8.54748 -6.158477 -0.03112221,-8.577613 -5.423176 -1.565724,-8.300554 -4.53686 -0.7102557,-8.077682 -4.152194 -0.07122517,-7.855935 -3.794247 0.3570766,-9.020568 -5.172537 -1.618172,-8.900846 -4.254052 -0.4504142,-8.915393 -5.397119 -0.006015062,-8.953587 -6.179815 0.03030682,-9.493577 -5.143825 -1.52091,-9.46459 -4.273555 -0.4810889,-9.427349 -5.346523 -0.1327674,-9.431841 -6.106166 -0.1758273,-9.976849 -5.270898 -1.380069,-10.04049 -4.454718 -0.6530881,-9.937414 -5.103395 -0.3526819,-9.848407 -5.757131 -0.298816,3.110, 1 0
-2.684166 -6.979166 0.01940008,-3.335973 -6.744526 0.2402673,-3.931616 -6.111146 0.3783112,-4.378183 -5.480413 0.5433311,-4.691906 -5.080057 0.7348632,-3.549376 -4.300486 0.03575057,-3.852406 -3.20842 0.1831999,-4.022811 -2.54454 0.2921655,-4.154739 -1.918564 0.3947497,-3.218461 -4.026529 0.1239537,-3.432755 -2.707181 0.2459987,-3.432755 -2.707181 0.2459987,-3.660345 -1.176275 0.5643125,-2.88319 -4.002337 0.2807294,-3.005421 -2.710186 0.422914,-3.116827 -1.915442 0.5757785,-3.231379 -1.236016 0.7210956,-2.514591 -4.223717 0.477976,-2.387547 -3.237583 0.6075364,-2.331514 -2.588933 0.7579721,-2.295072 -1.965245 0.8846933,-9.467007 -7.678578 -2.398753,-8.921568 -7.674222 -1.526552,-8.343137 -7.150318 -0.8945227,-8.203618 -6.557449 -0.3692141,-8.538055 -6.210342 0.08085465,-8.565984 -5.438205 -1.463425,-8.292146 -4.546026 -0.6074265,-8.062181 -4.168921 0.02788973,-7.844038 -3.82108 0.4482291,-9.0137 -5.198562 -1.50491,-8.907326 -4.260302 -0.3350747,-8.913461 -5.411874 0.098768,-8.944635 -6.190664 0.1170118,-9.488215 -5.183986 -1.39956,-9.466313 -4.298482 -0.3614447,-9.425092 -5.370237 -0.03518987,-9.430035 -6.117385 -0.09625888,-9.972387 -5.331457 -1.249039,-10.04612 -4.473345 -0.5242169,-9.939178 -5.107385 -0.2345259,-9.849329 -5.756637 -0.1944928,3.210, 1 0
-2.707023 -6.99942 0.09200928,-3.370966 -6.728319 0.2613723,-3.967704 -6.086732 0.3823542,-4.405472 -5.455004 0.5408583,-4.712355 -5.064204 0.7364378,-3.575351 -4.29059 0.02220498,-3.877436 -3.201911 0.1510923,-4.043505 -2.557173 0.255788,-4.172533 -1.933672 0.3488919,-3.242292 -4.024488 0.1369807,-3.459352 -2.706987 0.2560776,-3.459352 -2.706987 0.2560776,-3.701439 -1.194825 0.5866553,-2.903754 -4.003421 0.3241385,-3.024282 -2.70611 0.4571173,-3.135145 -1.927553 0.6082193,-3.250226 -1.246903 0.758149,-2.528003 -4.224258 0.5465265,-2.407947 -3.237041 0.6732081,-2.362012 -2.592437 0.8229209,-2.339403 -1.96635 0.9547413,-9.440392 -7.712123 -2.138033,-8.88085 -7.712613 -1.210955,-8.28266 -7.204132 -0.5327437,-8.138543 -6.62952 0.03444731,-8.489118 -6.312441 0.5326475,-8.53062 -5.46146 -1.02719,-8.236808 -4.57813 -0.1096083,-8.004973 -4.183015 0.5579392,-7.784866 -3.818413 1.004651,-9.001928 -5.218467 -1.066494,-8.877028 -4.295406 0.1841329,-8.883073 -5.477586 0.6290761,-8.91488 -6.310874 0.6603216,-9.493199 -5.209186 -0.9570713,-9.456744 -4.336856 0.1730064,-9.415138 -5.417014 0.5091771,-9.418303 -6.208501 0.4529876,-9.986959 -5.369853 -0.802279,-10.06592 -4.484111 -0.008976102,-9.96472 -5.083236 0.3127271,-9.873941 -5.744197 0.3879217,3.310, 1 0
-2.699556 -7.037136 0.1391166,-3.368283 -6.738276 0.3017516,-3.957977 -6.09399 0.4184901,-4.407026 -5.460989 0.578539,-4.720361 -5.069368 0.7765712,-3.564993 -4.309043 0.05177229,-3.877056 -3.224922 0.1899379,-4.044308 -2.587059 0.3003237,-4.17603 -1.964626 0.3965458,-3.240107 -4.049257 0.1760296,-3.45915 -2.742891 0.287933,-3.45915 -2.742891 0.287933,-3.690683 -1.227555 0.6082335,-2.905601 -4.030839 0.3697736,-3.029463 -2.740378 0.5014756,-3.141386 -1.959661 0.6421028,-3.25371 -1.281286 0.7852241,-2.533308 -4.257257 0.6021546,-2.403853 -3.263323 0.7316002,-2.349049 -2.609388 0.875513,-2.313182 -1.977066 0.994576,-9.446648 -7.735414 -1.926652,-8.87395 -7.718395 -0.9705053,-8.259042 -7.209152 -0.2371409,-8.162759 -6.683132 0.3729846,-8.552857 -6.422695 0.8815913,-8.546378 -5.482267 -0.6696901,-8.262165 -4.580104 0.3269486,-8.031272 -4.206231 1.004115,-7.827581 -3.871258 1.446283,-9.045642 -5.234469 -0.7105403,-8.949314 -4.317939 0.6233649,-8.960958 -5.54718 1.043291,-8.99318 -6.409746 1.047105,-9.54973 -5.236427 -0.6023662,-9.53933 -4.393513 0.5848124,-9.498962 -5.504257 0.8714318,-9.495036 -6.301954 0.7833998,-10.04139 -5.42118 -0.4469157,-10.14293 -4.527629 0.3742936,-10.04168 -5.144895 0.6792793,-9.937259 -5.813251 0.7397561,3.410, 1 0
-2.703777 -7.098519 0.2177776,-3.362867 -6.819574 0.3543644,-3.954939 -6.147748 0.448701,-4.401815 -5.512514 0.5928537,-4.726751 -5.137382 0.7699488,-3.575199 -4.346317 0.09719851,-3.881893 -3.262697 0.2345787,-4.048844 -2.610435 0.3378321,-4.174849 -1.982779 0.4259414,-3.252838 -4.089242 0.2371555,-3.462419 -2.773359 0.3513981,-3.462419 -2.773359 0.3513981,-3.689595 -1.247022 0.6536828,-2.916976 -4.072723 0.4488516,-3.029577 -2.772674 0.5824932,-3.134837 -1.985323 0.7181144,-3.242957 -1.308071 0.8491232,-2.54196 -4.300703 0.6971557,-2.415121 -3.301925 0.8290522,-2.367705 -2.643245 0.9714712,-2.340335 -2.014491 1.085511,-9.539842 -7.795286 -1.626121,-8.956294 -7.791856 -0.6006943,-8.323037 -7.295141 0.1874603,-8.249249 -6.770801 0.8392851,-8.680819 -6.557024 1.369515,-8.646805 -5.518739 -0.1711483,-8.385278 -4.644035 0.9515808,-8.168866 -4.305626 1.661106,-7.995087 -4.062328 2.093454,-9.171669 -5.284604 -0.2313399,-9.114119 -4.399351 1.187805,-9.113729 -5.655794 1.613552,-9.124516 -6.555906 1.619576,-9.68737 -5.305528 -0.136495,-9.714426 -4.519212 1.122367,-9.664247 -5.650947 1.393808,-9.634759 -6.461643 1.300992,-10.18071 -5.519252 0.01270604,-10.31973 -4.599148 0.8655026,-10.21168 -5.21198 1.199118,-10.08003 -5.880373 1.277386,3.510, 1 0
-2.706923 -7.074475 0.1692598,-3.366367 -6.794592 0.3627885,-3.956139 -6.154499 0.5046547,-4.403824 -5.522445 0.6864254,-4.726563 -5.134948 0.9006236,-3.579159 -4.349351 0.1504363,-3.899055 -3.274358 0.3073805,-4.065705 -2.636359 0.4206445,-4.191834 -2.005398 0.5204352,-3.255276 -4.080688 0.2661716,-3.479347 -2.764724 0.3919101,-3.479347 -2.764724 0.3919101,-3.711361 -1.250645 0.7191399,-2.918775 -4.060779 0.4538539,-3.041183 -2.76542 0.5937039,-3.151247 -1.979597 0.7510902,-3.263084 -1.293189 0.9087536,-2.542176 -4.28881 0.6766174,-2.421281 -3.298305 0.8161189,-2.376573 -2.651052 0.9743311,-2.350527 -2.031476 1.105735,-9.543668 -7.779744 -1.608231,-8.984946 -7.81006 -0.5311445,-8.356737 -7.361569 0.2864367,-8.276974 -6.843088 0.9440539,-8.7181 -6.635108 1.491638,-8.685536 -5.604505 -0.006516814,-8.425324 -4.723672 1.170471,-8.2167 -4.36861 1.892823,-8.062344 -4.113335 2.312535,-9.210659 -5.327236 -0.09546614,-9.162979 -4.439609 1.351056,-9.181952 -5.715774 1.767134,-9.20943 -6.628368 1.761131,-9.732151 -5.307151 -0.02901423,-9.772564 -4.555325 1.253675,-9.737084 -5.735391 1.527752,-9.710523 -6.569391 1.442265,-10.2345 -5.484825 0.08974385,-10.38134 -4.58504 0.9690502,-10.27489 -5.280036 1.315864,-10.13823 -6.001995 1.404634,3.610, 1 0
-2.701274 -7.06706 0.09056097,-3.359339 -6.793789 0.2318019,-3.941582 -6.154172 0.3306627,-4.384193 -5.527077 0.4729942,-4.710583 -5.159467 0.6498636,-3.544727 -4.358617 -0.006257884,-3.87311 -3.283702 0.1259707,-4.053676 -2.661091 0.2326312,-4.192608 -2.046535 0.3257353,-3.23261 -4.09172 0.1326913,-3.459139 -2.776395 0.2585406,-3.459139 -2.776395 0.2585406,-3.699087 -1.264852 0.6061174,-2.906885 -4.066824 0.3400307,-3.030653 -2.768342 0.4869935,-3.145247 -1.98853 0.6448503,-3.257083 -1.297724 0.8000588,-2.540956 -4.285085 0.5840679,-2.418057 -3.299396 0.7223055,-2.369304 -2.654504 0.8694205,-2.336127 -2.02593 1.000874,-9.604755 -7.907472 -1.231037,-9.031734 -7.888544 -0.1281283,-8.368183 -7.395357 0.7202165,-8.313873 -6.92597 1.418285,-8.798852 -6.737449 1.971917,-8.723424 -5.577766 0.3118888,-8.476929 -4.759248 1.547484,-8.298717 -4.423303 2.296927,-8.175396 -4.194346 2.720055,-9.263117 -5.300207 0.2307495,-9.255292 -4.46911 1.709088,-9.273244 -5.788062 2.149402,-9.277874 -6.697134 2.138157,-9.796628 -5.28743 0.310675,-9.864518 -4.554443 1.604997,-9.828562 -5.775651 1.871617,-9.785601 -6.611406 1.767722,-10.3103 -5.489526 0.4599061,-10.47608 -4.650661 1.337042,-10.36114 -5.3722 1.672833,-10.21346 -6.082928 1.730506,3.710, 1 0
-2.686344 -7.083665 0.1534957,-3.355301 -6.79636 0.286043,-3.950145 -6.140721 0.3826271,-4.400627 -5.516359 0.5269709,-4.714459 -5.137682 0.7073036,-3.553961 -4.349652 0.03584483,-3.871567 -3.279842 0.1669792,-4.044873 -2.645876 0.2674009,-4.175768 -2.027988 0.3553631,-3.238649 -4.093692 0.1753336,-3.461374 -2.790542 0.2880427,-3.461374 -2.790542 0.2880427,-3.700313 -1.277671 0.5935061,-2.908826 -4.079332 0.3868614,-3.033426 -2.788552 0.5266911,-3.14727 -2.008084 0.6659119,-3.257046 -1.321824 0.8060562,-2.538618 -4.308803 0.632306,-2.415653 -3.32088 0.7690161,-2.371678 -2.670659 0.9126744,-2.343246 -2.041542 1.031951,-9.657182 -7.897516 -0.9868324,-9.088507 -7.943838 0.188923,-8.376215 -7.441863 1.093938,-8.391111 -7.057412 1.826229,-8.897816 -6.855607 2.377176,-8.761823 -5.644342 0.8155345,-8.551231 -4.830648 2.164279,-8.387733 -4.501535 2.939667,-8.305061 -4.367913 3.354537,-9.343822 -5.355278 0.7205777,-9.364123 -4.516521 2.288858,-9.384568 -5.849647 2.697538,-9.38973 -6.825439 2.666194,-9.901604 -5.343551 0.7802237,-9.991426 -4.619133 2.157582,-9.943651 -5.856164 2.399788,-9.886041 -6.725945 2.285582,-10.41652 -5.54347 0.9173663,-10.59054 -4.715486 1.857335,-10.48033 -5.420712 2.199762,-10.33034 -6.127443 2.270893,3.810, 1 0
-2.683813 -7.109155 0.1744869,-3.351287 -6.833032 0.3135877,-3.941191 -6.167045 0.4126964,-4.391579 -5.527683 0.5616543,-4.716523 -5.148967 0.7427624,-3.546146 -4.371342 0.07831822,-3.86908 -3.296039 0.2204114,-4.048994 -2.668443 0.3248347,-4.190389 -2.05705 0.409874,-3.232586 -4.112634 0.2159984,-3.454481 -2.807804 0.3351173,-3.454481 -2.807804 0.3351173,-3.696426 -1.300848 0.6578897,-2.903688 -4.095445 0.4209204,-3.026719 -2.803966 0.5635547,-3.143732 -2.0246 0.705365,-3.258262 -1.337751 0.8445796,-2.534307 -4.324939 0.6622685,-2.412907 -3.338787 0.7910376,-2.368195 -2.699775 0.9204496,-2.337639 -2.087806 1.02782,-9.759599 -7.967325 -0.5179644,-9.181748 -8.018089 0.6853542,-8.463531 -7.55307 1.628233,-8.444557 -7.150754 2.384001,-8.958887 -6.93281 2.982994,-8.854224 -5.752792 1.508216,-8.628305 -4.908504 2.887179,-8.501432 -4.548971 3.671552,-8.463745 -4.443943 4.091868,-9.441053 -5.405033 1.392942,-9.476832 -4.59517 2.961862,-9.524466 -5.943392 3.345063,-9.530435 -6.98228 3.336639,-10.01498 -5.353242 1.423601,-10.12623 -4.673822 2.791424,-10.1005 -5.925062 2.986241,-10.02811 -6.823486 2.869628,-10.55615 -5.526245 1.531822,-10.74983 -4.678684 2.478919,-10.63016 -5.455123 2.800083,-10.45069 -6.223238 2.878343,3.910, 1 0
-2.676583 -7.104612 0.1786818,-3.342701 -6.834922 0.3480495,-3.941533 -6.182384 0.4632121,-4.392063 -5.540214 0.6196821,-4.715011 -5.152108 0.8089409,-3.55601 -4.376311 0.1188169,-3.878916 -3.299429 0.2620961,-4.052452 -2.664882 0.3645258,-4.186335 -2.049818 0.4499985,-3.23621 -4.109113 0.2352122,-3.461524 -2.801487 0.3551194,-3.461524 -2.801487 0.3551194,-3.689642 -1.284552 0.6714595,-2.901561 -4.087312 0.4202458,-3.029913 -2.796271 0.5580364,-3.140077 -2.014602 0.7011206,-3.251637 -1.331741 0.8391391,-2.526438 -4.312251 0.642973,-2.408183 -3.323114 0.7736486,-2.35833 -2.677792 0.914785,-2.325387 -2.061706 1.029685,-9.813077 -7.971863 -0.4319706,-9.2236 -8.021887 0.8143327,-8.496533 -7.529571 1.766799,-8.483831 -7.11684 2.535688,-9.027704 -6.88422 3.147769,-8.903629 -5.717351 1.604356,-8.680923 -4.896686 3.032508,-8.547428 -4.550304 3.847242,-8.514745 -4.471851 4.282132,-9.49608 -5.381055 1.482219,-9.535408 -4.622909 3.122118,-9.570188 -5.956501 3.558257,-9.570706 -6.974912 3.575282,-10.06775 -5.337572 1.506531,-10.18176 -4.693077 2.957206,-10.15551 -5.920003 3.186452,-10.08853 -6.804761 3.070059,-10.60668 -5.513752 1.613532,-10.81398 -4.655349 2.6058,-10.7174 -5.379684 2.94781,-10.55847 -6.128777 3.015884,4.010, 1 0
-2.681553 -7.109363 0.1949829,-3.347347 -6.825437 0.3428194,-3.937143 -6.163688 0.4571388,-4.392427 -5.523087 0.6217415,-4.717539 -5.132523 0.8241814,-3.551786 -4.370016 0.1113911,-3.873446 -3.296301 0.2578579,-4.047935 -2.664011 0.3694296,-4.178267 -2.046099 0.4618405,-3.238939 -4.108616 0.2441693,-3.466927 -2.804536 0.3619269,-3.466927 -2.804536 0.3619269,-3.696969 -1.293386 0.6918346,-2.908032 -4.091003 0.4430295,-3.041557 -2.799853 0.5841179,-3.158314 -2.02302 0.7302858,-3.269803 -1.341337 0.8748802,-2.534214 -4.317235 0.6788784,-2.408547 -3.335557 0.8110124,-2.355293 -2.694105 0.9451463,-2.315844 -2.079169 1.058547,-9.883898 -7.976182 -0.3335517,-9.291281 -8.021275 0.9318864,-8.588235 -7.574441 1.89977,-8.571832 -7.160804 2.669697,-9.086547 -6.919067 3.307515,-8.960091 -5.747663 1.766394,-8.749938 -4.893367 3.194605,-8.639287 -4.530021 4.024956,-8.623839 -4.436286 4.466489,-9.565386 -5.381998 1.623021,-9.630118 -4.555564 3.264548,-9.663285 -5.928909 3.696003,-9.644258 -7.005029 3.710265,-10.15325 -5.312465 1.623656,-10.3023 -4.634285 3.056806,-10.26474 -5.915377 3.292712,-10.16792 -6.861615 3.184001,-10.7066 -5.467823 1.704711,-10.93292 -4.635707 2.703191,-10.82033 -5.425505 3.040318,-10.63245 -6.226568 3.113614,4.110, 1 0
-2.691269 -7.101579 0.1569592,-3.355577 -6.822692 0.3275648,-3.943607 -6.177709 0.4496422,-4.388621 -5.547356 0.6117314,-4.702717 -5.169567 0.8063603,-3.557135 -4.375349 0.1028216,-3.880074 -3.298901 0.2467921,-4.052673 -2.668708 0.3531019,-4.186367 -2.050362 0.4449457,-3.239084 -4.110349 0.2193376,-3.458854 -2.799619 0.3382236,-3.458854 -2.799619 0.3382236,-3.681463 -1.291905 0.6685897,-2.907207 -4.085895 0.4032348,-3.035685 -2.806876 0.5434798,-3.146577 -2.028323 0.6922877,-3.257302 -1.349761 0.8404244,-2.537826 -4.306987 0.6234537,-2.412548 -3.331121 0.7544396,-2.355617 -2.6956 0.891988,-2.313291 -2.08557 1.00949,-9.902626 -8.005953 -0.1367944,-9.317435 -8.014229 1.142948,-8.599814 -7.5408 2.149536,-8.640712 -7.183808 2.952467,-9.19418 -6.952632 3.572776,-9.010835 -5.701527 1.972756,-8.804028 -4.838073 3.470867,-8.693284 -4.509414 4.314601,-8.688185 -4.468519 4.746396,-9.626836 -5.340882 1.825606,-9.694701 -4.533911 3.494782,-9.733064 -5.942571 3.874143,-9.722944 -7.009634 3.833001,-10.22045 -5.28577 1.831578,-10.37052 -4.627629 3.290462,-10.33711 -5.952228 3.468055,-10.25389 -6.888628 3.309515,-10.77484 -5.455788 1.922342,-10.9993 -4.610271 2.922471,-10.88524 -5.426725 3.233842,-10.70711 -6.227199 3.263025,4.210, 1 0
-2.663222 -7.119519 0.1865294,-3.327705 -6.850215 0.3357163,-3.9189 -6.194622 0.4394743,-4.372512 -5.561491 0.5912926,-4.69232 -5.175424 0.7754443,-3.530431 -4.380476 0.08007287,-3.854192 -3.311672 0.2080729,-4.033415 -2.679717 0.3074827,-4.168997 -2.068202 0.3941827,-3.222038 -4.121159 0.2102419,-3.453218 -2.818937 0.3146536,-3.453218 -2.818937 0.3146536,-3.691404 -1.30068 0.6424842,-2.894742 -4.097244 0.4064437,-3.030358 -2.811569 0.5373108,-3.147736 -2.027772 0.6817838,-3.260231 -1.34038 0.8232641,-2.526154 -4.315398 0.6407293,-2.403773 -3.33334 0.7650344,-2.348144 -2.688142 0.8950623,-2.304438 -2.066924 1.005488,-9.943324 -8.094343 0.2103773,-9.335796 -8.081636 1.562813,-8.611646 -7.592256 2.602963,-8.66666 -7.228531 3.437658,-9.264454 -6.985698 4.060892,-9.070133 -5.699146 2.401548,-8.874593 -4.808741 3.968083,-8.774952 -4.490787 4.846807,-8.77059 -4.480881 5.289589,-9.702943 -5.342472 2.227468,-9.796019 -4.620565 3.968992,-9.811988 -6.08847 4.354875,-9.767153 -7.165771 4.305084,-10.30092 -5.303556 2.211222,-10.47011 -4.690733 3.716596,-10.41748 -6.052184 3.888763,-10.30522 -6.991437 3.713233,-10.85223 -5.48596 2.289459,-11.10774 -4.639383 3.321762,-10.98377 -5.468364 3.647291,-10.77927 -6.265365 3.669876,4.310, 1 0
-2.641244 -7.126945 0.1922468,-3.316042 -6.852323 0.2947776,-3.904167 -6.196098 0.3748605,-4.348407 -5.574653 0.5022426,-4.685732 -5.222036 0.6581515,-3.522894 -4.38101 0.05038783,-3.830474 -3.282285 0.1614071,-4.004745 -2.64349 0.254249,-4.13529 -2.031817 0.3354877,-3.207702 -4.128263 0.2018013,-3.418461 -2.810244 0.2965006,-3.418461 -2.810244 0.2965006,-3.647253 -1.305438 0.5907232,-2.877394 -4.098981 0.4131049,-3.000751 -2.800856 0.5315279,-3.111466 -2.018759 0.654653,-3.218537 -1.339585 0.7789414,-2.504417 -4.307731 0.6652892,-2.382836 -3.305177 0.7803736,-2.33598 -2.656803 0.8990911,-2.301097 -2.039598 1.006993,-9.953134 -8.113068 0.2222931,-9.335415 -8.077934 1.488864,-8.600761 -7.526725 2.485947,-8.664011 -7.212953 3.308142,-9.268292 -7.007976 3.931273,-9.072288 -5.632164 2.280806,-8.864074 -4.779178 3.766036,-8.769622 -4.435351 4.598528,-8.755511 -4.389438 5.030361,-9.704717 -5.29209 2.146562,-9.760916 -4.583772 3.843461,-9.784947 -6.018582 4.282604,-9.74491 -7.132427 4.260526,-10.30216 -5.259876 2.167263,-10.43943 -4.647439 3.624069,-10.39706 -5.973129 3.854132,-10.28935 -6.953496 3.706828,-10.86201 -5.44864 2.276186,-11.10624 -4.589237 3.291042,-10.97927 -5.378692 3.641044,-10.76455 -6.209917 3.671667,4.410, 1 0
-2.627171 -7.153116 0.1780486,-3.296387 -6.887835 0.296761,-3.870492 -6.225584 0.3733434,-4.316471 -5.591436 0.5015882,-4.646858 -5.230653 0.6609304,-3.469437 -4.401062 0.02167864,-3.794294 -3.320186 0.1248967,-3.97398 -2.683205 0.2047848,-4.104372 -2.078436 0.2761854,-3.15686 -4.15198 0.1508437,-3.379425 -2.841982 0.2364609,-3.379425 -2.841982 0.2364609,-3.608841 -1.327566 0.5220867,-2.831405 -4.126959 0.3470708,-2.956585 -2.840114 0.4569569,-3.073978 -2.058555 0.5787627,-3.182106 -1.37766 0.7025123,-2.468503 -4.33926 0.5792518,-2.340478 -3.357683 0.696023,-2.287444 -2.712324 0.8165703,-2.242424 -2.098354 0.9170349,-9.772202 -8.028223 -0.7788975,-9.158587 -7.852148 0.2699407,-8.571276 -7.361337 1.095181,-8.454497 -6.813052 1.815365,-8.907645 -6.57534 2.444173,-8.911557 -5.43812 0.5884196,-8.685018 -4.473794 1.693458,-8.508471 -4.050302 2.411355,-8.371204 -3.703002 2.876663,-9.462022 -5.197786 0.5391256,-9.379746 -4.238733 2.014035,-9.355206 -5.570804 2.615796,-9.376104 -6.550491 2.698836,-10.00228 -5.187969 0.6419349,-10.01058 -4.288115 1.876733,-9.932489 -5.493404 2.231811,-9.90186 -6.385377 2.151702,-10.54406 -5.402063 0.8021687,-10.73475 -4.388729 1.656143,-10.57298 -5.032371 1.993296,-10.40874 -5.794891 2.0322,4.510, 1 0
-2.597255 -7.150545 0.2002939,-3.267818 -6.882804 0.3185998,-3.855987 -6.217079 0.401233,-4.301021 -5.578168 0.5326794,-4.641279 -5.211619 0.7031695,-3.48465 -4.411294 0.04780354,-3.793858 -3.343915 0.1496608,-3.965774 -2.706817 0.2272026,-4.09279 -2.095342 0.3013808,-3.17091 -4.150891 0.1858649,-3.391583 -2.865783 0.2701411,-3.391583 -2.865783 0.2701411,-3.623825 -1.357477 0.5600387,-2.840803 -4.130798 0.3944945,-2.976177 -2.847213 0.5077131,-3.094465 -2.06752 0.6441427,-3.204755 -1.378733 0.782059,-2.468142 -4.356126 0.6393032,-2.356809 -3.373353 0.755055,-2.310105 -2.726401 0.8959596,-2.273015 -2.101986 1.019044,-9.684565 -7.928867 -0.9036536,-9.076949 -7.727901 0.06583804,-8.504136 -7.177366 0.8128712,-8.391836 -6.56352 1.473421,-8.786867 -6.27685 2.027073,-8.831255 -5.304975 0.2671214,-8.591534 -4.339958 1.323323,-8.396724 -3.834534 2.022474,-8.245568 -3.33598 2.479404,-9.356779 -5.061643 0.2337947,-9.272575 -4.039175 1.600462,-9.247297 -5.318347 2.159499,-9.302472 -6.217214 2.225041,-9.87751 -5.041439 0.3466028,-9.886465 -4.068654 1.477448,-9.827076 -5.247138 1.81558,-9.833982 -6.10497 1.73299,-10.40446 -5.248983 0.5178982,-10.56923 -4.237079 1.279685,-10.42556 -4.833837 1.556038,-10.3085 -5.568272 1.551926,4.610, 1 0
-2.626529 -7.156951 0.1738116,-3.291803 -6.90446 0.2696215,-3.869556 -6.236066 0.3260331,-4.316691 -5.600071 0.4339508,-4.645516 -5.239288 0.5714392,-3.484328 -4.416233 -0.02776004,-3.801079 -3.336102 0.07194772,-3.978218 -2.685183 0.1676459,-4.107512 -2.060635 0.2534201,-3.173426 -4.160577 0.1137964,-3.381643 -2.854455 0.1886501,-3.381643 -2.854455 0.1886501,-3.594948 -1.319419 0.4815775,-2.844974 -4.131702 0.3226874,-2.966071 -2.850622 0.4268924,-3.079107 -2.061168 0.5470862,-3.183165 -1.381849 0.6708178,-2.478206 -4.338746 0.5680768,-2.356482 -3.354046 0.675294,-2.309 -2.704134 0.7929683,-2.272162 -2.093093 0.892173,-9.576508 -7.55231 -1.363078,-8.97326 -7.379299 -0.4895546,-8.430019 -6.803609 0.1824963,-8.288845 -6.146497 0.8067975,-8.610522 -5.748857 1.347467,-8.72601 -4.898931 -0.5604572,-8.514178 -3.857677 0.3544705,-8.327656 -3.354577 1.053236,-8.16941 -2.878513 1.489772,-9.203369 -4.71351 -0.570989,-9.139068 -3.62339 0.6781347,-9.09161 -4.838773 1.219005,-9.115018 -5.690063 1.252734,-9.6982 -4.75016 -0.4335114,-9.702193 -3.731193 0.6000205,-9.624268 -4.863854 0.944273,-9.619592 -5.673788 0.8303058,-10.20707 -4.988904 -0.2496248,-10.32359 -3.991998 0.4530122,-10.17506 -4.572935 0.6823859,-10.06842 -5.260786 0.6138904,4.710, 1 0
-2.637656 -7.196655 0.1610433,-3.300835 -6.925405 0.3004366,-3.886663 -6.25648 0.386099,-4.329598 -5.605087 0.513906,-4.650045 -5.210155 0.6728282,-3.511077 -4.467464 0.02041663,-3.814544 -3.376009 0.1489217,-3.983339 -2.72686 0.25002,-4.109546 -2.108335 0.3379413,-3.191704 -4.204739 0.1469622,-3.39975 -2.889704 0.248003,-3.39975 -2.889704 0.248003,-3.617165 -1.356227 0.548071,-2.8546 -4.175703 0.3484291,-2.989997 -2.893834 0.4801453,-3.102388 -2.098124 0.6157924,-3.209167 -1.402055 0.7527916,-2.47586 -4.385994 0.5820906,-2.364551 -3.396766 0.7041128,-2.313389 -2.744876 0.8391957,-2.274981 -2.127698 0.9522861,-9.532187 -7.320446 -1.674477,-8.943977 -7.241687 -0.8068243,-8.375092 -6.592414 -0.1957216,-8.253216 -5.898894 0.3662111,-8.602322 -5.547367 0.8447741,-8.691728 -4.736613 -0.9890932,-8.477543 -3.732841 -0.1737068,-8.315967 -3.191238 0.4570199,-8.17133 -2.659848 0.8583251,-9.156518 -4.543567 -1.001222,-9.094947 -3.46513 0.2088954,-9.044377 -4.639053 0.7332672,-9.062478 -5.503783 0.7390486,-9.642607 -4.576325 -0.8574831,-9.65763 -3.573452 0.1667067,-9.565214 -4.678087 0.5105389,-9.543684 -5.498315 0.3942477,-10.14578 -4.815373 -0.6615001,-10.27099 -3.867857 0.03994441,-10.119 -4.436447 0.2890056,-10.00284 -5.125726 0.2352703,4.810, 1 0
-2.635735 -7.187395 0.1155149,-3.31459 -6.941635 0.233913,-3.902815 -6.275516 0.2989672,-4.353628 -5.649331 0.4095291,-4.676304 -5.275884 0.5459952,-3.518337 -4.464942 -0.04788427,-3.828547 -3.35935 0.06156232,-4.002201 -2.702025 0.1568225,-4.132427 -2.081018 0.2405836,-3.200226 -4.210721 0.08928169,-3.408594 -2.882657 0.1765866,-3.408594 -2.882657 0.1765866,-3.630128 -1.334921 0.4788064,-2.86445 -4.183452 0.2947796,-2.991671 -2.88356 0.4231503,-3.105714 -2.079935 0.5562615,-3.214239 -1.391459 0.6913978,-2.489142 -4.391098 0.5345799,-2.370298 -3.398518 0.652096,-2.321765 -2.744358 0.7769516,-2.283934 -2.129634 0.8816143,-9.356091 -7.143919 -1.954719,-8.788468 -7.065811 -1.216606,-8.296554 -6.370423 -0.6267245,-8.16179 -5.633165 -0.07185853,-8.419148 -5.160824 0.4230076,-8.608784 -4.605918 -1.273191,-8.40565 -3.410467 -0.6210327,-8.233003 -2.704573 -0.0809406,-8.08746 -2.118194 0.344494,-9.04506 -4.454918 -1.23166,-8.953251 -3.15722 -0.2247431,-8.869263 -4.079444 0.2321681,-8.893616 -4.904537 0.304768,-9.500084 -4.519961 -1.06282,-9.487199 -3.305341 -0.214096,-9.370237 -4.159782 0.1524295,-9.354012 -4.969535 0.1527675,-9.975755 -4.751654 -0.8605647,-10.08103 -3.699653 -0.2089159,-9.92391 -4.013111 0.07440364,-9.823876 -4.640117 0.1127187,4.910, 1 0
-2.639385 -7.177789 0.08055633,-3.319572 -6.912658 0.2264478,-3.908943 -6.265821 0.3147926,-4.356171 -5.63664 0.4431008,-4.679636 -5.25941 0.5889661,-3.50757 -4.461008 -0.006770164,-3.822917 -3.34307 0.1222592,-3.998114 -2.687397 0.2265247,-4.134235 -2.062209 0.3158907,-3.184774 -4.207782 0.1134725,-3.400602 -2.874065 0.2249655,-3.400602 -2.874065 0.2249655,-3.624454 -1.333177 0.542307,-2.848051 -4.180208 0.3034207,-2.986147 -2.886193 0.4492141,-3.098708 -2.091335 0.5867519,-3.207769 -1.400944 0.7260513,-2.473258 -4.385606 0.5251586,-2.36179 -3.398021 0.6588058,-2.312179 -2.753008 0.7891379,-2.273048 -2.139841 0.9004868,-9.364814 -7.120531 -1.917256,-8.732262 -7.042835 -1.317649,-8.174523 -6.280582 -0.8147011,-8.003755 -5.463237 -0.3316523,-8.286656 -4.921915 0.05418062,-8.60746 -4.503444 -1.42944,-8.418579 -3.240323 -0.9278476,-8.25894 -2.419007 -0.4653239,-8.118101 -1.760357 -0.07054591,-9.04917 -4.383001 -1.354689,-9.000315 -2.973695 -0.5718292,-8.89855 -3.641269 -0.09763694,-8.892276 -4.388038 0.05019104,-9.494623 -4.457002 -1.196652,-9.501025 -3.10255 -0.5067066,-9.389194 -3.788966 -0.1342524,-9.377912 -4.579286 -0.0697124,-9.961142 -4.691673 -1.017657,-10.05467 -3.565809 -0.4512202,-9.909717 -3.804044 -0.1964742,-9.820725 -4.406961 -0.1583208,5.010, 1 0
-2.633249 -7.178059 0.07661528,-3.310001 -6.907405 0.2257407,-3.896379 -6.26721 0.3224265,-4.348413 -5.631141 0.4583221,-4.663697 -5.223831 0.6226945,-3.501329 -4.465482 -0.02481834,-3.820597 -3.362361 0.09379124,-3.991737 -2.707664 0.1809163,-4.120221 -2.079542 0.2591347,-3.185516 -4.210281 0.08890358,-3.396576 -2.880006 0.195545,-3.396576 -2.880006 0.195545,-3.613975 -1.331005 0.5053971,-2.853998 -4.183506 0.2750224,-2.977669 -2.887447 0.4014324,-3.085901 -2.090561 0.5343844,-3.190366 -1.392618 0.673234,-2.482162 -4.3939 0.4908056,-2.354624 -3.403087 0.6149834,-2.301654 -2.749653 0.7525035,-2.258962 -2.12664 0.8643713,-9.340408 -7.231782 -1.17342,-8.689226 -7.118691 -0.553206,-8.133732 -6.313797 -0.1813371,-7.926296 -5.518067 0.1450567,-8.149458 -4.971153 0.3489102,-8.65269 -4.297769 -0.8999392,-8.50837 -3.070968 -0.4851459,-8.407854 -2.198667 -0.05018365,-8.344306 -1.585908 0.3177267,-9.090735 -4.232151 -0.8731524,-9.100976 -2.690102 -0.1772282,-8.969536 -2.955258 0.4034884,-8.918008 -3.621941 0.6667744,-9.516474 -4.382316 -0.7626363,-9.583904 -2.992327 -0.1379945,-9.455069 -3.417819 0.3140771,-9.388974 -4.173522 0.4694488,-9.959864 -4.730747 -0.6200008,-10.10205 -3.649084 -0.02585757,-9.976245 -3.721147 0.3363677,-9.848762 -4.281546 0.4721178,5.110, 1 0
-2.621446 -7.161851 0.09141313,-3.296173 -6.908722 0.2288695,-3.884925 -6.256312 0.3133144,-4.335732 -5.627855 0.4370462,-4.665026 -5.246505 0.5890595,-3.492994 -4.445196 -0.0123883,-3.810776 -3.330307 0.0952905,-3.985364 -2.677886 0.1820271,-4.116566 -2.055056 0.2590827,-3.175776 -4.1902 0.1100921,-3.390205 -2.85989 0.2064992,-3.390205 -2.85989 0.2064992,-3.610591 -1.327945 0.5120894,-2.842463 -4.16292 0.2997052,-2.973291 -2.863317 0.4326617,-3.088453 -2.065872 0.571605,-3.19613 -1.374181 0.714136,-2.467896 -4.37224 0.5217429,-2.348351 -3.378695 0.6478612,-2.298274 -2.723396 0.7826424,-2.255097 -2.097743 0.9018151,-9.350476 -7.39081 -0.5372526,-8.71363 -7.163265 0.00117898,-8.173474 -6.345624 0.307588,-7.950686 -5.531553 0.5709804,-8.144807 -4.974548 0.7077376,-8.654092 -4.284034 -0.4023447,-8.508521 -3.070976 -0.0520485,-8.414861 -2.219285 0.3516741,-8.342265 -1.63215 0.7020518,-9.09551 -4.197956 -0.3830035,-9.121267 -2.652057 0.1898266,-8.99909 -2.853609 0.7473243,-8.936911 -3.495607 1.030649,-9.513921 -4.381939 -0.2821153,-9.613549 -2.998093 0.223534,-9.483714 -3.35183 0.6537871,-9.40414 -4.053514 0.821012,-9.940565 -4.783611 -0.1494249,-10.11314 -3.731011 0.3588404,-9.996789 -3.758029 0.7006454,-9.867949 -4.261772 0.8317959,5.210, 1 0
-2.623209 -7.171297 0.1586072,-3.283458 -6.923414 0.2873543,-3.873612 -6.253706 0.3623649,-4.322517 -5.618942 0.4832912,-4.647718 -5.244111 0.6311254,-3.49971 -4.444862 0.01862176,-3.813123 -3.353988 0.1335529,-3.98798 -2.705245 0.2246253,-4.117353 -2.080014 0.3018613,-3.181946 -4.180913 0.1499736,-3.388206 -2.870405 0.2510835,-3.388206 -2.870405 0.2510835,-3.606356 -1.337703 0.547323,-2.847294 -4.150932 0.355949,-2.96724 -2.868835 0.4879807,-3.077955 -2.081285 0.6256361,-3.181424 -1.393981 0.7592657,-2.472433 -4.361929 0.5924749,-2.351969 -3.373093 0.7142599,-2.30052 -2.720776 0.8494388,-2.261234 -2.096735 0.9621861,-9.400742 -7.490714 0.140679,-8.751113 -7.165975 0.6183791,-8.169387 -6.340192 0.9210844,-7.941927 -5.503004 1.185225,-8.212717 -4.962793 1.315149,-8.683047 -4.193227 0.1293013,-8.532568 -2.981419 0.4154854,-8.43923 -2.180788 0.7808945,-8.361877 -1.671172 1.089469,-9.134538 -4.100894 0.1650126,-9.158704 -2.530968 0.6547395,-9.036414 -2.72676 1.158591,-8.977092 -3.398983 1.43648,-9.553991 -4.30136 0.2721805,-9.645644 -2.913414 0.6885279,-9.50568 -3.22701 1.079847,-9.427559 -3.936403 1.240098,-9.981514 -4.738227 0.425837,-10.15024 -3.700539 0.8894544,-10.03539 -3.694255 1.208346,-9.91307 -4.181877 1.341009,5.310, 1 0
-2.629859 -7.192189 0.1507234,-3.29589 -6.934957 0.273421,-3.876717 -6.260028 0.3480417,-4.32393 -5.619257 0.4652613,-4.64922 -5.234645 0.6133676,-3.49159 -4.465421 0.01376078,-3.812844 -3.367808 0.1238233,-3.989943 -2.709681 0.2157573,-4.119288 -2.081025 0.2951665,-3.174473 -4.201515 0.1403728,-3.387819 -2.882963 0.2303741,-3.387819 -2.882963 0.2303741,-3.610615 -1.340457 0.5306554,-2.840258 -4.167056 0.3368423,-2.968926 -2.873239 0.4584929,-3.08334 -2.073825 0.5934228,-3.192221 -1.382722 0.731742,-2.465846 -4.375219 0.5651612,-2.347993 -3.38511 0.6837103,-2.295035 -2.727996 0.8125688,-2.253246 -2.104656 0.9277776,-9.406564 -7.511503 0.2569899,-8.780252 -7.1524 0.7055749,-8.186793 -6.308294 0.9885994,-7.948243 -5.464921 1.234204,-8.215257 -4.954162 1.339285,-8.711146 -4.19403 0.1865073,-8.550151 -2.951493 0.4185185,-8.461695 -2.152968 0.7301198,-8.389999 -1.634474 0.9995635,-9.161229 -4.086975 0.2199633,-9.159236 -2.461445 0.6484801,-9.044173 -2.623795 1.10741,-8.99574 -3.296108 1.343024,-9.573296 -4.280698 0.326315,-9.643135 -2.856029 0.6971415,-9.508826 -3.090228 1.070926,-9.434033 -3.770088 1.219392,-9.996265 -4.721855 0.4793252,-10.16616 -3.672822 0.9307764,-10.05685 -3.620774 1.254344,-9.932089 -4.072777 1.394101,5.410, 1 0
-2.643382 -7.170429 0.1089687,-3.32144 -6.910065 0.2433811,-3.90881 -6.253447 0.3274337,-4.357513 -5.606035 0.4594769,-4.681966 -5.204311 0.6201226,-3.51817 -4.452245 -0.0176287,-3.835949 -3.345889 0.093656,-4.011454 -2.698271 0.179515,-4.139109 -2.076814 0.2521695,-3.197501 -4.19362 0.1029399,-3.403105 -2.864471 0.1946995,-3.403105 -2.864471 0.1946995,-3.621826 -1.33768 0.4837524,-2.862841 -4.158563 0.2956655,-2.984966 -2.863214 0.4204466,-3.09613 -2.065689 0.5521049,-3.201141 -1.371615 0.6881737,-2.486091 -4.361169 0.5178314,-2.364597 -3.370883 0.6351456,-2.313704 -2.720631 0.7685405,-2.270998 -2.106733 0.8820413,-9.428113 -7.624691 0.5239244,-8.774993 -7.201577 0.9722258,-8.16099 -6.337049 1.26388,-7.941938 -5.477695 1.526375,-8.200067 -4.904444 1.658503,-8.733986 -4.243846 0.5426176,-8.587873 -2.999977 0.7671413,-8.520302 -2.188311 1.07192,-8.464193 -1.631477 1.353677,-9.198437 -4.122814 0.5761802,-9.202168 -2.547635 0.9821844,-9.118175 -2.546041 1.50159,-9.068914 -3.08246 1.836578,-9.617518 -4.284647 0.6692706,-9.683442 -2.912755 1.051217,-9.588379 -3.006896 1.486604,-9.517935 -3.59991 1.716841,-10.05189 -4.687717 0.8002533,-10.20749 -3.605154 1.262107,-10.11788 -3.497316 1.604047,-9.994564 -3.919424 1.782395,5.510, 1 0
-2.643054 -7.146263 0.06113916,-3.323209 -6.879507 0.1820487,-3.908155 -6.230904 0.2680282,-4.361366 -5.589666 0.3972235,-4.686068 -5.205644 0.5609726,-3.523886 -4.439514 -0.04798209,-3.839524 -3.337818 0.06484085,-4.010035 -2.691201 0.1528314,-4.134026 -2.065516 0.2275456,-3.209856 -4.185831 0.08138052,-3.420814 -2.858318 0.1907937,-3.420814 -2.858318 0.1907937,-3.637045 -1.323362 0.5041099,-2.875674 -4.160944 0.2805366,-3.005762 -2.857262 0.4181251,-3.117441 -2.05871 0.5652055,-3.218678 -1.35781 0.7173967,-2.497126 -4.376293 0.5045431,-2.37221 -3.384828 0.6344876,-2.318983 -2.730333 0.7757351,-2.270392 -2.104359 0.8981497,-9.462811 -7.640258 0.303386,-8.779655 -7.27045 0.638025,-8.131396 -6.437843 0.8850783,-7.88427 -5.581991 1.168259,-8.097303 -5.076372 1.325176,-8.79038 -4.329299 0.3991731,-8.673562 -3.029529 0.5967805,-8.621326 -2.242377 0.7935185,-8.581923 -1.560559 0.9577582,-9.217171 -4.207387 0.4926504,-9.171721 -2.757112 0.6357811,-9.109401 -1.860609 0.9029676,-9.064158 -1.083955 1.130825,-9.6214 -4.346162 0.6311075,-9.607764 -2.990613 0.7800131,-9.584059 -2.111129 1.032344,-9.537235 -1.367136 1.222596,-10.03033 -4.731048 0.8141665,-10.15386 -3.680384 1.000939,-10.20615 -2.972171 1.180526,-10.20199 -2.301477 1.312847,5.610, 1 0
-2.645599 -7.142498 0.08613054,-3.318947 -6.894495 0.2282248,-3.907845 -6.237848 0.314637,-4.359774 -5.592781 0.4439059,-4.694354 -5.200611 0.6028041,-3.524801 -4.42593 -0.03377223,-3.834667 -3.311775 0.07453289,-4.003317 -2.655651 0.1661296,-4.126784 -2.029731 0.2466807,-3.205667 -4.173437 0.08543342,-3.412729 -2.84123 0.1778266,-3.412729 -2.84123 0.1778266,-3.618454 -1.303096 0.4782299,-2.870034 -4.141248 0.2718803,-3.000244 -2.849079 0.4007697,-3.108952 -2.048766 0.5347038,-3.211515 -1.359185 0.6751803,-2.49338 -4.340786 0.4914104,-2.376893 -3.341687 0.617512,-2.324186 -2.69205 0.7481707,-2.280801 -2.079534 0.8643196,-9.434117 -7.618244 0.1664563,-8.745004 -7.259984 0.5263211,-8.136001 -6.447088 0.806349,-7.928653 -5.583969 1.118808,-8.135173 -5.062398 1.327608,-8.769678 -4.34829 0.3420333,-8.663584 -3.04449 0.567513,-8.62072 -2.215371 0.787508,-8.592681 -1.493744 0.9699777,-9.204879 -4.227941 0.4229695,-9.170922 -2.7255 0.6004157,-9.126573 -1.769842 0.8734282,-9.103642 -0.9430318 1.095691,-9.614222 -4.364925 0.5408021,-9.607173 -2.961792 0.7028936,-9.581184 -2.041532 0.9379839,-9.547196 -1.263007 1.106125,-10.02922 -4.747814 0.7039953,-10.1506 -3.639634 0.8867882,-10.2125 -2.878511 1.050429,-10.23636 -2.151299 1.157187,5.710, 1 0
-2.636178 -7.164194 0.1606559,-3.305481 -6.903486 0.2943434,-3.890844 -6.239265 0.3834489,-4.338976 -5.602315 0.5123784,-4.66642 -5.216566 0.6778231,-3.505427 -4.424768 0.03376856,-3.81765 -3.311116 0.1400849,-3.988533 -2.654026 0.2341449,-4.11426 -2.024559 0.3172424,-3.187525 -4.171825 0.1616038,-3.399508 -2.843465 0.2452734,-3.399508 -2.843465 0.2452734,-3.609579 -1.312203 0.5482413,-2.854115 -4.144002 0.3557145,-2.984815 -2.843761 0.4693573,-3.097482 -2.045825 0.6031839,-3.20208 -1.354977 0.7437412,-2.478541 -4.352926 0.5846137,-2.357248 -3.350194 0.6974323,-2.304032 -2.692851 0.8222882,-2.257819 -2.076655 0.9349345,-9.446578 -7.685894 0.3085096,-8.762463 -7.322464 0.6388516,-8.179207 -6.514747 0.8907146,-7.948122 -5.664936 1.179601,-8.077249 -5.106945 1.356995,-8.806719 -4.382501 0.4408067,-8.687857 -3.058715 0.6581128,-8.630904 -2.205898 0.8755919,-8.596972 -1.462649 1.048155,-9.217747 -4.252577 0.5329467,-9.169065 -2.7059 0.7096975,-9.109113 -1.715008 1.004359,-9.082565 -0.8587928 1.235259,-9.618259 -4.402051 0.6623282,-9.608315 -2.952853 0.8313262,-9.584902 -1.993791 1.088019,-9.558228 -1.175666 1.272883,-10.0269 -4.814697 0.8296853,-10.14374 -3.683856 1.035834,-10.19611 -2.917612 1.231524,-10.21676 -2.181231 1.35881,5.810, 1 0
-2.64104 -7.197931 0.2028861,-3.305514 -6.91452 0.3326827,-3.889132 -6.238833 0.4222294,-4.340357 -5.590412 0.5550325,-4.671569 -5.207743 0.7208903,-3.514517 -4.452874 0.1038508,-3.827723 -3.362747 0.2342943,-3.998719 -2.706405 0.3309008,-4.124249 -2.068377 0.4139076,-3.19839 -4.194589 0.2344953,-3.413198 -2.881742 0.3421661,-3.413198 -2.881742 0.3421661,-3.634769 -1.343497 0.6380227,-2.861837 -4.163908 0.4359054,-2.993747 -2.870801 0.5709533,-3.104904 -2.077211 0.7105134,-3.210375 -1.380368 0.849801,-2.482451 -4.373809 0.6671099,-2.363682 -3.381016 0.7939452,-2.307804 -2.725306 0.9299023,-2.260945 -2.10432 1.044669,-9.440368 -7.715959 0.3739194,-8.750741 -7.329412 0.7272832,-8.161997 -6.516533 0.9830284,-7.937057 -5.671129 1.269266,-8.073791 -5.137728 1.445782,-8.803531 -4.404644 0.5657949,-8.685379 -3.089571 0.8072354,-8.621999 -2.245162 1.034472,-8.586292 -1.514349 1.215762,-9.212414 -4.267072 0.6439674,-9.162796 -2.704673 0.8382275,-9.108588 -1.716053 1.137593,-9.087211 -0.8528857 1.374915,-9.608596 -4.407469 0.7557155,-9.596143 -2.955341 0.9395561,-9.578323 -1.993719 1.200361,-9.55765 -1.170761 1.396623,-10.01293 -4.814462 0.9073383,-10.13667 -3.697154 1.110966,-10.19364 -2.94004 1.307726,-10.21798 -2.21562 1.448091,5.910, 1 0
-2.633399 -7.168735 0.1352881,-3.305895 -6.896654 0.2517463,-3.894203 -6.23049 0.3301921,-4.345945 -5.585262 0.4544825,-4.66873 -5.199903 0.6138641,-3.502211 -4.442666 0.01108526,-3.822916 -3.336255 0.1191665,-3.999947 -2.688298 0.2023417,-4.130833 -2.068465 0.2739106,-3.189678 -4.184701 0.1464285,-3.402456 -2.849635 0.2454751,-3.402456 -2.849635 0.2454751,-3.621773 -1.318696 0.5413989,-2.859331 -4.159853 0.3506939,-2.986066 -2.851344 0.4837414,-3.100219 -2.053892 0.6221961,-3.207207 -1.356483 0.7606801,-2.483871 -4.37711 0.5841728,-2.359933 -3.379229 0.7130426,-2.308043 -2.725133 0.8464589,-2.265259 -2.102705 0.95907,-9.450502 -7.768068 0.4097568,-8.754626 -7.372852 0.7786956,-8.150454 -6.578971 1.04098,-7.912181 -5.722291 1.330164,-8.044186 -5.176326 1.503826,-8.773966 -4.448305 0.6038579,-8.654963 -3.127107 0.8342628,-8.590969 -2.290509 1.047761,-8.550132 -1.571122 1.214101,-9.190363 -4.310174 0.666454,-9.140042 -2.745979 0.8561177,-9.075968 -1.763748 1.148196,-9.045437 -0.9106994 1.381735,-9.590533 -4.446987 0.7670792,-9.577044 -2.995162 0.9424989,-9.547394 -2.052841 1.188124,-9.517142 -1.255002 1.369677,-9.995461 -4.840532 0.9053643,-10.12223 -3.720676 1.107961,-10.17813 -2.964214 1.295556,-10.20037 -2.23827 1.422124,6.010, 1 0
-2.650522 -7.149711 0.1301444,-3.333921 -6.877246 0.2603607,-3.916168 -6.231025 0.3408512,-4.362444 -5.589122 0.4652165,-4.683949 -5.199756 0.6187142,-3.516994 -4.420038 -0.01460165,-3.833206 -3.326005 0.09191947,-4.001671 -2.68202 0.1757245,-4.123407 -2.065195 0.2437976,-3.197405 -4.165531 0.1041781,-3.406696 -2.850991 0.1884573,-3.406696 -2.850991 0.1884573,-3.61084 -1.321944 0.4780286,-2.862604 -4.135248 0.2939232,-2.989763 -2.85147 0.4043449,-3.098242 -2.060376 0.533169,-3.200129 -1.375359 0.6693492,-2.487643 -4.341863 0.5138889,-2.364122 -3.358261 0.6241346,-2.313107 -2.705669 0.7542583,-2.271167 -2.091406 0.8642645,-9.428102 -7.767101 0.4082725,-8.724837 -7.376725 0.765661,-8.12068 -6.558943 1.016595,-7.889477 -5.698326 1.292068,-8.030036 -5.171135 1.459305,-8.753329 -4.447367 0.5848391,-8.635466 -3.156042 0.8096866,-8.572049 -2.33091 1.024658,-8.533255 -1.609131 1.196604,-9.171775 -4.30821 0.64937,-9.120964 -2.749546 0.8359084,-9.059497 -1.777357 1.127845,-9.029095 -0.927238 1.35946,-9.568913 -4.435394 0.7484087,-9.552787 -2.983301 0.9264271,-9.524465 -2.038693 1.170824,-9.49401 -1.23695 1.353136,-9.971529 -4.822923 0.8883799,-10.09807 -3.705578 1.090208,-10.15405 -2.95138 1.273829,-10.1763 -2.231583 1.399637,6.110, 1 0
-2.643128 -7.140239 0.03018293,-3.320563 -6.869909 0.190429,-3.909438 -6.238021 0.2950894,-4.35524 -5.592254 0.4381273,-4.674791 -5.182652 0.6090792,-3.531213 -4.451111 -0.06823763,-3.835596 -3.344074 0.06547017,-4.000799 -2.691634 0.1737706,-4.123381 -2.061111 0.265665,-3.205303 -4.18791 0.04302533,-3.408511 -2.857513 0.1540401,-3.408511 -2.857513 0.1540401,-3.614641 -1.328345 0.4706028,-2.865331 -4.155212 0.2323994,-2.987263 -2.865118 0.3659164,-3.094894 -2.078745 0.5084195,-3.197658 -1.38677 0.6564056,-2.486088 -4.35986 0.4486878,-2.365719 -3.379053 0.57384,-2.310499 -2.736484 0.7078081,-2.269501 -2.122159 0.8220115,-9.419084 -7.762709 0.3363807,-8.72207 -7.355772 0.6888093,-8.11328 -6.548988 0.9515954,-7.869143 -5.689677 1.24439,-8.003765 -5.162113 1.442839,-8.729791 -4.455783 0.469321,-8.612387 -3.156795 0.6687036,-8.548389 -2.323984 0.8651049,-8.508741 -1.600397 1.027074,-9.147501 -4.322874 0.5340555,-9.091386 -2.764791 0.705568,-9.026872 -1.79625 0.9794192,-8.995042 -0.952867 1.192247,-9.541018 -4.446561 0.6386601,-9.521895 -3.00256 0.7962411,-9.484595 -2.069479 1.02475,-9.448449 -1.283207 1.191292,-9.937829 -4.822136 0.784186,-10.06467 -3.710683 0.9735964,-10.11856 -2.958249 1.152571,-10.14212 -2.235947 1.270818,6.210, 1 0
-2.630821 -7.160015 0.1253419,-3.311714 -6.906728 0.2269486,-3.897447 -6.258417 0.288784,-4.34751 -5.635323 0.4002448,-4.665679 -5.251863 0.5383593,-3.507412 -4.435968 -0.07324716,-3.820631 -3.340253 0.02156068,-3.991613 -2.692346 0.1143302,-4.112354 -2.081315 0.1932837,-3.187105 -4.179551 0.05997712,-3.397209 -2.866281 0.1219003,-3.397209 -2.866281 0.1219003,-3.606115 -1.33484 0.4096968,-2.851047 -4.142593 0.2586155,-2.980824 -2.862017 0.356838,-3.093836 -2.069419 0.4778418,-3.195563 -1.392659 0.601199,-2.476169 -4.334969 0.4925188,-2.356625 -3.335588 0.5867165,-2.303755 -2.67618 0.7022103,-2.261782 -2.054307 0.8004535,-9.413682 -7.763559 0.3268546,-8.729852 -7.35291 0.6711934,-8.121212 -6.544723 0.927853,-7.869952 -5.695392 1.216028,-7.978578 -5.172279 1.41834,-8.732553 -4.459301 0.4618348,-8.617276 -3.178851 0.6523841,-8.547284 -2.360028 0.8444597,-8.500015 -1.65219 1.004878,-9.143423 -4.32658 0.5286718,-9.079274 -2.788472 0.6872863,-9.004721 -1.836076 0.9534585,-8.961084 -1.008554 1.165512,-9.533611 -4.443082 0.6373156,-9.505377 -3.022953 0.7889822,-9.460031 -2.103135 1.011016,-9.415298 -1.333064 1.175746,-9.928413 -4.81155 0.7870344,-10.0573 -3.703468 0.9690975,-10.10979 -2.953804 1.139698,-10.13216 -2.238729 1.256051,6.310, 1 0
-2.642432 -7.228363 0.0783992,-3.328852 -6.973409 0.1773436,-3.92194 -6.325368 0.2426785,-4.366071 -5.69184 0.3589271,-4.668762 -5.290117 0.5000434,-3.528145 -4.527093 -0.1128067,-3.82984 -3.439169 -0.003095984,-4.000753 -2.787414 0.08325517,-4.125353 -2.165115 0.1531768,-3.20627 -4.262759 0.02779464,-3.411764 -2.957922 0.1062659,-3.411764 -2.957922 0.1062659,-3.633908 -1.428032 0.3830493,-2.867129 -4.22859 0.2437505,-2.987547 -2.944773 0.3585576,-3.1021 -2.153862 0.4864264,-3.208891 -1.478054 0.6170478,-2.488172 -4.433788 0.4874153,-2.366171 -3.438612 0.5955747,-2.315623 -2.777307 0.7243547,-2.280136 -2.1599 0.834523,-9.379351 -7.752681 0.235723,-8.707131 -7.336236 0.559915,-8.109001 -6.55618 0.8112701,-7.872493 -5.708366 1.098981,-7.995948 -5.172201 1.294731,-8.72258 -4.466671 0.3513818,-8.613005 -3.187505 0.5319554,-8.546342 -2.374266 0.7182994,-8.502161 -1.685281 0.8732458,-9.136264 -4.338964 0.4221506,-9.070767 -2.813905 0.5715529,-9.003845 -1.863721 0.8398412,-8.969185 -1.046385 1.05296,-9.5257 -4.464647 0.5288342,-9.496578 -3.07076 0.6628991,-9.450548 -2.166947 0.8759064,-9.405501 -1.414105 1.033714,-9.91864 -4.840958 0.679289,-10.04863 -3.754331 0.8429077,-10.10063 -3.014038 1.003958,-10.12242 -2.309148 1.112545,6.410, 1 0
-2.669348 -7.318803 0.07510618,-3.352527 -7.056427 0.1719884,-3.946608 -6.402074 0.2438644,-4.383026 -5.766675 0.3734382,-4.678045 -5.343601 0.5232732,-3.564455 -4.610105 -0.1230674,-3.856041 -3.503653 0.01725176,-4.015774 -2.844511 0.1249898,-4.132446 -2.219068 0.2073323,-3.243998 -4.35614 0.03161619,-3.438297 -3.037754 0.1242081,-3.438297 -3.037754 0.1242081,-3.64628 -1.490486 0.4190547,-2.900438 -4.337759 0.2652457,-3.013515 -3.049964 0.3837342,-3.120592 -2.250796 0.5064896,-3.219774 -1.568953 0.6341463,-2.516552 -4.558328 0.5265467,-2.393835 -3.566541 0.6366853,-2.35269 -2.916015 0.7519398,-2.32659 -2.316136 0.8452575,-9.392109 -7.810197 0.1672969,-8.718784 -7.400793 0.5023967,-8.128866 -6.622273 0.7505012,-7.883511 -5.792818 1.029675,-7.993562 -5.275789 1.207862,-8.738842 -4.552583 0.2989441,-8.617303 -3.26721 0.4901126,-8.543984 -2.451608 0.6874231,-8.496149 -1.756058 0.8465331,-9.141219 -4.417373 0.3658627,-9.084908 -2.876735 0.52432,-9.01947 -1.915338 0.8009045,-8.986113 -1.087466 1.014751,-9.525384 -4.542154 0.4679472,-9.50577 -3.120935 0.614082,-9.464593 -2.198278 0.8405018,-9.425253 -1.422927 1.005691,-9.915646 -4.916537 0.6083497,-10.04418 -3.827407 0.7847024,-10.097 -3.080204 0.9586584,-10.1219 -2.370987 1.073776,6.510, 1 0
-2.706579 -7.51358 -0.04283098,-3.369431 -7.273227 0.1224985,-3.968577 -6.633243 0.2317957,-4.399914 -5.976379 0.384991,-4.684053 -5.514354 0.5498477,-3.586795 -4.838165 -0.1686103,-3.875197 -3.743886 -0.001877718,-4.01955 -3.097888 0.1367453,-4.122069 -2.471714 0.2355203,-3.262949 -4.581422 -0.04785392,-3.463135 -3.255608 0.07273826,-3.463135 -3.255608 0.07273826,-3.659028 -1.748494 0.4016818,-2.916635 -4.551173 0.14925,-3.050921 -3.272099 0.2703201,-3.159561 -2.49869 0.4266248,-3.255157 -1.8379 0.576219,-2.538654 -4.741764 0.3767621,-2.444876 -3.75401 0.5066245,-2.422709 -3.12597 0.6464138,-2.41523 -2.54907 0.7601265,-9.390392 -7.963795 0.2336012,-8.73968 -7.535108 0.5299195,-8.141344 -6.750206 0.7811438,-7.892138 -5.913933 1.067367,-8.030336 -5.40928 1.248908,-8.747723 -4.680385 0.3490266,-8.630569 -3.421536 0.5236981,-8.557888 -2.624116 0.7024985,-8.514614 -1.950481 0.8560281,-9.145143 -4.551114 0.424527,-9.074814 -3.051775 0.5670714,-9.004589 -2.121828 0.8337242,-8.975836 -1.307301 1.045324,-9.522414 -4.676056 0.5301061,-9.497265 -3.306344 0.6608899,-9.452169 -2.410539 0.8671122,-9.415527 -1.655067 1.029167,-9.904806 -5.053325 0.669403,-10.03371 -4.002103 0.8280343,-10.08179 -3.285064 0.9849261,-10.10225 -2.609019 1.097337,6.610, 1 0
-2.736094 -7.926523 -0.1374471,-3.395657 -7.744016 0.02654149,-3.961088 -7.070877 0.1029534,-4.34963 -6.357185 0.2141424,-4.648336 -5.893906 0.3237298,-3.583786 -5.274469 -0.2403297,-3.879156 -4.136519 -0.09399629,-4.030521 -3.475857 0.02738488,-4.128088 -2.855613 0.1396355,-3.249912 -5.013994 -0.129951,-3.440763 -3.656717 -0.02645502,-3.440763 -3.656717 -0.02645502,-3.623083 -2.109349 0.3226665,-2.892746 -5.000604 0.05205522,-3.014597 -3.700152 0.1647225,-3.123268 -2.896287 0.345025,-3.213537 -2.213031 0.5271183,-2.511355 -5.241214 0.2582098,-2.409032 -4.252027 0.3976449,-2.380905 -3.622103 0.5548075,-2.367772 -3.049768 0.6918465,-9.330759 -8.223494 0.008826622,-8.67571 -7.739186 0.2774563,-8.105368 -6.948886 0.5104204,-7.892661 -6.113935 0.7888779,-8.014041 -5.606456 0.9671699,-8.729782 -4.981498 0.1291965,-8.653225 -3.697996 0.2897274,-8.599693 -2.891525 0.4409154,-8.5678 -2.22817 0.5670322,-9.128471 -4.872745 0.2053979,-9.086408 -3.367889 0.3479514,-9.027273 -2.437136 0.6054236,-9.007078 -1.642437 0.8025469,-9.50159 -5.013464 0.3069049,-9.490631 -3.655618 0.4426813,-9.447069 -2.78054 0.6477792,-9.412468 -2.058686 0.8040277,-9.877695 -5.399778 0.4351093,-10.01259 -4.337188 0.602874,-10.05777 -3.631288 0.7721471,-10.07585 -2.985357 0.8914406,6.710, 1 0
-2.707018 -8.190393 -0.2578878,-3.373156 -8.020493 -0.05073246,-3.947544 -7.384228 0.06668642,-4.339326 -6.715599 0.2067035,-4.624978 -6.263404 0.3161981,-3.560276 -5.571023 -0.2868954,-3.8529 -4.471351 -0.1349355,-4.005854 -3.829363 -0.0005511045,-4.107036 -3.229481 0.1314417,-3.222193 -5.313737 -0.1943729,-3.41769 -3.976882 -0.08545175,-3.41769 -3.976882 -0.08545175,-3.610552 -2.412055 0.3250276,-2.867037 -5.309631 -0.03315395,-2.986682 -4.04594 0.07946065,-3.094961 -3.275219 0.273092,-3.187592 -2.603721 0.4644425,-2.494336 -5.560176 0.1496308,-2.394788 -4.579593 0.3040354,-2.362107 -3.99188 0.4558448,-2.347775 -3.450129 0.5890335,-9.318375 -8.483589 -0.3564189,-8.692448 -8.030724 -0.03713185,-8.137819 -7.25903 0.2574985,-7.922059 -6.41551 0.5751563,-8.052672 -5.848428 0.7774488,-8.750127 -5.358187 -0.02831137,-8.659717 -4.011453 0.1767007,-8.602112 -3.185185 0.3142145,-8.565873 -2.527097 0.4233382,-9.144383 -5.253491 0.03377277,-9.077579 -3.671865 0.2474438,-9.02525 -2.72003 0.5237789,-9.008066 -1.897248 0.7162809,-9.507066 -5.390107 0.1054875,-9.48597 -3.96976 0.2997101,-9.445817 -3.074793 0.514605,-9.403191 -2.351388 0.6878543,-9.876404 -5.759608 0.1973507,-10.02489 -4.683933 0.3914196,-10.07535 -3.969633 0.5775248,-10.08149 -3.335911 0.7031969,6.810, 1 0
-2.746384 -9.196238 -1.743904,-3.408926 -9.166643 -1.742805,-3.839794 -8.723751 -1.692654,-4.195497 -8.187107 -1.726394,-4.439634 -7.670717 -1.908478,-3.512439 -6.927846 -1.330475,-3.697844 -5.465774 -1.325998,-3.780142 -5.005321 -1.588316,-3.81133 -4.910795 -1.864866,-3.091641 -6.747988 -1.382781,-3.208572 -5.096502 -1.260406,-3.208572 -5.096502 -1.260406,-3.35346 -4.292539 -1.799437,-2.691942 -6.85881 -1.458429,-2.728045 -5.349494 -1.37312,-2.852098 -4.786917 -1.560252,-2.944642 -4.546169 -1.764626,-2.363832 -7.172813 -1.555988,-2.273221 -5.965916 -1.516129,-2.302449 -5.437177 -1.57371,-2.363825 -5.10729 -1.689113,-9.316439 -11.01677 0.4563055,-8.638494 -10.38638 0.6447995,-8.135627 -9.376713 0.8428758,-7.904455 -8.397724 1.033303,-7.860505 -7.694173 1.11843,-8.771582 -7.659339 0.6070161,-8.683463 -6.213245 0.6958069,-8.630919 -5.403119 0.7328068,-8.610397 -4.764224 0.7460598,-9.17502 -7.534334 0.6462356,-9.131108 -5.850367 0.718208,-9.10064 -4.916854 0.7999442,-9.118441 -4.147417 0.8373376,-9.540987 -7.665035 0.6942472,-9.546389 -6.115625 0.7924771,-9.526497 -5.210456 0.8814114,-9.50073 -4.495078 0.9466916,-9.874483 -8.043268 0.7437476,-10.03037 -6.929454 0.9093585,-10.08945 -6.220605 1.039989,-10.119 -5.576639 1.099671,6.910, 1 0
-2.749122 -9.184258 -4.114723,-3.323516 -9.080702 -3.957646,-3.745083 -8.79043 -3.749904,-4.119245 -8.534775 -3.669958,-4.273302 -8.284 -3.730588,-3.36615 -7.96444 -2.982853,-3.611052 -6.60709 -2.758836,-3.72803 -6.207811 -2.933999,-3.773617 -6.1241 -3.141958,-2.944006 -7.721725 -3.046702,-3.107941 -6.136819 -2.635427,-3.107941 -6.136819 -2.635427,-3.350266 -5.356763 -2.855107,-2.578705 -7.668172 -3.177295,-2.677374 -6.308748 -2.860485,-2.867218 -5.65504 -2.949984,-2.992102 -5.295459 -3.051956,-2.327003 -7.764932 -3.325615,-2.246337 -6.775248 -3.157917,-2.283134 -6.278543 -3.18294,-2.313745 -5.925714 -3.249623,-9.186447 -12.14302 -0.5537949,-8.518672 -11.5606 -0.2139149,-8.11413 -10.44612 0.08621562,-7.958589 -9.358433 0.3565784,-7.925266 -8.526237 0.5833942,-8.783687 -9.014053 -0.1509969,-8.696907 -7.570682 0.02863663,-8.619997 -6.755401 0.1378142,-8.555107 -6.102561 0.2251668,-9.204247 -8.96372 -0.1740264,-9.165888 -7.2976 0.01040691,-9.105712 -6.343395 0.168067,-9.080556 -5.526073 0.2927434,-9.569003 -9.155567 -0.1838045,-9.586978 -7.608434 -0.03637058,-9.537073 -6.682155 0.1076607,-9.494086 -5.900329 0.221492,-9.895807 -9.560167 -0.1941902,-10.05204 -8.406807 -0.01679343,-10.10735 -7.720159 0.1679735,-10.14138 -7.061886 0.3027405,7.010, 1 0
-2.456098 -13.99617 -0.5367162,-3.055683 -13.65872 -0.02645034,-3.478609 -12.86146 0.2730289,-3.680891 -11.99419 0.5302043,-3.84926 -11.18421 0.779657,-3.072392 -11.35316 -0.00922519,-3.220875 -10.1892 0.231664,-3.365934 -9.52533 0.4240932,-3.500835 -8.953106 0.5509768,-2.713635 -11.2004 -0.08604765,-2.799547 -9.874002 0.1865515,-2.799547 -9.874002 0.1865515,-3.039765 -8.281939 0.6759404,-2.385949 -11.33753 -0.1260937,-2.403219 -10.15435 0.1642751,-2.471101 -9.464828 0.4560424,-2.538659 -8.899622 0.7022946,-2.064407 -11.67517 -0.124238,-1.997155 -10.77975 0.1654569,-1.987987 -10.16988 0.4286784,-1.991947 -9.60882 0.6274856,-9.510847 -14.81412 -1.955699,-8.791139 -14.35629 -1.835811,-8.416379 -13.43747 -1.589807,-8.201383 -12.49081 -1.446609,-8.059555 -11.68408 -1.351654,-8.968394 -12.22393 -0.9969098,-8.92158 -10.58257 -0.871803,-8.900807 -9.773441 -0.9657285,-8.874225 -9.208811 -1.088641,-9.464787 -12.13729 -1.13091,-9.344352 -10.35454 -0.9777005,-9.239583 -9.534279 -1.143024,-9.157739 -9.015368 -1.307417,-9.897466 -12.29763 -1.343886,-9.808703 -10.62945 -1.278199,-9.669183 -9.855545 -1.464659,-9.552374 -9.409836 -1.623384,-10.23673 -12.60806 -1.587313,-10.25076 -11.39349 -1.589061,-10.17922 -10.83409 -1.715424,-10.0863 -10.54518 -1.873172,7.110, 1 0
-2.223825 -15.13822 -2.111612,-2.942511 -14.93654 -1.83845,-3.358604 -14.24273 -1.622858,-3.568949 -13.4822 -1.509486,-3.674601 -12.70819 -1.457436,-2.875854 -12.95261 -1.284722,-3.074442 -11.62262 -1.065199,-3.217105 -10.98901 -1.075602,-3.310644 -10.58175 -1.189249,-2.455406 -12.84315 -1.472933,-2.608011 -11.40022 -1.332009,-2.608011 -11.40022 -1.332009,-2.883197 -10.58246 -1.851303,-2.118525 -12.95646 -1.668731,-2.185707 -11.64383 -1.534788,-2.335817 -11.04341 -1.64712,-2.448741 -10.68904 -1.774831,-1.871946 -13.27422 -1.879444,-1.844136 -12.25874 -1.796946,-1.907454 -11.6844 -1.80628,-1.983779 -11.27573 -1.832008,-9.510847 -14.81412 -1.955699,-8.791139 -14.35629 -1.835811,-8.416379 -13.43747 -1.589807,-8.201383 -12.49081 -1.446609,-8.059555 -11.68408 -1.351654,-8.968394 -12.22393 -0.9969098,-8.92158 -10.58257 -0.871803,-8.900807 -9.773441 -0.9657285,-8.874225 -9.208811 -1.088641,-9.464787 -12.13729 -1.13091,-9.344352 -10.35454 -0.9777005,-9.239583 -9.534279 -1.143024,-9.157739 -9.015368 -1.307417,-9.897466 -12.29763 -1.343886,-9.808703 -10.62945 -1.278199,-9.669183 -9.855545 -1.464659,-9.552374 -9.409836 -1.623384,-10.23673 -12.60806 -1.587313,-10.25076 -11.39349 -1.589061,-10.17922 -10.83409 -1.715424,-10.0863 -10.54518 -1.873172,7.210, 1 0
-2.223825 -15.13822 -2.111612,-2.942511 -14.93654 -1.83845,-3.358604 -14.24273 -1.622858,-3.568949 -13.4822 -1.509486,-3.674601 -12.70819 -1.457436,-2.875854 -12.95261 -1.284722,-3.074442 -11.62262 -1.065199,-3.217105 -10.98901 -1.075602,-3.310644 -10.58175 -1.189249,-2.455406 -12.84315 -1.472933,-2.608011 -11.40022 -1.332009,-2.608011 -11.40022 -1.332009,-2.883197 -10.58246 -1.851303,-2.118525 -12.95646 -1.668731,-2.185707 -11.64383 -1.534788,-2.335817 -11.04341 -1.64712,-2.448741 -10.68904 -1.774831,-1.871946 -13.27422 -1.879444,-1.844136 -12.25874 -1.796946,-1.907454 -11.6844 -1.80628,-1.983779 -11.27573 -1.832008,-9.510847 -14.81412 -1.955699,-8.791139 -14.35629 -1.835811,-8.416379 -13.43747 -1.589807,-8.201383 -12.49081 -1.446609,-8.059555 -11.68408 -1.351654,-8.968394 -12.22393 -0.9969098,-8.92158 -10.58257 -0.871803,-8.900807 -9.773441 -0.9657285,-8.874225 -9.208811 -1.088641,-9.464787 -12.13729 -1.13091,-9.344352 -10.35454 -0.9777005,-9.239583 -9.534279 -1.143024,-9.157739 -9.015368 -1.307417,-9.897466 -12.29763 -1.343886,-9.808703 -10.62945 -1.278199,-9.669183 -9.855545 -1.464659,-9.552374 -9.409836 -1.623384,-10.23673 -12.60806 -1.587313,-10.25076 -11.39349 -1.589061,-10.17922 -10.83409 -1.715424,-10.0863 -10.54518 -1.873172,7.310, 1 0
-2.223825 -15.13822 -2.111612,-2.942511 -14.93654 -1.83845,-3.358604 -14.24273 -1.622858,-3.568949 -13.4822 -1.509486,-3.674601 -12.70819 -1.457436,-2.875854 -12.95261 -1.284722,-3.074442 -11.62262 -1.065199,-3.217105 -10.98901 -1.075602,-3.310644 -10.58175 -1.189249,-2.455406 -12.84315 -1.472933,-2.608011 -11.40022 -1.332009,-2.608011 -11.40022 -1.332009,-2.883197 -10.58246 -1.851303,-2.118525 -12.95646 -1.668731,-2.185707 -11.64383 -1.534788,-2.335817 -11.04341 -1.64712,-2.448741 -10.68904 -1.774831,-1.871946 -13.27422 -1.879444,-1.844136 -12.25874 -1.796946,-1.907454 -11.6844 -1.80628,-1.983779 -11.27573 -1.832008,-9.510847 -14.81412 -1.955699,-8.791139 -14.35629 -1.835811,-8.416379 -13.43747 -1.589807,-8.201383 -12.49081 -1.446609,-8.059555 -11.68408 -1.351654,-8.968394 -12.22393 -0.9969098,-8.92158 -10.58257 -0.871803,-8.900807 -9.773441 -0.9657285,-8.874225 -9.208811 -1.088641,-9.464787 -12.13729 -1.13091,-9.344352 -10.35454 -0.9777005,-9.239583 -9.534279 -1.143024,-9.157739 -9.015368 -1.307417,-9.897466 -12.29763 -1.343886,-9.808703 -10.62945 -1.278199,-9.669183 -9.855545 -1.464659,-9.552374 -9.409836 -1.623384,-10.23673 -12.60806 -1.587313,-10.25076 -11.39349 -1.589061,-10.17922 -10.83409 -1.715424,-10.0863 -10.54518 -1.873172,7.410, 1 0
-2.223825 -15.13822 -2.111612,-2.942511 -14.93654 -1.83845,-3.358604 -14.24273 -1.622858,-3.568949 -13.4822 -1.509486,-3.674601 -12.70819 -1.457436,-2.875854 -12.95261 -1.284722,-3.074442 -11.62262 -1.065199,-3.217105 -10.98901 -1.075602,-3.310644 -10.58175 -1.189249,-2.455406 -12.84315 -1.472933,-2.608011 -11.40022 -1.332009,-2.608011 -11.40022 -1.332009,-2.883197 -10.58246 -1.851303,-2.118525 -12.95646 -1.668731,-2.185707 -11.64383 -1.534788,-2.335817 -11.04341 -1.64712,-2.448741 -10.68904 -1.774831,-1.871946 -13.27422 -1.879444,-1.844136 -12.25874 -1.796946,-1.907454 -11.6844 -1.80628,-1.983779 -11.27573 -1.832008,-9.510847 -14.81412 -1.955699,-8.791139 -14.35629 -1.835811,-8.416379 -13.43747 -1.589807,-8.201383 -12.49081 -1.446609,-8.059555 -11.68408 -1.351654,-8.968394 -12.22393 -0.9969098,-8.92158 -10.58257 -0.871803,-8.900807 -9.773441 -0.9657285,-8.874225 -9.208811 -1.088641,-9.464787 -12.13729 -1.13091,-9.344352 -10.35454 -0.9777005,-9.239583 -9.534279 -1.143024,-9.157739 -9.015368 -1.307417,-9.897466 -12.29763 -1.343886,-9.808703 -10.62945 -1.278199,-9.669183 -9.855545 -1.464659,-9.552374 -9.409836 -1.623384,-10.23673 -12.60806 -1.587313,-10.25076 -11.39349 -1.589061,-10.17922 -10.83409 -1.715424,-10.0863 -10.54518 -1.873172,7.510, 1 0
-2.223825 -15.13822 -2.111612,-2.942511 -14.93654 -1.83845,-3.358604 -14.24273 -1.622858,-3.568949 -13.4822 -1.509486,-3.674601 -12.70819 -1.457436,-2.875854 -12.95261 -1.284722,-3.074442 -11.62262 -1.065199,-3.217105 -10.98901 -1.075602,-3.310644 -10.58175 -1.189249,-2.455406 -12.84315 -1.472933,-2.608011 -11.40022 -1.332009,-2.608011 -11.40022 -1.332009,-2.883197 -10.58246 -1.851303,-2.118525 -12.95646 -1.668731,-2.185707 -11.64383 -1.534788,-2.335817 -11.04341 -1.64712,-2.448741 -10.68904 -1.774831,-1.871946 -13.27422 -1.879444,-1.844136 -12.25874 -1.796946,-1.907454 -11.6844 -1.80628,-1.983779 -11.27573 -1.832008,-9.510847 -14.81412 -1.955699,-8.791139 -14.35629 -1.835811,-8.416379 -13.43747 -1.589807,-8.201383 -12.49081 -1.446609,-8.059555 -11.68408 -1.351654,-8.968394 -12.22393 -0.9969098,-8.92158 -10.58257 -0.871803,-8.900807 -9.773441 -0.9657285,-8.874225 -9.208811 -1.088641,-9.464787 -12.13729 -1.13091,-9.344352 -10.35454 -0.9777005,-9.239583 -9.534279 -1.143024,-9.157739 -9.015368 -1.307417,-9.897466 -12.29763 -1.343886,-9.808703 -10.62945 -1.278199,-9.669183 -9.855545 -1.464659,-9.552374 -9.409836 -1.623384,-10.23673 -12.60806 -1.587313,-10.25076 -11.39349 -1.589061,-10.17922 -10.83409 -1.715424,-10.0863 -10.54518 -1.873172,7.610, 1 0
-2.223825 -15.13822 -2.111612,-2.942511 -14.93654 -1.83845,-3.358604 -14.24273 -1.622858,-3.568949 -13.4822 -1.509486,-3.674601 -12.70819 -1.457436,-2.875854 -12.95261 -1.284722,-3.074442 -11.62262 -1.065199,-3.217105 -10.98901 -1.075602,-3.310644 -10.58175 -1.189249,-2.455406 -12.84315 -1.472933,-2.608011 -11.40022 -1.332009,-2.608011 -11.40022 -1.332009,-2.883197 -10.58246 -1.851303,-2.118525 -12.95646 -1.668731,-2.185707 -11.64383 -1.534788,-2.335817 -11.04341 -1.64712,-2.448741 -10.68904 -1.774831,-1.871946 -13.27422 -1.879444,-1.844136 -12.25874 -1.796946,-1.907454 -11.6844 -1.80628,-1.983779 -11.27573 -1.832008,-9.510847 -14.81412 -1.955699,-8.791139 -14.35629 -1.835811,-8.416379 -13.43747 -1.589807,-8.201383 -12.49081 -1.446609,-8.059555 -11.68408 -1.351654,-8.968394 -12.22393 -0.9969098,-8.92158 -10.58257 -0.871803,-8.900807 -9.773441 -0.9657285,-8.874225 -9.208811 -1.088641,-9.464787 -12.13729 -1.13091,-9.344352 -10.35454 -0.9777005,-9.239583 -9.534279 -1.143024,-9.157739 -9.015368 -1.307417,-9.897466 -12.29763 -1.343886,-9.808703 -10.62945 -1.278199,-9.669183 -9.855545 -1.464659,-9.552374 -9.409836 -1.623384,-10.23673 -12.60806 -1.587313,-10.25076 -11.39349 -1.589061,-10.17922 -10.83409 -1.715424,-10.0863 -10.54518 -1.873172,7.710, 1 0
