TiagoOliveira98/Thesis-Project/Difficulty_0/Dual_Task/Unity_Project/DataLogging/JointData/Logs(1646757868)_ttttttt_Dual.csv
WRIST,THUMB_CMC,THUMB_MCP,THUMB_IP,THUMB_TIP,INDEX_FINGER_MCP,INDEX_FINGER_PIP,INDEX_FINGER_DIP,INDEX_FINGER_TIP,MIDDLE_FINGER_MCP,MIDDLE_FINGER_PIP,MIDDLE_FINGER_DIP,MIDDLE_FINGER_TIP,RING_FINGER_MCP,RING_FINGER_PIP,RING_FINGER_DIP,RING_FINGER_TIP,PINKY_MCP,PINKY_PIP,PINKY_DIP,PINKY_TIP,WRIST2,THUMB_CMC2,THUMB_MCP2,THUMB_IP2,THUMB_TIP2,INDEX_FINGER_MCP2,INDEX_FINGER_PIP2,INDEX_FINGER_DIP2,INDEX_FINGER_TIP2,MIDDLE_FINGER_MCP2,MIDDLE_FINGER_PIP2,MIDDLE_FINGER_DIP2,MIDDLE_FINGER_TIP2,RING_FINGER_MCP2,RING_FINGER_PIP2,RING_FINGER_DIP2,RING_FINGER_TIP2,PINKY_MCP2,PINKY_PIP2,PINKY_DIP2,PINKY_TIP2,Timestamp,Event
-2.013864 -7.383462 0.001136915,-2.680065 -7.16752 0.2435533,-3.288851 -6.465917 0.3762455,-3.757288 -5.77602 0.4758976,-4.175282 -5.448967 0.6017308,-2.913303 -4.730623 0.2531875,-3.264261 -3.568269 0.3289896,-3.443457 -2.853336 0.3712915,-3.556283 -2.225959 0.4311928,-2.555784 -4.415307 0.214009,-2.865652 -3.065835 0.3401341,-2.865652 -3.065835 0.3401341,-3.151359 -1.539967 0.5562509,-2.210881 -4.349285 0.2100424,-2.42162 -3.06564 0.3376988,-2.572878 -2.254735 0.4764939,-2.69508 -1.585251 0.6035809,-1.863426 -4.507581 0.2229631,-1.882478 -3.49595 0.3458357,-1.922776 -2.874012 0.4876308,-1.962934 -2.314685 0.6164241,-8.651265 -7.190518 0.0006193708,-7.920896 -6.898604 0.2119255,-7.252699 -6.172498 0.3834684,-6.806301 -5.458013 0.6169819,-6.405009 -5.103481 0.8648136,-7.665134 -4.106265 0.05742379,-7.483198 -2.886541 0.1947527,-7.385894 -2.12919 0.3625989,-7.297003 -1.482145 0.497533,-8.057823 -3.823766 0.1576287,-7.864672 -2.40558 0.2527164,-7.736538 -1.503923 0.503333,-7.632384 -0.7180047 0.7223748,-8.454774 -3.836376 0.2955694,-8.324985 -2.541781 0.3818817,-8.215897 -1.739612 0.5458808,-8.10219 -1.042004 0.6954452,-8.875712 -4.094285 0.4571539,-8.932441 -3.079656 0.5718868,-8.927525 -2.433009 0.7077554,-8.886259 -1.813277 0.8171659,0.010, 1 0
-2.033148 -7.392377 0.07761944,-2.685887 -7.162727 0.3405395,-3.288183 -6.450794 0.4729372,-3.756698 -5.774078 0.5791174,-4.180339 -5.471174 0.717325,-2.92532 -4.70716 0.2870812,-3.269449 -3.574303 0.3736099,-3.446158 -2.873542 0.4175743,-3.559765 -2.250862 0.4798992,-2.571597 -4.399498 0.2630276,-2.86698 -3.062376 0.3946167,-2.86698 -3.062376 0.3946167,-3.149094 -1.547915 0.6171001,-2.227294 -4.343111 0.2863645,-2.417445 -3.060037 0.4266205,-2.565219 -2.258701 0.5802792,-2.688444 -1.583848 0.7171831,-1.875583 -4.513148 0.3302083,-1.878808 -3.501458 0.471813,-1.916803 -2.871969 0.6311306,-1.959635 -2.301965 0.7742101,-8.662447 -7.154109 -0.03317145,-7.928801 -6.876007 0.161869,-7.256573 -6.162445 0.3272708,-6.805763 -5.460523 0.5589046,-6.40102 -5.111213 0.8042209,-7.661854 -4.078893 -0.01979989,-7.48033 -2.857243 0.1000991,-7.384314 -2.095941 0.2566812,-7.295815 -1.455459 0.3842702,-8.054299 -3.798169 0.08381187,-7.859311 -2.377838 0.1585003,-7.734164 -1.477 0.3955427,-7.633367 -0.6972537 0.6093726,-8.452403 -3.808817 0.2263048,-8.320033 -2.520719 0.2944474,-8.212654 -1.721586 0.4430481,-8.099884 -1.024661 0.5847258,-8.873196 -4.062702 0.3950345,-8.93327 -3.048398 0.4890281,-8.931058 -2.413377 0.6128435,-8.891446 -1.803857 0.7152247,0.110, 1 0
-1.999798 -7.392445 0.006123019,-2.665725 -7.173872 0.2396799,-3.277414 -6.458035 0.3708103,-3.754835 -5.766595 0.4723696,-4.18125 -5.453573 0.6132563,-2.920072 -4.743722 0.2448566,-3.269286 -3.582224 0.3294866,-3.446901 -2.870003 0.3604517,-3.562825 -2.244837 0.4082052,-2.560549 -4.426244 0.2176927,-2.865824 -3.066455 0.3542357,-2.865824 -3.066455 0.3542357,-3.160067 -1.54528 0.5526333,-2.212849 -4.360962 0.2305567,-2.416958 -3.055159 0.3730458,-2.573858 -2.241191 0.5180308,-2.706047 -1.565008 0.647863,-1.862226 -4.522666 0.2549052,-1.878611 -3.487571 0.3950891,-1.925538 -2.854969 0.5491074,-1.980011 -2.285726 0.6862473,-8.648252 -7.21557 0.09960429,-7.936455 -6.906396 0.3429676,-7.274063 -6.174037 0.5458459,-6.821552 -5.461591 0.8085588,-6.399053 -5.113343 1.088931,-7.672399 -4.102654 0.2208113,-7.48839 -2.872427 0.3784276,-7.393028 -2.109375 0.5552894,-7.305914 -1.44939 0.6889676,-8.06144 -3.822296 0.3175656,-7.875103 -2.39832 0.4343794,-7.750795 -1.490174 0.6825385,-7.650376 -0.7008491 0.8906435,-8.45663 -3.843965 0.4543123,-8.333529 -2.534964 0.5564808,-8.227798 -1.719587 0.7187054,-8.117923 -1.015489 0.8591819,-8.878663 -4.116786 0.6150873,-8.930747 -3.086017 0.7540667,-8.926092 -2.422464 0.8966058,-8.889585 -1.787796 0.9985699,0.210, 1 0
-2.008342 -7.37108 -0.08601128,-2.685508 -7.168817 0.1174208,-3.300411 -6.473298 0.2320903,-3.773684 -5.774408 0.3082405,-4.189834 -5.450346 0.4103245,-2.924709 -4.757591 0.1757748,-3.276105 -3.567226 0.2468094,-3.454829 -2.846817 0.2774979,-3.567578 -2.223249 0.3253037,-2.559462 -4.430223 0.1300325,-2.877164 -3.046511 0.2523475,-2.877164 -3.046511 0.2523475,-3.171791 -1.510698 0.437289,-2.206987 -4.351852 0.1091478,-2.42924 -3.043968 0.2303868,-2.587038 -2.228746 0.3497778,-2.714533 -1.568087 0.4581429,-1.856543 -4.494882 0.09844667,-1.889125 -3.465903 0.2071368,-1.940192 -2.847108 0.3273305,-1.99378 -2.297589 0.4382024,-8.645297 -7.182062 0.01592031,-7.919221 -6.901411 0.2628539,-7.254032 -6.182704 0.4563777,-6.808846 -5.464633 0.709356,-6.401516 -5.094891 0.9755208,-7.652116 -4.100676 0.1214125,-7.465391 -2.864915 0.2774369,-7.368349 -2.097158 0.4541844,-7.279767 -1.435361 0.5885792,-8.048693 -3.813699 0.215603,-7.862202 -2.392998 0.3199534,-7.739902 -1.48383 0.5670891,-7.641123 -0.6967797 0.7793393,-8.451767 -3.825405 0.3494024,-8.321861 -2.515699 0.4431502,-8.21552 -1.708757 0.6058191,-8.105723 -1.010356 0.7477857,-8.883502 -4.079498 0.5126979,-8.934121 -3.051304 0.6369394,-8.926379 -2.395393 0.770493,-8.885759 -1.767711 0.8722733,0.310, 1 0
-2.021742 -7.373331 -0.04986501,-2.693684 -7.158664 0.1471417,-3.304787 -6.469786 0.2602677,-3.772191 -5.779249 0.3355689,-4.181894 -5.460845 0.4309587,-2.932903 -4.746789 0.1889037,-3.281527 -3.571108 0.2672304,-3.453297 -2.853601 0.306861,-3.560978 -2.2327 0.3589883,-2.569129 -4.420276 0.1523323,-2.880763 -3.047932 0.2835295,-2.880763 -3.047932 0.2835295,-3.168774 -1.513311 0.4876751,-2.217977 -4.343354 0.1441078,-2.433803 -3.043118 0.2756153,-2.587301 -2.229721 0.4016026,-2.714303 -1.567161 0.5153843,-1.86505 -4.487666 0.1449648,-1.886774 -3.465506 0.2638008,-1.927067 -2.844429 0.3919607,-1.972256 -2.290025 0.5087717,-8.645929 -7.194361 0.01186804,-7.924909 -6.899045 0.2611955,-7.2596 -6.175458 0.4592565,-6.809937 -5.455709 0.7157649,-6.398946 -5.091558 0.9889191,-7.666426 -4.112468 0.1356841,-7.47693 -2.881741 0.2885492,-7.374467 -2.120368 0.4612904,-7.281453 -1.461787 0.5959305,-8.057157 -3.826852 0.2286713,-7.866332 -2.404406 0.3356917,-7.738751 -1.496781 0.5777075,-7.636289 -0.7009835 0.7881422,-8.455304 -3.839633 0.3621843,-8.32127 -2.525362 0.4577056,-8.209641 -1.710969 0.6229172,-8.094168 -1.003926 0.7664287,-8.882137 -4.095712 0.5219038,-8.930374 -3.063622 0.6479301,-8.922969 -2.403242 0.7877823,-8.881808 -1.769204 0.8908039,0.410, 1 0
-1.996333 -7.375406 0.139141,-2.662172 -7.176271 0.4057965,-3.282242 -6.467388 0.542199,-3.756306 -5.775518 0.6484403,-4.183922 -5.459583 0.7892014,-2.939676 -4.699522 0.3608815,-3.282012 -3.561716 0.4607286,-3.453541 -2.858463 0.5198234,-3.564639 -2.224687 0.5968512,-2.580114 -4.373933 0.3377495,-2.883659 -3.042688 0.4761229,-2.883659 -3.042688 0.4761229,-3.162785 -1.518569 0.7194739,-2.226815 -4.31115 0.362065,-2.431322 -3.035158 0.5185127,-2.578854 -2.234745 0.6778054,-2.706109 -1.560407 0.815219,-1.862325 -4.483461 0.4064869,-1.871074 -3.482884 0.5582609,-1.909087 -2.862052 0.7188212,-1.95672 -2.298427 0.8566102,-8.666711 -7.162835 0.06220744,-7.928335 -6.906971 0.321072,-7.253643 -6.184459 0.5175445,-6.806854 -5.447631 0.7684094,-6.399998 -5.077026 1.030454,-7.651572 -4.087058 0.1713033,-7.460343 -2.855775 0.3229633,-7.364142 -2.090692 0.4896716,-7.279387 -1.436727 0.612781,-8.049838 -3.783979 0.2497518,-7.855993 -2.359998 0.3432531,-7.736241 -1.458047 0.5661599,-7.639628 -0.6794963 0.7603129,-8.454524 -3.791868 0.372032,-8.321527 -2.477888 0.460303,-8.2196 -1.665249 0.6221011,-8.11322 -0.9621453 0.7633237,-8.885183 -4.05031 0.5237473,-8.932345 -3.032467 0.6389166,-8.927674 -2.384196 0.775387,-8.885831 -1.764338 0.8832886,0.510, 1 0
-1.993586 -7.38709 0.0206344,-2.662715 -7.165838 0.260162,-3.277295 -6.466453 0.4003482,-3.757437 -5.768025 0.4982554,-4.182032 -5.449955 0.6309952,-2.913253 -4.740352 0.2981077,-3.272503 -3.563888 0.3875133,-3.448383 -2.845022 0.4269814,-3.557804 -2.214947 0.4800616,-2.553882 -4.417821 0.2492088,-2.872379 -3.043006 0.3888096,-2.872379 -3.043006 0.3888096,-3.152803 -1.507789 0.5899901,-2.203537 -4.346727 0.2335312,-2.425127 -3.043113 0.3669448,-2.578168 -2.230713 0.5045835,-2.703818 -1.561739 0.6287443,-1.849715 -4.500801 0.2294009,-1.86954 -3.472349 0.3595319,-1.909084 -2.846162 0.5055726,-1.952286 -2.284035 0.635722,-8.640382 -7.164132 0.08922834,-7.919749 -6.862708 0.3318416,-7.25104 -6.1503 0.5283024,-6.799877 -5.443487 0.7821979,-6.391157 -5.08176 1.049151,-7.643114 -4.061687 0.1985037,-7.453851 -2.837152 0.3537559,-7.355732 -2.080511 0.52858,-7.265264 -1.425792 0.6607426,-8.03576 -3.776203 0.2941493,-7.854715 -2.356767 0.3988017,-7.735864 -1.458201 0.6404519,-7.637045 -0.681459 0.8442802,-8.435894 -3.791814 0.4279357,-8.312701 -2.48981 0.5232744,-8.209369 -1.688749 0.6867297,-8.099666 -0.9976611 0.8285602,-8.862591 -4.05038 0.5897304,-8.914644 -3.030554 0.7111276,-8.91042 -2.382371 0.841584,-8.871302 -1.764928 0.937888,0.610, 1 0
-2.003571 -7.403467 -0.008782585,-2.679251 -7.179431 0.1591822,-3.29175 -6.475042 0.2703024,-3.765808 -5.764766 0.3385561,-4.187175 -5.445896 0.4382782,-2.912549 -4.79998 0.2894779,-3.273407 -3.56859 0.2900504,-3.450282 -2.853874 0.3167793,-3.564053 -2.233237 0.3574888,-2.564054 -4.4414 0.2006843,-2.874807 -3.065746 0.3371701,-2.874807 -3.065746 0.3371701,-3.161114 -1.536038 0.5393543,-2.213833 -4.369499 0.2182254,-2.430327 -3.057708 0.349434,-2.585186 -2.245232 0.4804381,-2.71206 -1.576561 0.6007715,-1.860105 -4.517892 0.2390218,-1.878719 -3.472364 0.3627298,-1.91982 -2.843533 0.5005494,-1.9652 -2.277426 0.625307,-8.625703 -7.160173 0.05300947,-7.897497 -6.872535 0.3232883,-7.224987 -6.143979 0.5299851,-6.77249 -5.421305 0.7820939,-6.354694 -5.048003 1.046128,-7.617394 -4.083344 0.2303448,-7.419065 -2.852502 0.4062411,-7.316016 -2.091178 0.5859925,-7.223321 -1.426672 0.7148034,-8.012617 -3.788522 0.3186056,-7.832348 -2.366588 0.4438505,-7.710757 -1.474742 0.6828184,-7.606018 -0.6956239 0.8790234,-8.414541 -3.792875 0.4425537,-8.28829 -2.480583 0.5650231,-8.183717 -1.676032 0.7456115,-8.068698 -0.9756331 0.8932806,-8.842499 -4.03433 0.5928947,-8.89647 -3.011024 0.7386146,-8.891802 -2.354883 0.8805365,-8.849955 -1.731285 0.9790571,0.710, 1 0
-2.017426 -7.396577 -0.1064693,-2.6952 -7.173069 0.05972576,-3.312042 -6.475824 0.1687099,-3.787197 -5.775547 0.2404197,-4.199409 -5.442013 0.3390228,-2.927722 -4.783825 0.1685019,-3.283121 -3.570909 0.2278637,-3.458364 -2.849398 0.2301953,-3.56687 -2.239974 0.2494133,-2.560716 -4.46179 0.1296528,-2.883757 -3.063913 0.2483853,-2.883757 -3.063913 0.2483853,-3.17155 -1.536636 0.4053462,-2.208557 -4.379242 0.1096273,-2.438254 -3.057548 0.2228143,-2.59735 -2.235961 0.3349755,-2.722408 -1.575587 0.439463,-1.859712 -4.514511 0.08952516,-1.893694 -3.468005 0.1941395,-1.938455 -2.840722 0.3153825,-1.983541 -2.282417 0.4268311,-8.470725 -7.173864 0.001342336,-7.740499 -6.89359 0.3353235,-7.075892 -6.20383 0.5597965,-6.632791 -5.489511 0.8176332,-6.204612 -5.105222 1.083724,-7.444363 -4.14681 0.2650451,-7.222478 -2.928596 0.4823686,-7.117598 -2.166269 0.6877725,-7.030792 -1.489589 0.8300755,-7.842222 -3.825283 0.326324,-7.633102 -2.420211 0.4899631,-7.510191 -1.542739 0.7503793,-7.398688 -0.7719579 0.9613375,-8.246462 -3.810569 0.4233559,-8.098423 -2.486874 0.5913773,-8.003044 -1.680713 0.8004984,-7.891108 -0.9714141 0.9611229,-8.681906 -4.034463 0.5512046,-8.723626 -3.024719 0.7300457,-8.717854 -2.371051 0.8775711,-8.673587 -1.747873 0.9842393,0.810, 1 0
-2.006714 -7.394493 0.1018494,-2.669239 -7.175735 0.3619812,-3.282604 -6.464178 0.4971101,-3.76026 -5.775579 0.5948606,-4.187548 -5.469324 0.7209081,-2.931513 -4.723861 0.3529401,-3.28245 -3.572757 0.4532635,-3.454645 -2.861155 0.5063363,-3.561897 -2.226992 0.5763115,-2.571504 -4.400928 0.3101651,-2.880177 -3.052585 0.4518795,-2.880177 -3.052585 0.4518795,-3.159994 -1.524988 0.6768351,-2.221029 -4.334489 0.3088248,-2.432627 -3.044702 0.4582887,-2.582787 -2.236076 0.6061426,-2.709536 -1.562927 0.7342609,-1.864085 -4.494792 0.3245258,-1.878132 -3.482269 0.4642435,-1.915751 -2.856681 0.6157659,-1.95932 -2.290485 0.7470791,-8.324901 -7.106539 -0.05243905,-7.604539 -6.862279 0.2896302,-6.932468 -6.151699 0.5086743,-6.479872 -5.445553 0.7590861,-6.034786 -5.083827 1.029587,-7.285593 -4.096111 0.2085693,-7.052463 -2.919398 0.4088481,-6.940799 -2.172973 0.5994534,-6.851526 -1.504137 0.7448424,-7.681366 -3.77634 0.2704927,-7.449196 -2.417318 0.4081193,-7.315092 -1.554651 0.6652673,-7.202793 -0.8000884 0.8758464,-8.083992 -3.753326 0.3694785,-7.920437 -2.457572 0.5144793,-7.817699 -1.662412 0.7138258,-7.701381 -0.9674211 0.8702263,-8.521787 -3.963174 0.5039967,-8.539533 -2.93969 0.6719403,-8.517905 -2.295955 0.8088675,-8.460722 -1.687464 0.9132926,0.910, 1 0
-1.987458 -7.393305 -0.05455573,-2.658468 -7.167591 0.1579146,-3.273594 -6.487453 0.2929255,-3.754571 -5.798748 0.3803158,-4.172346 -5.468149 0.4996254,-2.90748 -4.780757 0.2524701,-3.271999 -3.594312 0.3400249,-3.4478 -2.87328 0.378141,-3.55768 -2.248472 0.4275887,-2.543825 -4.447019 0.1961523,-2.865914 -3.06073 0.3310435,-2.865914 -3.06073 0.3310435,-3.155739 -1.527804 0.5182085,-2.193782 -4.364584 0.1638874,-2.421156 -3.04982 0.290646,-2.578253 -2.230581 0.4144742,-2.705327 -1.568247 0.5253224,-1.845706 -4.507049 0.1364486,-1.873107 -3.465814 0.2490863,-1.918553 -2.840881 0.3705215,-1.967521 -2.28848 0.4797555,-8.280288 -7.059394 -0.1299759,-7.564214 -6.802078 0.2059838,-6.893327 -6.100925 0.4361097,-6.43017 -5.420692 0.7006121,-5.983624 -5.085001 0.9942354,-7.242846 -4.072198 0.1327206,-7.004869 -2.909101 0.3318463,-6.891845 -2.166472 0.5244887,-6.801598 -1.501254 0.6802877,-7.628285 -3.754342 0.2013341,-7.387562 -2.408505 0.3412248,-7.253305 -1.557638 0.592641,-7.139517 -0.8005242 0.8072259,-8.02204 -3.721757 0.3059808,-7.844483 -2.434858 0.4423185,-7.740514 -1.645632 0.6250262,-7.625495 -0.9559436 0.7757855,-8.456455 -3.919404 0.447906,-8.462852 -2.886814 0.6050294,-8.437919 -2.246703 0.7273244,-8.381322 -1.648916 0.8266947,1.010, 1 0
-1.974636 -7.407436 0.05243127,-2.641644 -7.192649 0.2825933,-3.254286 -6.491928 0.4138996,-3.728336 -5.8048 0.5079485,-4.149673 -5.489309 0.6356078,-2.896462 -4.750532 0.2993183,-3.251048 -3.582697 0.3746515,-3.424475 -2.865285 0.4093521,-3.533667 -2.234504 0.4665697,-2.53054 -4.426397 0.2581336,-2.849236 -3.063654 0.3754096,-2.849236 -3.063654 0.3754096,-3.137951 -1.538629 0.5671259,-2.179657 -4.3572 0.2514265,-2.400487 -3.052829 0.3741369,-2.555987 -2.236257 0.5069292,-2.684436 -1.561498 0.6275403,-1.829043 -4.516641 0.258211,-1.854362 -3.484015 0.3782713,-1.900145 -2.853465 0.5161038,-1.9503 -2.285652 0.6413811,-8.207394 -6.990909 -0.2017395,-7.497895 -6.78096 0.1211862,-6.821234 -6.083162 0.342099,-6.361078 -5.398991 0.6000056,-5.927779 -5.064729 0.8872887,-7.150643 -4.023579 0.01469183,-6.933582 -2.886696 0.18158,-6.824029 -2.149421 0.3627668,-6.733349 -1.496257 0.5211838,-7.541832 -3.704182 0.07092145,-7.311436 -2.373923 0.1749027,-7.168655 -1.517359 0.4086559,-7.055999 -0.7571807 0.6124906,-7.939817 -3.663272 0.1639081,-7.771618 -2.400445 0.2615276,-7.658774 -1.635407 0.4112934,-7.541494 -0.981195 0.5451856,-8.371295 -3.842496 0.295869,-8.373501 -2.822326 0.4084176,-8.341646 -2.190155 0.5012979,-8.282336 -1.594007 0.5801717,1.110, 1 0
-1.954711 -7.435571 0.02353049,-2.627287 -7.216642 0.2450168,-3.23933 -6.503767 0.3686185,-3.711727 -5.800025 0.4430369,-4.133854 -5.489297 0.5474943,-2.866104 -4.78906 0.3079418,-3.221447 -3.596221 0.3692222,-3.393003 -2.867225 0.3887407,-3.500904 -2.237175 0.4345718,-2.496224 -4.461961 0.2519753,-2.817909 -3.07936 0.3678619,-2.817909 -3.07936 0.3678619,-3.108461 -1.540554 0.5503386,-2.146484 -4.387477 0.2237004,-2.37047 -3.075696 0.3433326,-2.528265 -2.244102 0.4724494,-2.65589 -1.563297 0.5916912,-1.801914 -4.541669 0.20351,-1.828516 -3.501311 0.3202006,-1.873392 -2.870647 0.4509131,-1.918779 -2.304456 0.5754877,-8.171704 -6.947494 -0.2575246,-7.464128 -6.763814 0.03907323,-6.789985 -6.0648 0.2394962,-6.342619 -5.384065 0.479801,-5.929888 -5.064123 0.7477543,-7.113597 -3.993078 -0.1024647,-6.903636 -2.861758 0.04264548,-6.793935 -2.128921 0.210011,-6.701178 -1.487669 0.3647342,-7.5057 -3.673526 -0.03271462,-7.280636 -2.344671 0.05388296,-7.134749 -1.4947 0.2793314,-7.015822 -0.7415738 0.4808269,-7.906072 -3.634693 0.07744756,-7.738252 -2.377655 0.1695405,-7.620993 -1.612092 0.3277473,-7.498652 -0.9516196 0.4765397,-8.340178 -3.823639 0.2259617,-8.360356 -2.822416 0.3368917,-8.339288 -2.192158 0.4459348,-8.282458 -1.592266 0.5435446,1.210, 1 0
-1.942636 -7.453565 0.054438,-2.617218 -7.237821 0.2780832,-3.228798 -6.527956 0.4056028,-3.703334 -5.81959 0.4899326,-4.130687 -5.496564 0.6082276,-2.853077 -4.794149 0.3345084,-3.213045 -3.592603 0.4091898,-3.386735 -2.859437 0.4469467,-3.491306 -2.217486 0.5036733,-2.487937 -4.471567 0.2817223,-2.806535 -3.081859 0.4023117,-2.806535 -3.081859 0.4023117,-3.088198 -1.540501 0.6002185,-2.138852 -4.402601 0.2583594,-2.358041 -3.080163 0.3760412,-2.514843 -2.252964 0.5068352,-2.639494 -1.571141 0.6292443,-1.791743 -4.564285 0.2448149,-1.813751 -3.516553 0.3642949,-1.855787 -2.888532 0.495317,-1.898236 -2.321857 0.6180394,-8.173783 -6.938073 -0.2718005,-7.468857 -6.760482 0.03639984,-6.79249 -6.063323 0.2444288,-6.341524 -5.372986 0.4938679,-5.91341 -5.045838 0.7770493,-7.103143 -3.994715 -0.09624907,-6.895268 -2.850346 0.05425563,-6.787532 -2.111711 0.2231079,-6.696935 -1.466123 0.3716796,-7.496796 -3.672004 -0.02686468,-7.271754 -2.348093 0.0685955,-7.130166 -1.502303 0.2955341,-7.01633 -0.7564054 0.4954261,-7.900249 -3.631918 0.08462742,-7.730265 -2.375476 0.1887003,-7.614939 -1.609007 0.3545737,-7.494281 -0.950561 0.5016741,-8.338581 -3.819641 0.2326396,-8.353604 -2.8103 0.3614977,-8.329659 -2.164711 0.4811403,-8.270638 -1.545697 0.5827844,1.310, 1 0
-1.94793 -7.482227 0.05880107,-2.619265 -7.249495 0.2492274,-3.226671 -6.517801 0.3607122,-3.70645 -5.807315 0.4295004,-4.142609 -5.521166 0.5307604,-2.850582 -4.816211 0.3275622,-3.205038 -3.607715 0.3865952,-3.376741 -2.874936 0.3959851,-3.478434 -2.242812 0.4285685,-2.48748 -4.497835 0.2849233,-2.805295 -3.106711 0.4045349,-2.805295 -3.106711 0.4045349,-3.084858 -1.568195 0.5864772,-2.137856 -4.426586 0.2670823,-2.362731 -3.10527 0.3822574,-2.51989 -2.277746 0.5026994,-2.641918 -1.595233 0.6141675,-1.790784 -4.577865 0.2544635,-1.815391 -3.526202 0.3720507,-1.852775 -2.895178 0.4998936,-1.88506 -2.322387 0.6211496,-8.183519 -6.958091 -0.2389386,-7.467876 -6.778512 0.0783079,-6.784928 -6.075221 0.2902522,-6.32328 -5.384689 0.5390505,-5.896133 -5.05933 0.8209455,-7.103014 -4.016279 -0.06124359,-6.887189 -2.875062 0.09599909,-6.776817 -2.135122 0.2686437,-6.683491 -1.49028 0.413709,-7.492683 -3.684428 -0.005812317,-7.260886 -2.367126 0.08883408,-7.116457 -1.520124 0.3082998,-6.99921 -0.7711167 0.4992346,-7.893238 -3.639515 0.09226677,-7.721772 -2.3871 0.1854466,-7.605864 -1.621624 0.341576,-7.484535 -0.9627118 0.4817494,-8.32726 -3.824646 0.2277927,-8.343023 -2.819232 0.3467335,-8.321123 -2.180959 0.4633248,-8.265747 -1.571262 0.5590165,1.410, 1 0
-1.9557 -7.470068 -0.04028103,-2.629329 -7.239791 0.1424167,-3.240804 -6.529439 0.2564119,-3.721056 -5.823851 0.3239504,-4.14506 -5.510612 0.4232535,-2.860318 -4.83777 0.2550555,-3.213634 -3.616065 0.3148954,-3.386741 -2.888958 0.3183873,-3.496859 -2.27131 0.3400226,-2.491575 -4.515476 0.2059863,-2.805066 -3.107349 0.3306538,-2.805066 -3.107349 0.3306538,-3.093397 -1.585259 0.495943,-2.142386 -4.435203 0.1769826,-2.361378 -3.100177 0.2961636,-2.518724 -2.2747 0.4140168,-2.645816 -1.604267 0.5232624,-1.799535 -4.573043 0.1471343,-1.821434 -3.511125 0.2632322,-1.861422 -2.876809 0.3913009,-1.904844 -2.308635 0.5090706,-8.156456 -6.994943 -0.2371811,-7.434748 -6.811772 0.05751908,-6.752134 -6.111984 0.2564322,-6.292553 -5.427429 0.5003904,-5.866705 -5.095638 0.7771522,-7.068895 -4.041458 -0.1102779,-6.85261 -2.900722 0.02923626,-6.739298 -2.158704 0.198845,-6.646078 -1.512196 0.347176,-7.460387 -3.719175 -0.04494111,-7.233379 -2.398154 0.0259665,-7.087916 -1.555324 0.2425909,-6.971519 -0.8115706 0.4306229,-7.861754 -3.671365 0.06226319,-7.696727 -2.417525 0.1360535,-7.579641 -1.661417 0.2851162,-7.45745 -1.010927 0.4218997,-8.295137 -3.844045 0.2068746,-8.308919 -2.831402 0.3116047,-8.282091 -2.192852 0.4129057,-8.221848 -1.584753 0.4987565,1.510, 1 0
-1.963041 -7.459669 -0.02143854,-2.623904 -7.226614 0.1520941,-3.232701 -6.506218 0.2649856,-3.712362 -5.809133 0.3379104,-4.139267 -5.510436 0.443004,-2.853248 -4.820076 0.2739847,-3.212987 -3.605579 0.3357987,-3.386564 -2.872331 0.3483562,-3.491276 -2.245428 0.3819338,-2.490858 -4.498859 0.233683,-2.811995 -3.09547 0.3621816,-2.811995 -3.09547 0.3621816,-3.097246 -1.55469 0.5479423,-2.144398 -4.419899 0.2100602,-2.373515 -3.094404 0.3274815,-2.530805 -2.263413 0.4452812,-2.655541 -1.585087 0.5567781,-1.802841 -4.562679 0.1891282,-1.829904 -3.511567 0.3018083,-1.870358 -2.880707 0.4243881,-1.909221 -2.312353 0.5421513,-8.146255 -6.979896 -0.2661632,-7.42736 -6.803245 0.01464349,-6.74225 -6.106935 0.2041475,-6.280208 -5.429077 0.4413911,-5.858395 -5.107968 0.7138295,-7.061104 -4.034452 -0.173869,-6.841436 -2.906074 -0.04909852,-6.728581 -2.168708 0.1118274,-6.636564 -1.52942 0.2606972,-7.449101 -3.711234 -0.1034139,-7.211542 -2.38491 -0.04763041,-7.066159 -1.535061 0.1617517,-6.952406 -0.7903447 0.3482845,-7.849194 -3.663014 0.01039574,-7.676884 -2.414642 0.06781757,-7.556171 -1.661142 0.2075463,-7.433544 -1.020276 0.3422969,-8.283792 -3.83962 0.1635467,-8.297887 -2.832199 0.2566305,-8.274561 -2.202955 0.3576882,-8.218018 -1.609875 0.4468248,1.610, 1 0
-1.976747 -7.448133 -0.007401844,-2.642824 -7.22487 0.1508571,-3.245955 -6.514461 0.2509059,-3.719158 -5.812939 0.3161961,-4.142765 -5.497695 0.4090725,-2.865067 -4.803396 0.2502186,-3.225677 -3.582887 0.3035603,-3.40013 -2.849315 0.3133166,-3.499596 -2.223562 0.3411722,-2.502459 -4.480123 0.2132892,-2.819202 -3.074962 0.3267905,-2.819202 -3.074962 0.3267905,-3.091271 -1.534863 0.4941857,-2.154978 -4.400272 0.194995,-2.37545 -3.0747 0.2984156,-2.530778 -2.244107 0.4117851,-2.649917 -1.569345 0.5178313,-1.810701 -4.542211 0.1788397,-1.837129 -3.488793 0.2793849,-1.875974 -2.863328 0.3961615,-1.911574 -2.302572 0.5086264,-8.120486 -7.005901 -0.1868301,-7.411242 -6.792619 0.08541927,-6.73544 -6.093597 0.2729684,-6.279846 -5.415897 0.5147448,-5.859926 -5.099531 0.7910886,-7.043759 -4.028816 -0.09660895,-6.824108 -2.900242 0.02476795,-6.713773 -2.163969 0.185774,-6.621466 -1.515488 0.3387034,-7.434191 -3.712289 -0.01373495,-7.199591 -2.389755 0.04389107,-7.054246 -1.546773 0.2548766,-6.939301 -0.8091159 0.444918,-7.83485 -3.669338 0.1131941,-7.664369 -2.410195 0.1820246,-7.545465 -1.651832 0.3297664,-7.422434 -1.003459 0.4704812,-8.269563 -3.848486 0.275997,-8.283813 -2.833672 0.3827925,-8.258079 -2.192508 0.493076,-8.198635 -1.583808 0.5910423,1.710, 1 0
-1.960409 -7.439354 -0.03608803,-2.628248 -7.218641 0.1582115,-3.236704 -6.511372 0.2793047,-3.715141 -5.815071 0.3524005,-4.145782 -5.51172 0.4575367,-2.870203 -4.816321 0.2700833,-3.231124 -3.602688 0.3391222,-3.403423 -2.866215 0.3607113,-3.50851 -2.237651 0.4022577,-2.500867 -4.484639 0.2136982,-2.82942 -3.090574 0.3332477,-2.82942 -3.090574 0.3332477,-3.125977 -1.553266 0.5120423,-2.14743 -4.401502 0.1786467,-2.383912 -3.07829 0.2941954,-2.544029 -2.245965 0.4149878,-2.675647 -1.570006 0.5280308,-1.799275 -4.545349 0.1472805,-1.836509 -3.494709 0.2590903,-1.881723 -2.864657 0.3814814,-1.930142 -2.295325 0.4998714,-8.137642 -6.977402 -0.2585915,-7.410451 -6.775506 -0.008380622,-6.727163 -6.080324 0.161759,-6.270259 -5.414455 0.3873289,-5.856212 -5.108263 0.6432082,-7.0362 -4.022502 -0.1979306,-6.819277 -2.890363 -0.09317032,-6.708717 -2.150908 0.05322626,-6.615862 -1.505555 0.196261,-7.425811 -3.708989 -0.1107989,-7.195104 -2.382845 -0.0663581,-7.050359 -1.532687 0.1379063,-6.934481 -0.7928681 0.3242258,-7.824697 -3.665193 0.01852125,-7.657982 -2.409582 0.07569313,-7.538658 -1.652765 0.2205079,-7.41342 -1.008344 0.3586327,-8.254309 -3.841664 0.1827609,-8.274161 -2.826704 0.2820417,-8.249952 -2.19095 0.3922992,-8.189262 -1.58622 0.4873524,1.810, 1 0
-1.95035 -7.441131 0.02701234,-2.622628 -7.227421 0.2129357,-3.235868 -6.510289 0.3262473,-3.710909 -5.812077 0.4005794,-4.136472 -5.501269 0.5039244,-2.864427 -4.789974 0.2841347,-3.215421 -3.588412 0.3496269,-3.385698 -2.857712 0.3744154,-3.489244 -2.225172 0.4174418,-2.501995 -4.467623 0.245666,-2.812003 -3.075012 0.3695513,-2.812003 -3.075012 0.3695513,-3.092045 -1.531941 0.5627239,-2.153703 -4.394008 0.2314055,-2.37159 -3.076324 0.3470996,-2.528955 -2.246822 0.4658571,-2.654084 -1.566835 0.5778558,-1.806474 -4.544885 0.2238085,-1.831283 -3.495352 0.3359849,-1.872149 -2.863927 0.4583429,-1.912322 -2.294395 0.5744397,-8.102198 -6.998211 -0.193942,-7.38821 -6.79718 0.04322788,-6.720258 -6.088804 0.2151935,-6.268889 -5.414884 0.4455813,-5.856784 -5.11137 0.7048783,-7.039268 -4.023574 -0.1424759,-6.826254 -2.908082 -0.030114,-6.715564 -2.193929 0.1198961,-6.616207 -1.567721 0.2541776,-7.424297 -3.703315 -0.05578674,-7.206707 -2.372565 -0.005529106,-7.065326 -1.529858 0.2017135,-6.945681 -0.797399 0.381378,-7.817596 -3.667438 0.07207525,-7.660657 -2.410516 0.1206736,-7.541871 -1.652595 0.2589674,-7.419382 -1.00633 0.3928863,-8.242188 -3.861488 0.2320811,-8.269135 -2.853132 0.3211162,-8.248412 -2.209543 0.4334952,-8.196046 -1.606107 0.5230476,1.910, 1 0
-1.917141 -7.459787 0.1095559,-2.599907 -7.239833 0.3101612,-3.222456 -6.524587 0.4199035,-3.701986 -5.81413 0.4877852,-4.125671 -5.497992 0.5889768,-2.853758 -4.788433 0.3353735,-3.205688 -3.599234 0.3897543,-3.375494 -2.871732 0.4063172,-3.476374 -2.240766 0.4489688,-2.489462 -4.463667 0.2910897,-2.80396 -3.088504 0.3973393,-2.80396 -3.088504 0.3973393,-3.072651 -1.555858 0.5731742,-2.138885 -4.388525 0.2764804,-2.360886 -3.088344 0.3803798,-2.514229 -2.272832 0.4984107,-2.632643 -1.59974 0.6102973,-1.78963 -4.537415 0.271674,-1.813394 -3.505756 0.3795573,-1.853857 -2.877009 0.5095115,-1.890197 -2.309479 0.6324915,-8.162117 -6.972673 -0.3002256,-7.461689 -6.763139 -0.0454582,-6.781265 -6.075008 0.1500748,-6.321744 -5.413534 0.4048012,-5.903028 -5.10847 0.689436,-7.074594 -4.035743 -0.2016818,-6.857384 -2.913805 -0.07898717,-6.748413 -2.187838 0.06796435,-6.657892 -1.558327 0.2041982,-7.461231 -3.716121 -0.1127783,-7.232051 -2.380489 -0.03182852,-7.085337 -1.531959 0.184387,-6.964213 -0.7887874 0.372275,-7.858611 -3.667871 0.01682001,-7.695322 -2.410025 0.0985961,-7.575566 -1.648921 0.2467164,-7.447309 -0.9934134 0.3826768,-8.28797 -3.847125 0.176228,-8.311279 -2.837204 0.2876162,-8.295011 -2.209384 0.4008314,-8.242333 -1.616969 0.4939913,2.010, 1 0
-1.92447 -7.488153 -0.007773813,-2.598454 -7.24092 0.1470251,-3.207867 -6.525592 0.2421305,-3.685915 -5.834076 0.2936485,-4.107531 -5.536922 0.3750207,-2.84281 -4.846199 0.264839,-3.201329 -3.617248 0.3200556,-3.377062 -2.883019 0.3202972,-3.486673 -2.260124 0.3399889,-2.476982 -4.525947 0.2238351,-2.788044 -3.111287 0.3480799,-2.788044 -3.111287 0.3480799,-3.071516 -1.571891 0.526415,-2.127935 -4.445699 0.1992894,-2.346705 -3.109843 0.3113357,-2.502168 -2.283926 0.4280374,-2.627833 -1.610925 0.5394913,-1.786165 -4.580881 0.1704967,-1.808274 -3.517442 0.2818052,-1.846783 -2.882841 0.4064435,-1.886838 -2.31382 0.5214338,-8.262211 -6.92382 -0.2543909,-7.564885 -6.708145 0.03732747,-6.886358 -6.003748 0.2571501,-6.429357 -5.329212 0.5190767,-6.01509 -4.978383 0.8046045,-7.199783 -3.969884 -0.03793131,-6.969073 -2.85322 0.1375083,-6.87123 -2.13566 0.3045038,-6.794662 -1.498391 0.4475896,-7.589436 -3.655904 0.03976348,-7.354354 -2.335308 0.1663762,-7.215471 -1.497513 0.4024404,-7.096438 -0.7442603 0.6088595,-7.992096 -3.63061 0.1536784,-7.831738 -2.383205 0.2870976,-7.711077 -1.62266 0.4633906,-7.578569 -0.956615 0.6158389,-8.430104 -3.841076 0.2947032,-8.44969 -2.853557 0.4401273,-8.430322 -2.24121 0.5639898,-8.367296 -1.654438 0.6679595,2.110, 1 0
-1.941975 -7.475051 0.0749703,-2.609189 -7.25311 0.2545002,-3.214456 -6.53595 0.3698873,-3.691898 -5.842129 0.4465017,-4.122442 -5.536811 0.5543304,-2.85034 -4.809913 0.3515738,-3.2062 -3.58519 0.407214,-3.377583 -2.850081 0.4201407,-3.47807 -2.222418 0.4510733,-2.483695 -4.486593 0.3046799,-2.798803 -3.082769 0.4167834,-2.798803 -3.082769 0.4167834,-3.073852 -1.547983 0.5812976,-2.13356 -4.410667 0.27675,-2.35559 -3.078207 0.3788759,-2.514051 -2.247176 0.4901091,-2.638791 -1.574977 0.5961697,-1.787234 -4.562394 0.2540702,-1.815941 -3.505708 0.3548499,-1.857794 -2.878803 0.4738385,-1.898733 -2.314624 0.5841939,-8.308504 -6.918752 -0.2580892,-7.607929 -6.681419 0.03431627,-6.934604 -5.976644 0.2607816,-6.478601 -5.310306 0.5242978,-6.059047 -4.972956 0.8138721,-7.259823 -3.95433 0.01857272,-7.031832 -2.810443 0.2160737,-6.941319 -2.080307 0.3873349,-6.872877 -1.432234 0.5314281,-7.656879 -3.653223 0.09274477,-7.422358 -2.317673 0.2535617,-7.29111 -1.468784 0.4984076,-7.173134 -0.7105222 0.7095311,-8.067425 -3.637207 0.1999892,-7.903978 -2.376805 0.3595955,-7.783752 -1.60546 0.5403267,-7.648176 -0.9322057 0.6923383,-8.511388 -3.850174 0.329913,-8.521211 -2.852635 0.4917238,-8.498989 -2.227214 0.6167525,-8.433626 -1.627619 0.7187517,2.210, 1 0
-1.964202 -7.469707 -0.0275142,-2.638621 -7.243316 0.130508,-3.245127 -6.537005 0.2407996,-3.72306 -5.841877 0.3128011,-4.150099 -5.535194 0.4191402,-2.885969 -4.841764 0.2696685,-3.250374 -3.612155 0.3349183,-3.426119 -2.878548 0.3483021,-3.530813 -2.253371 0.3755877,-2.518328 -4.515741 0.2306428,-2.837286 -3.103886 0.3611258,-2.837286 -3.103886 0.3611258,-3.121305 -1.56847 0.544377,-2.167191 -4.43481 0.2078052,-2.393857 -3.103588 0.3201939,-2.555816 -2.275035 0.4359601,-2.681785 -1.603563 0.5490444,-1.819442 -4.578283 0.1818629,-1.845724 -3.517749 0.2845425,-1.885296 -2.889748 0.4039389,-1.922506 -2.326501 0.5174803,-8.408171 -6.939934 -0.3074747,-7.712552 -6.692691 -0.05497086,-7.05925 -5.966909 0.1487161,-6.620488 -5.283601 0.3924047,-6.217915 -4.942384 0.6513081,-7.421268 -3.962032 -0.08599265,-7.208416 -2.805615 0.08871841,-7.115047 -2.083232 0.2493875,-7.037323 -1.445066 0.380372,-7.809229 -3.674521 0.00102365,-7.59798 -2.306448 0.1494404,-7.468057 -1.457111 0.3867498,-7.353585 -0.6928325 0.586611,-8.206665 -3.674007 0.1194903,-8.064796 -2.391134 0.2638659,-7.946497 -1.610151 0.4422681,-7.816451 -0.9125733 0.5925294,-8.633656 -3.90984 0.2550544,-8.667377 -2.90123 0.4088752,-8.650696 -2.272774 0.5455764,-8.596067 -1.669 0.6495605,2.310, 1 0
-1.970158 -7.468271 -0.06990343,-2.645405 -7.274713 0.1113685,-3.259583 -6.568002 0.2246271,-3.729494 -5.885686 0.2966517,-4.149061 -5.592453 0.3992232,-2.910089 -4.874783 0.2567213,-3.275902 -3.681434 0.3534374,-3.45721 -2.954282 0.3912341,-3.568079 -2.3246 0.4368103,-2.547133 -4.534963 0.2289585,-2.874552 -3.148691 0.3896442,-2.874552 -3.148691 0.3896442,-3.168552 -1.608031 0.6077992,-2.196223 -4.448514 0.2251345,-2.430344 -3.126973 0.3787477,-2.591769 -2.299262 0.5178202,-2.720692 -1.621303 0.6469297,-1.845246 -4.590237 0.2183844,-1.869362 -3.535756 0.3545015,-1.908607 -2.900285 0.4896999,-1.949168 -2.329558 0.6150932,-8.530689 -7.014369 -0.3093284,-7.820658 -6.800891 -0.06736167,-7.168717 -6.032779 0.1151026,-6.74687 -5.311964 0.3444533,-6.352136 -4.965315 0.5787477,-7.556146 -4.02156 -0.1357469,-7.356837 -2.817199 0.02156243,-7.268647 -2.068212 0.1708448,-7.198011 -1.414001 0.2889335,-7.948055 -3.742366 -0.04866445,-7.752903 -2.339134 0.081018,-7.629764 -1.462533 0.3160936,-7.527802 -0.6794896 0.5135933,-8.342256 -3.748005 0.07452947,-8.209207 -2.444906 0.2013269,-8.098493 -1.650226 0.3786671,-7.982016 -0.9400001 0.5316161,-8.757527 -3.99843 0.2158644,-8.805183 -2.983432 0.3649942,-8.802265 -2.344543 0.5158682,-8.766918 -1.724674 0.6340374,2.410, 1 0
-2.004102 -7.469903 -0.1786537,-2.686982 -7.280941 -0.05086759,-3.29048 -6.599845 0.04377969,-3.748735 -5.91502 0.1008101,-4.161427 -5.606746 0.189144,-2.931343 -4.902643 0.1133054,-3.29818 -3.690809 0.1910282,-3.480331 -2.963178 0.2162366,-3.593278 -2.345597 0.2514403,-2.561745 -4.561566 0.08860052,-2.888542 -3.165571 0.2347687,-2.888542 -3.165571 0.2347687,-3.183305 -1.616577 0.4450576,-2.205758 -4.467363 0.0785833,-2.445461 -3.147621 0.2107583,-2.610882 -2.314977 0.3448514,-2.740899 -1.645083 0.4678208,-1.850943 -4.592821 0.05804171,-1.881993 -3.532764 0.1745411,-1.922368 -2.897417 0.3001553,-1.963621 -2.332782 0.4183565,-8.581328 -7.068275 -0.2186086,-7.882767 -6.815443 0.03796428,-7.236916 -6.062398 0.2394692,-6.814778 -5.34395 0.4822856,-6.420922 -4.987486 0.7332531,-7.631157 -4.040851 -0.02095948,-7.435951 -2.830862 0.1444859,-7.349472 -2.083794 0.2995003,-7.27723 -1.432989 0.4242301,-8.026503 -3.766706 0.06192526,-7.835561 -2.354891 0.2063266,-7.714101 -1.467096 0.4489721,-7.612838 -0.6785264 0.6564292,-8.42383 -3.78759 0.1808267,-8.291987 -2.475795 0.3181666,-8.181002 -1.661365 0.4993691,-8.063969 -0.9401917 0.6559596,-8.843501 -4.054862 0.3178431,-8.884201 -3.026161 0.4739245,-8.876662 -2.37965 0.6316736,-8.83707 -1.754671 0.7557991,2.510, 1 0
-2.041753 -7.465405 -0.1877928,-2.715636 -7.277036 -0.04887606,-3.306427 -6.596606 0.04746455,-3.762217 -5.923794 0.1064917,-4.174573 -5.624266 0.1904982,-2.954723 -4.895282 0.08191937,-3.326057 -3.690722 0.1525923,-3.507158 -2.963863 0.177628,-3.615566 -2.340245 0.2176379,-2.590145 -4.555767 0.05428518,-2.907306 -3.155938 0.1810608,-2.907306 -3.155938 0.1810608,-3.178619 -1.597847 0.3722016,-2.240883 -4.469448 0.04591975,-2.466584 -3.14068 0.15763,-2.627379 -2.293352 0.2790289,-2.752162 -1.615243 0.3941082,-1.890829 -4.61058 0.0307415,-1.91939 -3.541212 0.1376239,-1.961769 -2.898944 0.2525001,-2.00349 -2.331632 0.3628472,-8.709132 -7.156143 -0.06050778,-8.001629 -6.898939 0.1946758,-7.350817 -6.135827 0.3873166,-6.927959 -5.392061 0.6315728,-6.531622 -5.021356 0.8821846,-7.752164 -4.072276 0.0616698,-7.574249 -2.834394 0.2134867,-7.487519 -2.063086 0.3701277,-7.413116 -1.404151 0.499258,-8.15084 -3.803926 0.1480265,-7.975715 -2.373936 0.2632855,-7.857854 -1.471316 0.4882417,-7.760971 -0.681169 0.6848785,-8.551116 -3.83357 0.2778785,-8.432899 -2.508308 0.3922111,-8.3236 -1.698048 0.5673791,-8.210567 -0.9819427 0.7191839,-8.973144 -4.113499 0.4327407,-9.022861 -3.087959 0.5751879,-9.018391 -2.431785 0.7316403,-8.982241 -1.791193 0.8602502,2.610, 1 0
-2.032238 -7.508845 -0.04154003,-2.704802 -7.324129 0.2193682,-3.306861 -6.646409 0.3639654,-3.757594 -5.969406 0.473196,-4.161393 -5.617604 0.6193027,-2.97473 -4.888383 0.2339897,-3.340997 -3.727411 0.3385767,-3.52004 -3.005926 0.4078594,-3.625412 -2.356025 0.4970643,-2.613764 -4.562393 0.1946729,-2.912728 -3.191508 0.3284499,-2.912728 -3.191508 0.3284499,-3.156045 -1.653545 0.5614709,-2.265954 -4.494266 0.2006553,-2.461269 -3.190373 0.3319954,-2.606012 -2.370183 0.4861127,-2.717951 -1.690732 0.6278581,-1.911847 -4.653446 0.2188938,-1.919593 -3.611091 0.3526174,-1.959705 -2.976196 0.5011892,-2.001517 -2.410949 0.6313642,-8.796806 -7.256679 0.1432156,-8.087057 -6.965257 0.3972208,-7.435187 -6.180357 0.6015084,-7.010386 -5.419267 0.8626583,-6.60901 -5.036317 1.136739,-7.854529 -4.119186 0.2757925,-7.680659 -2.900169 0.4234452,-7.59814 -2.142493 0.5860505,-7.524243 -1.484421 0.7229471,-8.257878 -3.84323 0.3662429,-8.088818 -2.408027 0.4714647,-7.972729 -1.496741 0.6975535,-7.878884 -0.6960835 0.89525,-8.660591 -3.868014 0.5022556,-8.549473 -2.536561 0.5995853,-8.446722 -1.712086 0.7516067,-8.34236 -0.9940982 0.8882666,-9.087928 -4.144393 0.6607733,-9.135167 -3.100369 0.7894379,-9.126735 -2.435178 0.9206331,-9.092119 -1.798982 1.028052,2.710, 1 0
-2.039169 -7.561419 -0.02948539,-2.709504 -7.356077 0.1915624,-3.310785 -6.682936 0.3200896,-3.754165 -6.010694 0.4183382,-4.12958 -5.627173 0.5468929,-2.965227 -4.926745 0.2146961,-3.330572 -3.755832 0.3083796,-3.508642 -3.033876 0.3686948,-3.619149 -2.389884 0.4469692,-2.602703 -4.606032 0.1811846,-2.896947 -3.235309 0.302663,-2.896947 -3.235309 0.302663,-3.138201 -1.714777 0.5172578,-2.256769 -4.530866 0.186208,-2.452692 -3.234541 0.3016431,-2.597115 -2.418869 0.4421104,-2.710154 -1.759691 0.574741,-1.908902 -4.677617 0.2002528,-1.917468 -3.632332 0.3210623,-1.956779 -3.001566 0.458333,-2.002769 -2.448419 0.5778188,-8.859143 -7.24113 0.1679274,-8.140901 -6.948251 0.4466985,-7.480576 -6.172163 0.6590118,-7.049137 -5.41215 0.9237819,-6.641083 -5.038244 1.20566,-7.882204 -4.111694 0.3343034,-7.70114 -2.890605 0.5068206,-7.619518 -2.12615 0.6837976,-7.54895 -1.460188 0.8240473,-8.289679 -3.827735 0.423902,-8.123111 -2.394639 0.5533168,-8.013811 -1.490167 0.7894813,-7.926712 -0.691525 0.9913872,-8.69724 -3.842727 0.5615369,-8.587366 -2.524965 0.6842079,-8.489678 -1.717041 0.8444124,-8.391369 -1.007843 0.9816963,-9.130159 -4.103128 0.7267683,-9.174919 -3.078312 0.8732858,-9.170202 -2.424477 1.00399,-9.13679 -1.790024 1.109435,2.810, 1 0
-1.98779 -7.657891 0.1488178,-2.6556 -7.452266 0.4544605,-3.258068 -6.754011 0.6080894,-3.69731 -6.055471 0.713078,-4.096478 -5.687759 0.8513954,-2.940533 -4.98238 0.4654159,-3.303474 -3.810796 0.571716,-3.47982 -3.083256 0.644577,-3.584122 -2.415872 0.7366233,-2.578519 -4.657852 0.3875521,-2.864177 -3.301454 0.5093534,-2.864177 -3.301454 0.5093534,-3.07366 -1.79552 0.7099671,-2.232957 -4.585669 0.3539008,-2.419873 -3.305433 0.4691023,-2.553524 -2.493533 0.6206549,-2.6486 -1.822262 0.7582065,-1.885453 -4.741835 0.339873,-1.898767 -3.716063 0.4635161,-1.935471 -3.104677 0.6040581,-1.967181 -2.564441 0.7259231,-8.905586 -7.261769 0.2380729,-8.174298 -6.979324 0.5175115,-7.507099 -6.192439 0.72365,-7.078469 -5.416372 0.983359,-6.676997 -5.039569 1.256677,-7.92873 -4.115219 0.3785895,-7.75483 -2.889092 0.5402716,-7.676475 -2.13239 0.7094672,-7.607965 -1.481093 0.8398308,-8.33767 -3.825164 0.4560852,-8.178264 -2.376702 0.5631717,-8.068513 -1.468633 0.788838,-7.98421 -0.6832137 0.9793755,-8.744576 -3.840099 0.5847169,-8.644593 -2.515192 0.6837482,-8.548399 -1.704557 0.8318859,-8.457232 -1.002977 0.9607602,-9.175699 -4.103416 0.7409307,-9.224487 -3.077056 0.8696694,-9.21962 -2.430446 0.9885591,-9.189508 -1.81334 1.082322,2.910, 1 0
-1.919946 -7.770259 0.3509207,-2.592556 -7.544397 0.6237761,-3.190298 -6.845495 0.7597252,-3.608699 -6.135913 0.8760381,-4.000427 -5.721896 1.024919,-2.9112 -5.014188 0.5583016,-3.276131 -3.855789 0.6569182,-3.447502 -3.147217 0.7265314,-3.544689 -2.491367 0.809091,-2.556629 -4.715182 0.5091829,-2.820925 -3.377157 0.6025457,-2.820925 -3.377157 0.6025457,-2.978579 -1.913975 0.7808491,-2.214271 -4.658756 0.5062263,-2.375036 -3.408056 0.5895641,-2.483334 -2.636299 0.7233988,-2.552469 -2.00391 0.8385302,-1.866154 -4.822982 0.5252966,-1.861495 -3.815542 0.6350402,-1.894758 -3.223358 0.7679181,-1.925269 -2.707463 0.8745109,-8.929118 -7.307488 0.2877688,-8.202724 -7.014804 0.5465975,-7.541621 -6.221487 0.7510675,-7.121131 -5.437036 1.012354,-6.723247 -5.055464 1.290197,-7.96204 -4.137266 0.4122784,-7.792407 -2.907858 0.5650472,-7.716903 -2.140699 0.7322299,-7.651745 -1.481004 0.8621651,-8.372067 -3.854203 0.4975848,-8.213476 -2.403396 0.5994292,-8.105742 -1.484201 0.8236551,-8.0253 -0.6941047 1.012868,-8.778078 -3.880907 0.6324731,-8.680548 -2.557944 0.7251288,-8.586465 -1.737388 0.8672169,-8.49991 -1.034486 0.9917668,-9.207378 -4.159545 0.7932904,-9.258904 -3.127536 0.9169219,-9.254513 -2.478256 1.035003,-9.229951 -1.861503 1.127276,3.010, 1 0
-1.874642 -7.810478 0.3884204,-2.551382 -7.561183 0.6729527,-3.148241 -6.838928 0.8034484,-3.564238 -6.113101 0.9022034,-3.947499 -5.706167 1.034107,-2.863349 -5.052768 0.6338058,-3.244263 -3.890551 0.7203697,-3.420654 -3.169776 0.7829157,-3.519014 -2.508213 0.8601204,-2.511579 -4.744537 0.5473081,-2.792213 -3.396553 0.6232987,-2.792213 -3.396553 0.6232987,-2.96156 -1.937794 0.7706873,-2.175854 -4.674023 0.5019252,-2.34883 -3.42206 0.5631819,-2.463984 -2.650959 0.6768549,-2.53383 -2.020919 0.7804023,-1.834742 -4.820482 0.478065,-1.840092 -3.810658 0.5626236,-1.876431 -3.215524 0.6746213,-1.903106 -2.696352 0.7667469,-8.930709 -7.314188 0.3102235,-8.210294 -7.021772 0.5947543,-7.550772 -6.22026 0.8031634,-7.131065 -5.434751 1.065908,-6.727283 -5.04932 1.350012,-7.970263 -4.131673 0.4560865,-7.802752 -2.90689 0.6192026,-7.727871 -2.146736 0.7963859,-7.664288 -1.483165 0.9354409,-8.382929 -3.854164 0.5396203,-8.225432 -2.41123 0.6496177,-8.120472 -1.494245 0.8868575,-8.043001 -0.7026353 1.082369,-8.790412 -3.887136 0.6755826,-8.697271 -2.57128 0.7842935,-8.608401 -1.754965 0.9421892,-8.526364 -1.052156 1.078867,-9.221601 -4.173641 0.8394623,-9.2722 -3.146711 0.9840723,-9.268806 -2.496927 1.112792,-9.244379 -1.874442 1.211292,3.110, 1 0
-1.83735 -7.862828 0.5859029,-2.507877 -7.565423 0.9492558,-3.098864 -6.810798 1.10668,-3.511574 -6.0792 1.236803,-3.906504 -5.671503 1.406388,-2.835821 -5.030476 0.8655397,-3.198072 -3.875476 0.9920577,-3.364429 -3.159531 1.082472,-3.460443 -2.484815 1.180031,-2.483723 -4.742855 0.7757964,-2.733305 -3.411778 0.8673594,-2.733305 -3.411778 0.8673594,-2.886624 -1.970388 1.054981,-2.148063 -4.686204 0.7431132,-2.288829 -3.441741 0.8177894,-2.39762 -2.701927 0.9398837,-2.460247 -2.07221 1.054041,-1.804714 -4.845033 0.7450569,-1.795557 -3.83361 0.8421265,-1.831763 -3.23323 0.9582154,-1.859982 -2.688083 1.049919,-8.933356 -7.336812 0.3108922,-8.215508 -7.036558 0.5744618,-7.561804 -6.232352 0.7815426,-7.147918 -5.453549 1.046083,-6.741244 -5.082342 1.329824,-7.981104 -4.155347 0.4582236,-7.820564 -2.922588 0.6216227,-7.745704 -2.158327 0.7997779,-7.682241 -1.488214 0.9327742,-8.395647 -3.875332 0.5451847,-8.250859 -2.424736 0.6522101,-8.148866 -1.507422 0.8814499,-8.073258 -0.7103133 1.068833,-8.803874 -3.90655 0.6821387,-8.717354 -2.57446 0.7859979,-8.628964 -1.753183 0.938393,-8.546159 -1.044679 1.067446,-9.235427 -4.188138 0.8449849,-9.296445 -3.151416 0.9779289,-9.293901 -2.495142 1.106305,-9.268738 -1.864531 1.198453,3.210, 1 0
-1.804298 -7.863554 0.7160094,-2.471562 -7.559423 1.084644,-3.080853 -6.820051 1.218644,-3.487224 -6.075086 1.354589,-3.866446 -5.613052 1.530071,-2.821187 -4.971224 0.8527725,-3.168364 -3.854174 0.9789617,-3.336552 -3.170091 1.082846,-3.439209 -2.531387 1.187312,-2.475315 -4.705793 0.7864944,-2.701461 -3.430149 0.851744,-2.701461 -3.430149 0.851744,-2.847495 -2.052229 1.045194,-2.134284 -4.684811 0.7909715,-2.237789 -3.525104 0.8425913,-2.327366 -2.85364 0.9694133,-2.383207 -2.298381 1.078781,-1.783878 -4.886844 0.8416749,-1.751876 -3.969585 0.9291911,-1.791223 -3.422125 1.049603,-1.837313 -2.936883 1.141957,-8.938487 -7.301111 0.2229852,-8.210776 -7.014473 0.5258029,-7.554502 -6.224347 0.7520632,-7.137182 -5.444222 1.035554,-6.735846 -5.02476 1.336343,-7.984788 -4.139048 0.3998152,-7.823447 -2.895113 0.5840291,-7.74826 -2.131982 0.7755267,-7.68441 -1.457958 0.9202866,-8.399275 -3.867543 0.4877396,-8.258934 -2.416669 0.6131497,-8.160395 -1.500639 0.8590982,-8.08621 -0.7002635 1.061076,-8.810718 -3.905847 0.6316155,-8.728366 -2.569795 0.7648594,-8.637935 -1.74031 0.9532743,-8.54771 -1.018738 1.109208,-9.248163 -4.193096 0.8026736,-9.311265 -3.150508 0.9626408,-9.310706 -2.490337 1.10419,-9.281095 -1.851458 1.209212,3.310, 1 0
-1.813497 -7.88253 0.7833438,-2.480758 -7.579429 1.136154,-3.085833 -6.828296 1.257401,-3.474664 -6.082168 1.418929,-3.848275 -5.592651 1.62123,-2.840201 -4.964464 0.7615705,-3.185389 -3.894798 0.8615991,-3.352074 -3.237811 0.9477426,-3.463741 -2.627214 1.031997,-2.484658 -4.705091 0.71201,-2.715034 -3.497293 0.7235007,-2.715034 -3.497293 0.7235007,-2.8809 -2.257434 0.8656806,-2.134059 -4.701282 0.7496183,-2.245091 -3.625089 0.7598052,-2.329133 -3.03264 0.8897859,-2.399706 -2.623038 0.9886756,-1.772559 -4.921215 0.8343967,-1.729717 -4.079358 0.9090816,-1.756959 -3.601941 1.024845,-1.804628 -3.267987 1.104517,-8.918633 -7.301988 0.2846746,-8.199016 -7.022283 0.6016817,-7.545598 -6.216146 0.8370413,-7.135659 -5.419305 1.121682,-6.741551 -4.994588 1.426419,-7.990304 -4.125876 0.4821801,-7.831737 -2.889254 0.6687484,-7.765633 -2.126119 0.8602058,-7.706199 -1.452843 1.005305,-8.408169 -3.846733 0.5566264,-8.266582 -2.409581 0.6818007,-8.169543 -1.495835 0.921246,-8.095989 -0.6968465 1.119394,-8.821772 -3.885266 0.6901284,-8.735546 -2.557953 0.8152739,-8.647818 -1.727116 0.9874449,-8.562737 -1.009311 1.132936,-9.262491 -4.179044 0.8520461,-9.319321 -3.142251 1.002098,-9.316312 -2.482124 1.137587,-9.289232 -1.849106 1.23976,3.410, 1 0
-1.82122 -7.868392 0.6053573,-2.472169 -7.588516 0.9988886,-3.041779 -6.847208 1.174227,-3.407421 -6.087268 1.362352,-3.788025 -5.530195 1.568063,-2.876135 -5.003916 0.5739866,-3.174932 -3.958638 0.5883406,-3.327837 -3.286156 0.6396733,-3.448289 -2.653966 0.7556742,-2.480701 -4.740344 0.5361745,-2.628465 -3.599584 0.6204147,-2.628465 -3.599584 0.6204147,-2.599104 -3.464264 0.840623,-2.099143 -4.745088 0.5777852,-2.157618 -3.67897 0.6884539,-2.192852 -3.532271 0.9347566,-2.194938 -3.829504 1.085846,-1.711082 -4.958864 0.6682836,-1.694868 -4.070024 0.7913233,-1.771252 -3.873824 0.9665666,-1.83636 -4.076107 1.064595,-8.910192 -7.355865 0.2662581,-8.182848 -7.05585 0.554822,-7.534775 -6.24262 0.7657784,-7.130518 -5.442789 1.029117,-6.728878 -5.040301 1.316525,-7.978319 -4.171031 0.4323611,-7.833153 -2.92085 0.6071138,-7.763817 -2.144984 0.7948648,-7.705269 -1.462945 0.9362437,-8.394275 -3.904708 0.511158,-8.258348 -2.461791 0.6279772,-8.164802 -1.536623 0.8722674,-8.097924 -0.7223353 1.077683,-8.802884 -3.951533 0.6425682,-8.721819 -2.624814 0.7537688,-8.639725 -1.794478 0.9183688,-8.56547 -1.077156 1.061933,-9.237048 -4.249864 0.8006234,-9.296412 -3.214611 0.9410741,-9.29603 -2.551744 1.072395,-9.276912 -1.910098 1.170175,3.510, 1 0
-1.802951 -7.892409 -0.1812294,-2.437757 -7.578964 0.4355974,-2.920595 -6.848485 0.7608708,-3.215799 -6.022872 1.042212,-3.494625 -5.295 1.318184,-2.842816 -5.223636 0.1465574,-3.097389 -4.174696 0.4478248,-3.223005 -3.447506 0.7754883,-3.314989 -2.766186 1.050229,-2.457675 -5.007772 0.1147522,-2.562615 -3.705385 0.7749763,-2.562615 -3.705385 0.7749763,-2.43218 -4.653791 1.396997,-2.09814 -4.991622 0.1604919,-2.109619 -3.85625 0.7776474,-2.106276 -4.458625 1.183131,-2.076404 -5.205551 1.269681,-1.725321 -5.140749 0.2588218,-1.670108 -4.229083 0.7333506,-1.726388 -4.480437 1.017744,-1.74642 -5.031864 1.128084,-8.92388 -7.363904 0.2345733,-8.199952 -7.06635 0.5354909,-7.547441 -6.254848 0.7605333,-7.132417 -5.468938 1.034898,-6.721452 -5.066231 1.335331,-7.986945 -4.195982 0.4324415,-7.834819 -2.951589 0.6231394,-7.763733 -2.174676 0.8188466,-7.704064 -1.492236 0.964794,-8.404355 -3.924964 0.5121748,-8.263998 -2.476579 0.6430974,-8.165536 -1.549878 0.8880792,-8.094042 -0.7354064 1.09074,-8.816219 -3.964801 0.6437348,-8.729593 -2.631908 0.7690552,-8.637909 -1.799438 0.9387553,-8.550096 -1.076328 1.084268,-9.254448 -4.25571 0.8033449,-9.315357 -3.216791 0.9554919,-9.312778 -2.549936 1.09288,-9.28755 -1.904398 1.196155,3.610, 1 0
-1.810499 -7.933123 -0.2657195,-2.412618 -7.631712 0.3251071,-2.875484 -6.84655 0.6284865,-3.142859 -5.97948 0.905708,-3.409761 -5.187366 1.186745,-2.855836 -5.273956 0.007574946,-3.077914 -4.240131 0.2410343,-3.199188 -3.505008 0.5223925,-3.29697 -2.799783 0.7885118,-2.46981 -5.069067 -0.02691691,-2.529168 -3.85209 0.5813562,-2.529168 -3.85209 0.5813562,-2.419775 -4.844593 1.223817,-2.106505 -5.073997 0.02164429,-2.080934 -4.043579 0.6238559,-2.080889 -4.774576 1.044034,-2.060925 -5.560079 1.151745,-1.729019 -5.248565 0.1112033,-1.690058 -4.420169 0.5909228,-1.761171 -4.803955 0.8764602,-1.791312 -5.388486 0.9938804,-8.925172 -7.356563 0.2642219,-8.207881 -7.084126 0.5704333,-7.552284 -6.268501 0.7864498,-7.141572 -5.481865 1.049515,-6.732753 -5.089786 1.33404,-7.990665 -4.183261 0.455296,-7.831901 -2.943576 0.6381193,-7.762318 -2.174364 0.825269,-7.701302 -1.494542 0.9695491,-8.410206 -3.907621 0.5329851,-8.271196 -2.465487 0.6574974,-8.176061 -1.547276 0.9029617,-8.103408 -0.7372899 1.107827,-8.824492 -3.946021 0.6656705,-8.73862 -2.615621 0.7923055,-8.654398 -1.785138 0.9708788,-8.570284 -1.062901 1.12376,-9.265352 -4.237937 0.8259506,-9.324862 -3.202896 0.9794448,-9.32695 -2.539814 1.119157,-9.301848 -1.898036 1.225408,3.710, 1 0
-1.781459 -7.888372 -0.8034828,-2.356743 -7.648803 -0.1293405,-2.8099 -6.824754 0.1681273,-3.028491 -5.9447 0.4422249,-3.257599 -5.139953 0.7170796,-2.846537 -5.367634 -0.4969289,-3.058441 -4.389576 -0.1937169,-3.165836 -3.694322 0.09805977,-3.239338 -3.042902 0.3817606,-2.431913 -5.179525 -0.5779477,-2.43181 -4.202066 0.1498362,-2.43181 -4.202066 0.1498362,-2.293573 -5.798152 0.7236811,-2.047348 -5.186932 -0.5645438,-2.003427 -4.413257 0.136175,-1.994838 -5.422601 0.4004117,-1.99809 -6.176161 0.3820242,-1.678299 -5.360672 -0.508142,-1.620396 -4.729227 0.02582222,-1.671021 -5.382265 0.1983178,-1.723188 -5.944173 0.191108,-8.946478 -7.335754 0.2377008,-8.225825 -7.059436 0.5522456,-7.563416 -6.261302 0.7878206,-7.140104 -5.499818 1.0692,-6.727761 -5.113134 1.375367,-7.996965 -4.163311 0.4512517,-7.845766 -2.909125 0.6432175,-7.77949 -2.142051 0.8334647,-7.721661 -1.473424 0.9700642,-8.420053 -3.898125 0.5291852,-8.284922 -2.433223 0.6569036,-8.191225 -1.511673 0.8926878,-8.118157 -0.7099671 1.085963,-8.839173 -3.945348 0.6619629,-8.75621 -2.590586 0.7991678,-8.670276 -1.747976 0.9749606,-8.583875 -1.02106 1.123025,-9.281325 -4.243256 0.8226597,-9.344593 -3.185342 0.9835981,-9.347654 -2.511346 1.123727,-9.324369 -1.868062 1.227736,3.810, 1 0
-1.720942 -7.900047 -0.9815851,-2.296381 -7.693572 -0.3733994,-2.775168 -6.842557 -0.1236775,-2.996925 -5.936698 0.1131847,-3.220035 -5.129039 0.3675958,-2.780531 -5.432771 -0.7287455,-2.995535 -4.509696 -0.3851325,-3.086151 -3.816846 -0.06142336,-3.137037 -3.166032 0.2429035,-2.382718 -5.243815 -0.7907349,-2.397168 -4.395423 -0.06790763,-2.397168 -4.395423 -0.06790763,-2.246326 -5.987471 0.4484018,-1.992671 -5.23673 -0.7615162,-1.970833 -4.624347 -0.02799803,-1.95078 -5.680181 0.1814141,-1.942785 -6.431299 0.1358116,-1.613013 -5.382232 -0.6973287,-1.590215 -4.874267 -0.1242285,-1.629163 -5.607614 0.02000916,-1.673973 -6.164435 -0.01637197,-8.949759 -7.369392 0.3142532,-8.230575 -7.071609 0.5989277,-7.574036 -6.257037 0.8191269,-7.15915 -5.482584 1.089404,-6.746899 -5.122124 1.386533,-8.013122 -4.174042 0.5150265,-7.865681 -2.930614 0.6921163,-7.7981 -2.166574 0.8696856,-7.738055 -1.505529 1.0057,-8.438982 -3.906429 0.5961641,-8.297025 -2.447579 0.7194886,-8.197196 -1.519642 0.9512247,-8.121538 -0.7123265 1.147918,-8.856818 -3.952959 0.7288921,-8.766717 -2.614313 0.8491935,-8.674236 -1.771671 1.005916,-8.583546 -1.04467 1.145869,-9.295778 -4.256401 0.8847189,-9.353787 -3.206666 1.029893,-9.355395 -2.53703 1.160642,-9.333949 -1.891949 1.265717,3.910, 1 0
-1.686191 -8.038521 -1.096165,-2.203425 -7.786401 -0.5553737,-2.662155 -6.865613 -0.3259301,-2.858321 -5.969998 -0.1057456,-3.127807 -5.27415 0.1268084,-2.629048 -5.554418 -0.6421555,-2.830849 -4.668849 -0.1703664,-2.91206 -4.011559 0.1622677,-2.957834 -3.387415 0.4527037,-2.228691 -5.41208 -0.6967734,-2.139939 -4.756786 0.04218113,-2.139939 -4.756786 0.04218113,-2.087671 -6.391608 0.3145803,-1.832176 -5.493561 -0.6742163,-1.707426 -5.086989 0.02330768,-1.727663 -6.138898 0.05141878,-1.812734 -6.747771 -0.07549381,-1.471684 -5.736085 -0.6262579,-1.365261 -5.37261 -0.08729923,-1.422562 -6.140363 -0.03995192,-1.535548 -6.600708 -0.1461176,-8.980388 -7.328325 0.2772739,-8.267207 -7.020771 0.5784135,-7.603077 -6.235004 0.8141675,-7.170917 -5.495063 1.097174,-6.75715 -5.121618 1.40908,-8.038774 -4.138528 0.5202158,-7.890692 -2.894749 0.7136349,-7.827196 -2.128814 0.9037076,-7.770826 -1.461625 1.04784,-8.4631 -3.881563 0.609755,-8.326799 -2.425256 0.7457029,-8.235531 -1.504881 0.9899069,-8.169058 -0.6973252 1.194069,-8.883831 -3.933697 0.7500636,-8.796238 -2.593944 0.8927683,-8.711373 -1.753994 1.076224,-8.626275 -1.022479 1.236175,-9.327183 -4.235738 0.9148418,-9.389884 -3.181506 1.077995,-9.3936 -2.51164 1.218959,-9.370753 -1.863958 1.326956,4.010, 1 0
-1.618362 -8.054907 -0.9452251,-2.086036 -7.843065 -0.3605371,-2.553336 -6.967277 -0.08968383,-2.75535 -6.076472 0.1548269,-3.015989 -5.396078 0.4220656,-2.526565 -5.592096 -0.2888829,-2.709118 -4.717979 0.2893071,-2.771544 -4.083467 0.7053156,-2.80036 -3.476394 1.037594,-2.130117 -5.409569 -0.3723731,-2.040627 -5.011009 0.3489938,-2.040627 -5.011009 0.3489938,-2.003278 -6.588062 0.6226151,-1.730818 -5.45587 -0.3870773,-1.621016 -5.329105 0.2956035,-1.641334 -6.317095 0.3216624,-1.727714 -6.828319 0.2316101,-1.364532 -5.654912 -0.3655158,-1.260695 -5.522704 0.1746757,-1.320436 -6.295995 0.2322873,-1.435649 -6.703001 0.1563301,-9.020578 -7.327621 0.1604166,-8.305212 -7.013652 0.4398978,-7.641169 -6.24109 0.6694108,-7.20477 -5.517152 0.9513024,-6.795498 -5.149099 1.253945,-8.083202 -4.163595 0.3778839,-7.927742 -2.920215 0.56555,-7.862926 -2.154251 0.7506704,-7.805054 -1.48557 0.8960561,-8.502194 -3.913021 0.472504,-8.351951 -2.452748 0.6126344,-8.257342 -1.520617 0.8653462,-8.185263 -0.7055507 1.081477,-8.920374 -3.971456 0.615064,-8.828148 -2.620892 0.7525407,-8.734905 -1.768332 0.9350379,-8.636719 -1.030732 1.102416,-9.363501 -4.283885 0.7817354,-9.419739 -3.221265 0.9440017,-9.416362 -2.543006 1.093349,-9.383602 -1.899786 1.213307,4.110, 1 0
-1.603314 -8.030127 -0.9675779,-2.071887 -7.844081 -0.3410435,-2.509499 -6.982323 -0.05183578,-2.700246 -6.094864 0.2040088,-2.97189 -5.413408 0.4771203,-2.510512 -5.573741 -0.3039302,-2.68281 -4.699169 0.281852,-2.730677 -4.055464 0.6858188,-2.741906 -3.444052 1.015848,-2.118159 -5.390581 -0.4013522,-2.015375 -5.011297 0.3477086,-2.015375 -5.011297 0.3477086,-1.97391 -6.568108 0.6475227,-1.725019 -5.426013 -0.4198716,-1.591105 -5.293975 0.2725583,-1.60767 -6.318346 0.2822583,-1.701314 -6.844518 0.1666795,-1.365023 -5.620479 -0.4000003,-1.238358 -5.486904 0.1506954,-1.297436 -6.27612 0.1942556,-1.421734 -6.689694 0.09666932,-9.03286 -7.348957 0.1946876,-8.317353 -7.035666 0.4748002,-7.649484 -6.25598 0.7099891,-7.206637 -5.5326 0.9942884,-6.791845 -5.165794 1.303117,-8.09409 -4.182942 0.4274808,-7.944232 -2.950756 0.6231518,-7.878649 -2.186635 0.810567,-7.821527 -1.519739 0.9584019,-8.513036 -3.926204 0.5232844,-8.366218 -2.484182 0.6647168,-8.270926 -1.549796 0.9178385,-8.198543 -0.734798 1.137141,-8.933003 -3.979676 0.6663818,-8.843958 -2.647361 0.8041658,-8.750332 -1.796866 0.9810811,-8.652387 -1.064845 1.142502,-9.378321 -4.290108 0.8333971,-9.43533 -3.225019 0.9995975,-9.430918 -2.538815 1.14061,-9.398564 -1.891746 1.255162,4.210, 1 0
-1.555882 -7.988739 -1.1294,-2.031608 -7.844429 -0.466349,-2.473133 -7.016386 -0.1549165,-2.658423 -6.122262 0.1120975,-2.909093 -5.397823 0.4052143,-2.493294 -5.606542 -0.4449563,-2.644105 -4.710981 0.1483443,-2.67319 -4.071186 0.5654581,-2.664627 -3.46865 0.898224,-2.109367 -5.404705 -0.5662357,-1.991651 -5.037956 0.1746674,-1.991651 -5.037956 0.1746674,-1.925918 -6.614364 0.4451885,-1.715708 -5.405209 -0.6082233,-1.583409 -5.288179 0.07211578,-1.578223 -6.308996 0.06989586,-1.661456 -6.829869 -0.04906523,-1.355629 -5.547462 -0.6025782,-1.224801 -5.419064 -0.04793704,-1.261674 -6.212286 0.005769968,-1.374624 -6.631345 -0.08413219,-9.040349 -7.347712 0.1417444,-8.332106 -7.045427 0.477384,-7.668172 -6.273098 0.7380841,-7.229589 -5.553125 1.033872,-6.814097 -5.179324 1.353026,-8.109387 -4.201065 0.4663713,-7.957639 -2.957897 0.6878975,-7.894353 -2.199436 0.8850601,-7.839652 -1.529472 1.036879,-8.532505 -3.946623 0.5456898,-8.388051 -2.495739 0.7149498,-8.296686 -1.567573 0.9739804,-8.226615 -0.7553697 1.196168,-8.955202 -4.005014 0.6752588,-8.862483 -2.663273 0.844496,-8.771566 -1.813158 1.040363,-8.677148 -1.08005 1.215123,-9.402656 -4.320154 0.8317147,-9.457195 -3.263366 1.019237,-9.455013 -2.586989 1.17548,-9.424388 -1.944917 1.303459,4.310, 1 0
-1.495808 -7.947989 -1.344104,-1.994976 -7.837123 -0.6350768,-2.428732 -7.041049 -0.2955234,-2.608516 -6.151697 -0.00662446,-2.844614 -5.375118 0.3091261,-2.485541 -5.651802 -0.6629648,-2.619724 -4.752485 -0.03344667,-2.632751 -4.104985 0.4137292,-2.604686 -3.490958 0.7628828,-2.106457 -5.436738 -0.8019882,-1.967479 -5.062055 0.007523775,-1.967479 -5.062055 0.007523775,-1.878569 -6.733977 0.1688339,-1.708518 -5.399248 -0.8467528,-1.566616 -5.248432 -0.1186485,-1.55369 -6.327783 -0.1710166,-1.640952 -6.868865 -0.34358,-1.345155 -5.501093 -0.8357249,-1.210692 -5.342322 -0.2701042,-1.23789 -6.172518 -0.2548196,-1.346673 -6.616333 -0.3747865,-9.059263 -7.353961 0.0948621,-8.345409 -7.061686 0.4229341,-7.682651 -6.287069 0.6782182,-7.249953 -5.559232 0.9703751,-6.842418 -5.173965 1.288445,-8.133588 -4.216627 0.4009004,-7.982566 -2.963638 0.6241223,-7.921682 -2.193265 0.8236828,-7.869003 -1.516925 0.9775374,-8.557055 -3.963562 0.4805886,-8.412043 -2.513521 0.6529608,-8.321064 -1.579587 0.9097878,-8.250594 -0.7681737 1.12755,-8.980059 -4.023342 0.609735,-8.888558 -2.675232 0.7815092,-8.799142 -1.818481 0.9791621,-8.702712 -1.08622 1.151257,-9.427078 -4.340348 0.7652978,-9.479575 -3.280247 0.9559116,-9.47585 -2.601049 1.115974,-9.440932 -1.963309 1.244894,4.410, 1 0
-1.461634 -7.917443 -1.45619,-1.968929 -7.812602 -0.7491032,-2.389936 -7.011291 -0.4216163,-2.5637 -6.114197 -0.1519233,-2.829811 -5.339073 0.1492882,-2.453916 -5.670474 -0.7730961,-2.594247 -4.753853 -0.1741649,-2.610894 -4.105987 0.2416927,-2.580379 -3.495986 0.5641788,-2.08993 -5.439161 -0.9379632,-1.933083 -5.073201 -0.1663834,-1.933083 -5.073201 -0.1663834,-1.831949 -6.68358 -0.02661788,-1.69987 -5.392498 -1.014126,-1.536508 -5.248727 -0.3182003,-1.512914 -6.305943 -0.3528353,-1.599313 -6.823558 -0.5100697,-1.352264 -5.479305 -1.031854,-1.194634 -5.352499 -0.4941157,-1.216084 -6.165743 -0.4667916,-1.324643 -6.585859 -0.5800529,-9.04995 -7.340541 0.05270171,-8.340038 -7.041618 0.3600874,-7.682922 -6.262871 0.6071227,-7.248646 -5.548421 0.8965031,-6.841533 -5.172519 1.211817,-8.138574 -4.202268 0.347325,-7.989149 -2.94322 0.57081,-7.92585 -2.174142 0.7701567,-7.872373 -1.49593 0.921718,-8.560932 -3.960541 0.4391138,-8.421254 -2.50439 0.6157717,-8.329928 -1.570524 0.8750796,-8.261836 -0.7551551 1.093528,-8.98257 -4.02533 0.5791275,-8.892095 -2.679117 0.7539936,-8.802121 -1.819057 0.9494598,-8.709686 -1.07939 1.121281,-9.426497 -4.344663 0.74318,-9.481519 -3.28125 0.9377228,-9.478051 -2.598646 1.09505,-9.44628 -1.958669 1.220633,4.510, 1 0
-1.388062 -7.834785 -1.292916,-1.924602 -7.797164 -0.5355582,-2.360782 -7.005443 -0.1836121,-2.532815 -6.118734 0.1073177,-2.80873 -5.34972 0.439749,-2.396206 -5.611543 -0.5025854,-2.521808 -4.710842 0.1685524,-2.525169 -4.064544 0.5957959,-2.471508 -3.423485 0.918523,-2.012384 -5.326967 -0.6832172,-1.797871 -5.143167 0.16495,-1.797871 -5.143167 0.16495,-1.723265 -6.841174 0.2334771,-1.606733 -5.264226 -0.7669912,-1.413753 -5.270926 -0.02780652,-1.403616 -6.373144 -0.09188342,-1.507698 -6.87467 -0.2840755,-1.262783 -5.357264 -0.7889087,-1.085416 -5.37875 -0.2358267,-1.11784 -6.22422 -0.2280773,-1.245935 -6.627344 -0.3680168,-9.05881 -7.348644 0.1058042,-8.34934 -7.066951 0.4544547,-7.689039 -6.29521 0.7170182,-7.256705 -5.578393 1.018117,-6.843005 -5.191644 1.345858,-8.14054 -4.202817 0.4082234,-7.991389 -2.94149 0.6333849,-7.927328 -2.167822 0.8401892,-7.869215 -1.493589 0.9935924,-8.568721 -3.951869 0.4788167,-8.432349 -2.509847 0.6424305,-8.343805 -1.580629 0.8939692,-8.27702 -0.7762208 1.110012,-8.994586 -4.011878 0.6016284,-8.902348 -2.677153 0.7635125,-8.81605 -1.822704 0.9521635,-8.727287 -1.094388 1.117944,-9.440799 -4.329835 0.7557744,-9.493063 -3.283792 0.932954,-9.488859 -2.608702 1.083351,-9.45789 -1.974609 1.207678,4.610, 1 0
-1.287668 -7.829813 -1.182815,-1.839435 -7.856597 -0.4169139,-2.298193 -7.07537 -0.05311048,-2.465024 -6.16574 0.2532741,-2.742972 -5.411802 0.586629,-2.324298 -5.631721 -0.3924313,-2.445515 -4.747758 0.2730964,-2.441021 -4.108121 0.7095033,-2.387675 -3.463357 1.054517,-1.931148 -5.297542 -0.556532,-1.752573 -5.214651 0.3185344,-1.752573 -5.214651 0.3185344,-1.654575 -6.960518 0.4027187,-1.498669 -5.222267 -0.6249467,-1.340644 -5.349437 0.1605227,-1.321421 -6.466801 0.1038016,-1.428422 -6.983371 -0.1081207,-1.112734 -5.316373 -0.6402032,-0.9715528 -5.433216 -0.02901733,-1.0138 -6.306968 -0.02453327,-1.15674 -6.736841 -0.1807392,-9.070976 -7.385656 0.140269,-8.368053 -7.077504 0.4813646,-7.701628 -6.295569 0.7469866,-7.259281 -5.583053 1.046945,-6.847309 -5.198476 1.37009,-8.16305 -4.220493 0.470439,-8.007846 -2.964915 0.7044275,-7.941091 -2.191379 0.91203,-7.882033 -1.509545 1.070379,-8.591588 -3.981258 0.5475138,-8.451118 -2.543188 0.7369609,-8.366009 -1.607223 1.004973,-8.301992 -0.7844005 1.238377,-9.017831 -4.053295 0.6713223,-8.923458 -2.720365 0.8538566,-8.837537 -1.865642 1.054178,-8.748755 -1.126379 1.231352,-9.467303 -4.379827 0.8240681,-9.518805 -3.327336 1.020846,-9.513795 -2.652366 1.181961,-9.4821 -2.010005 1.31398,4.710, 1 0
-1.24132 -7.848199 -0.8777975,-1.782639 -7.878709 -0.07372326,-2.256407 -7.098699 0.3152391,-2.438262 -6.194058 0.6369181,-2.71001 -5.440374 0.9972922,-2.271446 -5.605235 -0.035537,-2.384963 -4.74023 0.6579322,-2.376229 -4.111173 1.114833,-2.323438 -3.486356 1.472306,-1.869449 -5.23138 -0.2053811,-1.69044 -5.277214 0.6708428,-1.69044 -5.277214 0.6708428,-1.600279 -7.00575 0.7691435,-1.426043 -5.141785 -0.2724613,-1.264414 -5.38344 0.5075275,-1.252874 -6.490349 0.4463887,-1.359609 -6.974054 0.2438272,-1.035887 -5.229284 -0.2806454,-0.8776417 -5.411299 0.3133377,-0.9224601 -6.28864 0.303346,-1.069615 -6.696935 0.1467028,-9.072509 -7.380065 0.1490232,-8.363498 -7.066202 0.4959978,-7.702682 -6.277618 0.7660995,-7.270378 -5.559479 1.072542,-6.857463 -5.175733 1.403717,-8.161463 -4.21334 0.4903105,-8.012575 -2.951266 0.7302322,-7.9513 -2.176614 0.9388716,-7.895445 -1.493554 1.098416,-8.59316 -3.974596 0.5683829,-8.454504 -2.532969 0.7678875,-8.372352 -1.600885 1.03441,-8.308542 -0.7844043 1.265896,-9.02217 -4.050069 0.6932471,-8.927149 -2.703883 0.8850783,-8.843602 -1.843261 1.084354,-8.756634 -1.097247 1.258892,-9.473367 -4.3824 0.8468292,-9.523358 -3.323135 1.047698,-9.517742 -2.640988 1.205678,-9.484322 -1.992322 1.337104,4.810, 1 0
-1.162889 -7.861996 -0.2091904,-1.696818 -7.864181 0.6550356,-2.155602 -7.097946 1.106074,-2.346975 -6.19815 1.482639,-2.638066 -5.408396 1.895121,-2.173224 -5.495271 0.7673351,-2.306868 -4.739093 1.539056,-2.290519 -4.185856 2.019706,-2.232142 -3.578235 2.343917,-1.75243 -5.068149 0.5891048,-1.601526 -5.269392 1.50153,-1.601526 -5.269392 1.50153,-1.535015 -6.980005 1.570712,-1.303108 -4.980319 0.5106983,-1.149238 -5.310783 1.326872,-1.151022 -6.460945 1.210283,-1.262761 -6.904122 0.9642764,-0.9108634 -5.094456 0.5029474,-0.7713885 -5.22967 1.103498,-0.8369827 -6.133592 1.056861,-0.9909372 -6.546537 0.8832949,-9.088385 -7.377105 0.1413416,-8.387616 -7.071992 0.5043249,-7.727347 -6.283828 0.779835,-7.28917 -5.564741 1.086941,-6.871885 -5.179694 1.421724,-8.183082 -4.218527 0.5124508,-8.025627 -2.954621 0.7592005,-7.961457 -2.181009 0.9721228,-7.902723 -1.492457 1.133552,-8.612433 -3.976478 0.5848987,-8.47118 -2.534065 0.7906185,-8.387303 -1.606922 1.064231,-8.320531 -0.7888513 1.297415,-9.037603 -4.047604 0.7035755,-8.942257 -2.709145 0.9033352,-8.858141 -1.85346 1.108268,-8.771232 -1.110956 1.285122,-9.483939 -4.372692 0.8514324,-9.532053 -3.320599 1.062772,-9.527702 -2.64446 1.226786,-9.497465 -1.996038 1.360488,4.910, 1 0
-1.146101 -7.893459 0.04652878,-1.687619 -7.851398 0.9293468,-2.11693 -7.045034 1.375015,-2.278346 -6.13408 1.735405,-2.594782 -5.391218 2.124753,-2.140923 -5.44215 1.030651,-2.250969 -4.730892 1.814314,-2.24052 -4.197455 2.268639,-2.200346 -3.59389 2.571455,-1.717834 -5.01885 0.8457796,-1.556274 -5.279939 1.771015,-1.556274 -5.279939 1.771015,-1.499323 -7.00116 1.840657,-1.268462 -4.940987 0.7650027,-1.103294 -5.303108 1.596665,-1.109396 -6.47178 1.470377,-1.225573 -6.932607 1.195363,-0.8714418 -5.075944 0.7571191,-0.7302198 -5.196609 1.370159,-0.8082762 -6.092493 1.323493,-0.9655418 -6.519818 1.137884,-9.096957 -7.377712 0.1432348,-8.388581 -7.075087 0.484785,-7.72716 -6.277412 0.74467,-7.291317 -5.552282 1.041193,-6.873097 -5.158817 1.36203,-8.190176 -4.209524 0.4607105,-8.030277 -2.952681 0.6929995,-7.96442 -2.176905 0.896912,-7.908425 -1.490418 1.050122,-8.619725 -3.970127 0.5333586,-8.477477 -2.530475 0.7137442,-8.393978 -1.603 0.9703264,-8.331278 -0.787869 1.188734,-9.044685 -4.042894 0.6552806,-8.951101 -2.706137 0.8357801,-8.866145 -1.855256 1.030283,-8.780858 -1.120079 1.20103,-9.48914 -4.370166 0.8064148,-9.542373 -3.325269 1.000546,-9.540801 -2.65384 1.158635,-9.511174 -2.013748 1.287936,5.010, 1 0
-1.06311 -7.899871 -0.02565503,-1.649641 -7.84032 0.810981,-2.054622 -7.032184 1.253115,-2.199903 -6.140632 1.62456,-2.504142 -5.413135 2.000994,-2.071603 -5.407831 0.9420676,-2.206776 -4.736309 1.728265,-2.166871 -4.246056 2.180704,-2.096782 -3.697456 2.45644,-1.611845 -5.048485 0.7945634,-1.491506 -5.251052 1.720968,-1.491506 -5.251052 1.720968,-1.473973 -7.00023 1.813929,-1.137821 -5.065079 0.7528375,-0.9937716 -5.30059 1.623381,-1.029299 -6.482041 1.554509,-1.171307 -7.002195 1.320462,-0.7225876 -5.295049 0.7852497,-0.5831909 -5.23084 1.408281,-0.6744108 -5.964768 1.438861,-0.8359551 -6.332119 1.315319,-9.096346 -7.393646 0.2196859,-8.3949 -7.096914 0.5771106,-7.734317 -6.286776 0.8363836,-7.30456 -5.559625 1.132941,-6.885997 -5.170276 1.452872,-8.192911 -4.203369 0.5342765,-8.034938 -2.952681 0.766448,-7.968981 -2.176696 0.9759471,-7.914257 -1.491991 1.132536,-8.623451 -3.963196 0.6090616,-8.48776 -2.525642 0.785497,-8.404664 -1.598428 1.046882,-8.343208 -0.7897439 1.268845,-9.049547 -4.03091 0.7365931,-8.95837 -2.698686 0.9183531,-8.876215 -1.851656 1.120647,-8.794704 -1.120753 1.294695,-9.494294 -4.356323 0.8955415,-9.546491 -3.31285 1.09483,-9.545084 -2.645722 1.252945,-9.518442 -2.010022 1.377501,5.110, 1 0
-0.9833078 -7.861663 0.1661856,-1.570622 -7.765653 1.00953,-1.969832 -7.007171 1.47885,-2.090278 -6.132267 1.883728,-2.356629 -5.358741 2.308932,-1.974022 -5.299911 1.159027,-2.074207 -4.638511 1.975168,-2.008686 -4.184242 2.452031,-1.919804 -3.727264 2.73663,-1.50154 -4.956663 1.020652,-1.347426 -5.163606 1.980566,-1.347426 -5.163606 1.980566,-1.321069 -6.95146 2.13469,-1.017267 -4.995502 0.9871184,-0.8398428 -5.222777 1.892132,-0.8763614 -6.386129 1.81294,-1.02921 -6.913249 1.564278,-0.5923114 -5.241096 1.020944,-0.4353962 -5.166366 1.685218,-0.532567 -5.930753 1.69986,-0.7056317 -6.344759 1.552411,-9.140762 -7.390378 0.2404854,-8.429046 -7.091018 0.5784562,-7.76663 -6.293644 0.8283712,-7.333254 -5.562739 1.116065,-6.91995 -5.173697 1.428153,-8.219439 -4.199599 0.551051,-8.059138 -2.948582 0.7775962,-7.991583 -2.176036 0.9803772,-7.931433 -1.495327 1.134593,-8.649455 -3.956563 0.6304979,-8.505656 -2.51592 0.8043405,-8.419252 -1.5892 1.057535,-8.354398 -0.7828708 1.275636,-9.075394 -4.027478 0.7598256,-8.979864 -2.693696 0.9378214,-8.892468 -1.841072 1.135834,-8.805512 -1.105992 1.310778,-9.520976 -4.357851 0.9174,-9.568865 -3.31558 1.115927,-9.565922 -2.642767 1.280171,-9.537786 -2.000988 1.413538,5.210, 1 0
-0.923254 -7.858497 0.1264669,-1.513673 -7.762365 0.9724811,-1.923474 -7.024921 1.428964,-2.050526 -6.137216 1.823066,-2.327821 -5.356782 2.239807,-1.943336 -5.315374 1.114254,-2.04375 -4.627021 1.920933,-1.955748 -4.162149 2.374742,-1.847453 -3.719387 2.628189,-1.468732 -4.97179 0.9852784,-1.318602 -5.148682 1.958823,-1.318602 -5.148682 1.958823,-1.26683 -6.974371 2.131932,-0.9830189 -5.012722 0.9558955,-0.7984962 -5.217809 1.906788,-0.8189421 -6.391629 1.897341,-0.9587393 -6.988699 1.675139,-0.5485263 -5.271116 0.9906998,-0.400938 -5.096149 1.682663,-0.4792309 -5.752599 1.741446,-0.6302204 -6.161615 1.621794,-9.145391 -7.400724 0.263558,-8.427415 -7.097049 0.6160071,-7.767484 -6.298223 0.8707267,-7.340146 -5.558046 1.159097,-6.926542 -5.169628 1.469509,-8.219203 -4.202444 0.589586,-8.064353 -2.945326 0.8160617,-7.994966 -2.170621 1.020104,-7.935206 -1.485404 1.173124,-8.65336 -3.960518 0.6553963,-8.515382 -2.51334 0.8268767,-8.43071 -1.586577 1.085719,-8.369739 -0.7762847 1.310511,-9.080624 -4.032433 0.7702496,-8.991273 -2.696479 0.9431038,-8.90691 -1.844519 1.141689,-8.82506 -1.109719 1.31592,-9.525791 -4.361633 0.9140433,-9.576378 -3.314484 1.105718,-9.573537 -2.64115 1.268608,-9.548321 -1.995173 1.399654,5.310, 1 0
-0.8785515 -7.835776 0.3946376,-1.4702 -7.678514 1.281635,-1.859011 -6.928066 1.777099,-1.976926 -6.06619 2.202195,-2.276181 -5.327196 2.647846,-1.856702 -5.248058 1.5486,-1.953279 -4.617296 2.442724,-1.872191 -4.180038 2.92825,-1.770579 -3.733255 3.186974,-1.364895 -4.904233 1.400881,-1.205934 -5.143862 2.430207,-1.205934 -5.143862 2.430207,-1.207571 -6.990251 2.500218,-0.8656597 -4.97573 1.36726,-0.6767917 -5.233119 2.350853,-0.7387104 -6.385022 2.301876,-0.9012766 -6.935826 2.056335,-0.4355822 -5.270082 1.400834,-0.2739553 -5.115171 2.109178,-0.3661051 -5.682582 2.174529,-0.5199027 -5.996259 2.077365,-9.143955 -7.40533 0.3071339,-8.430416 -7.104091 0.6373758,-7.77187 -6.293323 0.8763388,-7.344926 -5.54935 1.152482,-6.933233 -5.162698 1.449834,-8.226837 -4.194088 0.5952369,-8.073219 -2.961805 0.8065846,-8.006362 -2.197896 1.007448,-7.947059 -1.511953 1.167303,-8.656463 -3.949448 0.6775344,-8.518024 -2.515872 0.8374221,-8.434946 -1.590417 1.101918,-8.374182 -0.77525 1.334783,-9.079987 -4.019325 0.8083176,-8.991673 -2.689461 0.9736888,-8.908129 -1.839476 1.171869,-8.825252 -1.100053 1.350835,-9.523088 -4.34854 0.9662101,-9.576451 -3.305095 1.157528,-9.57701 -2.629217 1.314222,-9.554982 -1.978502 1.441225,5.410, 1 0
-0.8480835 -7.747152 0.5051452,-1.422363 -7.651926 1.431129,-1.833297 -6.951005 1.99156,-1.943539 -6.104258 2.451257,-2.202041 -5.324518 2.95329,-1.831134 -5.202951 1.80472,-1.899242 -4.688726 2.699509,-1.818412 -4.23513 3.222502,-1.723823 -3.792509 3.545066,-1.324696 -4.835653 1.661836,-1.211177 -5.07971 2.741061,-1.211177 -5.07971 2.741061,-1.123198 -7.001644 2.93443,-0.8064213 -4.880933 1.637102,-0.65763 -5.155138 2.660503,-0.6875477 -6.331118 2.566718,-0.8127289 -6.925802 2.287828,-0.3414478 -5.158905 1.67635,-0.1990128 -5.089899 2.455419,-0.305603 -5.841428 2.47742,-0.4701881 -6.28469 2.341163,-9.151164 -7.410414 0.3213289,-8.433308 -7.111934 0.6549709,-7.770198 -6.295739 0.892715,-7.341084 -5.546028 1.167717,-6.927663 -5.161582 1.46604,-8.235879 -4.193159 0.591177,-8.0825 -2.951879 0.7945586,-8.013737 -2.180614 0.9912987,-7.950754 -1.49897 1.140101,-8.66251 -3.947421 0.6609439,-8.528365 -2.515753 0.8072418,-8.444773 -1.59132 1.053142,-8.380228 -0.783731 1.270272,-9.083309 -4.018055 0.7817172,-8.997448 -2.695956 0.9262732,-8.914229 -1.8491 1.112075,-8.830913 -1.120127 1.279602,-9.522094 -4.350717 0.9317563,-9.58048 -3.315594 1.103852,-9.586463 -2.642814 1.258705,-9.567801 -1.995549 1.383149,5.510, 1 0
-0.8825064 -7.711966 0.5241499,-1.456576 -7.652687 1.462231,-1.862366 -6.935338 2.01943,-1.955534 -6.105114 2.457939,-2.181672 -5.333229 2.95225,-1.803962 -5.186067 1.900497,-1.866137 -4.729814 2.744131,-1.79487 -4.264749 3.276294,-1.706718 -3.826026 3.64572,-1.304359 -4.81688 1.755693,-1.20063 -5.066008 2.76776,-1.20063 -5.066008 2.76776,-1.102509 -7.110773 2.993116,-0.7855101 -4.876003 1.72472,-0.6453967 -5.17195 2.717482,-0.6899176 -6.353687 2.630495,-0.7956653 -7.009422 2.381557,-0.3129129 -5.171581 1.759738,-0.1749644 -5.117067 2.5481,-0.3022327 -5.911108 2.560484,-0.4604917 -6.399322 2.449271,-9.145784 -7.399595 0.32173,-8.430339 -7.09493 0.6667633,-7.770705 -6.283605 0.9098413,-7.34277 -5.53898 1.187607,-6.932033 -5.149276 1.487097,-8.229855 -4.180545 0.6096529,-8.074658 -2.945961 0.8286272,-8.010275 -2.184156 1.034371,-7.955784 -1.503674 1.191646,-8.659026 -3.938758 0.6863192,-8.525329 -2.504486 0.8476069,-8.443003 -1.588235 1.107487,-8.38271 -0.7833552 1.334026,-9.081852 -4.011587 0.8138746,-8.999525 -2.685398 0.9858368,-8.916572 -1.843608 1.18696,-8.835381 -1.114271 1.365063,-9.522295 -4.343466 0.9720533,-9.582898 -3.31286 1.164438,-9.586803 -2.642232 1.321467,-9.565557 -1.995201 1.447417,5.610, 1 0
-0.8390961 -7.66529 0.4038581,-1.421772 -7.624572 1.391846,-1.793113 -6.924722 1.963664,-1.884602 -6.104373 2.394297,-2.172866 -5.42085 2.908035,-1.720709 -5.182115 1.902387,-1.771833 -4.726266 2.775007,-1.705496 -4.2758 3.290866,-1.625152 -3.866172 3.650078,-1.213248 -4.850053 1.743516,-1.119248 -4.930195 2.811691,-1.119248 -4.930195 2.811691,-1.020318 -6.694571 3.169752,-0.7012963 -4.922029 1.685943,-0.5600929 -5.218269 2.75477,-0.5957737 -6.323425 2.761011,-0.6837778 -6.963443 2.558608,-0.2351828 -5.236739 1.684496,-0.08689976 -5.139036 2.555864,-0.1957793 -5.772649 2.677513,-0.3343477 -6.181409 2.652088,-9.15325 -7.422073 0.3258046,-8.432988 -7.117198 0.6512614,-7.768112 -6.300735 0.8799221,-7.336885 -5.550536 1.144948,-6.928072 -5.161783 1.429556,-8.233262 -4.196413 0.5950693,-8.078998 -2.956752 0.7993864,-8.013848 -2.188001 0.9934986,-7.955499 -1.505408 1.143861,-8.66677 -3.957984 0.6708055,-8.532711 -2.525718 0.8234987,-8.452277 -1.607661 1.072187,-8.392595 -0.8047557 1.292459,-9.091636 -4.033458 0.7961904,-9.006808 -2.710062 0.9537138,-8.924318 -1.866278 1.1413,-8.842665 -1.137962 1.311706,-9.53371 -4.366471 0.9488907,-9.590844 -3.335815 1.134222,-9.594674 -2.667339 1.288015,-9.572716 -2.023773 1.409513,5.710, -1 1
-0.7333336 -7.666954 0.8164627,-1.31073 -7.634048 1.924332,-1.682716 -6.998301 2.592614,-1.737338 -6.245552 3.063863,-1.938794 -5.54236 3.616227,-1.646922 -5.152324 2.508232,-1.692882 -4.735649 3.383507,-1.612562 -4.259744 3.886636,-1.503656 -3.796551 4.274995,-1.136211 -4.79145 2.294233,-1.033894 -4.698877 3.398829,-1.033894 -4.698877 3.398829,-0.8315034 -5.716579 4.075838,-0.6202745 -4.793706 2.166872,-0.4550056 -5.249794 3.195284,-0.490118 -6.375765 3.091012,-0.5704141 -7.000489 2.835662,-0.1460905 -5.111579 2.110658,0.02551937 -5.252272 2.933913,-0.07694149 -6.070601 2.933288,-0.2134094 -6.542892 2.809993,-9.162737 -7.442075 0.3478892,-8.443609 -7.13983 0.6950836,-7.78236 -6.325356 0.9412142,-7.355396 -5.568677 1.221343,-6.939445 -5.180906 1.523888,-8.239628 -4.220201 0.6616595,-8.084458 -2.97944 0.8782865,-8.020606 -2.2143 1.075059,-7.964644 -1.532732 1.222399,-8.674926 -3.975579 0.7289794,-8.53716 -2.542093 0.8903136,-8.453616 -1.621352 1.138917,-8.391698 -0.8161836 1.358153,-9.101389 -4.046213 0.8456063,-9.012292 -2.716333 1.012629,-8.928508 -1.870262 1.204465,-8.846923 -1.141191 1.375349,-9.544963 -4.376659 0.991781,-9.595281 -3.338168 1.177312,-9.597649 -2.667503 1.332709,-9.577183 -2.020979 1.45788,5.810, -1 1
-0.6860924 -7.726082 1.118261,-1.27069 -7.644756 2.306357,-1.6515 -6.982025 3.058934,-1.692941 -6.227767 3.593175,-1.860253 -5.492465 4.228254,-1.60934 -5.132322 2.850014,-1.636855 -4.77058 3.809636,-1.535057 -4.299873 4.378171,-1.420764 -3.788543 4.826207,-1.069477 -4.755941 2.606872,-0.9727988 -4.724672 3.782783,-0.9727988 -4.724672 3.782783,-0.8165755 -5.733797 4.488467,-0.5243425 -4.743126 2.477903,-0.3934264 -5.282564 3.529876,-0.4700327 -6.467189 3.350848,-0.5784769 -7.050062 3.038893,-0.02834702 -5.072267 2.42788,0.09016132 -5.351073 3.24184,-0.05215073 -6.242885 3.160862,-0.2062564 -6.684432 2.9756,-9.174964 -7.465213 0.3470723,-8.451154 -7.160282 0.6697074,-7.78906 -6.339518 0.9020584,-7.364724 -5.582739 1.173687,-6.952918 -5.192654 1.464542,-8.251509 -4.240907 0.6219631,-8.097689 -2.997829 0.8318278,-8.029388 -2.22456 1.030225,-7.970925 -1.532797 1.182646,-8.683826 -3.996362 0.6990986,-8.547457 -2.562598 0.8541787,-8.46262 -1.636464 1.11057,-8.399057 -0.8228974 1.335363,-9.106565 -4.065916 0.8239185,-9.02067 -2.739563 0.9829569,-8.936789 -1.889581 1.177927,-8.855433 -1.154644 1.35123,-9.545567 -4.396287 0.9761201,-9.602775 -3.354317 1.159843,-9.603598 -2.677993 1.319845,-9.582014 -2.030182 1.445273,5.910, -1 1
-0.5978312 -7.710033 1.713421,-1.194396 -7.610511 2.828098,-1.589962 -6.984375 3.574145,-1.645112 -6.231203 4.134294,-1.819839 -5.45587 4.832806,-1.510067 -4.983556 3.405097,-1.492669 -4.712331 4.404141,-1.370914 -4.338736 5.022456,-1.224105 -3.921938 5.500781,-0.9843302 -4.536729 3.173376,-0.7761502 -5.010328 4.264139,-0.7761502 -5.010328 4.264139,-0.7244034 -6.589775 4.589345,-0.4350348 -4.56954 3.073613,-0.2451801 -5.373113 4.050498,-0.33922 -6.545002 3.811904,-0.460043 -7.014961 3.491596,0.05502653 -4.904477 3.051735,0.1969109 -5.342147 3.788013,0.03161621 -6.240736 3.655598,-0.1357212 -6.615016 3.460097,-9.170662 -7.471517 0.3578105,-8.458513 -7.155145 0.688941,-7.797949 -6.337329 0.9250329,-7.371759 -5.588792 1.199035,-6.962878 -5.193964 1.494323,-8.259173 -4.245195 0.6567626,-8.105544 -3.006304 0.8741487,-8.038371 -2.241313 1.074449,-7.981022 -1.553164 1.227558,-8.691489 -4.000535 0.7348304,-8.554878 -2.570275 0.8982815,-8.471019 -1.645559 1.152368,-8.407935 -0.8307166 1.375073,-9.113955 -4.0674 0.859085,-9.028835 -2.742757 1.031652,-8.945558 -1.890815 1.225085,-8.862751 -1.154922 1.395195,-9.552612 -4.391059 1.011757,-9.607791 -3.353221 1.199479,-9.610255 -2.679262 1.352865,-9.589578 -2.032281 1.472957,6.010, -1 1
-0.7121873 -7.761713 1.176852,-1.301085 -7.593738 2.102689,-1.62477 -6.85208 2.710529,-1.700012 -6.051364 3.181741,-1.975245 -5.358818 3.747012,-1.542372 -5.042533 2.696045,-1.539248 -4.658165 3.585627,-1.431515 -4.269952 4.091099,-1.310093 -3.878463 4.417491,-1.00193 -4.703971 2.541452,-0.8633103 -5.061492 3.55448,-0.8633103 -5.061492 3.55448,-0.9245481 -7.050098 3.570221,-0.4545941 -4.851099 2.498777,-0.2880406 -5.201988 3.464543,-0.3973207 -6.317543 3.292834,-0.5580769 -6.869253 2.969063,0.01349354 -5.251047 2.518087,0.1731973 -5.187736 3.266313,0.03595781 -5.830018 3.287212,-0.1366925 -6.183654 3.165293,-9.177708 -7.489832 0.3131313,-8.465185 -7.158864 0.644441,-7.810904 -6.347451 0.891701,-7.387745 -5.603919 1.178314,-6.974547 -5.221346 1.488532,-8.269303 -4.271631 0.6283059,-8.113059 -3.030055 0.8537763,-8.04645 -2.262623 1.057492,-7.989222 -1.579206 1.211922,-8.705441 -4.032294 0.7034048,-8.567883 -2.590125 0.8796963,-8.483077 -1.66021 1.135206,-8.419393 -0.8449664 1.354339,-9.129618 -4.097139 0.824111,-9.044238 -2.761781 1.000801,-8.959557 -1.914865 1.189435,-8.874403 -1.183518 1.353649,-9.569456 -4.414988 0.9737973,-9.624227 -3.369589 1.162775,-9.625565 -2.696736 1.314133,-9.602841 -2.045481 1.434111,6.110, -1 1
-0.7159247 -7.711839 0.851881,-1.299913 -7.624555 1.819491,-1.635269 -6.910654 2.436577,-1.723319 -6.070291 2.909946,-1.989933 -5.306946 3.456358,-1.533944 -5.1165 2.419936,-1.558091 -4.624183 3.288342,-1.477065 -4.15372 3.79108,-1.362252 -3.687269 4.104052,-1.035097 -4.754623 2.205663,-0.8490448 -5.012581 3.21285,-0.8490448 -5.012581 3.21285,-0.9352016 -6.793031 3.246694,-0.5402961 -4.822731 2.092386,-0.3279037 -5.173324 3.01612,-0.4138083 -6.252878 2.847057,-0.5741167 -6.723627 2.511846,-0.123827 -5.105947 2.030731,0.0712986 -5.178308 2.719029,-0.02249146 -5.951946 2.690234,-0.1962805 -6.310749 2.499263,-9.187134 -7.492746 0.294201,-8.474136 -7.174827 0.6295487,-7.818022 -6.355162 0.8692687,-7.39804 -5.606533 1.146759,-6.99011 -5.215654 1.440567,-8.285869 -4.278983 0.6080492,-8.131728 -3.027185 0.8295847,-8.065449 -2.253063 1.02917,-8.010141 -1.566625 1.180833,-8.718153 -4.03989 0.6812772,-8.583421 -2.591724 0.8574783,-8.500541 -1.664493 1.112726,-8.43956 -0.8522229 1.332429,-9.137736 -4.105329 0.8003982,-9.053536 -2.765687 0.9782261,-8.970533 -1.913769 1.173067,-8.887087 -1.179241 1.343129,-9.572344 -4.426097 0.9473219,-9.631278 -3.38228 1.137325,-9.636269 -2.710197 1.292945,-9.617014 -2.062331 1.415691,6.210, -1 1
-0.9428229 -7.430818 -0.3878294,-1.541216 -7.470726 0.5751482,-1.843048 -6.75049 1.108957,-1.921991 -5.780418 1.469875,-2.220747 -4.927384 1.898913,-1.740829 -5.166194 1.005861,-1.724841 -4.535884 1.759443,-1.697287 -3.912554 2.156561,-1.648673 -3.270233 2.406897,-1.275098 -4.752761 0.7113335,-1.061224 -4.889051 1.554167,-1.061224 -4.889051 1.554167,-1.068316 -6.599695 1.217811,-0.8127956 -4.693987 0.5242835,-0.611671 -4.9396 1.289421,-0.6683331 -5.991514 1.040863,-0.8069167 -6.513232 0.6713432,-0.4339547 -4.871551 0.3945431,-0.2789774 -4.929798 0.9879904,-0.38587 -5.710177 0.8908284,-0.5757341 -6.168212 0.6451683,-9.198366 -7.493238 0.3322584,-8.481886 -7.187897 0.6590313,-7.820654 -6.350167 0.8819053,-7.399402 -5.589496 1.145517,-6.987658 -5.194999 1.429192,-8.285131 -4.266992 0.5816783,-8.135013 -3.030595 0.7806286,-8.071413 -2.25642 0.9703898,-8.01652 -1.573496 1.114983,-8.718016 -4.024057 0.6519677,-8.58607 -2.595818 0.7956835,-8.505044 -1.668464 1.038277,-8.446168 -0.8627896 1.254295,-9.139965 -4.089994 0.7725397,-9.060225 -2.772787 0.9251764,-8.981796 -1.925701 1.108995,-8.90092 -1.197587 1.269495,-9.579464 -4.410977 0.9226977,-9.640229 -3.384428 1.103473,-9.646717 -2.720109 1.251889,-9.626695 -2.081972 1.36892,6.310, -1 1
-1.019574 -8.200132 0.7752511,-1.698277 -7.553892 1.182727,-2.11209 -6.575667 1.416458,-2.355233 -5.522707 1.539993,-2.685888 -4.875659 1.686694,-1.848513 -5.242111 1.519209,-2.119919 -4.017534 1.583405,-2.134389 -3.325497 1.539441,-2.08219 -2.831786 1.528266,-1.430069 -5.033137 1.356389,-1.595117 -3.930285 1.427406,-1.595117 -3.930285 1.427406,-1.694127 -5.397749 1.363809,-1.06378 -5.064388 1.168597,-1.133146 -4.016412 1.258573,-1.240264 -4.587949 1.208633,-1.2981 -5.256885 1.188933,-0.7544651 -5.235261 1.012599,-0.7107391 -4.368358 1.118762,-0.7626448 -4.613954 1.153372,-0.8012757 -5.011208 1.152802,-9.177279 -7.512731 0.2985652,-8.454821 -7.190935 0.6364354,-7.792259 -6.372973 0.8717457,-7.363369 -5.612026 1.144631,-6.948195 -5.22126 1.442552,-8.260886 -4.297534 0.5756231,-8.117238 -3.045546 0.779429,-8.055544 -2.269912 0.9740444,-8.001196 -1.590363 1.122728,-8.697247 -4.054683 0.6334529,-8.559175 -2.624691 0.7881359,-8.477947 -1.695165 1.035706,-8.418025 -0.8873305 1.255003,-9.12446 -4.115366 0.7371941,-9.033239 -2.791868 0.884247,-8.953989 -1.950613 1.054746,-8.872739 -1.231386 1.206272,-9.570474 -4.429763 0.8741783,-9.623153 -3.398454 1.040554,-9.629989 -2.731903 1.177462,-9.609816 -2.092663 1.290347,6.410, -1 1
-1.15598 -7.981529 0.5006881,-1.819726 -7.505525 0.8095814,-2.262671 -6.52927 0.9527066,-2.53444 -5.5349 1.045518,-2.916626 -4.958202 1.155989,-2.108716 -5.091248 0.7524362,-2.404952 -3.982071 0.8251766,-2.458251 -3.245004 0.8881335,-2.434074 -2.658266 0.9819429,-1.6768 -4.863203 0.6963149,-1.729096 -3.605793 0.8605914,-1.729096 -3.605793 0.8605914,-1.649643 -4.194889 0.9879085,-1.296338 -4.92507 0.666954,-1.216514 -3.758955 0.8484256,-1.255472 -3.800809 0.9207633,-1.264714 -4.172624 0.9382371,-0.9667754 -5.213653 0.6641054,-0.8624077 -4.270763 0.8427855,-0.8935776 -4.072391 0.9205165,-0.9035139 -4.166807 0.924093,-9.151771 -7.512643 0.3285281,-8.427015 -7.192293 0.6452963,-7.774677 -6.367219 0.8693877,-7.355703 -5.60762 1.1363,-6.941133 -5.218065 1.429156,-8.246936 -4.282882 0.5565901,-8.101131 -3.038946 0.7519104,-8.03773 -2.267655 0.9459902,-7.981064 -1.590761 1.092325,-8.679753 -4.041734 0.6297915,-8.547754 -2.613452 0.7670482,-8.465271 -1.686482 1.008363,-8.403128 -0.8857074 1.22338,-9.104508 -4.10893 0.7489454,-9.01729 -2.783696 0.8867597,-8.936167 -1.933759 1.05953,-8.854382 -1.208774 1.213335,-9.547411 -4.431397 0.9016885,-9.60198 -3.39697 1.064204,-9.604532 -2.722942 1.199464,-9.580312 -2.083124 1.306649,6.510, -1 1
-1.523477 -7.669702 0.6885937,-2.154382 -7.331184 1.066507,-2.631124 -6.432184 1.252891,-2.908854 -5.560022 1.46896,-3.301114 -4.946155 1.707292,-2.461995 -4.727975 0.6898378,-2.75054 -3.702398 0.7025954,-2.833691 -3.007288 0.7620215,-2.875064 -2.389868 0.8970211,-2.054554 -4.492517 0.6727924,-2.190767 -3.4459 0.7156808,-2.190767 -3.4459 0.7156808,-2.267194 -2.728544 0.9641101,-1.663252 -4.517882 0.7420786,-1.724437 -3.497141 0.8133617,-1.762689 -3.071308 1.052766,-1.816127 -3.03643 1.218079,-1.289368 -4.774167 0.8513736,-1.246497 -3.900021 0.9664925,-1.28007 -3.483388 1.148486,-1.354446 -3.311847 1.26871,-9.131916 -7.500352 0.2769406,-8.412314 -7.183676 0.6011701,-7.760413 -6.37173 0.8334152,-7.33823 -5.615381 1.100484,-6.930488 -5.220687 1.395776,-8.231229 -4.287925 0.5378891,-8.086071 -3.042663 0.734007,-8.024007 -2.268598 0.9322554,-7.970912 -1.58696 1.086506,-8.660153 -4.047142 0.6087989,-8.520654 -2.626895 0.7509064,-8.440151 -1.701359 1.000457,-8.382574 -0.8995652 1.225992,-9.083031 -4.115747 0.7266299,-8.992597 -2.803415 0.8665409,-8.909999 -1.96161 1.049836,-8.82893 -1.245624 1.216522,-9.527361 -4.440305 0.8760461,-9.582682 -3.407778 1.045588,-9.588402 -2.731744 1.191015,-9.56815 -2.089178 1.308699,6.610, -1 1
-1.493942 -7.698448 0.5538112,-2.195931 -7.443248 1.042553,-2.792428 -6.694456 1.213912,-3.145529 -5.837533 1.394836,-3.494106 -5.136693 1.603929,-2.62254 -4.877409 0.6285178,-2.931306 -3.80553 0.7447209,-3.085234 -3.104177 0.9053361,-3.180429 -2.438399 1.100578,-2.238924 -4.604351 0.5162093,-2.45123 -3.417695 0.522426,-2.45123 -3.417695 0.522426,-2.581892 -2.067771 0.7899575,-1.849931 -4.586467 0.5030017,-1.957723 -3.513738 0.4756837,-2.030833 -2.863923 0.6347101,-2.068774 -2.353168 0.7605052,-1.44757 -4.791248 0.5493436,-1.421582 -3.924499 0.5995579,-1.437793 -3.379085 0.7288366,-1.4432 -2.909812 0.819012,-9.101531 -7.489688 0.2290792,-8.389695 -7.167859 0.5666561,-7.739989 -6.374096 0.8046825,-7.319937 -5.64265 1.074671,-6.917331 -5.260267 1.375252,-8.199867 -4.281667 0.4894974,-8.058623 -3.042975 0.6812921,-7.999568 -2.267412 0.8809195,-7.948902 -1.591939 1.040534,-8.625107 -4.050565 0.5564486,-8.489601 -2.639717 0.6959225,-8.409179 -1.715467 0.9541862,-8.351542 -0.9213586 1.187078,-9.048735 -4.122287 0.6703125,-8.961643 -2.823882 0.8072909,-8.878616 -1.980766 0.9943144,-8.795338 -1.268295 1.167518,-9.494928 -4.449036 0.8211389,-9.558346 -3.42511 0.9842317,-9.563064 -2.750965 1.128424,-9.538524 -2.114119 1.249702,6.710, -1 1
-1.561686 -7.683885 0.4472598,-2.267241 -7.488731 0.8763741,-2.856153 -6.750072 1.042598,-3.200043 -5.915489 1.224851,-3.525274 -5.177452 1.421234,-2.688912 -4.914737 0.5558129,-3.029223 -3.811802 0.6762156,-3.183628 -3.100683 0.7968098,-3.272915 -2.453764 0.9506775,-2.303717 -4.620433 0.4910749,-2.53334 -3.366742 0.5408142,-2.53334 -3.366742 0.5408142,-2.639865 -1.926999 0.7777205,-1.916173 -4.595438 0.5119491,-2.033579 -3.42464 0.5471677,-2.106501 -2.716896 0.7054468,-2.132097 -2.109324 0.8233191,-1.514789 -4.810407 0.5779635,-1.499491 -3.862417 0.6659614,-1.523108 -3.266744 0.8053557,-1.536342 -2.71216 0.8947177,-9.09745 -7.493648 0.1828391,-8.381157 -7.185552 0.5304125,-7.733893 -6.394551 0.7789745,-7.317388 -5.658263 1.058837,-6.914511 -5.277072 1.364468,-8.195312 -4.311441 0.4802502,-8.05563 -3.064166 0.6915346,-7.994347 -2.29239 0.8964885,-7.939477 -1.618198 1.05742,-8.624784 -4.07176 0.5530951,-8.491081 -2.64007 0.7147607,-8.404217 -1.709668 0.9742587,-8.339622 -0.908711 1.205775,-9.051029 -4.140624 0.6741841,-8.958637 -2.813665 0.8365912,-8.869974 -1.962053 1.029315,-8.782358 -1.238876 1.200764,-9.499302 -4.468645 0.8301057,-9.557331 -3.429028 1.015675,-9.557485 -2.749702 1.167685,-9.530864 -2.105669 1.292821,6.810, -1 1
-1.580316 -7.828846 0.5673382,-2.30199 -7.611558 0.9446777,-2.904634 -6.884866 1.104357,-3.25878 -6.037073 1.260897,-3.537683 -5.285017 1.415356,-2.711194 -5.080814 0.7920667,-3.059565 -3.91224 0.932488,-3.22556 -3.157317 1.067668,-3.322621 -2.466877 1.225807,-2.334279 -4.737921 0.7466079,-2.600085 -3.373466 0.829019,-2.600085 -3.373466 0.829019,-2.795308 -1.789275 1.095471,-1.953885 -4.669734 0.7755556,-2.118126 -3.386645 0.8547893,-2.232199 -2.561405 1.007509,-2.3005 -1.862216 1.148633,-1.551857 -4.847978 0.8349,-1.555112 -3.781438 0.9562276,-1.591104 -3.122664 1.101698,-1.621632 -2.537311 1.218343,-9.092292 -7.504854 0.1762666,-8.367751 -7.187896 0.4942978,-7.719958 -6.410001 0.7302399,-7.304295 -5.67987 1.005853,-6.90299 -5.29001 1.313964,-8.173361 -4.312343 0.4251539,-8.02821 -3.053172 0.6121414,-7.966757 -2.271249 0.8088489,-7.914752 -1.59527 0.9631431,-8.603896 -4.083236 0.5092926,-8.46812 -2.659417 0.6463877,-8.382408 -1.73352 0.8999761,-8.321463 -0.9469266 1.12375,-9.032716 -4.156919 0.6378871,-8.94004 -2.835859 0.7806312,-8.853168 -1.986661 0.976166,-8.767744 -1.27038 1.148629,-9.48417 -4.480522 0.8003892,-9.542948 -3.437731 0.9724359,-9.541821 -2.756973 1.120414,-9.513208 -2.109377 1.240568,6.910, -1 1
-1.557906 -7.916496 1.069032,-2.252651 -7.616045 1.412563,-2.868814 -6.864477 1.563905,-3.250782 -6.048025 1.756153,-3.576241 -5.320919 1.972884,-2.678463 -4.977143 1.133138,-3.025076 -3.802251 1.267133,-3.184042 -3.061651 1.383187,-3.275764 -2.381663 1.525682,-2.323483 -4.67691 1.155283,-2.574574 -3.312232 1.249608,-2.574574 -3.312232 1.249608,-2.723957 -1.70708 1.543008,-1.955753 -4.641887 1.260703,-2.095113 -3.348769 1.344407,-2.194523 -2.527303 1.515414,-2.247433 -1.803516 1.665723,-1.555475 -4.851995 1.403674,-1.551233 -3.799862 1.525818,-1.583061 -3.134178 1.675657,-1.596475 -2.52336 1.792028,-9.075907 -7.511747 0.1777254,-8.363595 -7.20195 0.5362278,-7.71428 -6.405586 0.7904888,-7.290668 -5.663906 1.07505,-6.879087 -5.270833 1.394138,-8.167576 -4.337089 0.4835534,-8.019682 -3.093854 0.6995243,-7.956857 -2.321769 0.9119469,-7.905642 -1.640941 1.076945,-8.596769 -4.092624 0.5515318,-8.453544 -2.678119 0.7108496,-8.364855 -1.750193 0.9793615,-8.302437 -0.9498019 1.214831,-9.026187 -4.157433 0.6687431,-8.931445 -2.845932 0.8305747,-8.843285 -1.997106 1.028896,-8.754297 -1.277036 1.199888,-9.480917 -4.478149 0.8200328,-9.538038 -3.439448 1.014723,-9.533964 -2.757556 1.167251,-9.498961 -2.111185 1.286117,7.010, -1 1
-1.524632 -7.986961 1.174986,-2.225251 -7.666215 1.516784,-2.84936 -6.910305 1.667751,-3.239756 -6.07377 1.850351,-3.576328 -5.336149 2.062172,-2.648428 -5.032563 1.253086,-2.998995 -3.852406 1.393397,-3.157265 -3.103052 1.517938,-3.249031 -2.40711 1.664446,-2.295118 -4.717468 1.261389,-2.556622 -3.347875 1.360659,-2.556622 -3.347875 1.360659,-2.723375 -1.719908 1.669538,-1.929887 -4.65816 1.34877,-2.077209 -3.359675 1.432027,-2.181992 -2.540196 1.610017,-2.240263 -1.819931 1.77138,-1.533924 -4.840691 1.469779,-1.540105 -3.768644 1.592719,-1.577898 -3.097276 1.75298,-1.60243 -2.485425 1.882601,-9.063421 -7.491182 0.1344912,-8.345331 -7.20082 0.4533249,-7.700146 -6.400127 0.6910217,-7.28807 -5.656969 0.9663942,-6.884471 -5.263391 1.272732,-8.143615 -4.32615 0.3827075,-7.999314 -3.074274 0.5835849,-7.937544 -2.3003 0.7807121,-7.884356 -1.623354 0.9354873,-8.57678 -4.081433 0.4675717,-8.440347 -2.656742 0.61396,-8.352523 -1.728047 0.8684344,-8.28862 -0.93331 1.09199,-9.008332 -4.150323 0.6001303,-8.918114 -2.825111 0.7580507,-8.831982 -1.968364 0.9551572,-8.745111 -1.239918 1.122263,-9.463606 -4.478609 0.7643113,-9.520617 -3.43071 0.95226,-9.516212 -2.744839 1.102741,-9.482312 -2.095776 1.221182,7.110, -1 1
-1.497374 -8.076202 1.388631,-2.189771 -7.734794 1.76535,-2.802469 -6.962261 1.938623,-3.192348 -6.113443 2.14017,-3.528742 -5.364563 2.37127,-2.624515 -5.062387 1.496527,-2.973982 -3.888328 1.668567,-3.131513 -3.130771 1.817094,-3.223961 -2.428258 1.978912,-2.269251 -4.745147 1.500404,-2.521099 -3.366868 1.628032,-2.521099 -3.366868 1.628032,-2.678434 -1.725467 1.955272,-1.904831 -4.690197 1.588255,-2.039424 -3.378524 1.692987,-2.138207 -2.556924 1.886697,-2.191875 -1.833168 2.045434,-1.507725 -4.884429 1.71241,-1.508015 -3.806864 1.841028,-1.53927 -3.133564 1.9976,-1.558537 -2.518176 2.112789,-9.085823 -7.494171 0.1599465,-8.359719 -7.190173 0.4736136,-7.706422 -6.401277 0.7076464,-7.281553 -5.658355 0.9819879,-6.873627 -5.254005 1.286949,-8.155964 -4.329195 0.3939034,-8.004395 -3.09103 0.5913632,-7.940013 -2.318424 0.7944454,-7.886085 -1.641857 0.9528167,-8.584373 -4.077817 0.4788504,-8.437404 -2.669449 0.6122122,-8.349066 -1.745902 0.8688482,-8.288048 -0.9535842 1.097003,-9.014058 -4.141828 0.6129705,-8.916151 -2.828334 0.7528601,-8.829855 -1.97956 0.9437525,-8.745029 -1.258493 1.109002,-9.469841 -4.466011 0.7776546,-9.518384 -3.417769 0.9561039,-9.506164 -2.733431 1.105174,-9.465432 -2.086165 1.221812,7.210, -1 1
-1.463355 -8.13188 1.392173,-2.158161 -7.757379 1.768786,-2.768249 -6.965433 1.938576,-3.158073 -6.089094 2.12441,-3.489534 -5.359035 2.334434,-2.557745 -5.108944 1.584884,-2.928591 -3.881553 1.768897,-3.089767 -3.104608 1.900129,-3.175484 -2.39735 2.044191,-2.199993 -4.794794 1.571881,-2.468786 -3.378131 1.719786,-2.468786 -3.378131 1.719786,-2.608041 -1.734451 2.023069,-1.838886 -4.736295 1.630246,-1.98913 -3.390654 1.760671,-2.087693 -2.568188 1.956054,-2.136827 -1.849014 2.115245,-1.449256 -4.92753 1.722865,-1.458008 -3.841304 1.885004,-1.492668 -3.176827 2.059615,-1.518888 -2.562615 2.185499,-9.061418 -7.478264 0.09443845,-8.346848 -7.176874 0.4125127,-7.699985 -6.384018 0.6482581,-7.284159 -5.646589 0.9196835,-6.884492 -5.261649 1.221433,-8.162249 -4.324893 0.3556354,-8.010529 -3.078495 0.5627872,-7.944637 -2.305397 0.7623425,-7.888582 -1.623422 0.9138575,-8.589849 -4.078548 0.4328057,-8.447446 -2.649294 0.5833662,-8.358424 -1.719823 0.8391017,-8.297323 -0.9194865 1.064737,-9.015844 -4.144749 0.5590864,-8.9232 -2.818113 0.7131329,-8.836007 -1.960616 0.9065163,-8.754177 -1.233153 1.076517,-9.463609 -4.467731 0.7128102,-9.519523 -3.421146 0.8976315,-9.514024 -2.736931 1.053918,-9.482743 -2.091092 1.176528,7.310, -1 1
-1.455753 -8.18078 1.444376,-2.157209 -7.756528 1.792914,-2.75785 -6.934737 1.944146,-3.121922 -6.045774 2.137455,-3.44492 -5.308218 2.363168,-2.558345 -5.10111 1.537532,-2.902022 -3.887789 1.732536,-3.060938 -3.12406 1.886743,-3.15498 -2.412375 2.053423,-2.191292 -4.825688 1.569197,-2.423139 -3.444018 1.732996,-2.423139 -3.444018 1.732996,-2.548307 -1.853571 2.083307,-1.824051 -4.792556 1.681756,-1.939439 -3.493905 1.816149,-2.016719 -2.708679 2.026592,-2.046858 -2.003099 2.192945,-1.431668 -5.000593 1.833023,-1.418949 -3.95006 1.993597,-1.441223 -3.302213 2.160486,-1.453504 -2.679487 2.272785,-9.070031 -7.47756 0.1482557,-8.353935 -7.175155 0.4561595,-7.704294 -6.372408 0.6804706,-7.287743 -5.631691 0.9444337,-6.888531 -5.239803 1.233097,-8.158945 -4.304842 0.3700604,-8.008071 -3.063369 0.5631237,-7.943433 -2.290041 0.7608959,-7.889144 -1.609094 0.9205568,-8.586505 -4.06127 0.4590419,-8.445395 -2.645113 0.5972849,-8.357643 -1.717323 0.8577617,-8.294805 -0.9207673 1.088713,-9.014235 -4.125156 0.5944932,-8.918878 -2.808205 0.7367009,-8.82962 -1.961763 0.9250928,-8.742027 -1.244596 1.092231,-9.467418 -4.442824 0.7619231,-9.518831 -3.395658 0.9417021,-9.509957 -2.712238 1.086523,-9.473104 -2.064649 1.201867,7.410, -1 1
-1.441631 -8.15917 1.297754,-2.124299 -7.814705 1.781465,-2.689506 -6.972826 1.926973,-3.00364 -6.025749 2.098703,-3.290632 -5.217199 2.280011,-2.523322 -5.098567 1.276031,-2.838114 -3.895986 1.311779,-2.979561 -3.172453 1.369644,-3.066622 -2.522517 1.466849,-2.129979 -4.837621 1.151138,-2.319762 -3.641091 1.092109,-2.319762 -3.641091 1.092109,-2.339677 -2.660311 1.179216,-1.745777 -4.824266 1.120108,-1.840677 -3.76434 1.110534,-1.826328 -3.332307 1.286434,-1.806588 -3.220422 1.391719,-1.343389 -5.007019 1.158569,-1.336077 -4.156013 1.185412,-1.317552 -3.725391 1.299086,-1.307618 -3.51938 1.358211,-9.058044 -7.485475 0.1203504,-8.339545 -7.18906 0.4445372,-7.697302 -6.395705 0.681765,-7.290397 -5.651482 0.9530187,-6.898855 -5.264745 1.251241,-8.155478 -4.324682 0.3911314,-8.011749 -3.081282 0.6032295,-7.947245 -2.303638 0.802972,-7.889211 -1.618258 0.9559924,-8.585958 -4.079724 0.4724535,-8.449868 -2.653084 0.6308954,-8.360955 -1.723175 0.8883324,-8.296836 -0.9212489 1.113549,-9.012681 -4.144569 0.6040391,-8.924263 -2.81757 0.7671278,-8.837057 -1.957899 0.9644833,-8.751338 -1.228076 1.134218,-9.46196 -4.467449 0.7637621,-9.520168 -3.421543 0.9553166,-9.513455 -2.734746 1.113391,-9.478317 -2.083492 1.237575,7.510, -1 1
-1.466559 -8.209627 0.4944755,-2.157743 -7.799201 0.9840322,-2.603346 -6.952879 1.278999,-2.848742 -5.99392 1.49401,-3.098836 -5.223703 1.692145,-2.448923 -5.315194 1.18409,-2.777795 -4.060052 1.407812,-2.930717 -3.246351 1.550971,-3.01672 -2.52821 1.692456,-1.974442 -5.1426 1.092155,-2.077847 -3.772885 1.461746,-2.077847 -3.772885 1.461746,-2.067206 -4.541856 1.594583,-1.564773 -5.234193 1.043399,-1.537433 -4.032791 1.330091,-1.607447 -4.365144 1.447058,-1.66769 -4.959327 1.460174,-1.209841 -5.513122 1.016481,-1.059188 -4.537929 1.270008,-1.08529 -4.499228 1.400748,-1.132611 -4.797233 1.456559,-9.059755 -7.506622 0.1532818,-8.342915 -7.206295 0.4869508,-7.698503 -6.405054 0.7291968,-7.286295 -5.667667 1.005993,-6.8876 -5.283266 1.314472,-8.154081 -4.330125 0.4102353,-8.009585 -3.079163 0.614728,-7.946597 -2.300922 0.8187125,-7.89368 -1.617986 0.9805924,-8.58157 -4.090742 0.4914473,-8.446256 -2.671934 0.6392459,-8.361145 -1.744082 0.898031,-8.29931 -0.9428535 1.129775,-9.008621 -4.162375 0.623426,-8.916879 -2.84678 0.7741951,-8.829015 -1.995337 0.9714482,-8.743864 -1.268828 1.149345,-9.45952 -4.49174 0.7877312,-9.520035 -3.453124 0.9704244,-9.519503 -2.770583 1.125802,-9.492771 -2.120733 1.254431,7.610, -1 1
-1.39565 -8.231962 -0.02018575,-2.101541 -7.856441 0.449504,-2.545003 -6.990528 0.7420953,-2.783298 -6.015222 0.9395572,-3.028835 -5.207187 1.107758,-2.432593 -5.483106 0.7385208,-2.723099 -4.16811 0.9310467,-2.866205 -3.325608 1.095567,-2.945792 -2.585195 1.278299,-1.961976 -5.33669 0.6196101,-2.066137 -4.064088 0.8718874,-2.066137 -4.064088 0.8718874,-2.09719 -5.485127 0.9072154,-1.556786 -5.433652 0.5302282,-1.554188 -4.348813 0.7223098,-1.645351 -5.075369 0.710145,-1.693575 -5.737009 0.6894425,-1.205086 -5.689143 0.4702341,-1.155302 -4.780593 0.6177405,-1.233027 -5.167734 0.6429971,-1.291643 -5.653808 0.6578034,-9.08434 -7.516616 0.1055039,-8.353251 -7.225755 0.4045928,-7.702176 -6.427071 0.6274896,-7.285478 -5.683795 0.8900128,-6.8923 -5.282843 1.173339,-8.158542 -4.359441 0.3428678,-8.012131 -3.101383 0.5526032,-7.946203 -2.320951 0.7555806,-7.889791 -1.636108 0.9109684,-8.58758 -4.116445 0.4356456,-8.453732 -2.679011 0.5944541,-8.364194 -1.746288 0.8565145,-8.299713 -0.9433312 1.082028,-9.013934 -4.183197 0.5750149,-8.927629 -2.845367 0.7373429,-8.839854 -1.988286 0.934122,-8.753649 -1.25826 1.100348,-9.461948 -4.507471 0.7405407,-9.520853 -3.45147 0.9348151,-9.513916 -2.763504 1.087604,-9.47809 -2.113777 1.203917,7.710, -1 1
-1.36364 -8.243345 -0.2748879,-1.966284 -8.005629 0.5240681,-2.46751 -7.16814 0.859998,-2.725165 -6.199858 1.131894,-2.931778 -5.295342 1.410678,-2.484714 -5.551503 0.2049947,-2.722796 -4.346488 0.5993661,-2.810376 -3.522841 0.93005,-2.85736 -2.795641 1.230575,-2.052067 -5.395406 0.0319652,-1.971356 -4.407209 0.8031963,-1.971356 -4.407209 0.8031963,-1.843482 -6.115004 1.35138,-1.663063 -5.459028 -0.03876625,-1.501857 -4.776365 0.751382,-1.458559 -5.861772 1.012462,-1.5151 -6.641658 0.9931334,-1.326257 -5.695421 -0.07233191,-1.152259 -5.174242 0.530668,-1.142879 -5.898765 0.7191548,-1.224661 -6.421697 0.7078092,-9.090175 -7.497131 0.1301294,-8.367501 -7.201978 0.4711409,-7.718657 -6.404448 0.7172567,-7.299328 -5.663211 0.9962435,-6.893517 -5.268015 1.295666,-8.165794 -4.342632 0.4382666,-8.015668 -3.079703 0.6696011,-7.952749 -2.297114 0.8778524,-7.902109 -1.60279 1.036622,-8.595921 -4.095371 0.5164343,-8.460806 -2.659996 0.6992115,-8.373494 -1.725024 0.9683841,-8.307966 -0.9131074 1.201681,-9.023987 -4.157496 0.639851,-8.937188 -2.816282 0.8273164,-8.854065 -1.947689 1.038881,-8.769832 -1.205091 1.216428,-9.474988 -4.476635 0.7919725,-9.531446 -3.422285 0.9997531,-9.526411 -2.736643 1.160084,-9.491794 -2.092618 1.285509,7.810, -1 1
