TiagoOliveira98/Thesis-Project/Difficulty_0/Dual_Task/Unity_Project/DataLogging/JointData/Logs(1646440942)_a3_Dual.csv
WRIST,THUMB_CMC,THUMB_MCP,THUMB_IP,THUMB_TIP,INDEX_FINGER_MCP,INDEX_FINGER_PIP,INDEX_FINGER_DIP,INDEX_FINGER_TIP,MIDDLE_FINGER_MCP,MIDDLE_FINGER_PIP,MIDDLE_FINGER_DIP,MIDDLE_FINGER_TIP,RING_FINGER_MCP,RING_FINGER_PIP,RING_FINGER_DIP,RING_FINGER_TIP,PINKY_MCP,PINKY_PIP,PINKY_DIP,PINKY_TIP,WRIST2,THUMB_CMC2,THUMB_MCP2,THUMB_IP2,THUMB_TIP2,INDEX_FINGER_MCP2,INDEX_FINGER_PIP2,INDEX_FINGER_DIP2,INDEX_FINGER_TIP2,MIDDLE_FINGER_MCP2,MIDDLE_FINGER_PIP2,MIDDLE_FINGER_DIP2,MIDDLE_FINGER_TIP2,RING_FINGER_MCP2,RING_FINGER_PIP2,RING_FINGER_DIP2,RING_FINGER_TIP2,PINKY_MCP2,PINKY_PIP2,PINKY_DIP2,PINKY_TIP2,Timestamp,Event
-2.647573 -8.197275 0.0006541605,-3.347126 -8.085218 0.2799714,-3.988163 -7.55168 0.4225999,-4.45475 -6.915298 0.5484588,-4.838379 -6.586009 0.6686441,-3.657973 -5.781348 0.1946851,-3.951653 -4.689764 0.3699497,-4.076126 -4.029583 0.5147744,-4.162708 -3.409573 0.6607225,-3.29772 -5.452817 0.2222289,-3.547491 -4.170461 0.4206302,-3.547491 -4.170461 0.4206302,-3.755112 -2.647418 0.7934418,-2.925276 -5.386864 0.3060926,-3.108313 -4.175108 0.498069,-3.226268 -3.407219 0.6680236,-3.322557 -2.756033 0.8138381,-2.515586 -5.549959 0.4206191,-2.519866 -4.577247 0.5932458,-2.532079 -3.972734 0.751917,-2.54709 -3.402172 0.8929605,-9.80125 -8.788235 0.001099537,-9.006423 -8.343708 0.1791888,-8.351509 -7.516492 0.355536,-7.892694 -6.71059 0.6139683,-7.501797 -6.165336 0.8962339,-8.873205 -5.54254 -0.03400939,-8.7175 -4.278181 0.08276739,-8.645606 -3.505608 0.2800873,-8.582961 -2.843009 0.4335031,-9.293628 -5.32578 0.09481405,-9.152786 -3.851534 0.14037,-9.05817 -2.944112 0.3782011,-8.988708 -2.185301 0.5828101,-9.714908 -5.407078 0.264531,-9.618963 -4.037702 0.3223605,-9.516795 -3.206232 0.5044373,-9.410569 -2.531409 0.6486819,-10.15487 -5.730834 0.4655399,-10.22706 -4.656347 0.5875217,-10.21109 -3.953353 0.7199728,-10.15633 -3.305077 0.8123915,0.010, 24 
-2.682948 -8.22756 -0.06365629,-3.385084 -8.08993 0.2135887,-4.019392 -7.551227 0.3568477,-4.48349 -6.914514 0.4773799,-4.862961 -6.587839 0.5979301,-3.68539 -5.816736 0.1287151,-3.977339 -4.711036 0.2974701,-4.102388 -4.036497 0.4337457,-4.189079 -3.420366 0.5729425,-3.321981 -5.498155 0.1418972,-3.567782 -4.20738 0.3380424,-3.567782 -4.20738 0.3380424,-3.765985 -2.674335 0.6903751,-2.946826 -5.434827 0.2124617,-3.122938 -4.226781 0.3979104,-3.237627 -3.459495 0.5655423,-3.330009 -2.810392 0.7034776,-2.540806 -5.593008 0.3105857,-2.546995 -4.630971 0.4812882,-2.560035 -4.028171 0.6427445,-2.573099 -3.456509 0.7804792,-9.774767 -8.809647 0.001796832,-8.980475 -8.35099 0.1852895,-8.324064 -7.517995 0.3370095,-7.856957 -6.704754 0.5645581,-7.468683 -6.186794 0.80897,-8.856532 -5.550437 -0.0495278,-8.703356 -4.275108 0.04350888,-8.628159 -3.492592 0.2228976,-8.561087 -2.824974 0.3728179,-9.275432 -5.344867 0.0530131,-9.129284 -3.864445 0.08321929,-9.030677 -2.947636 0.3213588,-8.960409 -2.17682 0.5354994,-9.695136 -5.434565 0.195082,-9.584898 -4.065015 0.2299172,-9.477139 -3.22432 0.399626,-9.370293 -2.540798 0.5449069,-10.13473 -5.769099 0.3697909,-10.20173 -4.704301 0.4669114,-10.18453 -4.002035 0.6015521,-10.13244 -3.351154 0.7044382,0.110, 24 
-2.715392 -8.275219 -0.02412769,-3.401866 -8.154787 0.240667,-4.037564 -7.609185 0.3746262,-4.512601 -6.975671 0.4989895,-4.902733 -6.656148 0.6328947,-3.722591 -5.857797 0.1111629,-4.013429 -4.76927 0.2734111,-4.137281 -4.103645 0.4128412,-4.225146 -3.486278 0.5559576,-3.368935 -5.534992 0.1432027,-3.614714 -4.262528 0.3152483,-3.614714 -4.262528 0.3152483,-3.818209 -2.733556 0.6654871,-2.999778 -5.468755 0.2326479,-3.151971 -4.249895 0.4666727,-3.265599 -3.49207 0.6334707,-3.357708 -2.846849 0.7761336,-2.576401 -5.611008 0.3942354,-2.574475 -4.653472 0.5677481,-2.586599 -4.054908 0.7270209,-2.602151 -3.482987 0.8656581,-9.796032 -8.835325 0.005765554,-8.996436 -8.366325 0.1716589,-8.332537 -7.54109 0.3270088,-7.863863 -6.733196 0.5640134,-7.484348 -6.197822 0.8219894,-8.856808 -5.58524 -0.05617156,-8.692292 -4.307907 0.04498082,-8.617313 -3.525445 0.2325683,-8.550312 -2.855231 0.3843285,-9.275742 -5.372705 0.06908115,-9.128187 -3.881314 0.1135204,-9.02731 -2.954383 0.3486972,-8.954134 -2.178164 0.5512275,-9.697262 -5.459117 0.2359179,-9.5937 -4.082948 0.2879556,-9.483185 -3.24053 0.4640662,-9.374614 -2.55936 0.6032619,-10.14033 -5.793663 0.433902,-10.20994 -4.714162 0.5482856,-10.19199 -4.002648 0.6809803,-10.13997 -3.353631 0.7748049,0.210, 24 
-2.726377 -8.302938 -0.01436047,-3.411564 -8.178217 0.2177093,-4.047333 -7.619129 0.3394048,-4.516756 -6.980073 0.4560401,-4.901352 -6.681234 0.5732301,-3.727295 -5.879785 0.1081039,-4.01895 -4.785676 0.2649067,-4.141837 -4.114971 0.3958075,-4.224284 -3.502154 0.5275319,-3.378681 -5.559433 0.1506234,-3.630869 -4.270666 0.3328781,-3.630869 -4.270666 0.3328781,-3.830638 -2.727207 0.6797904,-3.012928 -5.49344 0.2472965,-3.188349 -4.274494 0.4248409,-3.304992 -3.496116 0.5769382,-3.399527 -2.835243 0.7080427,-2.612264 -5.64892 0.3719105,-2.613866 -4.679574 0.5308244,-2.626841 -4.07837 0.674049,-2.641575 -3.503395 0.7972393,-9.807112 -8.863667 0.09604408,-9.00481 -8.40291 0.2857112,-8.342829 -7.556461 0.4603337,-7.87135 -6.727767 0.713653,-7.473705 -6.182632 0.9876571,-8.867662 -5.59925 0.05756512,-8.706512 -4.309608 0.1696824,-8.629491 -3.52893 0.3636747,-8.5585 -2.856915 0.5224123,-9.287228 -5.375219 0.1757906,-9.136396 -3.886511 0.2259982,-9.030238 -2.957277 0.4585032,-8.95062 -2.171557 0.6659253,-9.711083 -5.456172 0.3365395,-9.599641 -4.071264 0.3978513,-9.487286 -3.21547 0.5689639,-9.380065 -2.516776 0.7069506,-10.15854 -5.791827 0.5284547,-10.21751 -4.699783 0.649022,-10.19552 -3.984264 0.7842601,-10.14697 -3.326109 0.8798028,0.310, 24 
-2.743294 -8.351473 0.09689585,-3.436991 -8.191797 0.3000358,-4.07152 -7.584109 0.3832285,-4.534072 -6.939453 0.4650727,-4.91597 -6.673622 0.5386256,-3.725476 -5.881153 0.1348383,-4.009357 -4.799631 0.2686135,-4.134923 -4.138068 0.3878308,-4.225979 -3.527277 0.5128899,-3.37499 -5.566881 0.1818084,-3.61735 -4.293844 0.3381362,-3.61735 -4.293844 0.3381362,-3.823175 -2.759696 0.6820771,-3.012367 -5.502582 0.2842669,-3.189465 -4.296656 0.4464345,-3.306229 -3.531238 0.5892005,-3.401608 -2.877698 0.7127835,-2.615815 -5.655492 0.4168277,-2.610256 -4.70469 0.5605094,-2.617266 -4.107847 0.6910613,-2.624741 -3.529588 0.8074075,-9.829455 -8.882799 0.2602934,-9.022363 -8.415983 0.4671647,-8.342447 -7.567744 0.6392639,-7.862473 -6.743452 0.8888258,-7.472304 -6.194889 1.157028,-8.873468 -5.568498 0.213042,-8.710216 -4.279344 0.3140326,-8.63764 -3.49077 0.5123109,-8.571157 -2.815566 0.6787134,-9.295477 -5.348688 0.3235501,-9.143273 -3.863271 0.3589903,-9.046633 -2.938299 0.5981596,-8.970628 -2.155702 0.8114886,-9.721317 -5.428663 0.4791766,-9.60644 -4.045976 0.5284741,-9.498805 -3.196273 0.7040662,-9.386997 -2.499446 0.8465098,-10.17048 -5.761799 0.669961,-10.23288 -4.683985 0.7783722,-10.21662 -3.972548 0.9095998,-10.16618 -3.308064 1.007545,0.410, 24 
-2.743331 -8.354319 0.09706764,-3.432049 -8.200998 0.3206477,-4.063359 -7.608238 0.422698,-4.526311 -6.96318 0.5149006,-4.910136 -6.69108 0.6018578,-3.72155 -5.884897 0.1826447,-4.008295 -4.807704 0.3258091,-4.137806 -4.14956 0.451319,-4.228435 -3.542253 0.5833567,-3.371485 -5.570245 0.2188657,-3.618769 -4.30274 0.3829103,-3.618769 -4.30274 0.3829103,-3.81979 -2.777821 0.7220401,-3.008703 -5.513198 0.3087061,-3.183372 -4.310428 0.4742189,-3.297958 -3.544982 0.6184137,-3.389078 -2.895471 0.7433472,-2.611553 -5.67514 0.4303704,-2.607659 -4.731535 0.5756078,-2.615431 -4.134593 0.7092333,-2.621682 -3.561141 0.8295479,-9.813345 -8.885357 0.2924207,-9.020207 -8.422611 0.5026587,-8.348339 -7.569076 0.6786748,-7.878057 -6.743736 0.9293032,-7.475476 -6.228479 1.198636,-8.871984 -5.56706 0.2666406,-8.711138 -4.273916 0.3756435,-8.640176 -3.483741 0.567744,-8.57628 -2.804991 0.7324095,-9.297919 -5.339485 0.3709641,-9.136079 -3.852128 0.4158756,-9.031792 -2.921922 0.6472842,-8.953094 -2.135412 0.8602244,-9.728131 -5.419174 0.5184314,-9.604698 -4.034383 0.5706422,-9.494642 -3.18777 0.7320977,-9.3871 -2.492834 0.8652995,-10.18233 -5.753311 0.7027565,-10.23435 -4.66909 0.805568,-10.21296 -3.967493 0.9214357,-10.16347 -3.317467 1.007729,0.510, 24 
-2.735691 -8.355352 0.1010931,-3.42852 -8.199297 0.3273453,-4.06064 -7.607002 0.4290934,-4.516689 -6.958286 0.5215441,-4.900226 -6.686766 0.6055807,-3.722235 -5.886102 0.2048446,-4.003996 -4.805994 0.3452489,-4.126687 -4.147472 0.4627999,-4.214143 -3.538044 0.5878637,-3.36801 -5.571809 0.2397187,-3.608577 -4.305278 0.4039727,-3.608577 -4.305278 0.4039727,-3.812988 -2.788316 0.7365993,-3.001629 -5.513908 0.3261563,-3.172892 -4.315204 0.4910562,-3.286612 -3.553084 0.6316296,-3.377121 -2.905485 0.753961,-2.600849 -5.675167 0.4444741,-2.599326 -4.73129 0.593473,-2.608729 -4.132478 0.7317524,-2.617637 -3.556582 0.8522136,-9.81425 -8.888851 0.1992892,-9.014177 -8.40432 0.3924901,-8.341777 -7.560574 0.5641153,-7.862082 -6.733078 0.8078889,-7.472197 -6.191341 1.062716,-8.873013 -5.593336 0.1839546,-8.700672 -4.299264 0.2995465,-8.619214 -3.517071 0.4971634,-8.546773 -2.841504 0.6629099,-9.288705 -5.371896 0.2977757,-9.12857 -3.859884 0.3577686,-9.026016 -2.928681 0.6019334,-8.948264 -2.133565 0.8170704,-9.710845 -5.448257 0.4515459,-9.589641 -4.035934 0.5147966,-9.480238 -3.182704 0.6886211,-9.370923 -2.477353 0.8325481,-10.15748 -5.77563 0.6374097,-10.21397 -4.673885 0.7546985,-10.1912 -3.958284 0.890293,-10.13617 -3.301754 0.9868901,0.610, 24 
-2.723308 -8.359304 0.0506164,-3.41807 -8.213669 0.2919172,-4.05511 -7.629957 0.3985615,-4.520498 -6.983804 0.4895928,-4.90064 -6.684371 0.5744172,-3.715746 -5.903193 0.1549454,-4.001261 -4.798067 0.2931042,-4.12744 -4.120011 0.4147187,-4.211702 -3.503347 0.5449669,-3.361111 -5.591164 0.1749564,-3.603479 -4.304424 0.3298243,-3.603479 -4.304424 0.3298243,-3.803053 -2.770307 0.6600476,-2.997177 -5.526437 0.2494864,-3.170107 -4.322076 0.4087807,-3.286288 -3.550905 0.5536869,-3.378475 -2.899812 0.6789963,-2.603412 -5.676218 0.3550153,-2.598163 -4.734222 0.4958819,-2.604909 -4.137514 0.6321203,-2.608499 -3.5652 0.7513162,-9.829662 -8.900866 0.2646722,-9.026047 -8.446569 0.492094,-8.346722 -7.57949 0.6804962,-7.872902 -6.737794 0.9382201,-7.471499 -6.201265 1.214597,-8.86372 -5.596992 0.2801229,-8.697463 -4.299552 0.4063631,-8.621821 -3.510931 0.6054764,-8.556407 -2.829685 0.7695792,-9.290119 -5.367692 0.3809675,-9.12666 -3.872254 0.4490063,-9.024708 -2.939147 0.6897617,-8.947042 -2.139692 0.9050331,-9.717197 -5.442834 0.5247173,-9.598564 -4.05086 0.5975562,-9.488894 -3.198729 0.7695807,-9.378499 -2.495845 0.9087412,-10.1688 -5.765899 0.704332,-10.21938 -4.665034 0.8293269,-10.19204 -3.948939 0.9593783,-10.1316 -3.283689 1.054944,0.710, 24 
-2.727888 -8.401739 0.06475721,-3.4289 -8.236105 0.2855252,-4.056204 -7.648439 0.3920423,-4.510668 -6.998565 0.4930273,-4.891868 -6.701826 0.5949382,-3.718682 -5.937879 0.1584892,-4.005974 -4.850509 0.2992217,-4.134302 -4.187496 0.4190796,-4.224253 -3.573628 0.5492133,-3.365309 -5.629842 0.1989212,-3.610493 -4.367191 0.3657714,-3.610493 -4.367191 0.3657714,-3.818974 -2.856164 0.707329,-3.001112 -5.567052 0.2957563,-3.175743 -4.373836 0.4642833,-3.297287 -3.613721 0.6127205,-3.393269 -2.961764 0.7442156,-2.605542 -5.717636 0.4187058,-2.606194 -4.765615 0.5725656,-2.620857 -4.166856 0.7187079,-2.635159 -3.591486 0.8486798,-9.804154 -8.913311 0.2163694,-9.001991 -8.440649 0.4315117,-8.332407 -7.603403 0.6178733,-7.852608 -6.775033 0.876856,-7.461111 -6.223773 1.151701,-8.857597 -5.618032 0.1980487,-8.691541 -4.330093 0.3167476,-8.613232 -3.543869 0.5203108,-8.541595 -2.866703 0.6887077,-9.278866 -5.391019 0.3009464,-9.124201 -3.894197 0.3598854,-9.022522 -2.96079 0.6022652,-8.944117 -2.162467 0.819235,-9.703079 -5.471225 0.4477329,-9.589749 -4.073644 0.5086817,-9.478396 -3.222766 0.6804336,-9.366812 -2.516271 0.8224127,-10.15212 -5.8055 0.6294283,-10.21224 -4.716524 0.7490986,-10.18797 -4.00151 0.8837257,-10.13264 -3.334129 0.9803784,0.810, 24 
-2.725464 -8.426363 0.01350737,-3.42124 -8.268461 0.2362697,-4.05223 -7.689159 0.3398514,-4.505018 -7.040752 0.4414335,-4.881794 -6.73135 0.5480624,-3.733488 -5.975214 0.08925758,-4.019295 -4.874176 0.2283123,-4.149773 -4.202632 0.3513553,-4.237081 -3.58778 0.4828943,-3.383594 -5.673425 0.1253652,-3.625078 -4.395992 0.278997,-3.625078 -4.395992 0.278997,-3.827322 -2.885319 0.6164504,-3.021987 -5.606757 0.2198916,-3.193363 -4.402759 0.3768857,-3.311474 -3.641376 0.5247785,-3.409325 -2.985643 0.6577117,-2.628271 -5.74915 0.3396081,-2.627172 -4.797908 0.4886879,-2.638601 -4.201955 0.6354919,-2.652124 -3.630238 0.7634283,-9.818648 -8.942364 0.2899621,-9.013297 -8.497911 0.5064888,-8.341625 -7.626965 0.6790631,-7.871386 -6.784606 0.9262912,-7.4714 -6.246635 1.190109,-8.856759 -5.6313 0.2518809,-8.691097 -4.351111 0.3689295,-8.610331 -3.560087 0.5685627,-8.540413 -2.87697 0.7327006,-9.278749 -5.400695 0.358323,-9.12217 -3.916478 0.4033905,-9.01529 -2.980308 0.6466837,-8.935295 -2.183807 0.8603005,-9.703951 -5.482273 0.5121329,-9.589332 -4.095848 0.5728004,-9.474788 -3.245428 0.75035,-9.358165 -2.542722 0.8951559,-10.15143 -5.820758 0.7008108,-10.21015 -4.732269 0.8236803,-10.18741 -4.018517 0.9627502,-10.12903 -3.351034 1.061906,0.910, 24 
-2.726727 -8.569845 0.1170337,-3.391737 -8.38172 0.3935908,-3.998951 -7.752378 0.530531,-4.419456 -7.047941 0.6642545,-4.804253 -6.668325 0.8057243,-3.713175 -6.098178 0.2936612,-4.002903 -5.032712 0.4753189,-4.123131 -4.36857 0.623008,-4.208454 -3.734437 0.771144,-3.369878 -5.787889 0.3170977,-3.62068 -4.541799 0.5082898,-3.62068 -4.541799 0.5082898,-3.810778 -3.021285 0.8964593,-3.015921 -5.730569 0.3985941,-3.189892 -4.549713 0.5861026,-3.311469 -3.79622 0.7657719,-3.408318 -3.135952 0.9247473,-2.624919 -5.892416 0.5095358,-2.632625 -4.959976 0.6876879,-2.656168 -4.36636 0.8568048,-2.678832 -3.791825 1.002469,-9.865928 -8.984859 0.2580855,-9.061414 -8.53055 0.4774978,-8.388124 -7.665805 0.657612,-7.915297 -6.822917 0.9120144,-7.51593 -6.287796 1.178922,-8.888576 -5.689041 0.2544824,-8.72131 -4.391717 0.3707238,-8.63932 -3.598391 0.5722663,-8.565658 -2.921839 0.739571,-9.310297 -5.455572 0.3580278,-9.154301 -3.952917 0.4157932,-9.048282 -3.012149 0.6614984,-8.967414 -2.216402 0.8746129,-9.737539 -5.52839 0.5056822,-9.61561 -4.126167 0.569854,-9.500306 -3.262669 0.7470126,-9.386014 -2.547824 0.8863373,-10.19266 -5.854369 0.6871228,-10.23953 -4.754145 0.8115268,-10.21482 -4.03659 0.9533085,-10.16174 -3.359924 1.055618,1.010, 24 
-2.714257 -8.809391 0.398528,-3.347784 -8.499428 0.797005,-3.877766 -7.836493 0.9931546,-4.218676 -7.05881 1.191157,-4.552568 -6.425642 1.418733,-3.681227 -6.214202 0.4988328,-3.948458 -5.141619 0.6566247,-4.061152 -4.466598 0.8209889,-4.130482 -3.844532 0.9827895,-3.34257 -5.935314 0.4676271,-3.558728 -4.712913 0.5609096,-3.558728 -4.712913 0.5609096,-3.71155 -3.254888 0.9321309,-2.99865 -5.888418 0.5159016,-3.152794 -4.761184 0.6147047,-3.274555 -4.037372 0.8012811,-3.360818 -3.394029 0.971631,-2.621397 -6.044051 0.6104103,-2.650639 -5.130954 0.7358182,-2.689776 -4.53649 0.8992193,-2.712167 -3.965637 1.032872,-9.934965 -9.068306 0.3974968,-9.127348 -8.609728 0.6032255,-8.470515 -7.724627 0.7861384,-8.024387 -6.857614 1.054876,-7.62271 -6.28626 1.326818,-8.939585 -5.755266 0.3284233,-8.765051 -4.511699 0.4353475,-8.679449 -3.748132 0.6406072,-8.609828 -3.081351 0.8079679,-9.347902 -5.502503 0.4353316,-9.179722 -4.075871 0.4546334,-9.0618 -3.177555 0.6993052,-8.972795 -2.411354 0.9122912,-9.761965 -5.549486 0.5952477,-9.635516 -4.182094 0.6245691,-9.517593 -3.341571 0.8124093,-9.404305 -2.643856 0.9743242,-10.20894 -5.84402 0.7828581,-10.20791 -4.739257 0.8902835,-10.14946 -4.036284 1.036647,-10.06871 -3.384314 1.150822,1.110, 24 
-2.692895 -8.866125 0.4123698,-3.350819 -8.502808 0.7989852,-3.851177 -7.819105 0.9723896,-4.14573 -7.040369 1.162099,-4.450106 -6.332695 1.388985,-3.67782 -6.23866 0.4238901,-3.925945 -5.197399 0.5927121,-4.02824 -4.532358 0.7872835,-4.086624 -3.938369 0.97096,-3.327435 -5.988583 0.4034715,-3.513401 -4.798919 0.4758608,-3.513401 -4.798919 0.4758608,-3.633422 -3.383293 0.8548623,-2.984715 -5.954937 0.470681,-3.118563 -4.865667 0.5564612,-3.215689 -4.163269 0.7650728,-3.273362 -3.548 0.9433727,-2.614994 -6.110826 0.5916065,-2.659195 -5.245118 0.7171484,-2.715428 -4.680805 0.8897737,-2.743756 -4.14866 1.022326,-9.938975 -9.156294 0.5352402,-9.139523 -8.645668 0.7060062,-8.501165 -7.714618 0.8453709,-8.078031 -6.82579 1.088077,-7.673674 -6.222557 1.349785,-8.975795 -5.767763 0.3165215,-8.785565 -4.555579 0.3887361,-8.688904 -3.841459 0.5537617,-8.610849 -3.184815 0.6778719,-9.393821 -5.545333 0.4328794,-9.225558 -4.284944 0.4027912,-9.104887 -3.535251 0.6263648,-9.016052 -2.906938 0.7998059,-9.79873 -5.582414 0.6117057,-9.67943 -4.334846 0.6051515,-9.576938 -3.612474 0.78971,-9.480431 -3.034451 0.936214,-10.22586 -5.839462 0.8202423,-10.1939 -4.808399 0.8956755,-10.11351 -4.17846 1.030435,-10.00828 -3.612066 1.135772,1.210, 24 
-2.69888 -8.840282 0.1472423,-3.334332 -8.534681 0.5788847,-3.80257 -7.785749 0.7699505,-4.067061 -6.945756 0.9773443,-4.331808 -6.125198 1.175038,-3.679667 -6.244715 -0.07629676,-3.899209 -5.273866 -0.03424472,-4.00091 -4.612184 0.1174635,-4.047739 -4.034132 0.3123555,-3.317471 -6.045673 -0.07586484,-3.423309 -4.855372 0.266625,-3.423309 -4.855372 0.266625,-3.292755 -5.188711 0.9679402,-2.968943 -6.001615 -0.007148921,-3.039277 -4.873384 0.3137631,-3.059538 -4.888708 0.8028374,-3.02401 -5.344022 1.040439,-2.597689 -6.07681 0.1221302,-2.629654 -5.174123 0.3674089,-2.72016 -4.993295 0.6863174,-2.743995 -5.239498 0.8847122,-9.965288 -9.11916 -0.7932153,-9.163114 -8.587429 -0.7553486,-8.542973 -7.615076 -0.707593,-8.129587 -6.735693 -0.5661884,-7.733009 -6.053678 -0.4398322,-8.961106 -6.031286 -1.174398,-8.798654 -4.717619 -1.145222,-8.697779 -3.904298 -1.072637,-8.620935 -3.161544 -0.9648598,-9.352825 -5.908138 -0.9731241,-9.251766 -4.570781 -0.6779115,-9.175638 -4.777629 -0.2786059,-9.186072 -5.20508 -0.0206176,-9.730982 -5.945154 -0.7495911,-9.648585 -4.772148 -0.4608078,-9.524737 -5.143976 -0.1066486,-9.500909 -5.763277 0.1035118,-10.159 -6.111058 -0.5224938,-10.10456 -5.086676 -0.2284612,-9.969386 -5.109787 -0.003089666,-9.900941 -5.522882 0.1468983,1.310, 24 
-2.685242 -8.888739 -0.5842317,-3.317343 -8.478884 -0.2033492,-3.764482 -7.718868 0.005443811,-3.987694 -6.857492 0.2406729,-4.140764 -6.009908 0.4516792,-3.706219 -6.502614 -0.6991295,-3.931629 -5.493976 -0.5999785,-4.034974 -4.7931 -0.4266255,-4.09474 -4.123497 -0.230997,-3.365284 -6.316364 -0.6652792,-3.485146 -5.131397 -0.1942514,-3.485146 -5.131397 -0.1942514,-3.378113 -6.408288 0.3272267,-3.025223 -6.239427 -0.5825512,-3.109455 -5.151622 -0.1764798,-3.121136 -5.814207 0.1276401,-3.065369 -6.523309 0.1767621,-2.655986 -6.267717 -0.4497678,-2.708569 -5.406763 -0.1509001,-2.784388 -5.717943 0.03709745,-2.770397 -6.260824 0.07460743,-9.884486 -9.050226 -1.660243,-9.104942 -8.656345 -1.358714,-8.557162 -7.698913 -1.243236,-8.286822 -6.770666 -1.079642,-8.070105 -5.955358 -0.9775702,-8.889202 -6.171152 -2.005631,-8.704053 -4.875108 -1.684276,-8.585169 -4.130949 -1.430516,-8.509057 -3.453261 -1.309691,-9.285077 -6.091753 -1.874184,-9.08424 -5.0767 -1.124805,-9.052837 -6.261189 -0.7386281,-9.13621 -7.116786 -0.754959,-9.693892 -6.151319 -1.635702,-9.540501 -5.303274 -0.8825185,-9.456342 -6.451957 -0.5856715,-9.483425 -7.232458 -0.6881279,-10.16804 -6.357637 -1.375956,-10.04553 -5.50436 -0.7750471,-9.893769 -6.159091 -0.5278549,-9.857202 -6.788921 -0.5357187,1.410, 24 
-2.661677 -8.875296 -0.945801,-3.289732 -8.505297 -0.5941677,-3.73947 -7.708734 -0.4774005,-3.955854 -6.828737 -0.3307114,-4.121711 -6.054544 -0.2105392,-3.685885 -6.609256 -1.093585,-3.90424 -5.517324 -0.9219491,-3.99201 -4.828159 -0.7874326,-4.037365 -4.16388 -0.6530378,-3.356895 -6.417161 -1.090275,-3.41846 -5.378227 -0.5745941,-3.41846 -5.378227 -0.5745941,-3.274936 -6.920316 -0.3058313,-3.021604 -6.330318 -1.020084,-3.066694 -5.389734 -0.5363305,-3.041939 -6.235771 -0.3521693,-3.005914 -6.906288 -0.4095821,-2.664412 -6.363071 -0.9143728,-2.705708 -5.547488 -0.5663308,-2.745457 -6.001678 -0.4420819,-2.735698 -6.545419 -0.4903691,-9.836102 -9.009573 -2.146506,-9.085505 -8.623125 -1.850485,-8.540358 -7.711359 -1.714741,-8.328981 -6.755895 -1.549063,-8.298105 -5.916252 -1.451986,-8.89102 -6.253637 -2.388004,-8.673154 -4.920629 -2.047991,-8.539247 -4.138533 -1.762462,-8.463212 -3.420956 -1.609177,-9.289224 -6.17689 -2.258097,-9.065152 -5.170917 -1.492971,-9.044031 -6.335353 -1.099288,-9.138412 -7.208238 -1.091797,-9.699638 -6.224031 -2.022312,-9.508739 -5.400239 -1.277033,-9.446388 -6.526673 -0.9961143,-9.482389 -7.311112 -1.089277,-10.16987 -6.403058 -1.770631,-10.02305 -5.561401 -1.193167,-9.882116 -6.219541 -0.9651816,-9.855443 -6.851271 -0.9669522,1.510, 24 
-2.672921 -8.906872 -1.270272,-3.267776 -8.537195 -0.9211019,-3.726046 -7.757071 -0.790166,-3.941712 -6.880771 -0.6195107,-4.103279 -6.073318 -0.4790204,-3.671202 -6.69688 -1.287078,-3.884355 -5.600603 -1.050924,-3.971128 -4.897512 -0.8911291,-4.015121 -4.251562 -0.7255574,-3.333517 -6.53103 -1.268897,-3.380442 -5.596511 -0.7340677,-3.380442 -5.596511 -0.7340677,-3.242626 -7.204299 -0.5505304,-2.985814 -6.486047 -1.183522,-3.010402 -5.649129 -0.6686529,-2.991887 -6.538969 -0.5666983,-2.971477 -7.22511 -0.6315093,-2.616205 -6.563281 -1.059281,-2.649714 -5.782703 -0.6765454,-2.693799 -6.315174 -0.5774232,-2.707452 -6.872875 -0.6204973,-9.83347 -8.847874 -2.541546,-9.095317 -8.549545 -2.218166,-8.514672 -7.705002 -2.043067,-8.326267 -6.712446 -1.853109,-8.409541 -5.922229 -1.749848,-8.822556 -6.243963 -2.738126,-8.585781 -4.858144 -2.344185,-8.458221 -4.068883 -2.036106,-8.375183 -3.315841 -1.895118,-9.237899 -6.139743 -2.627778,-9.015072 -5.293426 -1.792052,-9.043339 -6.574861 -1.512556,-9.149185 -7.401261 -1.650373,-9.665506 -6.151577 -2.392407,-9.460617 -5.458847 -1.634763,-9.454016 -6.669805 -1.473653,-9.517316 -7.371021 -1.658057,-10.14633 -6.275266 -2.127014,-9.967472 -5.493779 -1.581054,-9.857543 -6.261447 -1.435726,-9.86582 -6.85808 -1.52431,1.610, 24 
-2.695498 -8.870728 -1.311543,-3.275799 -8.56295 -0.9165146,-3.731763 -7.764728 -0.751526,-3.943391 -6.902679 -0.5516644,-4.077786 -6.090344 -0.3836453,-3.670816 -6.653343 -1.187778,-3.874736 -5.567935 -0.8877685,-3.964608 -4.86178 -0.6790447,-4.00656 -4.210353 -0.4695308,-3.319 -6.500484 -1.184548,-3.330822 -5.60184 -0.6010549,-3.330822 -5.60184 -0.6010549,-3.196823 -7.2409 -0.4207926,-2.957319 -6.483617 -1.106979,-2.953214 -5.695559 -0.556761,-2.945343 -6.629566 -0.4726291,-2.939504 -7.301755 -0.5463134,-2.584348 -6.603237 -0.9912347,-2.599934 -5.892738 -0.5763401,-2.648901 -6.480468 -0.4869078,-2.67606 -7.028026 -0.5375688,-9.795654 -8.877439 -2.402372,-9.093225 -8.595856 -2.054462,-8.491947 -7.763532 -1.837683,-8.285142 -6.792553 -1.60693,-8.408152 -6.009069 -1.461599,-8.788874 -6.235549 -2.533418,-8.543908 -4.889802 -2.143882,-8.416117 -4.109724 -1.841325,-8.318501 -3.386646 -1.68388,-9.198865 -6.127557 -2.414381,-8.940851 -5.339159 -1.585631,-8.974234 -6.580041 -1.296713,-9.084536 -7.397529 -1.418152,-9.628062 -6.155054 -2.172431,-9.389384 -5.541389 -1.422072,-9.384055 -6.725324 -1.261693,-9.453137 -7.416178 -1.428506,-10.1131 -6.292297 -1.89616,-9.897965 -5.593013 -1.36357,-9.793409 -6.368852 -1.224092,-9.812401 -6.961892 -1.304871,1.710, 24 
-2.700414 -8.851513 -1.419387,-3.261411 -8.568298 -0.9587854,-3.725561 -7.770113 -0.7837843,-3.946877 -6.889076 -0.5818328,-4.087018 -6.07814 -0.4173437,-3.655499 -6.660678 -1.225596,-3.862852 -5.569258 -0.863668,-3.94939 -4.856451 -0.6220692,-3.992374 -4.197159 -0.407262,-3.299932 -6.509737 -1.24806,-3.296924 -5.6543 -0.6035002,-3.296924 -5.6543 -0.6035002,-3.183023 -7.346473 -0.4646007,-2.938087 -6.501538 -1.188202,-2.920657 -5.770296 -0.5588909,-2.914124 -6.717596 -0.4836727,-2.928254 -7.390167 -0.5906635,-2.575437 -6.632904 -1.088043,-2.550304 -5.977382 -0.6294989,-2.593935 -6.598011 -0.547663,-2.641067 -7.136617 -0.6118216,-9.775419 -8.876448 -2.554635,-9.085949 -8.598141 -2.188737,-8.464215 -7.822109 -1.941908,-8.229064 -6.870173 -1.681743,-8.371945 -6.072502 -1.504939,-8.723681 -6.306766 -2.628591,-8.442848 -5.000212 -2.245813,-8.28733 -4.239568 -1.956445,-8.157719 -3.538598 -1.808157,-9.1327 -6.181983 -2.508775,-8.852072 -5.427366 -1.703179,-8.919857 -6.657668 -1.464198,-9.046783 -7.46004 -1.616478,-9.560983 -6.182919 -2.264731,-9.291543 -5.600954 -1.505763,-9.316877 -6.77275 -1.369218,-9.403885 -7.461872 -1.556062,-10.049 -6.278886 -1.98545,-9.807222 -5.583406 -1.466247,-9.714388 -6.361475 -1.351231,-9.745615 -6.962501 -1.445546,1.810, 24 
-2.713388 -8.820986 -1.393615,-3.2814 -8.567543 -0.910037,-3.747869 -7.777358 -0.7122609,-3.966735 -6.897439 -0.4947129,-4.121191 -6.085768 -0.308715,-3.681337 -6.639194 -1.136784,-3.890054 -5.563913 -0.7790871,-3.973597 -4.8462 -0.5298882,-4.015589 -4.184282 -0.3129486,-3.324533 -6.47849 -1.174873,-3.325176 -5.665714 -0.5448606,-3.325176 -5.665714 -0.5448606,-3.218796 -7.374807 -0.3876116,-2.959358 -6.457942 -1.133655,-2.948946 -5.75708 -0.5177186,-2.942914 -6.70239 -0.4225987,-2.949516 -7.376543 -0.5133968,-2.591873 -6.57681 -1.055001,-2.573692 -5.946979 -0.6007246,-2.616453 -6.576498 -0.5124969,-2.657379 -7.12039 -0.5717058,-9.747654 -8.84404 -2.587086,-9.058487 -8.586094 -2.208837,-8.438571 -7.819984 -1.964574,-8.211342 -6.870728 -1.714072,-8.345445 -6.089386 -1.545933,-8.697336 -6.296536 -2.674418,-8.416359 -5.011375 -2.293388,-8.252039 -4.266769 -1.984721,-8.111468 -3.581132 -1.819932,-9.105913 -6.15854 -2.569039,-8.838759 -5.410141 -1.76294,-8.905298 -6.627493 -1.494115,-9.028778 -7.452613 -1.618003,-9.528682 -6.161951 -2.338663,-9.273879 -5.568935 -1.59035,-9.302507 -6.720426 -1.42938,-9.384805 -7.421799 -1.597638,-10.00915 -6.269248 -2.070726,-9.777581 -5.553721 -1.542639,-9.684691 -6.307861 -1.401301,-9.708441 -6.91566 -1.474581,1.910, 24 
-2.780124 -8.754547 -1.395844,-3.355955 -8.507248 -0.9790139,-3.824757 -7.696407 -0.8043608,-4.035669 -6.81945 -0.5997251,-4.183113 -6.040534 -0.4330631,-3.707877 -6.544899 -1.184091,-3.917277 -5.486427 -0.81908,-4.025464 -4.777406 -0.5836109,-4.091856 -4.117829 -0.382338,-3.351606 -6.401664 -1.189293,-3.364345 -5.610404 -0.5811066,-3.364345 -5.610404 -0.5811066,-3.25935 -7.32402 -0.4900305,-2.987756 -6.400383 -1.114542,-2.988453 -5.729205 -0.5052674,-2.985125 -6.682287 -0.4361537,-2.981583 -7.340271 -0.5320986,-2.621157 -6.535668 -1.008557,-2.624372 -5.902169 -0.5629995,-2.673174 -6.525558 -0.4870543,-2.705621 -7.0673 -0.5554472,-9.713446 -8.841036 -2.717217,-9.004831 -8.593363 -2.39718,-8.38923 -7.803935 -2.202384,-8.167457 -6.855958 -1.993007,-8.241808 -6.076683 -1.860038,-8.645487 -6.344892 -2.835448,-8.340844 -5.060504 -2.43916,-8.158055 -4.309721 -2.125226,-8.016288 -3.609502 -1.959166,-9.049912 -6.199105 -2.708546,-8.768644 -5.420116 -1.894561,-8.838769 -6.629978 -1.619048,-8.980687 -7.449186 -1.72892,-9.475324 -6.179849 -2.461589,-9.208851 -5.576063 -1.702433,-9.240759 -6.732084 -1.54513,-9.342551 -7.444244 -1.711232,-9.959913 -6.262146 -2.183855,-9.716649 -5.553203 -1.645388,-9.625374 -6.310401 -1.509652,-9.663324 -6.927278 -1.585822,2.010, 24 
-2.849142 -8.689039 -1.384436,-3.414082 -8.472351 -0.9588407,-3.894726 -7.655778 -0.7618234,-4.117758 -6.797607 -0.5394045,-4.292008 -6.05066 -0.3547969,-3.810491 -6.494195 -1.104063,-4.027821 -5.433559 -0.7340037,-4.129766 -4.70465 -0.4998809,-4.195757 -4.024992 -0.2876053,-3.45006 -6.347894 -1.103073,-3.470906 -5.602661 -0.4801472,-3.470906 -5.602661 -0.4801472,-3.355946 -7.312807 -0.3815012,-3.078167 -6.341496 -1.024014,-3.089487 -5.703028 -0.4021347,-3.080695 -6.651822 -0.3298681,-3.073231 -7.315094 -0.4185618,-2.705339 -6.47591 -0.9159131,-2.713143 -5.873907 -0.456252,-2.760236 -6.50699 -0.3795962,-2.791922 -7.044331 -0.4397739,-9.678149 -8.853247 -2.643267,-8.963038 -8.595594 -2.272806,-8.347356 -7.842228 -2.050848,-8.127936 -6.918632 -1.816389,-8.215034 -6.123897 -1.660277,-8.616397 -6.330503 -2.755367,-8.312043 -5.035303 -2.339077,-8.134334 -4.27728 -1.996546,-7.999066 -3.565606 -1.819642,-9.029138 -6.185923 -2.645416,-8.726621 -5.414512 -1.800982,-8.785861 -6.64505 -1.534622,-8.924789 -7.474996 -1.679452,-9.457794 -6.174053 -2.40638,-9.18751 -5.547534 -1.630882,-9.213303 -6.724185 -1.481092,-9.314355 -7.440826 -1.67574,-9.940473 -6.266279 -2.129482,-9.696383 -5.545068 -1.584728,-9.600895 -6.310818 -1.4574,-9.641833 -6.907705 -1.544613,2.110, 24 
-2.881314 -8.669167 -1.390039,-3.454072 -8.456184 -0.9582188,-3.936657 -7.645417 -0.7719136,-4.159945 -6.785572 -0.557256,-4.342918 -6.040115 -0.3788095,-3.843585 -6.473926 -1.131775,-4.069497 -5.410269 -0.8042338,-4.184005 -4.678053 -0.5963073,-4.259151 -4.007186 -0.3900049,-3.48378 -6.327003 -1.135602,-3.511721 -5.571936 -0.5411614,-3.511721 -5.571936 -0.5411614,-3.388136 -7.28384 -0.4413617,-3.115369 -6.314194 -1.062794,-3.130159 -5.668121 -0.4524724,-3.115637 -6.615693 -0.3685106,-3.106586 -7.300558 -0.4484487,-2.746001 -6.434102 -0.9615774,-2.757535 -5.824989 -0.5067989,-2.799033 -6.456497 -0.4249585,-2.831657 -6.999268 -0.4796431,-9.625751 -8.883018 -2.498693,-8.948513 -8.621672 -2.117287,-8.317057 -7.833452 -1.864158,-8.097828 -6.913643 -1.601256,-8.199771 -6.122365 -1.419268,-8.61024 -6.292272 -2.546369,-8.309189 -5.009836 -2.118034,-8.118952 -4.247167 -1.771579,-7.963717 -3.536897 -1.579763,-9.027882 -6.162454 -2.425823,-8.719939 -5.397911 -1.564582,-8.770137 -6.649342 -1.306165,-8.908318 -7.491365 -1.448838,-9.461536 -6.169919 -2.174523,-9.174948 -5.575387 -1.380379,-9.190434 -6.768873 -1.245179,-9.293458 -7.492433 -1.441416,-9.950492 -6.279041 -1.890765,-9.694424 -5.564592 -1.339989,-9.589008 -6.353688 -1.230581,-9.62877 -6.975461 -1.326306,2.210, 24 
-2.938165 -8.632977 -1.359506,-3.513914 -8.410765 -0.945717,-3.993072 -7.594394 -0.765054,-4.221714 -6.733087 -0.5530129,-4.418932 -5.99825 -0.3865234,-3.90897 -6.431576 -1.150182,-4.139719 -5.348392 -0.7936706,-4.254843 -4.613319 -0.5689606,-4.330822 -3.921047 -0.3567973,-3.551291 -6.280468 -1.146144,-3.585417 -5.520793 -0.5287935,-3.585417 -5.520793 -0.5287935,-3.459081 -7.233667 -0.467537,-3.185211 -6.259369 -1.057731,-3.204897 -5.59659 -0.429949,-3.186729 -6.567173 -0.3690826,-3.180182 -7.234793 -0.4760191,-2.814395 -6.370952 -0.9420978,-2.829689 -5.734441 -0.4914967,-2.870643 -6.379684 -0.4310423,-2.902557 -6.928215 -0.5079203,-9.566658 -8.885075 -2.533894,-8.843431 -8.657068 -2.153181,-8.205033 -7.85663 -1.953631,-7.984485 -6.935676 -1.74622,-8.085245 -6.189744 -1.625971,-8.546477 -6.304494 -2.615541,-8.224374 -4.959159 -2.185581,-8.034651 -4.131923 -1.827415,-7.90491 -3.363739 -1.626939,-8.973653 -6.172882 -2.50994,-8.662597 -5.366828 -1.641999,-8.700183 -6.603217 -1.368917,-8.834218 -7.468364 -1.497999,-9.419308 -6.176216 -2.27386,-9.137128 -5.517266 -1.479903,-9.134135 -6.705019 -1.322583,-9.220638 -7.466713 -1.502856,-9.917889 -6.280984 -2.000638,-9.665803 -5.551818 -1.428569,-9.542115 -6.319543 -1.278003,-9.562346 -6.952116 -1.344162,2.310, 24 
-2.961335 -8.606323 -1.30281,-3.527321 -8.399973 -0.8401496,-4.025754 -7.612148 -0.6142837,-4.274512 -6.779879 -0.3621628,-4.45521 -6.032573 -0.1508945,-3.946829 -6.395934 -1.008027,-4.169925 -5.327647 -0.6365994,-4.276815 -4.58816 -0.3877255,-4.342667 -3.893289 -0.1531725,-3.579809 -6.247159 -1.007856,-3.612635 -5.495555 -0.3405133,-3.612635 -5.495555 -0.3405133,-3.492156 -7.232061 -0.2254691,-3.204187 -6.227825 -0.9225628,-3.220876 -5.575416 -0.2774878,-3.209304 -6.550323 -0.2028049,-3.205337 -7.223024 -0.2950535,-2.827494 -6.34169 -0.8042026,-2.836719 -5.744513 -0.3388233,-2.879084 -6.396358 -0.2604206,-2.913102 -6.931723 -0.3196968,-9.50882 -8.91707 -2.503674,-8.789676 -8.697258 -2.110257,-8.147157 -7.887653 -1.885482,-7.924851 -6.961484 -1.655188,-8.023502 -6.191181 -1.515238,-8.491045 -6.315225 -2.540028,-8.174471 -4.934562 -2.128562,-7.989225 -4.112037 -1.7933,-7.859266 -3.346605 -1.58595,-8.916597 -6.196884 -2.424088,-8.570201 -5.335363 -1.533185,-8.597789 -6.593218 -1.271278,-8.742541 -7.456077 -1.415302,-9.37083 -6.205856 -2.176463,-9.058161 -5.504216 -1.3675,-9.056501 -6.725111 -1.216955,-9.161941 -7.484952 -1.402977,-9.879315 -6.317323 -1.891356,-9.593967 -5.563507 -1.325096,-9.472658 -6.344633 -1.197845,-9.511732 -6.95932 -1.267963,2.410, 24 
-2.948356 -8.680975 -1.229184,-3.524237 -8.480097 -0.7864205,-4.035566 -7.674476 -0.5864323,-4.286417 -6.826871 -0.3531775,-4.472334 -6.063422 -0.1689756,-3.952469 -6.452075 -0.9717664,-4.170321 -5.374204 -0.6075314,-4.28212 -4.632628 -0.3539476,-4.352541 -3.938704 -0.1142684,-3.588445 -6.302543 -0.9606905,-3.625953 -5.557454 -0.3016248,-3.625953 -5.557454 -0.3016248,-3.513437 -7.297679 -0.1845542,-3.212233 -6.289718 -0.8670412,-3.2352 -5.634197 -0.2178842,-3.229572 -6.612611 -0.1547017,-3.222927 -7.282253 -0.2558441,-2.831601 -6.409857 -0.7385336,-2.844854 -5.813814 -0.2705525,-2.894699 -6.464598 -0.1957628,-2.933216 -6.992154 -0.2553416,-9.39263 -9.075087 -2.227127,-8.650992 -8.838491 -1.935603,-8.024364 -7.952709 -1.860324,-7.798164 -7.004741 -1.763567,-7.803242 -6.202449 -1.745459,-8.398655 -6.407718 -2.551941,-8.106624 -4.995023 -2.27291,-7.926125 -4.114492 -2.008003,-7.795311 -3.322213 -1.832803,-8.796349 -6.280469 -2.420942,-8.452256 -5.389383 -1.653118,-8.452146 -6.584078 -1.319337,-8.583029 -7.500408 -1.336209,-9.227921 -6.278607 -2.176775,-8.901275 -5.57989 -1.428743,-8.900401 -6.770002 -1.200465,-9.010405 -7.591404 -1.318416,-9.725094 -6.371788 -1.903654,-9.421167 -5.555763 -1.360773,-9.30542 -6.305063 -1.217176,-9.350526 -6.969431 -1.261751,2.510, 24 
-2.935236 -8.7528 -1.246189,-3.513849 -8.540768 -0.7446541,-4.028185 -7.766809 -0.5258637,-4.298374 -6.93773 -0.2840231,-4.522625 -6.16665 -0.09523904,-3.967076 -6.536254 -0.9317594,-4.186789 -5.429856 -0.5365759,-4.286926 -4.690423 -0.261033,-4.338656 -3.987163 -0.01277184,-3.59845 -6.389332 -0.9476032,-3.602282 -5.607434 -0.2442746,-3.602282 -5.607434 -0.2442746,-3.498718 -7.311698 -0.07282043,-3.219706 -6.385572 -0.8816404,-3.203216 -5.708473 -0.2037647,-3.197533 -6.66978 -0.1155162,-3.21586 -7.335346 -0.2195008,-2.839295 -6.51801 -0.7739061,-2.807666 -5.87995 -0.2796401,-2.850314 -6.512922 -0.1869074,-2.90481 -7.041259 -0.2491995,-9.354098 -9.213272 -1.995257,-8.597715 -8.966013 -1.725683,-7.926494 -8.055725 -1.657546,-7.660996 -7.114089 -1.560407,-7.663044 -6.296524 -1.562437,-8.322945 -6.484634 -2.353307,-7.984723 -5.041233 -2.065832,-7.788261 -4.133012 -1.814772,-7.650925 -3.293705 -1.649394,-8.721927 -6.359077 -2.197193,-8.328534 -5.50617 -1.398452,-8.345507 -6.744276 -1.092458,-8.492653 -7.632628 -1.159492,-9.159298 -6.360098 -1.923868,-8.789118 -5.681594 -1.159019,-8.800961 -6.899664 -0.9746451,-8.926505 -7.698713 -1.128634,-9.663935 -6.450012 -1.62403,-9.305752 -5.688385 -1.089607,-9.191027 -6.470252 -0.9812609,-9.25774 -7.122303 -1.05738,2.610, 24 
-2.927977 -8.743132 -1.205596,-3.507154 -8.525728 -0.6925342,-4.019717 -7.768271 -0.4529389,-4.295637 -6.967218 -0.1898437,-4.52704 -6.202915 0.03154624,-3.965488 -6.506677 -0.8472277,-4.185171 -5.420215 -0.4447171,-4.277054 -4.701444 -0.1639831,-4.31638 -4.015117 0.084481,-3.595196 -6.37462 -0.8629416,-3.599974 -5.625028 -0.139219,-3.599974 -5.625028 -0.139219,-3.502326 -7.318689 0.04853666,-3.2134 -6.379014 -0.7971275,-3.196333 -5.72026 -0.1256528,-3.196232 -6.679773 -0.04079187,-3.21663 -7.328683 -0.1414757,-2.830769 -6.516862 -0.6884106,-2.797889 -5.897033 -0.2018303,-2.843333 -6.532661 -0.1110691,-2.898846 -7.048578 -0.1712919,-9.367596 -9.258547 -1.817598,-8.593 -9.008484 -1.539493,-7.907616 -8.096216 -1.471021,-7.623185 -7.15789 -1.366664,-7.603142 -6.327134 -1.369607,-8.302926 -6.493431 -2.162734,-7.941558 -5.036541 -1.841259,-7.730502 -4.131623 -1.582564,-7.57804 -3.287184 -1.427413,-8.700498 -6.359169 -2.006272,-8.297602 -5.544109 -1.170343,-8.329733 -6.829473 -0.8843484,-8.482773 -7.708515 -1.006615,-9.134206 -6.358909 -1.720975,-8.762906 -5.698219 -0.9332722,-8.78797 -6.939458 -0.7685364,-8.919196 -7.726268 -0.9578176,-9.637297 -6.453191 -1.411807,-9.288561 -5.695825 -0.8570436,-9.180192 -6.489864 -0.7528518,-9.248435 -7.136858 -0.8481609,2.710, 24 
-2.926779 -8.728226 -1.181636,-3.497659 -8.513109 -0.6688913,-4.007586 -7.742506 -0.432684,-4.276865 -6.924945 -0.1732661,-4.51896 -6.1601 0.046404,-3.961873 -6.481044 -0.8383861,-4.169647 -5.397181 -0.4282873,-4.253462 -4.677375 -0.1448886,-4.290707 -3.988523 0.1032882,-3.589417 -6.348609 -0.8579228,-3.591837 -5.610069 -0.1325417,-3.591837 -5.610069 -0.1325417,-3.498491 -7.305461 0.05380428,-3.205282 -6.35429 -0.7934478,-3.188991 -5.718827 -0.1207244,-3.190282 -6.679595 -0.04729068,-3.21478 -7.326589 -0.1530445,-2.820791 -6.493978 -0.6854084,-2.790906 -5.874317 -0.1992908,-2.839803 -6.512167 -0.1172855,-2.89922 -7.025003 -0.1808776,-9.358917 -9.334095 -1.628485,-8.554729 -9.074013 -1.340252,-7.86038 -8.157728 -1.264525,-7.557542 -7.215934 -1.142738,-7.494538 -6.341585 -1.12791,-8.247895 -6.515815 -1.937072,-7.856345 -5.048675 -1.624806,-7.622335 -4.132257 -1.378342,-7.449851 -3.286438 -1.232883,-8.657283 -6.384591 -1.772307,-8.24439 -5.565888 -0.9342966,-8.288462 -6.870859 -0.650591,-8.448926 -7.782534 -0.7648208,-9.098236 -6.384906 -1.480499,-8.71514 -5.716394 -0.6652453,-8.747018 -6.968044 -0.4977357,-8.885799 -7.778612 -0.6946246,-9.606874 -6.486921 -1.162896,-9.238536 -5.706084 -0.5963142,-9.131611 -6.494983 -0.4918933,-9.204093 -7.150333 -0.5877106,2.810, 24 
-2.927042 -8.781549 -1.155496,-3.504618 -8.535048 -0.6376595,-4.002077 -7.762606 -0.3900955,-4.261467 -6.951351 -0.1265167,-4.486004 -6.18029 0.1086373,-3.949751 -6.503894 -0.7717496,-4.156831 -5.408559 -0.3712563,-4.236776 -4.68126 -0.08996367,-4.269527 -3.98594 0.1550951,-3.575037 -6.395605 -0.7933747,-3.559221 -5.661889 -0.06608963,-3.559221 -5.661889 -0.06608963,-3.476357 -7.355899 0.1124253,-3.188803 -6.414344 -0.7417101,-3.158848 -5.761199 -0.06284714,-3.163907 -6.72435 0.01067913,-3.199495 -7.390481 -0.1012778,-2.806516 -6.56215 -0.6457412,-2.769066 -5.937835 -0.147337,-2.816825 -6.594886 -0.06474876,-2.885798 -7.114104 -0.13499,-9.390806 -9.487047 -1.40583,-8.585786 -9.207382 -1.173802,-7.874621 -8.282211 -1.132155,-7.562173 -7.322323 -1.032634,-7.525298 -6.450024 -1.061294,-8.27062 -6.619413 -1.789452,-7.850617 -5.132902 -1.466812,-7.602332 -4.20667 -1.218941,-7.425504 -3.33946 -1.059837,-8.672009 -6.478405 -1.590848,-8.22139 -5.710331 -0.7519989,-8.295032 -7.03128 -0.4988206,-8.489281 -7.897769 -0.6419548,-9.107789 -6.456888 -1.253812,-8.686871 -5.823816 -0.442978,-8.744866 -7.093309 -0.3159494,-8.915318 -7.868984 -0.5398506,-9.623811 -6.525506 -0.9005262,-9.218601 -5.744849 -0.340169,-9.123862 -6.574326 -0.2588766,-9.225148 -7.234189 -0.3690772,2.910, 24 
-2.930655 -8.839005 -1.064516,-3.497898 -8.568159 -0.5977471,-4.001301 -7.778764 -0.3783461,-4.259378 -6.96525 -0.1307223,-4.484351 -6.203147 0.09130681,-3.930889 -6.533477 -0.7401603,-4.15218 -5.458272 -0.3442048,-4.241713 -4.732887 -0.05336726,-4.2807 -4.045152 0.2062906,-3.561321 -6.417131 -0.7310853,-3.571394 -5.691267 -0.02660728,-3.571394 -5.691267 -0.02660728,-3.469347 -7.391469 0.1775348,-3.178161 -6.433806 -0.6486664,-3.170097 -5.800726 0.009646893,-3.173014 -6.754529 0.08500028,-3.193964 -7.420385 -0.01033676,-2.793492 -6.580644 -0.5244241,-2.766303 -5.973314 -0.03759694,-2.822285 -6.614582 0.04323232,-2.887991 -7.132133 -0.0222826,-9.453798 -9.51269 -1.373054,-8.622142 -9.249472 -1.162415,-7.891094 -8.323008 -1.140232,-7.568236 -7.360954 -1.062295,-7.537921 -6.48532 -1.107949,-8.292549 -6.650995 -1.781556,-7.867546 -5.175619 -1.474105,-7.616076 -4.261396 -1.223069,-7.435388 -3.411658 -1.054603,-8.697844 -6.504525 -1.57422,-8.239116 -5.730637 -0.7701593,-8.305449 -7.04527 -0.4918313,-8.501816 -7.934402 -0.5950483,-9.133954 -6.479145 -1.237645,-8.699161 -5.86453 -0.4529142,-8.75598 -7.138942 -0.3153515,-8.932427 -7.930836 -0.525166,-9.64535 -6.548786 -0.8849492,-9.207643 -5.829551 -0.3367814,-9.1285 -6.686035 -0.2635608,-9.250986 -7.339641 -0.3773202,3.010, 24 
-2.939374 -8.969578 -1.01393,-3.499999 -8.711597 -0.4981323,-4.006126 -7.90924 -0.2460218,-4.272993 -7.08919 0.01058936,-4.479728 -6.327113 0.2347819,-3.935676 -6.656125 -0.6144017,-4.144681 -5.556863 -0.1861197,-4.231253 -4.840423 0.09876907,-4.270849 -4.173643 0.3418959,-3.560179 -6.536779 -0.6351048,-3.539766 -5.848449 0.1027597,-3.539766 -5.848449 0.1027597,-3.462913 -7.605925 0.2364548,-3.171001 -6.558175 -0.5836036,-3.138993 -5.965992 0.1156459,-3.143193 -6.956922 0.162384,-3.172758 -7.616489 0.03425837,-2.792391 -6.717649 -0.4905728,-2.752081 -6.115571 0.008094072,-2.793278 -6.79425 0.06849432,-2.854636 -7.310089 -0.01066077,-9.520825 -9.657667 -1.157558,-8.685015 -9.339451 -0.9188003,-7.971419 -8.364367 -0.8958658,-7.637353 -7.407005 -0.8158504,-7.568918 -6.501412 -0.8383154,-8.386678 -6.727226 -1.539709,-7.983314 -5.246168 -1.214709,-7.72649 -4.313583 -0.9486925,-7.539841 -3.457675 -0.761682,-8.795053 -6.577436 -1.338615,-8.358469 -5.733858 -0.5101561,-8.390467 -7.056612 -0.1928185,-8.561067 -8.028625 -0.2624941,-9.237905 -6.559459 -1.011236,-8.824183 -5.856648 -0.1946277,-8.840518 -7.1331 -0.004889846,-8.982481 -8.006622 -0.185813,-9.759529 -6.663561 -0.6687177,-9.359982 -5.848906 -0.07384324,-9.229772 -6.64673 0.05049276,-9.294524 -7.351448 -0.02759123,3.110, 24 
-2.892506 -9.046591 -1.027396,-3.443289 -8.789433 -0.4599532,-3.962632 -8.040655 -0.1719775,-4.25083 -7.254707 0.1111904,-4.434813 -6.466917 0.3730348,-3.878534 -6.731022 -0.5598266,-4.086924 -5.612607 -0.160717,-4.176704 -4.900677 0.1140335,-4.224674 -4.248207 0.3552507,-3.501197 -6.622114 -0.6037137,-3.481997 -5.917792 0.1389477,-3.481997 -5.917792 0.1389477,-3.395973 -7.635459 0.3525084,-3.115009 -6.637254 -0.580032,-3.079395 -6.077697 0.1289842,-3.071863 -7.024322 0.201067,-3.108795 -7.691356 0.09892511,-2.741449 -6.780229 -0.5122099,-2.697213 -6.196641 0.01644361,-2.728382 -6.86089 0.1029741,-2.796034 -7.385866 0.04007924,-9.581929 -9.709986 -1.05921,-8.732308 -9.420063 -0.8205255,-8.018675 -8.409567 -0.7927954,-7.682674 -7.449602 -0.7060558,-7.556828 -6.519603 -0.7330505,-8.410974 -6.76556 -1.461012,-8.010117 -5.279907 -1.133818,-7.759692 -4.335187 -0.8740324,-7.583972 -3.469468 -0.696795,-8.815674 -6.610971 -1.247109,-8.38279 -5.75265 -0.3995559,-8.405333 -7.091583 -0.07032615,-8.567641 -8.058241 -0.1342747,-9.257537 -6.59003 -0.907443,-8.854682 -5.86054 -0.07753223,-8.853409 -7.156646 0.112703,-8.981157 -8.015707 -0.07517576,-9.783438 -6.689456 -0.5539562,-9.396087 -5.865209 0.05120921,-9.262483 -6.675584 0.1732659,-9.324153 -7.37672 0.08064795,3.210, 24 
-2.852645 -9.231047 -0.7567899,-3.401971 -8.93187 -0.2291926,-3.901549 -8.112778 0.04438841,-4.156071 -7.295314 0.3123877,-4.363543 -6.578981 0.5712223,-3.795435 -6.831218 -0.2204387,-4.00297 -5.778867 0.2677656,-4.090185 -5.102628 0.6085666,-4.130095 -4.444533 0.872291,-3.406584 -6.732069 -0.2333989,-3.397939 -6.17456 0.5531076,-3.397939 -6.17456 0.5531076,-3.357123 -7.955419 0.6467876,-3.00641 -6.776565 -0.1800159,-2.986207 -6.348028 0.5582592,-3.016054 -7.358253 0.5607032,-3.053268 -7.972179 0.4186827,-2.619461 -6.9449 -0.08631361,-2.589317 -6.379806 0.44433,-2.654059 -7.089736 0.4722707,-2.726753 -7.601709 0.3747244,-9.636096 -9.752979 -1.02672,-8.761526 -9.496861 -0.7500583,-8.036478 -8.449638 -0.7212757,-7.697257 -7.462884 -0.6536313,-7.537142 -6.503101 -0.6848439,-8.438389 -6.819484 -1.344978,-8.028152 -5.319097 -1.003094,-7.772033 -4.301446 -0.7449756,-7.597958 -3.36975 -0.575261,-8.854138 -6.64566 -1.161439,-8.418968 -5.714626 -0.2982185,-8.423717 -7.034618 0.0613122,-8.579235 -8.052036 0.03002763,-9.309795 -6.62601 -0.8601686,-8.905859 -5.840087 -0.009885073,-8.87228 -7.134802 0.2087244,-8.964163 -8.048912 0.04018915,-9.853598 -6.739084 -0.5397424,-9.480162 -5.872055 0.08827031,-9.313605 -6.659029 0.2427243,-9.33252 -7.402297 0.1750593,3.310, 24 
-2.88313 -9.446228 -0.1286103,-3.447854 -9.278399 0.2969506,-3.977348 -8.495214 0.5663442,-4.227526 -7.697195 0.854361,-4.466654 -7.024329 1.125859,-3.910401 -7.022249 0.4917926,-4.161476 -6.11792 1.130936,-4.249678 -5.515493 1.5869,-4.307974 -4.907985 1.873802,-3.483843 -6.802582 0.5387359,-3.494949 -6.609933 1.362143,-3.494949 -6.609933 1.362143,-3.422559 -8.396067 1.443445,-3.03425 -6.857233 0.6470293,-3.037674 -6.803974 1.412112,-3.060498 -7.876991 1.375277,-3.108383 -8.449739 1.241655,-2.600386 -7.056276 0.7847217,-2.597076 -6.84534 1.331488,-2.687807 -7.652143 1.327949,-2.794232 -8.111101 1.245518,-9.62928 -9.812071 -0.7757173,-8.762611 -9.56966 -0.4688148,-8.052855 -8.475615 -0.4367255,-7.708577 -7.504289 -0.3778476,-7.490714 -6.578102 -0.3998622,-8.450629 -6.789836 -1.026341,-8.070815 -5.315747 -0.6402105,-7.828182 -4.284648 -0.3314776,-7.654301 -3.36239 -0.1170538,-8.874093 -6.622698 -0.865976,-8.473654 -5.629043 -0.008997798,-8.426887 -6.922225 0.4010978,-8.536165 -7.988172 0.4305096,-9.328601 -6.635232 -0.5894753,-8.959815 -5.835075 0.2742293,-8.881092 -7.101762 0.5604513,-8.937075 -8.050243 0.4394516,-9.855572 -6.797029 -0.2998717,-9.504805 -5.961271 0.3777899,-9.324058 -6.724398 0.5832795,-9.321897 -7.479997 0.5526294,3.410, 24 
-2.841365 -9.487917 0.4724652,-3.393181 -9.382021 0.9481518,-3.947861 -8.657434 1.308322,-4.240349 -7.912321 1.677786,-4.475656 -7.26781 2.079025,-3.908235 -7.086675 1.299352,-4.164461 -6.361201 1.993564,-4.276863 -5.815204 2.453875,-4.345166 -5.23765 2.763423,-3.487143 -6.728624 1.340404,-3.456656 -6.898504 2.166766,-3.456656 -6.898504 2.166766,-3.406905 -8.525276 2.262984,-3.032774 -6.728445 1.435162,-2.980753 -7.042121 2.167139,-3.007859 -8.064465 2.063601,-3.081016 -8.495802 1.929648,-2.615168 -6.919403 1.574564,-2.548336 -7.009134 2.072443,-2.632429 -7.829785 2.042665,-2.760233 -8.202417 1.944646,-9.635387 -9.819761 -1.107642,-8.838902 -9.540884 -0.8315606,-8.098101 -8.500204 -0.769834,-7.737653 -7.546962 -0.6689934,-7.580643 -6.562805 -0.612597,-8.549665 -6.883481 -1.462288,-8.203355 -5.444086 -1.127589,-7.939555 -4.350183 -0.8649871,-7.724787 -3.308212 -0.6577255,-8.938316 -6.717006 -1.263728,-8.552508 -5.581503 -0.39735,-8.479516 -6.830992 -0.009743571,-8.586903 -7.878599 -0.0155437,-9.390613 -6.729471 -0.9631139,-9.009527 -5.833509 -0.0714246,-8.91251 -7.17279 0.2417318,-8.973508 -8.181702 0.1467603,-9.923297 -6.89055 -0.6608,-9.567595 -6.04883 -0.004612446,-9.363499 -6.78981 0.1383796,-9.356601 -7.541223 0.06551266,3.510, 24 
-2.82136 -9.484081 0.5721164,-3.372034 -9.424849 1.053411,-3.912605 -8.704784 1.425607,-4.203297 -7.938205 1.792843,-4.462139 -7.28763 2.185682,-3.875948 -7.119319 1.435991,-4.119177 -6.410431 2.141149,-4.227403 -5.869073 2.56974,-4.295538 -5.250482 2.844682,-3.473404 -6.701728 1.459331,-3.387157 -6.97003 2.262276,-3.387157 -6.97003 2.262276,-3.37319 -8.477861 2.302015,-3.022136 -6.656973 1.536488,-2.92626 -7.081767 2.228609,-2.963544 -8.093307 2.082042,-3.061357 -8.431362 1.925477,-2.615582 -6.817029 1.66016,-2.505751 -7.068624 2.083252,-2.594218 -7.898473 2.001915,-2.740983 -8.196913 1.86658,-9.677791 -9.896082 -1.005079,-8.853356 -9.711777 -0.6582921,-8.130803 -8.561405 -0.6065074,-7.795476 -7.629293 -0.5276762,-7.579412 -6.686797 -0.5166094,-8.582947 -6.89677 -1.233207,-8.240628 -5.401595 -0.8762005,-8.012182 -4.343353 -0.6093292,-7.841918 -3.380623 -0.397065,-9.003472 -6.754666 -1.051891,-8.610362 -5.623344 -0.1955004,-8.492067 -6.827594 0.2596273,-8.553074 -7.899581 0.3499769,-9.476891 -6.785078 -0.7629808,-9.078748 -5.864101 0.1705374,-8.94601 -7.113632 0.5375475,-8.98291 -8.128326 0.4692056,-10.01033 -6.949771 -0.4761971,-9.648695 -6.085416 0.2208285,-9.422194 -6.799693 0.4190364,-9.385377 -7.560041 0.3980142,3.610, 24 
-2.825172 -9.520653 0.7067248,-3.375497 -9.538065 1.249053,-3.901731 -8.86484 1.679571,-4.160847 -8.115635 2.069363,-4.40033 -7.404594 2.425395,-3.869663 -7.208954 1.771537,-4.102055 -6.614249 2.517421,-4.236169 -6.057898 2.951241,-4.340025 -5.374311 3.2214,-3.449183 -6.750532 1.766199,-3.386046 -7.130517 2.545371,-3.386046 -7.130517 2.545371,-3.405442 -8.519423 2.436959,-2.993009 -6.705496 1.821532,-2.908174 -7.189699 2.478976,-2.96062 -8.185703 2.253989,-3.071709 -8.443535 2.080443,-2.584116 -6.869798 1.93879,-2.490124 -7.213289 2.314278,-2.595903 -8.03821 2.182691,-2.74953 -8.282686 2.039651,-9.765158 -10.0602 -0.5269057,-8.965877 -9.840622 -0.1913954,-8.255435 -8.671619 -0.1237407,-7.917048 -7.702478 -0.02442837,-7.758951 -6.758873 -0.007377386,-8.70071 -6.889459 -0.7549445,-8.348184 -5.378265 -0.3718372,-8.12666 -4.330039 -0.08257282,-7.964893 -3.394704 0.1470264,-9.135718 -6.770186 -0.5626798,-8.73761 -5.656852 0.3028521,-8.614467 -6.910528 0.7294161,-8.662947 -8.001289 0.7769653,-9.612136 -6.839903 -0.253299,-9.207792 -5.99018 0.7025288,-9.068723 -7.254014 1.043057,-9.099369 -8.252695 0.9422489,-10.14098 -7.053387 0.05942231,-9.762128 -6.206523 0.8007981,-9.538901 -6.949413 1.006282,-9.504968 -7.712717 0.9840103,3.710, 24 
-2.854368 -9.494865 0.2471779,-3.393133 -9.543425 0.8455117,-3.896244 -8.966061 1.27675,-4.148005 -8.255245 1.646517,-4.381807 -7.506492 1.986324,-3.872459 -7.286972 1.299216,-4.121555 -6.661226 2.02097,-4.258429 -6.103227 2.435658,-4.361938 -5.45415 2.68899,-3.460073 -6.840948 1.245744,-3.414577 -7.199321 2.016713,-3.414577 -7.199321 2.016713,-3.381511 -8.543909 1.891808,-3.02079 -6.760555 1.269323,-2.962718 -7.240019 1.925824,-2.978826 -8.234604 1.704756,-3.063269 -8.501093 1.531058,-2.621685 -6.848897 1.354341,-2.543921 -7.164793 1.741288,-2.626846 -7.998035 1.611597,-2.763025 -8.272749 1.469817,-9.820725 -10.16247 -0.43785,-9.023365 -9.894724 -0.1416222,-8.327332 -8.725147 -0.07628402,-7.990512 -7.778458 0.03994265,-7.820189 -6.825504 0.0727095,-8.777049 -6.947872 -0.6832502,-8.425158 -5.408578 -0.2963987,-8.198164 -4.389945 -0.01260817,-8.032011 -3.493161 0.2062045,-9.209834 -6.842877 -0.4569961,-8.794432 -5.727304 0.430586,-8.659844 -6.978351 0.8889416,-8.70836 -8.054237 0.9545033,-9.6836 -6.930122 -0.1173412,-9.265406 -6.070185 0.8506479,-9.105226 -7.321097 1.198664,-9.126733 -8.31567 1.110901,-10.21178 -7.165 0.2209391,-9.84449 -6.3033 0.9686079,-9.599094 -7.031652 1.193976,-9.548485 -7.809613 1.186973,3.810, 24 
-2.901844 -9.367895 -0.007028559,-3.460315 -9.416733 0.5798531,-3.960424 -8.883739 1.030477,-4.191672 -8.178082 1.392504,-4.423694 -7.407611 1.699102,-3.943796 -7.285524 1.194278,-4.153506 -6.698323 1.89769,-4.290277 -6.128437 2.251061,-4.401808 -5.44731 2.469944,-3.522058 -6.856065 1.132045,-3.452154 -7.159914 1.869765,-3.452154 -7.159914 1.869765,-3.454615 -8.335167 1.67823,-3.077628 -6.759564 1.136145,-3.015001 -7.196208 1.759535,-3.042722 -8.15414 1.443193,-3.121788 -8.321836 1.197072,-2.675423 -6.820848 1.196208,-2.615523 -7.130165 1.557121,-2.694978 -7.948345 1.341918,-2.802118 -8.174755 1.143995,-10.06078 -10.25272 -0.5292242,-9.234982 -9.972925 -0.2469957,-8.514312 -8.854944 -0.1665506,-8.163212 -7.875144 -0.03990573,-8.004972 -6.91651 -0.002320349,-8.922566 -7.078029 -0.7768183,-8.566911 -5.489677 -0.4213062,-8.345394 -4.460554 -0.1562139,-8.190852 -3.553276 0.04860765,-9.354609 -6.978782 -0.5493847,-8.940088 -5.871164 0.3211269,-8.824397 -7.119459 0.7887505,-8.880608 -8.191879 0.8701385,-9.822813 -7.044542 -0.2135577,-9.421371 -6.183568 0.7420776,-9.27461 -7.42433 1.104417,-9.295039 -8.422529 1.030487,-10.34778 -7.251161 0.1180032,-9.991713 -6.418477 0.8501595,-9.767195 -7.16393 1.077536,-9.716038 -7.941411 1.065993,3.910, 24 
-2.969698 -9.296204 0.004020341,-3.519312 -9.420856 0.710722,-4.035554 -8.908621 1.20494,-4.28382 -8.235783 1.580735,-4.50165 -7.450737 1.905003,-4.019288 -7.257434 1.261293,-4.215778 -6.714221 2.010739,-4.34925 -6.143612 2.398551,-4.463634 -5.46186 2.654655,-3.587429 -6.749875 1.073879,-3.511804 -7.198692 1.89944,-3.511804 -7.198692 1.89944,-3.483218 -8.496759 1.732304,-3.128647 -6.640111 1.070138,-3.060443 -7.208744 1.758307,-3.076962 -8.217077 1.479736,-3.149403 -8.443033 1.234319,-2.711001 -6.701073 1.131347,-2.642433 -7.072799 1.530004,-2.716227 -7.931926 1.336045,-2.832735 -8.204638 1.136344,-10.06361 -10.34886 -0.4193423,-9.243536 -10.02009 -0.07966048,-8.551962 -8.868547 0.02117851,-8.204021 -7.882085 0.1567372,-8.015316 -6.92524 0.2132004,-8.972522 -7.13483 -0.5844861,-8.613426 -5.541274 -0.1953567,-8.384636 -4.474239 0.09810722,-8.221785 -3.52822 0.3151578,-9.406032 -7.032978 -0.3916628,-8.998523 -5.900451 0.5290655,-8.868719 -7.153411 1.015755,-8.920102 -8.265732 1.097447,-9.871721 -7.114139 -0.08604655,-9.474042 -6.1849 0.876273,-9.312936 -7.423468 1.243945,-9.322767 -8.44388 1.162629,-10.40887 -7.339319 0.2214923,-10.07594 -6.381591 0.9687641,-9.82885 -7.063478 1.222967,-9.761188 -7.837724 1.234543,4.010, 24 
-3.004107 -9.265223 -0.05728012,-3.568226 -9.378901 0.7066447,-4.078528 -8.881771 1.228481,-4.30423 -8.227087 1.625014,-4.521147 -7.432727 1.98817,-4.080652 -7.253759 1.247397,-4.263166 -6.74024 2.010019,-4.386855 -6.179982 2.411304,-4.503439 -5.494697 2.687116,-3.648506 -6.797897 1.129483,-3.554077 -7.154037 1.994939,-3.554077 -7.154037 1.994939,-3.526817 -8.49984 1.791368,-3.179543 -6.673823 1.114627,-3.10409 -7.162889 1.846261,-3.129377 -8.207548 1.519911,-3.209562 -8.456509 1.23531,-2.753741 -6.72145 1.167558,-2.696974 -7.042126 1.581458,-2.768757 -7.929811 1.338418,-2.880088 -8.217974 1.102645,-10.11038 -10.35754 -0.2246595,-9.298788 -10.02014 0.1281187,-8.609137 -8.883621 0.2644499,-8.259719 -7.899833 0.4421358,-8.069357 -6.922683 0.5445731,-9.032273 -7.084814 -0.3743742,-8.664285 -5.529253 0.03129885,-8.436694 -4.48964 0.340898,-8.273039 -3.574062 0.561063,-9.462708 -6.983284 -0.178013,-9.045194 -5.91884 0.751484,-8.932105 -7.182485 1.260656,-8.99313 -8.256918 1.346914,-9.925926 -7.074842 0.1300228,-9.526013 -6.231136 1.081819,-9.378514 -7.473794 1.450296,-9.39127 -8.451681 1.375904,-10.45722 -7.31933 0.4454076,-10.1224 -6.437739 1.188808,-9.887498 -7.131925 1.454582,-9.825189 -7.883959 1.474147,4.110, 24 
-3.097548 -9.184792 0.1942384,-3.660822 -9.320004 0.9554302,-4.164925 -8.842968 1.482545,-4.384909 -8.22587 1.87473,-4.618397 -7.450746 2.228992,-4.169502 -7.142517 1.555825,-4.332153 -6.699739 2.328238,-4.465742 -6.154632 2.743192,-4.597315 -5.459117 3.031726,-3.730499 -6.658519 1.434388,-3.633536 -7.1235 2.29548,-3.633536 -7.1235 2.29548,-3.588911 -8.465176 2.035648,-3.249603 -6.522493 1.421266,-3.172178 -7.13047 2.138334,-3.203439 -8.174936 1.76177,-3.280647 -8.383608 1.455837,-2.8144 -6.572073 1.475388,-2.75699 -7.010236 1.844496,-2.847262 -7.897996 1.547002,-2.963588 -8.153685 1.285522,-10.05574 -10.17347 -0.9145989,-9.338083 -9.901335 -0.5461165,-8.602966 -8.789938 -0.4217914,-8.254533 -7.798248 -0.2714894,-8.082799 -6.828811 -0.1208559,-9.030212 -7.137187 -1.152459,-8.731304 -5.778285 -0.8131357,-8.50518 -4.708118 -0.5252773,-8.314079 -3.684681 -0.2773104,-9.435763 -6.995252 -0.9953562,-9.125998 -5.919002 -0.04002595,-9.087334 -7.16613 0.3456175,-9.183507 -8.211588 0.3044586,-9.905442 -7.033306 -0.7338652,-9.586215 -6.16959 0.1946639,-9.4935 -7.493969 0.4682581,-9.523445 -8.505112 0.3372203,-10.44 -7.227873 -0.4549972,-10.14419 -6.508623 0.2242019,-9.976382 -7.292483 0.3894649,-9.955025 -8.039267 0.326272,4.210, 24 
-3.086002 -9.105076 -0.1105744,-3.700198 -9.243088 0.6202874,-4.194269 -8.784407 1.133609,-4.417875 -8.180269 1.522966,-4.64688 -7.420572 1.887218,-4.206636 -7.127542 1.201434,-4.381706 -6.651027 1.92429,-4.522537 -6.084169 2.324003,-4.642007 -5.43538 2.602206,-3.76272 -6.675011 1.098786,-3.702337 -7.093838 1.92867,-3.702337 -7.093838 1.92867,-3.59868 -8.49144 1.742471,-3.282279 -6.548812 1.09664,-3.232838 -7.093696 1.795356,-3.234419 -8.13372 1.47893,-3.277544 -8.413332 1.220011,-2.841504 -6.574454 1.156867,-2.812191 -6.934214 1.550045,-2.881302 -7.811424 1.294282,-2.976731 -8.11554 1.061195,-10.04564 -10.17045 -1.169157,-9.319405 -9.905142 -0.8305724,-8.588681 -8.791847 -0.7320657,-8.268962 -7.780965 -0.6237053,-8.094274 -6.828605 -0.5032541,-9.029079 -7.192779 -1.376741,-8.734461 -5.781869 -1.044122,-8.501294 -4.693252 -0.7589548,-8.301161 -3.652927 -0.491097,-9.448776 -7.061089 -1.210683,-9.127042 -5.956309 -0.2497665,-9.077852 -7.221773 0.1154218,-9.167963 -8.28092 0.07303405,-9.929438 -7.100171 -0.947835,-9.593967 -6.212705 0.00814724,-9.496105 -7.548606 0.2534931,-9.529759 -8.567543 0.1099846,-10.47797 -7.28178 -0.6668775,-10.17102 -6.536612 0.02121472,-9.991864 -7.302864 0.1695005,-9.967759 -8.023201 0.09573007,4.310, 24 
-3.116259 -9.153088 0.2002003,-3.683439 -9.369875 0.9702744,-4.206944 -8.909935 1.501043,-4.449358 -8.280107 1.905857,-4.671937 -7.502208 2.274855,-4.268654 -7.15443 1.512902,-4.424695 -6.698607 2.266227,-4.538814 -6.163375 2.684533,-4.648737 -5.506353 2.978251,-3.834578 -6.627464 1.398354,-3.753451 -7.124666 2.267569,-3.753451 -7.124666 2.267569,-3.656807 -8.531342 2.084032,-3.349483 -6.469358 1.38907,-3.273433 -7.121523 2.110016,-3.272257 -8.168951 1.777666,-3.329149 -8.429461 1.51055,-2.901635 -6.492168 1.444531,-2.843861 -6.979318 1.845784,-2.911372 -7.866373 1.596223,-3.016591 -8.145052 1.36991,-10.13868 -10.31757 -0.7344776,-9.340114 -10.10315 -0.3223625,-8.626524 -8.976337 -0.2074655,-8.29289 -8.009592 -0.07330406,-8.122478 -7.010881 -0.03154469,-9.090627 -7.206978 -0.8708034,-8.745438 -5.650589 -0.5083308,-8.527027 -4.586497 -0.205219,-8.370591 -3.642036 0.04923421,-9.520381 -7.085659 -0.7199734,-9.110787 -5.978774 0.1865551,-8.990715 -7.265377 0.6376654,-9.040442 -8.387775 0.697221,-10.00847 -7.164458 -0.4459331,-9.597202 -6.268954 0.5097096,-9.454637 -7.568576 0.8484498,-9.474031 -8.592543 0.7500557,-10.54525 -7.37906 -0.1627681,-10.17953 -6.582012 0.5761224,-9.960859 -7.356444 0.7817417,-9.915087 -8.10836 0.7544113,4.410, 24 
-3.129034 -9.173759 0.01706899,-3.709647 -9.312389 0.778733,-4.218443 -8.818949 1.304123,-4.44513 -8.207642 1.710593,-4.673716 -7.473373 2.098662,-4.20945 -7.159786 1.299592,-4.385771 -6.681571 2.04803,-4.498436 -6.156421 2.459382,-4.589499 -5.523765 2.745959,-3.782016 -6.677019 1.188091,-3.733936 -7.153934 2.063694,-3.733936 -7.153934 2.063694,-3.635824 -8.564096 1.892358,-3.307323 -6.540029 1.188779,-3.266052 -7.139474 1.915073,-3.269277 -8.185385 1.621847,-3.314064 -8.466822 1.374989,-2.870656 -6.571535 1.255408,-2.837664 -6.98167 1.65697,-2.911633 -7.86715 1.439891,-3.013764 -8.169971 1.23454,-10.21142 -10.4506 -0.2921104,-9.402191 -10.16606 0.1101885,-8.680356 -9.005396 0.231572,-8.32123 -8.041615 0.381384,-8.101534 -7.100999 0.4526497,-9.117912 -7.214432 -0.3917011,-8.742433 -5.666481 0.02256289,-8.51825 -4.613964 0.3478162,-8.353224 -3.685174 0.6089162,-9.55804 -7.097402 -0.2229781,-9.134164 -6.073785 0.756663,-9.043208 -7.429119 1.218533,-9.116924 -8.572639 1.263624,-10.04396 -7.16953 0.06607321,-9.644407 -6.35179 1.050907,-9.514606 -7.664961 1.366531,-9.539749 -8.675457 1.241893,-10.59088 -7.390814 0.3698784,-10.23661 -6.601825 1.152022,-10.02856 -7.395432 1.373124,-9.992397 -8.156914 1.34266,4.510, 24 
-3.107508 -9.193539 0.1110511,-3.683008 -9.31053 0.9056447,-4.199781 -8.826147 1.445834,-4.422729 -8.234522 1.8665,-4.640136 -7.503231 2.269242,-4.182947 -7.153741 1.415928,-4.351364 -6.695588 2.202346,-4.464025 -6.168767 2.630409,-4.567612 -5.505279 2.931775,-3.752054 -6.67188 1.298462,-3.707709 -7.16681 2.193112,-3.707709 -7.16681 2.193112,-3.620478 -8.588001 1.964433,-3.274978 -6.54285 1.296558,-3.239181 -7.161596 2.05355,-3.257898 -8.222479 1.729099,-3.30969 -8.502028 1.45007,-2.840126 -6.586471 1.364866,-2.821517 -6.982883 1.788446,-2.907243 -7.861232 1.551597,-3.011826 -8.164936 1.324192,-10.24254 -10.47976 -0.2147054,-9.429859 -10.15721 0.155273,-8.725746 -8.997793 0.2649463,-8.35769 -8.032948 0.4182456,-8.112475 -7.084123 0.4929334,-9.156509 -7.216408 -0.3545654,-8.772001 -5.633569 0.0632005,-8.543913 -4.589548 0.3848552,-8.374712 -3.685624 0.6225096,-9.588336 -7.10377 -0.1743723,-9.151774 -6.107517 0.8053653,-9.066787 -7.449521 1.274104,-9.144589 -8.58074 1.299605,-10.0633 -7.181653 0.1264845,-9.664371 -6.380018 1.095549,-9.543093 -7.669106 1.412635,-9.568595 -8.666319 1.282066,-10.60107 -7.413867 0.439486,-10.25868 -6.604584 1.22175,-10.04787 -7.367765 1.467692,-10.00098 -8.129395 1.450929,4.610, 24 
-3.120497 -9.156881 0.219795,-3.681983 -9.309204 1.030828,-4.196517 -8.811773 1.569277,-4.426972 -8.201725 1.979173,-4.656807 -7.470026 2.378413,-4.187128 -7.09893 1.54674,-4.343378 -6.635001 2.325943,-4.450165 -6.101921 2.746463,-4.547982 -5.444099 3.049401,-3.758098 -6.600044 1.411074,-3.693554 -7.072441 2.315496,-3.693554 -7.072441 2.315496,-3.607924 -8.501741 2.128461,-3.278088 -6.458056 1.397399,-3.22575 -7.07712 2.1689,-3.236387 -8.147369 1.864898,-3.28793 -8.452991 1.581533,-2.838442 -6.512022 1.449363,-2.809257 -6.905679 1.893468,-2.886268 -7.809179 1.66259,-2.990539 -8.147053 1.424078,-10.2828 -10.537 -0.06972717,-9.450596 -10.21732 0.287465,-8.741853 -9.049076 0.3892576,-8.384498 -8.055826 0.5299645,-8.15241 -7.10816 0.5999496,-9.161261 -7.250219 -0.2285858,-8.780813 -5.670969 0.1877064,-8.551762 -4.630584 0.516901,-8.379887 -3.729636 0.754537,-9.598101 -7.12466 -0.04090237,-9.16987 -6.068232 0.9145034,-9.071194 -7.410285 1.419451,-9.145582 -8.57445 1.490945,-10.07404 -7.19328 0.2603756,-9.676972 -6.360845 1.216472,-9.544916 -7.665153 1.552412,-9.571314 -8.695683 1.431233,-10.61701 -7.430133 0.5747499,-10.27325 -6.592659 1.346616,-10.0609 -7.370992 1.586052,-10.0225 -8.16798 1.557142,4.710, 24 
-3.107414 -9.153486 0.4077392,-3.673384 -9.293011 1.196098,-4.203524 -8.817928 1.738278,-4.429992 -8.202621 2.143941,-4.63663 -7.442527 2.527807,-4.201588 -7.068311 1.767581,-4.34799 -6.619299 2.549467,-4.459536 -6.094427 2.964659,-4.5734 -5.420978 3.252286,-3.766068 -6.561514 1.642337,-3.704058 -7.112477 2.516939,-3.704058 -7.112477 2.516939,-3.640406 -8.435978 2.34178,-3.279605 -6.436094 1.633331,-3.234524 -7.118686 2.378619,-3.256315 -8.161034 2.062987,-3.311739 -8.388935 1.8052,-2.826376 -6.502979 1.692193,-2.809487 -6.921684 2.108083,-2.898279 -7.803974 1.870371,-3.002474 -8.081928 1.652642,-10.28171 -10.54943 -0.05133843,-9.456446 -10.2029 0.3078716,-8.750832 -9.040314 0.4262291,-8.394223 -8.063713 0.5887989,-8.152744 -7.123174 0.6854722,-9.16282 -7.249433 -0.1759173,-8.782505 -5.674901 0.2571313,-8.554102 -4.64089 0.5980276,-8.382668 -3.749045 0.8337768,-9.598264 -7.131991 0.0129194,-9.164865 -6.122083 0.9821526,-9.075429 -7.471277 1.486237,-9.151433 -8.624559 1.556766,-10.07336 -7.204198 0.3127506,-9.672429 -6.387986 1.264141,-9.547308 -7.68535 1.59599,-9.569536 -8.70409 1.483106,-10.61832 -7.438861 0.6333253,-10.27372 -6.591047 1.397917,-10.05527 -7.359389 1.647328,-10.0056 -8.152151 1.632398,4.810, 24 
-3.140909 -9.09001 0.223766,-3.710703 -9.264736 1.017099,-4.234613 -8.786821 1.566935,-4.460946 -8.17292 1.991977,-4.689661 -7.428571 2.411713,-4.25493 -7.066148 1.577926,-4.403401 -6.625483 2.34305,-4.498016 -6.108573 2.760848,-4.585697 -5.459125 3.047602,-3.817554 -6.559328 1.451511,-3.74609 -7.057029 2.346404,-3.74609 -7.057029 2.346404,-3.651037 -8.443007 2.219808,-3.327341 -6.42172 1.439891,-3.269025 -7.046318 2.189601,-3.268799 -8.100918 1.896622,-3.315341 -8.362711 1.640166,-2.877154 -6.461462 1.493268,-2.854019 -6.810184 1.916166,-2.919539 -7.699571 1.683439,-3.010553 -8.004141 1.457989,-10.17319 -10.2571 -0.8471838,-9.466744 -10.02401 -0.4382807,-8.724951 -8.884972 -0.3020323,-8.371715 -7.886552 -0.1606998,-8.154252 -6.906721 -0.02565956,-9.147372 -7.20367 -0.9795964,-8.840453 -5.863981 -0.6182308,-8.616247 -4.786144 -0.3194251,-8.413315 -3.73999 -0.04417711,-9.565969 -7.055946 -0.8235665,-9.248878 -6.032347 0.1689693,-9.202503 -7.324066 0.5625092,-9.298246 -8.439165 0.5525832,-10.05302 -7.11203 -0.5583526,-9.715174 -6.315227 0.4541296,-9.636845 -7.675717 0.7401448,-9.676321 -8.718012 0.5973628,-10.59995 -7.314708 -0.279694,-10.30179 -6.65114 0.4708548,-10.14587 -7.43267 0.6335405,-10.13084 -8.151278 0.5672255,4.910, 24 
-3.14805 -9.126776 0.4038514,-3.715498 -9.308908 1.200208,-4.247549 -8.816847 1.738195,-4.48784 -8.184933 2.152662,-4.733865 -7.456312 2.574621,-4.278786 -7.056375 1.723298,-4.437421 -6.629966 2.465594,-4.543798 -6.119689 2.894626,-4.632622 -5.493941 3.209253,-3.850145 -6.528282 1.597446,-3.779726 -7.049822 2.458079,-3.779726 -7.049822 2.458079,-3.658647 -8.469091 2.360528,-3.358729 -6.38113 1.58395,-3.293124 -7.041229 2.307733,-3.286651 -8.094063 2.043303,-3.321818 -8.384556 1.81012,-2.900738 -6.427265 1.635584,-2.859529 -6.842037 2.072769,-2.925179 -7.748229 1.872252,-3.014672 -8.070385 1.670359,-10.17961 -10.23268 -0.8651328,-9.473271 -10.00031 -0.4349041,-8.732327 -8.915405 -0.2835586,-8.383069 -7.924791 -0.1273013,-8.195853 -6.921243 0.00578481,-9.168708 -7.182334 -0.9444977,-8.858259 -5.798952 -0.5686865,-8.632609 -4.723237 -0.2652906,-8.437118 -3.697974 -0.003050148,-9.59244 -7.033571 -0.7987726,-9.265609 -6.04125 0.1893691,-9.22103 -7.345971 0.5855771,-9.325253 -8.459965 0.5701727,-10.07741 -7.093338 -0.5511789,-9.739202 -6.321805 0.4519535,-9.65579 -7.66376 0.726861,-9.690308 -8.692951 0.573074,-10.61785 -7.301082 -0.2860673,-10.3153 -6.66026 0.4733312,-10.15203 -7.45218 0.6269273,-10.13495 -8.1866 0.5470667,5.010, 24 
-3.179833 -9.109259 0.5835282,-3.743252 -9.306274 1.391153,-4.2853 -8.821365 1.945284,-4.518057 -8.183918 2.373967,-4.744492 -7.442277 2.807049,-4.323542 -7.031476 1.946825,-4.477993 -6.606098 2.724285,-4.580626 -6.101461 3.166107,-4.670099 -5.474502 3.486243,-3.892593 -6.477159 1.824045,-3.786068 -7.028381 2.70813,-3.786068 -7.028381 2.70813,-3.684711 -8.456816 2.636907,-3.394587 -6.32821 1.810932,-3.301426 -7.043714 2.543924,-3.298481 -8.088406 2.270792,-3.347241 -8.37887 2.028188,-2.93126 -6.387749 1.868192,-2.869311 -6.861154 2.303643,-2.934818 -7.768024 2.093467,-3.034526 -8.089237 1.884714,-10.27328 -10.34868 -0.772209,-9.472714 -10.15034 -0.3277784,-8.753116 -9.026493 -0.2063694,-8.412128 -8.071606 -0.07273346,-8.207007 -7.125546 -0.01864225,-9.200742 -7.267095 -0.8330802,-8.843119 -5.723691 -0.4260682,-8.625236 -4.683002 -0.09096366,-8.454326 -3.768718 0.1861032,-9.641351 -7.131499 -0.688979,-9.221741 -6.113898 0.2969257,-9.117522 -7.460003 0.7389615,-9.170547 -8.603077 0.7692823,-10.13968 -7.209369 -0.4146498,-9.740651 -6.371685 0.5747343,-9.610935 -7.676601 0.8959408,-9.621998 -8.69165 0.7834191,-10.69249 -7.423204 -0.1271721,-10.36636 -6.641409 0.6580396,-10.14416 -7.40946 0.8723968,-10.07895 -8.171041 0.8403631,5.110, 24 
-3.159905 -9.0804 0.5630798,-3.721873 -9.271793 1.40923,-4.273899 -8.805687 1.976874,-4.511137 -8.183458 2.405513,-4.7176 -7.433104 2.821676,-4.268991 -7.061253 2.003547,-4.426842 -6.660295 2.841512,-4.533939 -6.142625 3.295567,-4.643206 -5.467037 3.612493,-3.853676 -6.478045 1.861778,-3.731127 -7.062824 2.76262,-3.731127 -7.062824 2.76262,-3.666996 -8.478493 2.587874,-3.371473 -6.307415 1.84018,-3.266701 -7.026224 2.608414,-3.276809 -8.069578 2.275686,-3.350002 -8.368914 1.989622,-2.923457 -6.36412 1.899604,-2.845694 -6.820222 2.336505,-2.921208 -7.701549 2.09467,-3.043791 -8.029696 1.857073,-10.2773 -10.41866 -0.7049536,-9.483014 -10.17017 -0.2880903,-8.779766 -9.056198 -0.1701155,-8.435701 -8.095078 -0.02184296,-8.231444 -7.171137 0.04598796,-9.211984 -7.294132 -0.7927409,-8.845325 -5.707042 -0.3632659,-8.621294 -4.675363 -0.02713436,-8.455248 -3.782342 0.2347767,-9.651478 -7.180467 -0.6304173,-9.233231 -6.112291 0.3964235,-9.145225 -7.486619 0.8373579,-9.218941 -8.644016 0.8446896,-10.14242 -7.254829 -0.3332042,-9.749493 -6.365144 0.6879638,-9.628302 -7.677504 1.002011,-9.656959 -8.694256 0.855757,-10.69553 -7.473339 -0.02338946,-10.39412 -6.564863 0.7745656,-10.17002 -7.313591 1.00061,-10.1043 -8.082766 0.96492,5.210, 24 
-3.176996 -9.114811 0.762393,-3.74566 -9.286863 1.598521,-4.277365 -8.843723 2.20574,-4.497883 -8.217384 2.68769,-4.6819 -7.457641 3.196249,-4.29661 -7.010068 2.204125,-4.418228 -6.623952 3.019308,-4.507837 -6.123935 3.455519,-4.598671 -5.491998 3.748879,-3.855984 -6.445266 2.064775,-3.728907 -7.016469 2.970259,-3.728907 -7.016469 2.970259,-3.684406 -8.425673 2.895854,-3.355936 -6.304037 2.043689,-3.247892 -7.01176 2.799424,-3.270632 -8.072544 2.506719,-3.346337 -8.374247 2.239501,-2.894107 -6.394257 2.092782,-2.81748 -6.785801 2.526789,-2.904704 -7.676626 2.309496,-3.03054 -8.012037 2.075877,-10.36739 -10.52742 -0.3150727,-9.560307 -10.21847 0.09786272,-8.863768 -9.062037 0.2419927,-8.517739 -8.081457 0.4241148,-8.310157 -7.162808 0.5302697,-9.297112 -7.284069 -0.3862885,-8.935548 -5.704069 0.06446081,-8.71019 -4.684808 0.4003876,-8.541053 -3.790815 0.6438555,-9.744108 -7.176435 -0.2011123,-9.328123 -6.137162 0.8373028,-9.244721 -7.516296 1.286912,-9.327604 -8.677546 1.292649,-10.23363 -7.247396 0.1115962,-9.858856 -6.374982 1.126711,-9.746052 -7.683406 1.4354,-9.777915 -8.709322 1.290502,-10.7906 -7.48072 0.4438561,-10.5148 -6.510261 1.23156,-10.29402 -7.224059 1.462633,-10.22564 -7.992437 1.437166,5.310, 24 
-3.148481 -9.014111 0.1204232,-3.735439 -9.234852 0.9396766,-4.269765 -8.797789 1.540698,-4.514053 -8.170166 1.999283,-4.6952 -7.424238 2.459025,-4.314273 -7.122316 1.635569,-4.447536 -6.657354 2.464002,-4.536835 -6.136261 2.899372,-4.63763 -5.501422 3.179243,-3.865405 -6.615499 1.510547,-3.767048 -6.850217 2.437083,-3.767048 -6.850217 2.437083,-3.707883 -8.229626 2.394111,-3.362975 -6.4573 1.474974,-3.2679 -6.853658 2.283371,-3.272692 -7.933292 1.977202,-3.346448 -8.258265 1.669588,-2.895455 -6.507191 1.502282,-2.864901 -6.585902 1.990271,-2.92702 -7.459665 1.752485,-3.029887 -7.826476 1.482034,-10.39354 -10.54113 -0.2251457,-9.573185 -10.21091 0.1589422,-8.874005 -9.040579 0.2551541,-8.515014 -8.064995 0.3992465,-8.30938 -7.159435 0.4544148,-9.334688 -7.264383 -0.3608398,-8.952208 -5.660884 0.07211953,-8.723709 -4.644392 0.3977408,-8.55279 -3.760786 0.6300714,-9.775838 -7.16137 -0.1812454,-9.345143 -6.162195 0.8334206,-9.264335 -7.528059 1.297351,-9.340158 -8.672045 1.302233,-10.25736 -7.242776 0.1250581,-9.875754 -6.41715 1.092009,-9.765553 -7.701436 1.39542,-9.789339 -8.698975 1.251474,-10.80452 -7.483711 0.4491241,-10.51748 -6.580692 1.231292,-10.30325 -7.304668 1.475388,-10.23606 -8.060677 1.452415,5.410, 24 
-3.177647 -9.007717 0.4230816,-3.799974 -9.163267 1.22462,-4.330991 -8.761127 1.845282,-4.552586 -8.198986 2.340819,-4.727652 -7.431072 2.831263,-4.353275 -7.010358 1.88573,-4.491046 -6.670234 2.688003,-4.580149 -6.144922 3.12611,-4.673355 -5.460524 3.420439,-3.884017 -6.489448 1.787464,-3.815716 -6.996894 2.761798,-3.815716 -6.996894 2.761798,-3.734838 -8.403475 2.68087,-3.358212 -6.34541 1.799694,-3.302298 -6.997308 2.579903,-3.324394 -8.068636 2.243936,-3.378031 -8.310163 1.946222,-2.883268 -6.402269 1.878197,-2.852443 -6.821458 2.310307,-2.939067 -7.723956 2.050984,-3.037764 -8.006746 1.794438,-10.37683 -10.40199 -0.8182482,-9.564968 -10.14717 -0.3378111,-8.867628 -9.048534 -0.18301,-8.528322 -8.084835 -0.0116387,-8.319502 -7.159722 0.06917655,-9.315375 -7.327383 -0.825682,-8.954941 -5.737844 -0.3714019,-8.747242 -4.69457 -0.03089339,-8.594563 -3.764455 0.2095859,-9.76386 -7.195563 -0.7019224,-9.386448 -6.138053 0.3563454,-9.307553 -7.521053 0.7527658,-9.360609 -8.650684 0.6998513,-10.26232 -7.268974 -0.4391071,-9.937124 -6.348744 0.5727489,-9.822474 -7.648449 0.8668085,-9.823112 -8.640814 0.7126541,-10.81415 -7.490191 -0.1614351,-10.57408 -6.575458 0.640298,-10.35674 -7.275899 0.8679018,-10.26926 -8.000668 0.8258843,5.510, 24 
-3.14427 -8.947754 0.02753062,-3.790088 -9.019266 0.7413435,-4.326931 -8.677408 1.36078,-4.582808 -8.182005 1.867771,-4.769019 -7.458337 2.345068,-4.356971 -7.140197 1.634345,-4.512051 -6.78196 2.470377,-4.602213 -6.250034 2.92024,-4.687137 -5.55913 3.200557,-3.860676 -6.690874 1.59003,-3.803495 -6.986415 2.52003,-3.803495 -6.986415 2.52003,-3.750875 -8.284389 2.375371,-3.321913 -6.553333 1.619154,-3.256238 -6.953756 2.37669,-3.30229 -7.98761 1.970427,-3.383482 -8.20717 1.658354,-2.844168 -6.57185 1.718621,-2.820024 -6.731855 2.124289,-2.925436 -7.568883 1.844289,-3.037361 -7.838329 1.605562,-10.40704 -10.5164 -0.3000354,-9.576974 -10.19218 0.1040575,-8.886979 -9.052092 0.2233459,-8.547794 -8.072012 0.3875346,-8.345963 -7.176336 0.463897,-9.332254 -7.262319 -0.4337527,-8.962758 -5.692705 0.003511757,-8.735575 -4.694238 0.3472571,-8.562459 -3.826292 0.5946082,-9.777073 -7.160746 -0.2505941,-9.357195 -6.185779 0.7743791,-9.26825 -7.53025 1.259059,-9.335176 -8.666164 1.293976,-10.26313 -7.239251 0.06351578,-9.890529 -6.417144 1.047275,-9.775728 -7.690694 1.38138,-9.797416 -8.699579 1.257313,-10.81312 -7.478313 0.3944393,-10.53343 -6.576387 1.176323,-10.31496 -7.28477 1.425763,-10.24311 -8.048243 1.404949,5.610, 24 
-3.177563 -8.913851 -0.299817,-3.817266 -9.009491 0.425595,-4.340466 -8.65049 1.034728,-4.578436 -8.130241 1.537918,-4.801344 -7.453053 2.030791,-4.370287 -7.196968 1.31128,-4.529991 -6.782196 2.143125,-4.603891 -6.215602 2.601293,-4.655158 -5.557756 2.904097,-3.877106 -6.77577 1.270459,-3.811573 -6.899169 2.251256,-3.811573 -6.899169 2.251256,-3.732527 -8.229361 2.230629,-3.341373 -6.626735 1.290753,-3.249985 -6.875942 2.104762,-3.284435 -7.889074 1.757048,-3.35615 -8.197052 1.44375,-2.861916 -6.614526 1.388148,-2.818729 -6.671514 1.882741,-2.907986 -7.486425 1.674562,-3.010435 -7.80057 1.467645,-10.43271 -10.53175 -0.1601265,-9.59363 -10.19834 0.2098652,-8.89847 -9.042139 0.2897209,-8.552711 -8.059443 0.4168767,-8.347047 -7.156969 0.4697685,-9.341503 -7.254772 -0.3663105,-8.974229 -5.691244 0.0591677,-8.744097 -4.693601 0.4071613,-8.565819 -3.843843 0.6563008,-9.782517 -7.138921 -0.1821374,-9.356205 -6.1594 0.8145356,-9.261854 -7.500924 1.338431,-9.330274 -8.658039 1.408663,-10.26649 -7.209062 0.1267308,-9.88259 -6.415298 1.08981,-9.766388 -7.699354 1.446318,-9.785834 -8.723656 1.341441,-10.81986 -7.444175 0.4516923,-10.52481 -6.602802 1.238973,-10.30449 -7.346699 1.503634,-10.23356 -8.134466 1.491351,5.710, 24 
-3.174575 -8.942278 0.3459774,-3.813053 -9.061666 1.069232,-4.354753 -8.679293 1.676352,-4.600449 -8.178419 2.182891,-4.80233 -7.514057 2.697374,-4.393326 -7.03265 1.893889,-4.561932 -6.738224 2.742993,-4.643992 -6.232675 3.230731,-4.709265 -5.571534 3.546734,-3.906427 -6.538969 1.849643,-3.832903 -7.021398 2.808902,-3.832903 -7.021398 2.808902,-3.740746 -8.41025 2.775601,-3.362115 -6.409741 1.891811,-3.274419 -7.057781 2.667271,-3.309938 -8.101809 2.328461,-3.374152 -8.324377 2.043805,-2.873608 -6.462513 1.997473,-2.806389 -6.95012 2.429478,-2.906719 -7.812773 2.18193,-3.021099 -8.029297 1.962564,-10.44161 -10.63 -0.06013687,-9.603704 -10.22137 0.3098451,-8.925766 -9.048031 0.4115372,-8.580575 -8.073505 0.5690786,-8.36529 -7.175031 0.6420708,-9.383143 -7.289161 -0.2363835,-9.006907 -5.697937 0.200175,-8.771736 -4.70635 0.5339457,-8.591283 -3.855391 0.7540438,-9.827581 -7.201339 -0.04542441,-9.407255 -6.186972 0.9656671,-9.313308 -7.553245 1.458845,-9.378855 -8.704689 1.490597,-10.30713 -7.284789 0.2739086,-9.941892 -6.430207 1.231885,-9.82151 -7.711771 1.556628,-9.840191 -8.721935 1.431767,-10.86082 -7.528566 0.6098058,-10.5994 -6.56913 1.381047,-10.37902 -7.273683 1.641784,-10.30713 -8.050499 1.630419,5.810, 24 
-3.198763 -8.937103 -0.2425472,-3.824525 -9.000494 0.4510678,-4.362066 -8.657934 1.07306,-4.615225 -8.146751 1.582249,-4.820403 -7.438646 2.048232,-4.35884 -7.326671 1.493891,-4.536364 -6.86187 2.353146,-4.630762 -6.283864 2.832604,-4.69585 -5.619667 3.134977,-3.86586 -6.868028 1.457504,-3.807779 -7.003807 2.33785,-3.807779 -7.003807 2.33785,-3.754827 -8.273182 2.133926,-3.329611 -6.704237 1.483681,-3.247648 -6.932422 2.225232,-3.303789 -7.893608 1.805542,-3.382519 -8.161577 1.494417,-2.851356 -6.665691 1.587427,-2.81678 -6.670234 2.016586,-2.92675 -7.435613 1.775335,-3.03342 -7.721492 1.584362,-10.47764 -10.63635 -0.03928541,-9.63644 -10.21517 0.3425842,-8.946795 -9.064005 0.4595975,-8.593433 -8.098057 0.6369871,-8.382257 -7.199174 0.7363933,-9.400949 -7.286712 -0.2155363,-9.025914 -5.708687 0.2218245,-8.7949 -4.713108 0.5619695,-8.615652 -3.854942 0.7923279,-9.844676 -7.20506 -0.02285693,-9.426495 -6.222445 1.005504,-9.327485 -7.571564 1.547216,-9.387114 -8.719303 1.619717,-10.32269 -7.2884 0.2929848,-9.962824 -6.460187 1.261837,-9.83532 -7.725276 1.628361,-9.84244 -8.738506 1.535563,-10.87385 -7.533102 0.6273565,-10.62066 -6.605199 1.401365,-10.39556 -7.287052 1.680217,-10.31043 -8.046799 1.682874,5.910, 24 
-3.145565 -8.950272 -1.195207,-3.805729 -8.980783 -0.4610149,-4.312632 -8.636606 0.1727601,-4.551615 -8.133652 0.6826229,-4.784462 -7.47001 1.132117,-4.344818 -7.480299 0.4666371,-4.50779 -6.850891 1.247752,-4.595072 -6.18734 1.666461,-4.632607 -5.530881 1.977266,-3.820263 -7.18646 0.4239937,-3.792259 -6.806489 1.350996,-3.792259 -6.806489 1.350996,-3.727762 -8.145279 1.270877,-3.278786 -7.05058 0.4322411,-3.216328 -6.721403 1.189256,-3.264224 -7.633499 0.8092651,-3.340857 -8.090908 0.5214334,-2.798531 -6.998083 0.5315323,-2.789586 -6.519924 1.055042,-2.880821 -7.233365 0.8763301,-2.978719 -7.677787 0.7114828,-10.47864 -10.65713 0.01155066,-9.636189 -10.25612 0.4006465,-8.946012 -9.077728 0.5342942,-8.600969 -8.093842 0.7214235,-8.381994 -7.170805 0.8258327,-9.391994 -7.301672 -0.124901,-9.02693 -5.713485 0.3164016,-8.801426 -4.711867 0.6619756,-8.627713 -3.845939 0.8837165,-9.845207 -7.21141 0.05687881,-9.429621 -6.175147 1.078134,-9.332505 -7.540025 1.606475,-9.394352 -8.682167 1.670321,-10.32751 -7.291534 0.3592006,-9.96832 -6.422323 1.308905,-9.842139 -7.725208 1.63937,-9.853965 -8.742559 1.524654,-10.88192 -7.539106 0.6840712,-10.60534 -6.600028 1.449859,-10.37847 -7.347552 1.713551,-10.30847 -8.142317 1.69888,6.010, 24 
-3.164071 -8.90181 -0.6882817,-3.803395 -8.922737 0.07061219,-4.315687 -8.533901 0.7025191,-4.557919 -8.012016 1.19944,-4.766845 -7.359315 1.656708,-4.318987 -7.352413 1.09661,-4.466041 -6.854095 1.933863,-4.556759 -6.213281 2.378317,-4.626112 -5.552552 2.680839,-3.795571 -7.026261 1.047555,-3.787733 -6.71206 2.025804,-3.787733 -6.71206 2.025804,-3.793117 -7.620677 2.173891,-3.24329 -6.889665 1.031233,-3.195402 -6.766297 1.876604,-3.268324 -7.591757 1.519328,-3.342278 -7.976164 1.219777,-2.738683 -6.874821 1.097825,-2.748343 -6.577384 1.697137,-2.877662 -7.273364 1.542765,-2.97759 -7.662782 1.393811,-10.4222 -10.6626 0.03525809,-9.584979 -10.20991 0.381579,-8.91895 -9.048929 0.4841567,-8.578108 -8.075457 0.6463644,-8.354592 -7.156467 0.7276334,-9.381077 -7.290649 -0.1760204,-8.997777 -5.732688 0.2460527,-8.76545 -4.738193 0.5838567,-8.586439 -3.871883 0.8082187,-9.821763 -7.20387 0.01794442,-9.396486 -6.22359 1.007583,-9.306317 -7.569393 1.532533,-9.374229 -8.700174 1.602446,-10.29722 -7.286108 0.3329239,-9.920981 -6.479925 1.260369,-9.80838 -7.757905 1.580955,-9.830594 -8.752913 1.469099,-10.84711 -7.535727 0.6714306,-10.55799 -6.642372 1.421054,-10.33916 -7.370727 1.676826,-10.27478 -8.14916 1.663656,6.110, 24 
-3.135135 -8.941479 0.3117554,-3.771714 -9.054386 1.084365,-4.290227 -8.682299 1.702662,-4.523596 -8.178108 2.21229,-4.753395 -7.484004 2.719985,-4.343194 -7.005322 1.864041,-4.475493 -6.679211 2.662747,-4.546694 -6.139562 3.100505,-4.590435 -5.472053 3.406111,-3.851023 -6.540285 1.807388,-3.744158 -6.890611 2.797064,-3.744158 -6.890611 2.797064,-3.711061 -8.320913 2.87675,-3.30361 -6.427437 1.824714,-3.181086 -6.887619 2.641594,-3.247821 -7.921238 2.332838,-3.323193 -8.227682 2.031056,-2.809311 -6.503297 1.913689,-2.7391 -6.683485 2.429787,-2.852372 -7.522181 2.231278,-2.971433 -7.848684 2.008481,-10.44936 -10.62019 0.04492717,-9.611127 -10.21338 0.4226466,-8.930395 -9.058048 0.5327954,-8.585016 -8.092331 0.6940528,-8.35809 -7.191205 0.7790501,-9.378399 -7.259658 -0.1113704,-8.995917 -5.697166 0.3261948,-8.770996 -4.69939 0.668738,-8.597807 -3.838218 0.8947857,-9.821997 -7.163494 0.07322183,-9.392883 -6.237714 1.091927,-9.294337 -7.570343 1.642709,-9.351748 -8.698748 1.721747,-10.30571 -7.249559 0.3777092,-9.930914 -6.499821 1.317692,-9.813278 -7.752092 1.657169,-9.821682 -8.743044 1.555721,-10.85552 -7.502442 0.7032588,-10.56263 -6.688209 1.488162,-10.34586 -7.406991 1.76246,-10.27344 -8.169731 1.756532,6.210, 24 
-3.132118 -8.891289 0.02625198,-3.73983 -9.033838 0.840494,-4.274316 -8.676208 1.500408,-4.524286 -8.166574 2.049007,-4.68168 -7.456808 2.610751,-4.301298 -7.102165 1.675357,-4.445961 -6.683753 2.593246,-4.491575 -6.141766 3.141002,-4.50042 -5.539953 3.497453,-3.812563 -6.640268 1.612438,-3.696079 -6.868993 2.64946,-3.696079 -6.868993 2.64946,-3.700876 -8.250795 2.799896,-3.270151 -6.520954 1.626755,-3.123653 -6.882592 2.520192,-3.200226 -7.866689 2.236681,-3.305235 -8.213028 1.940931,-2.779871 -6.569031 1.722977,-2.688767 -6.618948 2.280509,-2.811476 -7.391248 2.124298,-2.953428 -7.734973 1.922849,-10.42477 -10.66083 0.09318387,-9.597449 -10.24986 0.4868513,-8.931446 -9.072458 0.6139367,-8.604574 -8.086411 0.7904718,-8.381106 -7.188001 0.8975393,-9.363625 -7.274148 -0.07102415,-8.999552 -5.721534 0.3799676,-8.78011 -4.74687 0.7406379,-8.609427 -3.900185 0.9726213,-9.813206 -7.187194 0.1086241,-9.416128 -6.202863 1.130995,-9.327689 -7.563671 1.655334,-9.384769 -8.706238 1.708206,-10.29468 -7.271942 0.4146144,-9.954556 -6.442913 1.376828,-9.840685 -7.718154 1.721716,-9.852553 -8.72434 1.609028,-10.84916 -7.52807 0.743258,-10.60337 -6.597874 1.514874,-10.38793 -7.29499 1.780769,-10.30997 -8.053856 1.769081,6.310, 24 2
-3.127059 -8.949772 -0.04756266,-3.715875 -9.06616 0.7070889,-4.252833 -8.697683 1.358347,-4.49727 -8.162985 1.905832,-4.676676 -7.439773 2.435095,-4.267893 -7.174012 1.617939,-4.423927 -6.639461 2.50125,-4.461523 -6.069543 3.007891,-4.448675 -5.495393 3.340767,-3.768389 -6.743431 1.579565,-3.644348 -6.775265 2.561864,-3.644348 -6.775265 2.561864,-3.671437 -8.146086 2.655769,-3.222523 -6.639362 1.598017,-3.058743 -6.806277 2.435514,-3.155762 -7.726968 2.110413,-3.276833 -8.077883 1.797549,-2.734026 -6.706236 1.698157,-2.62928 -6.61249 2.231657,-2.774955 -7.325485 2.08361,-2.92873 -7.673349 1.899609,-10.45304 -10.66576 0.005358769,-9.601927 -10.22572 0.3530148,-8.935678 -9.067888 0.4539083,-8.600626 -8.095125 0.6156651,-8.389995 -7.205918 0.6963029,-9.389668 -7.303253 -0.192525,-9.013754 -5.727048 0.2445162,-8.782831 -4.733486 0.5854882,-8.60865 -3.871887 0.8127879,-9.833795 -7.218961 0.01024136,-9.412866 -6.244025 1.019223,-9.311238 -7.587998 1.534665,-9.374842 -8.724939 1.600387,-10.3164 -7.300399 0.3363021,-9.945297 -6.492911 1.277653,-9.824745 -7.763858 1.605038,-9.845231 -8.768856 1.498803,-10.8693 -7.550301 0.6849249,-10.58538 -6.670426 1.446986,-10.36355 -7.396554 1.707668,-10.29558 -8.170057 1.702584,6.410, 24 2
-3.107948 -8.901695 -1.030346,-3.738924 -8.900349 -0.2395303,-4.245927 -8.561226 0.4532717,-4.496525 -8.034857 0.99763,-4.654609 -7.357427 1.459595,-4.199022 -7.713106 1.02886,-4.336763 -6.959165 1.956695,-4.415027 -6.229267 2.419869,-4.458158 -5.582115 2.719277,-3.663404 -7.426599 0.9545829,-3.593874 -6.754225 1.904273,-3.593874 -6.754225 1.904273,-3.738947 -7.38576 1.880781,-3.123432 -7.276529 0.9090173,-3.008226 -6.687637 1.721617,-3.16643 -7.168578 1.330048,-3.331486 -7.425834 1.022391,-2.653966 -7.217084 0.9513171,-2.575132 -6.579932 1.521601,-2.762922 -7.003135 1.421428,-2.932322 -7.291391 1.303098,-10.45425 -10.67122 -0.01176312,-9.619063 -10.24631 0.3794565,-8.95565 -9.075218 0.4905998,-8.6232 -8.095604 0.6533024,-8.397696 -7.218599 0.7384305,-9.403205 -7.310386 -0.1631557,-9.033229 -5.723274 0.2825591,-8.808184 -4.732505 0.6284609,-8.637684 -3.862482 0.8643558,-9.849766 -7.226906 0.01867865,-9.441123 -6.237169 1.039148,-9.341907 -7.596229 1.539869,-9.400453 -8.736301 1.571786,-10.33851 -7.314416 0.3265758,-9.992129 -6.466875 1.27679,-9.870749 -7.743612 1.603397,-9.881054 -8.761194 1.488981,-10.9009 -7.570179 0.657139,-10.66197 -6.624511 1.42847,-10.4331 -7.326237 1.692542,-10.34434 -8.107033 1.68612,6.510, 24 2
-3.058899 -8.92107 -1.337289,-3.6853 -8.971617 -0.5744399,-4.178312 -8.63442 0.08581185,-4.438774 -8.056522 0.5890901,-4.649366 -7.402614 0.9802145,-4.122335 -7.878541 0.666833,-4.277976 -7.078766 1.51823,-4.402205 -6.33639 1.869617,-4.506804 -5.666486 2.097279,-3.622883 -7.565684 0.620297,-3.631035 -6.706897 1.593218,-3.631035 -6.706897 1.593218,-3.760788 -7.012483 1.707648,-3.119497 -7.351287 0.5921179,-3.077059 -6.621227 1.399821,-3.193475 -7.001078 1.085337,-3.304653 -7.261386 0.815955,-2.649573 -7.250425 0.6413794,-2.612683 -6.456224 1.218847,-2.766588 -6.792036 1.184762,-2.888249 -7.108543 1.101689,-10.5008 -10.71678 0.1325939,-9.645397 -10.26966 0.485362,-8.979683 -9.084358 0.5800388,-8.654387 -8.096159 0.7382253,-8.442542 -7.202615 0.8263857,-9.440289 -7.316338 -0.09517206,-9.07314 -5.760733 0.3143032,-8.846061 -4.768358 0.6448979,-8.663809 -3.896923 0.8670406,-9.890656 -7.23154 0.1074125,-9.486178 -6.279538 1.093438,-9.387668 -7.610429 1.63097,-9.443608 -8.748186 1.724038,-10.37721 -7.303614 0.4334987,-10.02002 -6.500788 1.369076,-9.903512 -7.760953 1.739781,-9.91836 -8.788744 1.664855,-10.94046 -7.540765 0.7759807,-10.68963 -6.585817 1.521717,-10.46611 -7.26118 1.79044,-10.38394 -8.037031 1.789908,6.610, 24 2
-3.045968 -9.136717 -0.3473936,-3.660457 -9.215048 0.3846526,-4.174273 -8.753967 0.9888607,-4.441135 -8.118917 1.494826,-4.719433 -7.411779 1.961294,-4.238856 -7.301492 1.140082,-4.363617 -6.746742 1.910861,-4.411965 -6.173539 2.220151,-4.436045 -5.525362 2.395658,-3.743824 -6.939025 1.113449,-3.679365 -6.805101 2.108716,-3.679365 -6.805101 2.108716,-3.625906 -8.073334 2.146549,-3.225142 -6.829042 1.126576,-3.140842 -6.69559 1.94464,-3.165821 -7.61643 1.657822,-3.242827 -7.960834 1.365967,-2.734603 -6.892578 1.227586,-2.695954 -6.406626 1.760492,-2.776636 -7.072512 1.661298,-2.869968 -7.475102 1.498672,-10.51741 -10.73444 0.07681385,-9.664651 -10.28943 0.4717301,-9.001602 -9.101852 0.5858517,-8.674516 -8.112141 0.7561207,-8.455503 -7.229122 0.8454073,-9.45433 -7.338894 -0.0952778,-9.085013 -5.77633 0.3503567,-8.864267 -4.793676 0.7032835,-8.695366 -3.921595 0.931549,-9.912237 -7.264396 0.085728,-9.516877 -6.267303 1.123955,-9.429283 -7.628675 1.63938,-9.488708 -8.761106 1.679606,-10.39783 -7.354913 0.395826,-10.06329 -6.488714 1.358569,-9.946155 -7.758749 1.698682,-9.956553 -8.76594 1.589346,-10.95745 -7.618074 0.7305602,-10.73546 -6.638884 1.49363,-10.50803 -7.308864 1.760099,-10.41939 -8.060579 1.753706,6.710, 24 2
-3.134336 -9.12084 0.4448553,-3.766212 -9.208931 1.122295,-4.289375 -8.740292 1.667233,-4.553484 -8.17543 2.130024,-4.811258 -7.515325 2.603326,-4.325701 -7.034594 1.773612,-4.472058 -6.671802 2.477913,-4.578482 -6.150268 2.852007,-4.679205 -5.544511 3.096214,-3.860352 -6.560936 1.732341,-3.818074 -6.96373 2.587328,-3.818074 -6.96373 2.587328,-3.724739 -8.433578 2.556212,-3.343994 -6.459823 1.764682,-3.295825 -6.945032 2.488234,-3.298476 -7.960845 2.241123,-3.335885 -8.321316 2.00454,-2.869425 -6.563761 1.85497,-2.859094 -6.623809 2.315596,-2.928567 -7.443233 2.145493,-3.01709 -7.836828 1.943527,-10.58785 -10.76609 0.07372618,-9.752192 -10.35151 0.445438,-9.057879 -9.159056 0.5577035,-8.707444 -8.170164 0.7288046,-8.49189 -7.260375 0.8164979,-9.508239 -7.384475 -0.1292612,-9.132121 -5.797611 0.3168922,-8.903366 -4.806137 0.656176,-8.723656 -3.942281 0.8708216,-9.96158 -7.300685 0.06922205,-9.564301 -6.331222 1.116067,-9.48351 -7.70203 1.615874,-9.539417 -8.826408 1.64519,-10.4367 -7.389141 0.4010479,-10.09863 -6.540006 1.39265,-9.98267 -7.818258 1.733399,-9.98206 -8.819794 1.617764,-10.98378 -7.640548 0.7462499,-10.75871 -6.653073 1.51926,-10.54648 -7.308954 1.789327,-10.45789 -8.041124 1.782627,6.810, 24 2
-3.221782 -9.048279 -0.3968555,-3.876785 -9.108925 0.2317432,-4.366814 -8.623564 0.7647887,-4.592542 -8.053715 1.207207,-4.836277 -7.375796 1.640597,-4.355602 -7.135704 0.9180199,-4.528915 -6.678843 1.616955,-4.631394 -6.110759 1.985219,-4.700737 -5.456213 2.228007,-3.881796 -6.751714 0.8933057,-3.860245 -6.991523 1.767611,-3.860245 -6.991523 1.767611,-3.746589 -8.423252 1.647061,-3.371002 -6.647731 0.9326568,-3.34836 -6.961771 1.637498,-3.354857 -8.009575 1.332626,-3.384795 -8.328096 1.064332,-2.911679 -6.680583 1.030412,-2.918607 -6.725589 1.443004,-2.988987 -7.583038 1.209346,-3.062007 -7.937452 0.9828155,-10.61155 -10.73951 0.01494234,-9.753268 -10.35163 0.3804516,-9.047739 -9.198496 0.4910114,-8.696619 -8.21446 0.6579663,-8.489901 -7.289846 0.7452802,-9.488338 -7.401742 -0.212014,-9.116302 -5.822917 0.2194158,-8.896786 -4.822834 0.5703054,-8.723565 -3.958839 0.7930195,-9.938437 -7.300197 -0.02109226,-9.524622 -6.320102 1.003062,-9.445044 -7.679103 1.547381,-9.505955 -8.809374 1.619355,-10.41502 -7.365392 0.2953172,-10.05969 -6.54038 1.25513,-9.951387 -7.828667 1.604379,-9.958965 -8.836845 1.494022,-10.96332 -7.591328 0.6301142,-10.6949 -6.694225 1.391688,-10.48505 -7.434808 1.656701,-10.4123 -8.221338 1.645444,6.910, 24 2
-3.286998 -9.275785 0.2873951,-3.838886 -9.448343 1.007768,-4.373311 -8.91654 1.501289,-4.63121 -8.241507 1.897434,-4.914065 -7.511625 2.260571,-4.397422 -7.226622 1.532777,-4.566667 -6.729742 2.252435,-4.648971 -6.213118 2.657479,-4.711723 -5.569472 2.933747,-3.979742 -6.69549 1.443425,-3.886831 -7.153533 2.275651,-3.886831 -7.153533 2.275651,-3.821108 -8.533831 2.157941,-3.507923 -6.54891 1.440276,-3.414265 -7.132851 2.132346,-3.404625 -8.157324 1.847566,-3.476177 -8.416397 1.606506,-3.066854 -6.59023 1.502781,-2.986852 -6.95808 1.908328,-3.047647 -7.814059 1.713393,-3.164672 -8.101027 1.52301,-10.58605 -10.83371 -0.04676193,-9.720112 -10.46076 0.2838226,-9.024208 -9.291384 0.3699621,-8.683269 -8.298115 0.5183036,-8.473972 -7.378219 0.6036406,-9.462386 -7.515945 -0.3279283,-9.097853 -5.951128 0.05735876,-8.877006 -4.958639 0.3662755,-8.700527 -4.095749 0.5606992,-9.90936 -7.413898 -0.1303333,-9.493173 -6.434444 0.8514553,-9.409656 -7.783771 1.383019,-9.485549 -8.91432 1.446464,-10.38208 -7.475341 0.182282,-10.00703 -6.653132 1.116478,-9.894463 -7.948024 1.472745,-9.915772 -8.955996 1.370662,-10.92615 -7.695968 0.517756,-10.65021 -6.789452 1.237983,-10.44146 -7.498456 1.484508,-10.38381 -8.252851 1.463002,7.010, 24 2
-3.345835 -9.449522 -0.3314506,-3.886852 -9.588984 0.3722371,-4.393961 -9.044203 0.8102248,-4.649818 -8.355551 1.150879,-4.926395 -7.636961 1.447408,-4.407984 -7.4551 0.7654792,-4.579703 -6.90546 1.485538,-4.678032 -6.348433 1.906711,-4.77141 -5.663876 2.196984,-4.00263 -6.991714 0.6706028,-3.942852 -7.281969 1.47524,-3.942852 -7.281969 1.47524,-3.871132 -8.718243 1.307156,-3.560211 -6.834836 0.6715044,-3.493961 -7.272056 1.369023,-3.470282 -8.323816 1.102086,-3.535899 -8.626167 0.8747125,-3.145679 -6.836792 0.7400436,-3.087263 -7.133312 1.156106,-3.131026 -8.001661 0.9823713,-3.240517 -8.315184 0.8080778,-10.5554 -10.96259 -0.2475275,-9.686871 -10.59361 0.0553979,-8.991204 -9.444996 0.12652,-8.646879 -8.451382 0.2553772,-8.436152 -7.530529 0.3120063,-9.41867 -7.707996 -0.5387348,-9.052367 -6.151329 -0.1785761,-8.823367 -5.158908 0.108771,-8.63612 -4.302536 0.3040418,-9.85556 -7.606225 -0.3377855,-9.435984 -6.588636 0.6206595,-9.345472 -7.898702 1.144378,-9.421609 -9.035862 1.222573,-10.31801 -7.665464 -0.02608255,-9.933027 -6.823434 0.9067566,-9.811492 -8.081667 1.267126,-9.834058 -9.086742 1.165091,-10.84948 -7.881576 0.3031906,-10.5668 -6.977275 1.024733,-10.35826 -7.641275 1.264999,-10.29654 -8.361671 1.243817,7.110, 24 2
-3.317697 -9.472929 -0.6311274,-3.840205 -9.629261 0.07442659,-4.364844 -9.056862 0.5034424,-4.609446 -8.339817 0.8360723,-4.871346 -7.657448 1.146077,-4.383652 -7.533169 0.442839,-4.528765 -6.925035 1.175822,-4.622101 -6.330278 1.589674,-4.709707 -5.613724 1.894445,-4.001514 -7.110099 0.351283,-3.881385 -7.21322 1.146892,-3.881385 -7.21322 1.146892,-3.854885 -8.70546 0.9342417,-3.566858 -6.971492 0.3519012,-3.45215 -7.203454 1.072575,-3.435998 -8.274 0.7909522,-3.525246 -8.628647 0.5236851,-3.156855 -7.015225 0.4227333,-3.062569 -7.165325 0.8831621,-3.103362 -8.021601 0.7025237,-3.2244 -8.36096 0.5006697,-10.52601 -11.01562 -0.3364729,-9.657432 -10.61056 -0.03647453,-8.982402 -9.488773 0.04365361,-8.639753 -8.525684 0.1832097,-8.397375 -7.600671 0.2511455,-9.384101 -7.794715 -0.5948731,-9.010149 -6.242414 -0.1929304,-8.775699 -5.257867 0.1131889,-8.588571 -4.408849 0.298349,-9.814577 -7.687015 -0.3982083,-9.38656 -6.671234 0.5805255,-9.298603 -7.98605 1.100047,-9.380877 -9.091637 1.162415,-10.27357 -7.743579 -0.08578277,-9.884674 -6.878311 0.8349826,-9.770321 -8.148808 1.159914,-9.802138 -9.121864 1.039849,-10.80669 -7.957647 0.248313,-10.51214 -7.045203 0.9721172,-10.29575 -7.738065 1.215239,-10.23985 -8.471197 1.194287,7.210, 24 2
-3.345095 -9.558342 -1.677506,-3.846769 -9.59532 -1.038296,-4.336165 -8.999439 -0.7097991,-4.577403 -8.303669 -0.4387231,-4.821951 -7.667657 -0.1840236,-4.323748 -7.624763 -0.9273996,-4.551294 -6.843335 -0.3062915,-4.655253 -6.207969 0.1061937,-4.723731 -5.581392 0.4236865,-3.938824 -7.392631 -0.9859529,-3.974258 -7.08548 -0.1154786,-3.974258 -7.08548 -0.1154786,-3.807094 -8.778204 -0.06332684,-3.524477 -7.31408 -0.9644753,-3.54492 -7.118145 -0.1623847,-3.504254 -8.194172 -0.2219114,-3.51326 -8.772873 -0.4026109,-3.114786 -7.347402 -0.8965601,-3.135242 -7.033773 -0.3024441,-3.163824 -7.851009 -0.3114198,-3.225368 -8.360506 -0.4342999,-10.44509 -11.04944 -0.4364771,-9.591848 -10.68064 -0.1389099,-8.916059 -9.561474 -0.04908639,-8.581673 -8.61471 0.0939123,-8.325344 -7.705511 0.1767249,-9.323839 -7.868193 -0.6177788,-8.954253 -6.351074 -0.2112849,-8.718594 -5.374874 0.1018639,-8.531342 -4.541396 0.2957684,-9.747844 -7.746496 -0.4297787,-9.316533 -6.751602 0.5291215,-9.220825 -8.03138 1.062215,-9.309158 -9.13953 1.150327,-10.20012 -7.804681 -0.13504,-9.807341 -6.982946 0.7495158,-9.694386 -8.217428 1.071768,-9.731774 -9.176924 0.9708259,-10.72814 -8.022579 0.177169,-10.42255 -7.200468 0.906718,-10.21032 -7.913883 1.153145,-10.16144 -8.649014 1.145553,7.310, 24 2
-3.332858 -9.673389 -1.805416,-3.859962 -9.661497 -1.236151,-4.391165 -8.99921 -0.9819989,-4.627876 -8.288363 -0.7594966,-4.843902 -7.693462 -0.5547392,-4.305171 -7.745719 -1.123343,-4.581477 -6.889347 -0.614036,-4.691373 -6.242702 -0.2426856,-4.754371 -5.664978 0.07087517,-3.932692 -7.535553 -1.157448,-4.017136 -7.050003 -0.4052191,-4.017136 -7.050003 -0.4052191,-3.791059 -8.769241 -0.2155373,-3.538759 -7.483497 -1.124253,-3.609671 -7.120922 -0.3943084,-3.549171 -8.066254 -0.3256878,-3.506141 -8.730829 -0.405465,-3.130716 -7.541385 -1.056293,-3.18136 -7.067121 -0.4826195,-3.213448 -7.753816 -0.4061121,-3.24496 -8.292635 -0.4481252,-10.41229 -11.00855 -0.4753256,-9.571215 -10.65089 -0.1890493,-8.898961 -9.538445 -0.09416932,-8.566664 -8.611187 0.05414182,-8.306874 -7.701427 0.1416456,-9.297629 -7.840833 -0.6539908,-8.926141 -6.34177 -0.2339137,-8.682694 -5.380182 0.08618408,-8.488716 -4.561047 0.2859866,-9.721028 -7.715744 -0.4538748,-9.289156 -6.778795 0.4980803,-9.201539 -8.094728 0.9853349,-9.289092 -9.192158 1.037597,-10.17762 -7.776182 -0.1415668,-9.783959 -7.005966 0.7480865,-9.668875 -8.266119 1.026849,-9.699406 -9.210224 0.8921925,-10.70307 -7.99736 0.1892766,-10.38051 -7.208993 0.9142734,-10.16758 -7.952331 1.136956,-10.12392 -8.688297 1.11193,7.410, 24 2
-3.324423 -9.712675 -1.839324,-3.859172 -9.698 -1.248625,-4.391665 -9.057701 -0.9730479,-4.640686 -8.338146 -0.7309959,-4.852737 -7.708621 -0.5118482,-4.3234 -7.810983 -1.153759,-4.607389 -6.897817 -0.7027777,-4.725147 -6.214952 -0.3867855,-4.794738 -5.613494 -0.09874201,-3.952271 -7.593595 -1.190648,-4.036636 -7.017835 -0.4721081,-4.036636 -7.017835 -0.4721081,-3.810495 -8.654497 -0.2518132,-3.565337 -7.537399 -1.161988,-3.639297 -7.075862 -0.4401939,-3.557487 -7.957611 -0.3320218,-3.505087 -8.643908 -0.3884643,-3.168474 -7.591802 -1.0946,-3.220476 -7.039834 -0.5169374,-3.233799 -7.661252 -0.4116791,-3.256972 -8.207663 -0.4264771,-10.39724 -11.00569 -0.5932605,-9.567989 -10.64951 -0.2847935,-8.902622 -9.540148 -0.1945805,-8.559664 -8.62554 -0.05418295,-8.290546 -7.736844 0.01498479,-9.283767 -7.865156 -0.7852864,-8.909237 -6.353352 -0.3686974,-8.670711 -5.39101 -0.05074412,-8.482713 -4.569106 0.1530774,-9.702589 -7.747985 -0.5881079,-9.263374 -6.792036 0.3929703,-9.174724 -8.100826 0.8789582,-9.258966 -9.192778 0.9162983,-10.155 -7.808167 -0.2765067,-9.756235 -6.995283 0.6366473,-9.643984 -8.242334 0.921188,-9.682118 -9.182474 0.7759198,-10.67619 -8.028427 0.05673736,-10.36308 -7.181558 0.7871395,-10.14694 -7.897668 1.006685,-10.09778 -8.623632 0.9737424,7.510, 24 2
-3.305109 -9.764992 -1.836069,-3.855852 -9.721685 -1.310861,-4.387856 -9.0947 -1.056827,-4.653915 -8.355074 -0.7987128,-4.884716 -7.689534 -0.5613893,-4.393739 -7.864173 -1.378988,-4.66783 -6.911943 -0.9811677,-4.802751 -6.214537 -0.7044899,-4.896818 -5.577672 -0.4513178,-4.046913 -7.627482 -1.399404,-4.138531 -6.969387 -0.7192022,-4.138531 -6.969387 -0.7192022,-3.879288 -8.598341 -0.5262026,-3.673988 -7.528176 -1.346402,-3.764068 -6.963869 -0.6586777,-3.664495 -7.871856 -0.5378855,-3.595221 -8.552542 -0.6113421,-3.281355 -7.545787 -1.256564,-3.350201 -6.948621 -0.7228749,-3.343721 -7.56203 -0.6211914,-3.336699 -8.11927 -0.6612459,-10.33837 -11.02361 -0.6108168,-9.512138 -10.68217 -0.3118856,-8.833986 -9.576801 -0.2169664,-8.503838 -8.640282 -0.07021475,-8.254742 -7.741945 0.005958915,-9.203831 -7.896654 -0.7846219,-8.828382 -6.393016 -0.3630861,-8.583035 -5.440979 -0.0427295,-8.388392 -4.634899 0.1604904,-9.629704 -7.774183 -0.5882679,-9.191422 -6.834352 0.3685642,-9.113421 -8.139875 0.8387727,-9.211152 -9.223249 0.8762845,-10.08982 -7.831352 -0.2776828,-9.689137 -7.044013 0.6124873,-9.588787 -8.2959 0.8766507,-9.638288 -9.226364 0.7370454,-10.62025 -8.048079 0.05688757,-10.30527 -7.220694 0.7718145,-10.09694 -7.962462 0.9796464,-10.06174 -8.689463 0.9491286,7.610, 24 2
-3.368116 -9.691475 -1.867105,-3.925241 -9.650812 -1.358246,-4.45166 -9.009628 -1.130958,-4.703932 -8.236845 -0.8867918,-4.904835 -7.52256 -0.6689394,-4.46862 -7.78581 -1.50098,-4.732699 -6.827724 -1.124125,-4.866802 -6.128553 -0.8451663,-4.946358 -5.502357 -0.579793,-4.122276 -7.55191 -1.516979,-4.219646 -6.846265 -0.8492353,-4.219646 -6.846265 -0.8492353,-3.93959 -8.501055 -0.6553476,-3.746719 -7.452217 -1.451077,-3.83923 -6.858556 -0.7991744,-3.749775 -7.77797 -0.70804,-3.672987 -8.451237 -0.7862711,-3.349362 -7.474415 -1.337899,-3.421429 -6.893534 -0.8415586,-3.419357 -7.516804 -0.7603928,-3.401228 -8.072641 -0.8032892,-10.23197 -10.92279 -0.7087145,-9.44817 -10.5603 -0.3924206,-8.780529 -9.506199 -0.246838,-8.427883 -8.606504 -0.04836333,-8.166197 -7.708032 0.08088738,-9.143706 -7.821453 -0.7766129,-8.750897 -6.308656 -0.3603042,-8.499689 -5.345623 -0.07184494,-8.29949 -4.514369 0.1188265,-9.561875 -7.696695 -0.568563,-9.100025 -6.781082 0.4184453,-9.0317 -8.033339 0.9045551,-9.141696 -9.075079 0.968832,-10.02271 -7.753738 -0.2527409,-9.606758 -6.950531 0.6422532,-9.536268 -8.298246 0.8049721,-9.58383 -9.244637 0.6754985,-10.57963 -7.994915 -0.008024096,-10.24242 -7.171045 0.6922704,-10.02972 -7.915901 0.8969269,-9.991748 -8.669268 0.869058,7.710, 24 2
-3.382298 -9.628036 -1.852116,-3.933119 -9.601242 -1.301003,-4.46025 -8.983774 -1.040947,-4.71615 -8.215378 -0.7704092,-4.928162 -7.480616 -0.5383012,-4.489705 -7.727951 -1.44894,-4.75669 -6.7576 -1.056031,-4.888046 -6.055624 -0.7677145,-4.971146 -5.416223 -0.4947567,-4.142136 -7.491546 -1.468839,-4.245085 -6.788307 -0.7542682,-4.245085 -6.788307 -0.7542682,-3.962347 -8.453691 -0.5380808,-3.768212 -7.391035 -1.403898,-3.861228 -6.792246 -0.7142299,-3.767237 -7.729846 -0.6164411,-3.691286 -8.412573 -0.6979514,-3.371916 -7.417123 -1.287726,-3.435734 -6.832939 -0.7613378,-3.432335 -7.474694 -0.6752357,-3.417322 -8.042288 -0.7214117,-10.20657 -10.79061 -0.7778794,-9.413443 -10.44299 -0.4544675,-8.730846 -9.398663 -0.2991417,-8.379305 -8.508825 -0.0940364,-8.147177 -7.611802 0.04358155,-9.078621 -7.718249 -0.8291599,-8.687757 -6.221666 -0.3972274,-8.445235 -5.257979 -0.08941919,-8.253315 -4.422754 0.111519,-9.500623 -7.593236 -0.6212302,-9.050051 -6.675054 0.3689103,-8.961763 -7.917431 0.8743331,-9.05268 -8.96459 0.9628292,-9.964087 -7.655384 -0.3068867,-9.556138 -6.870586 0.5930046,-9.461213 -8.08036 0.8731556,-9.511519 -9.019758 0.7726291,-10.50454 -7.877216 0.0358339,-10.20131 -7.002949 0.7628523,-9.98674 -7.68021 0.9942566,-9.936626 -8.420481 1.003715,7.810, 24 2
