TiagoOliveira98/Thesis-Project/Difficulty_0/Dual_Task/Unity_Project/DataLogging/JointData/Logs(1646759724)_ddddd_Dual.csv
WRIST,THUMB_CMC,THUMB_MCP,THUMB_IP,THUMB_TIP,INDEX_FINGER_MCP,INDEX_FINGER_PIP,INDEX_FINGER_DIP,INDEX_FINGER_TIP,MIDDLE_FINGER_MCP,MIDDLE_FINGER_PIP,MIDDLE_FINGER_DIP,MIDDLE_FINGER_TIP,RING_FINGER_MCP,RING_FINGER_PIP,RING_FINGER_DIP,RING_FINGER_TIP,PINKY_MCP,PINKY_PIP,PINKY_DIP,PINKY_TIP,WRIST2,THUMB_CMC2,THUMB_MCP2,THUMB_IP2,THUMB_TIP2,INDEX_FINGER_MCP2,INDEX_FINGER_PIP2,INDEX_FINGER_DIP2,INDEX_FINGER_TIP2,MIDDLE_FINGER_MCP2,MIDDLE_FINGER_PIP2,MIDDLE_FINGER_DIP2,MIDDLE_FINGER_TIP2,RING_FINGER_MCP2,RING_FINGER_PIP2,RING_FINGER_DIP2,RING_FINGER_TIP2,PINKY_MCP2,PINKY_PIP2,PINKY_DIP2,PINKY_TIP2,Timestamp,Event
-1.937204 -8.075159 0.0007999715,-2.510027 -7.879886 0.4164183,-3.032186 -7.29525 0.6266739,-3.410692 -6.65607 0.7932331,-3.764259 -6.295831 0.9965438,-2.75897 -5.676909 0.3342137,-3.009152 -4.635491 0.5036651,-3.126738 -3.967977 0.6934409,-3.186331 -3.344244 0.8794848,-2.447204 -5.427688 0.2574477,-2.608511 -4.203234 0.419242,-2.608511 -4.203234 0.419242,-2.676131 -2.725111 0.8374211,-2.134446 -5.396389 0.2328915,-2.207448 -4.264514 0.3573718,-2.262002 -3.534097 0.5543212,-2.288901 -2.879058 0.7378199,-1.802502 -5.558589 0.2459215,-1.718804 -4.691936 0.3729646,-1.6726 -4.143074 0.5117064,-1.620209 -3.614187 0.6449722,-7.857864 -8.20433 0.0008374301,-7.181688 -7.922674 0.251931,-6.606652 -7.042371 0.4503241,-6.276293 -6.209637 0.7107001,-5.944676 -5.659474 0.9882458,-7.042768 -5.133836 0.07317928,-6.867825 -3.927375 0.2253615,-6.767016 -3.181422 0.418328,-6.684271 -2.527423 0.575182,-7.414613 -4.908609 0.2048509,-7.26367 -3.501463 0.3112516,-7.150756 -2.612533 0.5451575,-7.052612 -1.83726 0.7235981,-7.789324 -4.949728 0.3901194,-7.676194 -3.598251 0.5250611,-7.574153 -2.757609 0.7323442,-7.466418 -2.050548 0.9065464,-8.189297 -5.229272 0.6103334,-8.240507 -4.165949 0.7838317,-8.243565 -3.474645 0.9481732,-8.210347 -2.824302 1.073653,0.010, 1 0
-1.798159 -7.98841 0.02245384,-2.545095 -7.911518 0.473651,-3.109711 -7.22437 0.6956681,-3.571132 -6.517369 0.8631538,-4.039818 -6.116534 1.101473,-2.772601 -5.604218 0.3466141,-3.054406 -4.550264 0.4829676,-3.295422 -3.79611 0.6892362,-3.411921 -3.07202 0.8949915,-2.341233 -5.329818 0.2604313,-2.619917 -3.995457 0.3665989,-2.619917 -3.995457 0.3665989,-2.763403 -2.317388 0.8167619,-1.917277 -5.376317 0.228919,-2.117243 -4.063579 0.317551,-2.216891 -3.237682 0.5239788,-2.273744 -2.493645 0.7209336,-1.351777 -5.558257 0.2383572,-1.510986 -4.549683 0.372663,-1.51016 -3.908247 0.5420259,-1.492436 -3.27619 0.6894536,-7.867777 -8.200108 0.009635117,-7.098734 -7.89183 0.2835495,-6.498316 -6.928956 0.3351927,-6.14414 -6.023931 0.5247676,-5.764459 -5.37148 0.787761,-6.957973 -5.059056 -0.01830055,-6.74072 -3.889043 0.1411004,-6.571913 -3.042266 0.3221707,-6.43275 -2.289544 0.4619495,-7.386374 -4.757767 0.1801705,-7.193234 -3.356956 0.2535601,-7.021872 -2.373266 0.4523074,-6.882582 -1.509916 0.6257092,-7.838137 -4.803625 0.4298039,-7.701536 -3.449132 0.5003241,-7.53006 -2.521545 0.694012,-7.382429 -1.732436 0.8509683,-8.25543 -5.205646 0.6933421,-8.349534 -4.03475 0.8125904,-8.340582 -3.234811 0.9576519,-8.267091 -2.48151 1.054252,0.110, 1 0
-1.921754 -8.11083 0.05977484,-2.501903 -7.924331 0.4543162,-3.033165 -7.33678 0.6508034,-3.420351 -6.686702 0.811006,-3.781565 -6.317409 1.008264,-2.769378 -5.70595 0.3433488,-3.016088 -4.661274 0.4898948,-3.136276 -3.999895 0.6662242,-3.202162 -3.3875 0.843642,-2.455603 -5.446559 0.2678697,-2.611994 -4.209444 0.4077775,-2.611994 -4.209444 0.4077775,-2.691496 -2.737134 0.8073476,-2.141544 -5.405441 0.2430871,-2.21484 -4.26553 0.3557349,-2.271259 -3.539829 0.547179,-2.301508 -2.889761 0.7190286,-1.810594 -5.556135 0.2570164,-1.731033 -4.685552 0.3800171,-1.686647 -4.138252 0.5215304,-1.638117 -3.612667 0.6485965,-7.884806 -8.190405 -0.05517772,-7.206601 -7.895183 0.1876037,-6.636108 -7.002307 0.3775981,-6.302472 -6.164663 0.6311321,-5.962046 -5.631537 0.9063463,-7.056954 -5.138432 0.002041083,-6.89045 -3.924181 0.1501877,-6.784368 -3.174128 0.338171,-6.694057 -2.516309 0.5015363,-7.427402 -4.912147 0.1383741,-7.276483 -3.495975 0.2390779,-7.151773 -2.596139 0.4748996,-7.040209 -1.813411 0.6621292,-7.805753 -4.948038 0.3273836,-7.691994 -3.579443 0.4646993,-7.579344 -2.731659 0.6847911,-7.460721 -2.015113 0.868215,-8.210006 -5.217123 0.5489579,-8.250729 -4.149999 0.7382915,-8.242033 -3.453504 0.9168627,-8.194594 -2.798923 1.053428,0.210, 1 0
-1.937423 -8.105078 0.03927301,-2.519258 -7.909696 0.4035008,-3.04965 -7.327887 0.590027,-3.430447 -6.68153 0.7446156,-3.779936 -6.307746 0.9293494,-2.78358 -5.699595 0.3037951,-3.022226 -4.652513 0.4532972,-3.136425 -3.991998 0.6301624,-3.198988 -3.37947 0.8077961,-2.467376 -5.446083 0.2479623,-2.62175 -4.211193 0.3922209,-2.62175 -4.211193 0.3922209,-2.702175 -2.747665 0.7979071,-2.150414 -5.407066 0.2411141,-2.224835 -4.269742 0.3555259,-2.282441 -3.547678 0.5382385,-2.314834 -2.906474 0.7060518,-1.813225 -5.55791 0.2696423,-1.73059 -4.683444 0.3935102,-1.685633 -4.139389 0.5298158,-1.639152 -3.622558 0.6559981,-7.886875 -8.218357 0.1449266,-7.207216 -7.908927 0.359406,-6.631227 -6.991304 0.5380435,-6.299436 -6.149763 0.7865612,-5.957731 -5.618309 1.067638,-7.073132 -5.102224 0.1366838,-6.904191 -3.922599 0.2627187,-6.80027 -3.189138 0.4550005,-6.713887 -2.555896 0.6117786,-7.445813 -4.877168 0.2777401,-7.295309 -3.477829 0.353809,-7.177078 -2.595795 0.5813034,-7.074422 -1.834054 0.7542335,-7.818623 -4.916904 0.4704498,-7.70765 -3.561936 0.576079,-7.599503 -2.725426 0.7724677,-7.485572 -2.021383 0.9368796,-8.215238 -5.196395 0.6991906,-8.269063 -4.136667 0.8530396,-8.26836 -3.450427 1.005869,-8.229457 -2.810327 1.123566,0.310, 1 0
-1.822202 -8.008944 0.04794967,-2.574424 -7.923465 0.4381902,-3.144198 -7.229042 0.6297611,-3.602861 -6.512361 0.7806424,-4.061779 -6.110384 0.9930384,-2.788875 -5.605216 0.2806351,-3.060331 -4.563669 0.3996308,-3.299351 -3.826504 0.5930885,-3.416315 -3.119576 0.7854182,-2.36091 -5.337554 0.2288172,-2.632832 -4.00246 0.3238352,-2.632832 -4.00246 0.3238352,-2.778481 -2.34297 0.77768,-1.93914 -5.383169 0.227384,-2.139142 -4.073671 0.3133799,-2.232304 -3.256682 0.5097103,-2.287033 -2.525898 0.697293,-1.372284 -5.55862 0.2606916,-1.524668 -4.550094 0.3926783,-1.51882 -3.914858 0.5548957,-1.499625 -3.291688 0.6941017,-7.897566 -8.217709 0.1113784,-7.124033 -7.877565 0.3571876,-6.528561 -6.874562 0.4006079,-6.183807 -5.962171 0.5811595,-5.792471 -5.321588 0.8461853,-6.988415 -5.03498 0.02793701,-6.778561 -3.856076 0.1730727,-6.608494 -3.00579 0.3514995,-6.465889 -2.259614 0.4897259,-7.415457 -4.743913 0.2346193,-7.218987 -3.33761 0.2943531,-7.044376 -2.352186 0.4917701,-6.905062 -1.487113 0.6612104,-7.865902 -4.793409 0.4929709,-7.726462 -3.428236 0.5502615,-7.556944 -2.490883 0.7445545,-7.411844 -1.685362 0.9011469,-8.282998 -5.202903 0.7595832,-8.376595 -4.023954 0.8772289,-8.373877 -3.22347 1.023495,-8.303237 -2.466943 1.12062,0.410, 1 0
-1.935298 -8.092798 0.02759215,-2.517451 -7.905217 0.4262785,-3.044627 -7.3304 0.6302964,-3.421785 -6.682213 0.7938088,-3.779335 -6.302156 0.9925814,-2.784386 -5.695334 0.3266866,-3.028096 -4.650031 0.4770502,-3.146726 -3.99201 0.6544604,-3.213329 -3.37969 0.8353044,-2.468937 -5.43921 0.251891,-2.627015 -4.204593 0.4044687,-2.627015 -4.204593 0.4044687,-2.702917 -2.741352 0.8093295,-2.154546 -5.402614 0.2292419,-2.228982 -4.26083 0.3500675,-2.283199 -3.532849 0.5458238,-2.313126 -2.883943 0.7251477,-1.821118 -5.559162 0.2440044,-1.74214 -4.68516 0.3780997,-1.698312 -4.134902 0.530211,-1.651313 -3.609612 0.6683884,-7.920764 -8.202229 0.1251199,-7.245735 -7.883327 0.3512834,-6.667161 -6.983796 0.5392635,-6.333062 -6.14479 0.7945494,-5.99136 -5.609126 1.078829,-7.098016 -5.095357 0.1403385,-6.930285 -3.909091 0.2666551,-6.83179 -3.173898 0.4596452,-6.749244 -2.540313 0.6237085,-7.470007 -4.86895 0.2784879,-7.316643 -3.473685 0.3565964,-7.20142 -2.598633 0.5826268,-7.098818 -1.833952 0.7633449,-7.84347 -4.905202 0.4697828,-7.725588 -3.554878 0.5828105,-7.620045 -2.720324 0.7873989,-7.504407 -2.009258 0.9581876,-8.243077 -5.180417 0.6931099,-8.290664 -4.121852 0.8527641,-8.293308 -3.435625 1.008527,-8.254524 -2.786804 1.129388,0.510, 1 0
-1.939656 -8.101988 0.05293995,-2.526879 -7.911309 0.4359776,-3.0569 -7.309016 0.6171967,-3.439304 -6.638168 0.7584382,-3.802731 -6.250686 0.9299929,-2.794756 -5.698436 0.3090902,-3.043407 -4.646783 0.4377477,-3.160429 -3.984832 0.5992397,-3.222357 -3.378726 0.7693825,-2.482504 -5.439091 0.2267296,-2.644045 -4.204185 0.3539951,-2.644045 -4.204185 0.3539951,-2.718894 -2.734399 0.7377412,-2.170577 -5.39529 0.1958093,-2.249191 -4.25394 0.2934146,-2.308434 -3.526715 0.4764974,-2.339929 -2.878672 0.6438879,-1.841428 -5.542438 0.2019556,-1.767995 -4.673695 0.3120125,-1.727012 -4.123532 0.4499684,-1.677574 -3.597969 0.5779474,-7.93933 -8.222351 0.1888564,-7.252465 -7.909486 0.4201859,-6.671055 -6.995685 0.6083692,-6.337217 -6.14314 0.8625433,-5.992218 -5.610273 1.14725,-7.111231 -5.106207 0.2176175,-6.934603 -3.924117 0.3454033,-6.834743 -3.184825 0.5385621,-6.754062 -2.547764 0.6995764,-7.4854 -4.871337 0.3474304,-7.326123 -3.466683 0.4274784,-7.208249 -2.591241 0.6523415,-7.109555 -1.824676 0.8301681,-7.858825 -4.901158 0.5292851,-7.738937 -3.55355 0.6386563,-7.629974 -2.722732 0.8345003,-7.516624 -2.018468 0.9984021,-8.258472 -5.176129 0.7459725,-8.310736 -4.125484 0.9001424,-8.313341 -3.447927 1.047472,-8.277997 -2.810408 1.162675,0.610, 1 0
-1.825129 -8.014914 0.0710615,-2.58135 -7.915561 0.5190249,-3.151079 -7.208278 0.7340871,-3.61195 -6.466522 0.8956331,-4.087025 -6.047104 1.118624,-2.810066 -5.609443 0.3875676,-3.090617 -4.560947 0.5118316,-3.324772 -3.812943 0.7097152,-3.44273 -3.09408 0.9138103,-2.377235 -5.344092 0.294919,-2.659355 -4.014907 0.4043126,-2.659355 -4.014907 0.4043126,-2.796372 -2.349544 0.876845,-1.95499 -5.386085 0.2550039,-2.162923 -4.081769 0.3472111,-2.259372 -3.265897 0.56217,-2.314526 -2.524523 0.7608167,-1.393274 -5.559313 0.255898,-1.557555 -4.556201 0.3926654,-1.557888 -3.917591 0.5648965,-1.539618 -3.285367 0.7139502,-7.947078 -8.241806 0.2307543,-7.168445 -7.897388 0.4732203,-6.559217 -6.884651 0.5043679,-6.216431 -5.966252 0.667569,-5.829324 -5.319348 0.9121701,-7.025734 -5.038839 0.1207528,-6.814902 -3.872214 0.2552072,-6.649844 -3.033473 0.427041,-6.512067 -2.292948 0.566142,-7.45845 -4.733133 0.3131972,-7.261177 -3.329515 0.3487746,-7.082014 -2.373739 0.5287973,-6.946447 -1.510751 0.6981579,-7.910547 -4.782797 0.560151,-7.7658 -3.421789 0.5924391,-7.593811 -2.502812 0.7732484,-7.45159 -1.698585 0.9261662,-8.332839 -5.185026 0.8197054,-8.427975 -4.008615 0.9133238,-8.419912 -3.221429 1.043409,-8.353548 -2.472282 1.132904,0.710, 1 0
-1.946144 -8.123735 0.1010861,-2.52681 -7.923461 0.5118081,-3.053444 -7.304939 0.7109742,-3.429066 -6.618431 0.8649426,-3.796721 -6.239305 1.056632,-2.799255 -5.711318 0.4248731,-3.053165 -4.671126 0.5722963,-3.17098 -4.006186 0.7448692,-3.236018 -3.381205 0.9255578,-2.486268 -5.451075 0.3378266,-2.654311 -4.228506 0.4905367,-2.654311 -4.228506 0.4905367,-2.735209 -2.752561 0.9040999,-2.174058 -5.409347 0.3016097,-2.260001 -4.275547 0.4206223,-2.322802 -3.549722 0.6219857,-2.357137 -2.894663 0.8058398,-1.84357 -5.55804 0.3013211,-1.778305 -4.685329 0.4284097,-1.741315 -4.130315 0.5765842,-1.695083 -3.599102 0.7175114,-7.971801 -8.240149 0.1743696,-7.28741 -7.91538 0.3922785,-6.708759 -7.012101 0.5763869,-6.375146 -6.167985 0.8322693,-6.031156 -5.611532 1.118042,-7.135589 -5.117473 0.1632452,-6.968406 -3.922232 0.2871058,-6.863504 -3.17721 0.4769273,-6.773382 -2.535448 0.6324369,-7.506459 -4.893564 0.3034521,-7.353111 -3.492717 0.379142,-7.239103 -2.611723 0.6017689,-7.140017 -1.837095 0.7777964,-7.879549 -4.935707 0.4992439,-7.768311 -3.594583 0.6037757,-7.661806 -2.756333 0.7997887,-7.546258 -2.040147 0.9657095,-8.282238 -5.212865 0.726601,-8.331903 -4.157329 0.8863298,-8.333151 -3.474609 1.040496,-8.29391 -2.831547 1.158338,0.810, 1 0
-1.949622 -8.123701 0.07013945,-2.531523 -7.929221 0.4678788,-3.054093 -7.325576 0.6640295,-3.420643 -6.642206 0.8195048,-3.78124 -6.251851 1.006342,-2.81026 -5.722473 0.3834246,-3.067841 -4.68639 0.5346757,-3.184651 -4.02251 0.7051222,-3.246217 -3.398592 0.8779477,-2.496551 -5.461387 0.3058293,-2.663961 -4.235025 0.4595543,-2.663961 -4.235025 0.4595543,-2.73714 -2.768655 0.8503507,-2.183595 -5.416788 0.2810411,-2.266268 -4.278178 0.3983095,-2.328543 -3.550219 0.5929723,-2.359422 -2.898554 0.767829,-1.852088 -5.562603 0.2935255,-1.788507 -4.67867 0.4148093,-1.754099 -4.12235 0.5595542,-1.710033 -3.593056 0.6957006,-7.978605 -8.218948 0.06852284,-7.302013 -7.885253 0.2918484,-6.733356 -7.000487 0.4788793,-6.40285 -6.159973 0.7347062,-6.069007 -5.608123 1.019999,-7.167264 -5.118516 0.07021268,-7.007254 -3.905766 0.2012575,-6.905711 -3.151525 0.3919256,-6.819077 -2.505964 0.5500329,-7.537614 -4.899969 0.2069721,-7.392797 -3.480937 0.2834054,-7.27767 -2.593877 0.5018208,-7.177807 -1.815936 0.6746684,-7.907931 -4.941044 0.398797,-7.80716 -3.589331 0.4974729,-7.701849 -2.750988 0.6942667,-7.586278 -2.033202 0.8622361,-8.302866 -5.211566 0.6235897,-8.365013 -4.157019 0.7747453,-8.371852 -3.48055 0.9273435,-8.337372 -2.843956 1.046934,0.910, 1 0
-1.82602 -8.034307 0.08999905,-2.581991 -7.93634 0.4771467,-3.149741 -7.20696 0.666333,-3.599907 -6.442453 0.8144005,-4.073385 -6.008153 1.024611,-2.813579 -5.631377 0.3557322,-3.108881 -4.591386 0.4735529,-3.353731 -3.849535 0.6474888,-3.472481 -3.129358 0.830825,-2.386425 -5.356512 0.3045135,-2.676695 -4.030494 0.416858,-2.676695 -4.030494 0.416858,-2.825457 -2.373853 0.8427581,-1.961822 -5.397365 0.3072955,-2.182441 -4.090431 0.4049923,-2.287165 -3.268984 0.608337,-2.347271 -2.522984 0.7973626,-1.394718 -5.568883 0.3352499,-1.572546 -4.543426 0.4763627,-1.583137 -3.89385 0.6466284,-1.571989 -3.259255 0.7914917,-7.980076 -8.254622 0.1447326,-7.221075 -7.869056 0.3880221,-6.62771 -6.882202 0.4292397,-6.2885 -5.968519 0.6088577,-5.910381 -5.311868 0.8803992,-7.098238 -5.057116 0.06041072,-6.909254 -3.867169 0.2112534,-6.742895 -3.012168 0.393849,-6.595132 -2.273038 0.5382869,-7.523585 -4.767849 0.2675588,-7.337666 -3.357732 0.328941,-7.16171 -2.361085 0.527882,-7.022769 -1.485718 0.6973731,-7.970936 -4.823638 0.5279599,-7.840561 -3.458991 0.5825472,-7.668242 -2.521117 0.7799225,-7.52318 -1.710927 0.9444232,-8.385897 -5.233987 0.7945098,-8.490437 -4.059543 0.9084613,-8.491443 -3.270651 1.053182,-8.425046 -2.531681 1.150609,1.010, 1 0
-1.969882 -8.130342 0.1120306,-2.557328 -7.924643 0.4792589,-3.07267 -7.282754 0.6659752,-3.43343 -6.576567 0.8205849,-3.807623 -6.183386 1.014872,-2.826639 -5.710004 0.408196,-3.087798 -4.672073 0.5665776,-3.206747 -4.003963 0.724835,-3.267591 -3.364963 0.8860401,-2.516874 -5.45644 0.3547497,-2.695726 -4.240942 0.5157545,-2.695726 -4.240942 0.5157545,-2.78455 -2.77348 0.8974003,-2.2026 -5.419969 0.3565181,-2.29543 -4.28478 0.485447,-2.370842 -3.552433 0.6736925,-2.411502 -2.88412 0.8541776,-1.865246 -5.578796 0.3885074,-1.804101 -4.689069 0.5186409,-1.776967 -4.127315 0.6685936,-1.736412 -3.585804 0.8096978,-7.996896 -8.266443 0.1401389,-7.32741 -7.905014 0.358275,-6.771946 -7.032537 0.554089,-6.452168 -6.197444 0.8198544,-6.122585 -5.621295 1.114331,-7.222904 -5.140464 0.1331782,-7.070341 -3.918424 0.2654913,-6.971655 -3.164876 0.4643379,-6.885401 -2.515193 0.625928,-7.592917 -4.922006 0.2750189,-7.462211 -3.489862 0.3634325,-7.352551 -2.601024 0.5956924,-7.25428 -1.826835 0.7753263,-7.963942 -4.969242 0.4715195,-7.866863 -3.60073 0.5678149,-7.769156 -2.763249 0.7630455,-7.656431 -2.047346 0.9303411,-8.358509 -5.253536 0.6976056,-8.4212 -4.187593 0.8441632,-8.423118 -3.504582 0.9966826,-8.38213 -2.863977 1.113715,1.110, 1 0
-1.989473 -8.099443 0.08830981,-2.577107 -7.904331 0.482891,-3.092379 -7.263654 0.6821019,-3.447248 -6.552748 0.8466356,-3.818448 -6.144132 1.051518,-2.853918 -5.69732 0.431302,-3.120589 -4.667572 0.6164966,-3.240099 -4.005224 0.7809356,-3.303256 -3.3646 0.9423892,-2.540826 -5.437534 0.3730503,-2.726134 -4.215101 0.5598163,-2.726134 -4.215101 0.5598163,-2.826396 -2.743545 0.9497942,-2.223829 -5.403751 0.3730572,-2.317065 -4.258627 0.5300281,-2.390908 -3.526349 0.7326786,-2.433778 -2.853024 0.9197075,-1.883734 -5.567954 0.4014557,-1.825124 -4.669336 0.5555387,-1.798375 -4.105922 0.7211629,-1.76349 -3.56307 0.8687304,-8.029667 -8.310686 0.2605705,-7.360338 -7.926237 0.4430838,-6.813018 -7.030736 0.6353129,-6.500206 -6.188146 0.9037192,-6.17376 -5.604984 1.198781,-7.280394 -5.143934 0.2107828,-7.136366 -3.92435 0.3367764,-7.037808 -3.183722 0.5397674,-6.948029 -2.56336 0.7009456,-7.647692 -4.928363 0.3779596,-7.521253 -3.486316 0.4617831,-7.407225 -2.60424 0.6941131,-7.306293 -1.843971 0.881174,-8.013584 -4.983168 0.5989685,-7.919574 -3.606588 0.7005038,-7.820483 -2.760456 0.9057889,-7.704634 -2.037075 1.084577,-8.401902 -5.280782 0.8475646,-8.477699 -4.206132 0.9918358,-8.486054 -3.528326 1.138665,-8.451496 -2.892701 1.259196,1.210, 1 0
-2.026391 -8.083862 0.01600661,-2.615201 -7.881607 0.3471526,-3.125479 -7.230269 0.5235886,-3.475634 -6.530914 0.6851702,-3.839802 -6.1352 0.8828354,-2.875258 -5.689762 0.3183489,-3.140334 -4.660167 0.5183837,-3.261301 -4.001974 0.6834116,-3.330479 -3.362832 0.8424181,-2.559766 -5.439884 0.3044391,-2.743853 -4.222717 0.5134557,-2.743853 -4.222717 0.5134557,-2.852324 -2.73577 0.9203565,-2.240803 -5.409254 0.3470829,-2.333603 -4.266103 0.5217745,-2.40446 -3.529024 0.7262467,-2.450834 -2.857228 0.9147537,-1.902113 -5.575276 0.4093484,-1.837964 -4.666896 0.5806235,-1.811242 -4.096705 0.7486935,-1.783611 -3.550517 0.8914437,-8.062438 -8.333447 0.2057113,-7.392794 -7.943012 0.4261429,-6.834565 -7.038372 0.6350979,-6.516848 -6.195599 0.9093963,-6.189047 -5.608781 1.199221,-7.309501 -5.184654 0.2731479,-7.154187 -3.964733 0.4309166,-7.049526 -3.235849 0.6441333,-6.959126 -2.606828 0.8151565,-7.684441 -4.971602 0.4251595,-7.553306 -3.52597 0.5514256,-7.43699 -2.640713 0.8005394,-7.337973 -1.876359 0.9922107,-8.053354 -5.031168 0.6288171,-7.96124 -3.647583 0.7585238,-7.859178 -2.795747 0.977083,-7.742145 -2.072758 1.162687,-8.44018 -5.329871 0.8561875,-8.515919 -4.253421 1.02242,-8.52097 -3.562839 1.18948,-8.481876 -2.911144 1.318866,1.310, 1 0
-2.079249 -8.03933 -0.05383008,-2.665244 -7.880281 0.3046214,-3.174931 -7.214756 0.4895507,-3.524897 -6.513256 0.6522977,-3.89883 -6.125146 0.8597243,-2.927996 -5.674119 0.282155,-3.19329 -4.654029 0.4920561,-3.310944 -3.997404 0.6611018,-3.370516 -3.360891 0.8224733,-2.606611 -5.417194 0.2572027,-2.791297 -4.218585 0.4668195,-2.791297 -4.218585 0.4668195,-2.898538 -2.743665 0.8659607,-2.283703 -5.388216 0.2900357,-2.383286 -4.253146 0.4708713,-2.461841 -3.528245 0.6784721,-2.51151 -2.855694 0.8673417,-1.939417 -5.556724 0.3468437,-1.886696 -4.654974 0.5225222,-1.869465 -4.088207 0.6967535,-1.847089 -3.541111 0.846797,-8.099527 -8.323025 0.1359207,-7.430944 -7.940905 0.3885059,-6.87642 -7.057825 0.6149879,-6.558878 -6.211984 0.8975801,-6.230157 -5.621463 1.198842,-7.357471 -5.198816 0.2311311,-7.198876 -4.001565 0.4026121,-7.098064 -3.268667 0.6264411,-7.011499 -2.635091 0.8042445,-7.734209 -4.980659 0.3678785,-7.606936 -3.564789 0.497427,-7.488751 -2.688138 0.7562586,-7.386493 -1.924469 0.9506032,-8.104175 -5.030248 0.5569726,-8.018386 -3.662418 0.6896979,-7.912194 -2.821109 0.9253548,-7.787889 -2.104543 1.113205,-8.493712 -5.317283 0.775388,-8.574409 -4.249757 0.9455919,-8.582845 -3.547992 1.116987,-8.542579 -2.877787 1.248336,1.410, 1 0
-2.102044 -8.007143 -0.1113299,-2.694372 -7.834667 0.2656083,-3.206354 -7.184418 0.4550942,-3.548559 -6.488462 0.6163311,-3.91401 -6.098979 0.8158112,-2.952456 -5.664215 0.2495147,-3.222143 -4.656776 0.4661292,-3.344279 -4.00649 0.6372108,-3.411081 -3.372021 0.8018808,-2.627588 -5.402864 0.210792,-2.815482 -4.215271 0.4265093,-2.815482 -4.215271 0.4265093,-2.929898 -2.745977 0.8301345,-2.303504 -5.369506 0.2322086,-2.411307 -4.252222 0.4151465,-2.492887 -3.534378 0.6244478,-2.545089 -2.874017 0.8156084,-1.959489 -5.526691 0.2775761,-1.917068 -4.633581 0.454829,-1.907225 -4.068042 0.6320074,-1.89516 -3.524271 0.7846223,-8.128457 -8.297174 0.01039267,-7.461489 -7.933116 0.2520735,-6.915773 -7.057089 0.4630367,-6.604288 -6.211095 0.7317956,-6.287372 -5.6387 1.015716,-7.403475 -5.201407 0.07380945,-7.254951 -4.011084 0.227932,-7.154515 -3.286411 0.4475291,-7.068 -2.663982 0.6292418,-7.783543 -4.986591 0.2088427,-7.669664 -3.566274 0.3201415,-7.547626 -2.691043 0.5699784,-7.444433 -1.930892 0.7610579,-8.155679 -5.038768 0.3945657,-8.074327 -3.651888 0.5176404,-7.964643 -2.813309 0.7478964,-7.842716 -2.096746 0.9327947,-8.54229 -5.324359 0.6103609,-8.62543 -4.251472 0.7681075,-8.632583 -3.544875 0.9307925,-8.596652 -2.86937 1.058166,1.510, 1 0
-2.106493 -7.994274 -0.08080266,-2.688482 -7.818755 0.2943299,-3.197062 -7.162464 0.4849278,-3.53974 -6.463451 0.6498786,-3.912665 -6.061769 0.862115,-2.957036 -5.637368 0.2478462,-3.225613 -4.634333 0.4513243,-3.347683 -3.990744 0.6237788,-3.41556 -3.358607 0.7944463,-2.635106 -5.378141 0.2114121,-2.822991 -4.203018 0.4073239,-2.822991 -4.203018 0.4073239,-2.924748 -2.753309 0.8051317,-2.31273 -5.348349 0.235158,-2.419493 -4.243953 0.3993933,-2.500328 -3.54237 0.6033161,-2.545382 -2.88886 0.7894724,-1.969894 -5.50492 0.284981,-1.93452 -4.622386 0.4471573,-1.928311 -4.065002 0.613719,-1.913172 -3.522869 0.7592111,-8.1338 -8.259312 -0.06127644,-7.46628 -7.925565 0.1680857,-6.922071 -7.041999 0.3708059,-6.619102 -6.202271 0.6307194,-6.304722 -5.621876 0.9093369,-7.40898 -5.177932 -0.02351238,-7.259772 -3.97175 0.1249727,-7.158629 -3.231582 0.3364161,-7.070539 -2.596198 0.5074989,-7.787552 -4.968556 0.1214089,-7.674032 -3.53867 0.2265277,-7.554943 -2.658575 0.4698337,-7.453585 -1.898498 0.6496617,-8.15883 -5.025424 0.3169684,-8.078223 -3.633306 0.4415219,-7.967902 -2.79331 0.6758893,-7.844604 -2.07872 0.8674029,-8.54623 -5.313111 0.5448773,-8.629845 -4.228261 0.7113394,-8.638571 -3.521966 0.8896196,-8.60444 -2.849542 1.028559,1.610, 1 0
-2.05436 -8.006466 0.0434362,-2.639019 -7.771785 0.4641364,-3.146331 -7.139802 0.6409686,-3.458487 -6.421585 0.8087996,-3.787302 -5.89039 1.029778,-2.979392 -5.592402 0.1694389,-3.246987 -4.634939 0.3276752,-3.369717 -3.997911 0.5060321,-3.440178 -3.395029 0.6921746,-2.652599 -5.353121 0.09518011,-2.831183 -4.246068 0.1565345,-2.831183 -4.246068 0.1565345,-2.91045 -2.961631 0.4567082,-2.326731 -5.32637 0.1031977,-2.417476 -4.330532 0.149906,-2.484333 -3.726076 0.3242082,-2.515692 -3.193793 0.4748518,-1.986103 -5.472174 0.1623919,-1.969539 -4.683025 0.254242,-1.993771 -4.195877 0.3894462,-2.007199 -3.736348 0.4976378,-8.168875 -8.257998 -0.06953377,-7.509922 -7.916223 0.1788218,-6.96134 -7.042892 0.3826595,-6.654927 -6.207502 0.6516215,-6.349031 -5.620304 0.9352912,-7.446819 -5.182926 -0.05361695,-7.297252 -3.985824 0.08992049,-7.197238 -3.250667 0.295124,-7.111646 -2.618543 0.4635211,-7.819452 -4.968386 0.08252767,-7.700758 -3.551296 0.1746716,-7.585864 -2.671546 0.4173281,-7.488179 -1.911996 0.598311,-8.188523 -5.016244 0.2748393,-8.100299 -3.632754 0.3878057,-7.995835 -2.793134 0.6185817,-7.875217 -2.076264 0.8078548,-8.579847 -5.294705 0.5006502,-8.659492 -4.20705 0.662688,-8.665415 -3.498067 0.8401427,-8.62764 -2.823147 0.978555,1.710, 1 0
-2.140842 -7.9569 -0.08417217,-2.689083 -7.785469 0.4647118,-3.107143 -7.094287 0.7612358,-3.315209 -6.296158 1.036334,-3.529524 -5.569005 1.308155,-3.077427 -5.507839 0.04415315,-3.268661 -4.574867 0.1997191,-3.362961 -3.975528 0.4100639,-3.436313 -3.42098 0.6158476,-2.698428 -5.331758 -0.04294487,-2.770887 -4.253844 0.3387206,-2.770887 -4.253844 0.3387206,-2.676547 -4.547798 0.9433814,-2.352757 -5.354371 -0.05903783,-2.371276 -4.367946 0.2589403,-2.38642 -4.379943 0.6517324,-2.392219 -4.738208 0.8379168,-1.994623 -5.539896 -0.01332199,-1.96756 -4.774798 0.2804438,-2.015151 -4.730684 0.5926292,-2.043505 -5.007857 0.7792997,-8.192375 -8.267151 -0.0944505,-7.526649 -7.923699 0.1355287,-6.978155 -7.040702 0.3338461,-6.671473 -6.19857 0.5996684,-6.371308 -5.599905 0.8804669,-7.471349 -5.193803 -0.1099891,-7.327874 -3.981466 0.0241579,-7.225885 -3.24113 0.2280648,-7.139048 -2.615152 0.3967221,-7.848809 -4.982929 0.03018065,-7.738786 -3.554983 0.1081435,-7.626122 -2.681966 0.3448474,-7.528772 -1.93238 0.5255556,-8.221875 -5.033458 0.2241947,-8.138577 -3.636071 0.3335271,-8.03699 -2.797882 0.5726993,-7.918576 -2.082952 0.7688914,-8.614269 -5.312505 0.451443,-8.706151 -4.221603 0.6052507,-8.717028 -3.510447 0.7876452,-8.683376 -2.832843 0.9325519,1.810, 1 0
-2.130157 -7.91039 -0.3734169,-2.685136 -7.675077 0.2211191,-3.076656 -7.008317 0.5477902,-3.256853 -6.205389 0.8242576,-3.431834 -5.449642 1.080538,-3.063966 -5.551702 -0.103696,-3.258053 -4.613424 0.1083749,-3.356911 -3.979744 0.3783873,-3.427039 -3.386621 0.6203366,-2.698548 -5.378023 -0.197038,-2.765785 -4.275611 0.3332732,-2.765785 -4.275611 0.3332732,-2.66921 -4.969141 0.9833109,-2.364495 -5.386908 -0.2202273,-2.354703 -4.435962 0.2278793,-2.368121 -4.796777 0.6000836,-2.369565 -5.290622 0.7152902,-2.015792 -5.550157 -0.1925986,-1.974688 -4.847461 0.1836577,-2.023247 -5.033252 0.4658414,-2.054068 -5.430667 0.5940776,-8.186662 -8.283827 0.009922077,-7.525118 -7.925742 0.2527175,-6.982931 -7.035392 0.4518447,-6.68222 -6.198487 0.7146328,-6.377028 -5.616526 0.9945407,-7.478468 -5.17727 0.01127982,-7.337176 -3.979515 0.1509413,-7.243555 -3.238637 0.3553541,-7.161597 -2.603846 0.5208582,-7.856442 -4.968536 0.1422179,-7.753637 -3.55173 0.2223708,-7.651326 -2.668049 0.46363,-7.563722 -1.909384 0.646975,-8.229752 -5.022953 0.3264966,-8.154414 -3.639858 0.4262185,-8.059084 -2.801998 0.6490221,-7.94835 -2.091539 0.8356603,-8.622227 -5.307491 0.546477,-8.709936 -4.232797 0.6911401,-8.718434 -3.527876 0.8588343,-8.683544 -2.860024 0.9917218,1.910, 1 0
-2.16152 -7.938407 -0.9554082,-2.659201 -7.695165 -0.3937348,-3.030568 -6.964536 -0.1546817,-3.186129 -6.159233 0.06832778,-3.321066 -5.388397 0.2716178,-2.965517 -5.640283 -0.6083003,-3.153624 -4.648983 -0.2654967,-3.258519 -4.022236 -0.03475815,-3.314796 -3.408422 0.1817399,-2.607432 -5.559115 -0.6914186,-2.550577 -4.886521 -0.02120578,-2.550577 -4.886521 -0.02120578,-2.504666 -6.508382 0.08641016,-2.276531 -5.626731 -0.6846367,-2.197632 -5.102563 -0.01121724,-2.23665 -6.069181 0.078444,-2.282744 -6.670312 -0.03699809,-1.979676 -5.818782 -0.6437157,-1.884732 -5.283245 -0.1957735,-1.953245 -5.845064 -0.1165322,-2.037646 -6.255369 -0.1746112,-8.205755 -8.293039 0.02309816,-7.539159 -7.943531 0.2557575,-6.998224 -7.05695 0.4371501,-6.70114 -6.214216 0.6856217,-6.40045 -5.625671 0.9440122,-7.487859 -5.184323 -0.007814439,-7.351916 -3.980016 0.1236182,-7.258659 -3.24038 0.3286954,-7.177298 -2.607788 0.4928556,-7.864306 -4.974113 0.1280421,-7.771109 -3.555327 0.2000072,-7.670723 -2.67011 0.4419664,-7.585726 -1.912899 0.6245959,-8.235237 -5.029736 0.3192322,-8.169576 -3.647005 0.4177298,-8.073704 -2.81073 0.6432124,-7.961779 -2.104401 0.8279238,-8.625318 -5.315287 0.5448563,-8.719336 -4.24389 0.6931552,-8.733502 -3.538377 0.8600246,-8.704544 -2.867152 0.9873763,2.010, 1 0
-2.19049 -7.99637 -1.042442,-2.681159 -7.74019 -0.5161881,-3.051216 -7.020721 -0.2818391,-3.20056 -6.214052 -0.06734025,-3.283112 -5.430557 0.1229792,-2.96684 -5.729095 -0.6237537,-3.154807 -4.772321 -0.1739419,-3.248443 -4.159284 0.1311545,-3.289169 -3.554962 0.372632,-2.606346 -5.648466 -0.6912361,-2.543276 -5.161161 0.005068421,-2.543276 -5.161161 0.005068421,-2.533326 -6.827154 0.02197492,-2.26336 -5.726388 -0.6826303,-2.206941 -5.378402 0.01399469,-2.265236 -6.384731 0.02076817,-2.313858 -6.936356 -0.1372886,-1.96096 -5.923719 -0.6402902,-1.878133 -5.454109 -0.1683837,-1.962579 -6.089651 -0.1268515,-2.044614 -6.499897 -0.1996246,-8.226969 -8.321394 0.03307238,-7.557137 -7.959242 0.2663708,-7.016535 -7.068328 0.4560409,-6.713726 -6.225063 0.7097712,-6.412793 -5.641208 0.9742159,-7.506951 -5.211823 0.0310638,-7.364513 -4.015307 0.1674545,-7.272701 -3.282289 0.3693658,-7.190511 -2.650676 0.5310818,-7.885456 -5.000707 0.1675483,-7.791469 -3.576279 0.237337,-7.694845 -2.688308 0.4713967,-7.614172 -1.924675 0.6512551,-8.257961 -5.060802 0.3580401,-8.186126 -3.6732 0.4540562,-8.091449 -2.834298 0.6713969,-7.984158 -2.120712 0.8553691,-8.648209 -5.354722 0.5821778,-8.736174 -4.275934 0.7273297,-8.74794 -3.572281 0.8920641,-8.719064 -2.901723 1.022651,2.110, 1 0
-2.19049 -7.99637 -1.042442,-2.681159 -7.74019 -0.5161881,-3.051216 -7.020721 -0.2818391,-3.20056 -6.214052 -0.06734025,-3.283112 -5.430557 0.1229792,-2.96684 -5.729095 -0.6237537,-3.154807 -4.772321 -0.1739419,-3.248443 -4.159284 0.1311545,-3.289169 -3.554962 0.372632,-2.606346 -5.648466 -0.6912361,-2.543276 -5.161161 0.005068421,-2.543276 -5.161161 0.005068421,-2.533326 -6.827154 0.02197492,-2.26336 -5.726388 -0.6826303,-2.206941 -5.378402 0.01399469,-2.265236 -6.384731 0.02076817,-2.313858 -6.936356 -0.1372886,-1.96096 -5.923719 -0.6402902,-1.878133 -5.454109 -0.1683837,-1.962579 -6.089651 -0.1268515,-2.044614 -6.499897 -0.1996246,-8.240781 -8.346603 0.01071831,-7.574593 -7.969789 0.2348164,-7.040152 -7.084492 0.4303597,-6.742929 -6.248413 0.6907886,-6.440742 -5.673177 0.9654054,-7.520962 -5.235153 0.04222821,-7.369435 -4.028897 0.1945529,-7.274593 -3.287521 0.4009125,-7.193669 -2.643659 0.5621679,-7.903008 -5.034023 0.1888247,-7.805803 -3.595787 0.2782987,-7.707817 -2.696445 0.5182724,-7.629716 -1.930576 0.6983042,-8.279685 -5.106315 0.3841926,-8.206862 -3.707045 0.4965174,-8.108042 -2.85376 0.7131093,-8.001048 -2.134934 0.8918201,-8.670612 -5.409637 0.6107728,-8.756742 -4.320852 0.7708968,-8.764502 -3.606715 0.9420165,-8.732841 -2.923656 1.072196,2.210, 1 0
-2.098318 -8.382116 -0.3599038,-2.618933 -7.9148 -0.03890869,-2.956653 -7.098756 0.09084812,-3.086021 -6.26214 0.2773328,-3.184257 -5.472822 0.4275784,-2.926204 -5.877983 -0.2815782,-3.086977 -4.867277 0.09648305,-3.112267 -4.293548 0.3573325,-3.079144 -3.734542 0.5580224,-2.600419 -5.827781 -0.2571023,-2.551033 -5.231846 0.3793164,-2.551033 -5.231846 0.3793164,-2.509397 -6.779257 0.6993155,-2.270845 -5.916166 -0.1727611,-2.214487 -5.483661 0.4204642,-2.259734 -6.383468 0.5168933,-2.317927 -6.931921 0.4299998,-1.94542 -6.136166 -0.06162322,-1.892965 -5.652759 0.3722429,-1.967305 -6.22899 0.4981691,-2.054812 -6.678754 0.4757631,-8.268193 -8.378733 0.07972811,-7.599083 -8.008415 0.3036378,-7.05933 -7.108766 0.4950609,-6.759098 -6.270401 0.753875,-6.458519 -5.688863 1.021476,-7.560324 -5.237236 0.07281397,-7.43019 -4.013418 0.2038141,-7.342449 -3.258577 0.4050548,-7.262989 -2.61264 0.5661099,-7.939911 -5.04322 0.2116858,-7.852416 -3.603571 0.2888288,-7.762526 -2.704498 0.5278183,-7.688176 -1.936978 0.7085443,-8.312698 -5.114307 0.4007792,-8.244723 -3.715128 0.4973418,-8.1533 -2.865082 0.7117504,-8.049136 -2.151805 0.8897259,-8.700961 -5.415837 0.6233678,-8.787405 -4.326186 0.7659674,-8.79602 -3.619255 0.9256763,-8.765117 -2.954433 1.049736,2.310, 1 0
-2.086305 -8.122114 -0.6869326,-2.547238 -7.81977 -0.2362111,-2.895569 -7.036507 -0.05300248,-3.006207 -6.204868 0.1382578,-3.117489 -5.462508 0.3179575,-2.873827 -5.757817 -0.3253549,-2.976265 -4.721464 0.1339627,-2.951647 -4.133806 0.4297105,-2.872996 -3.633454 0.661504,-2.54244 -5.671945 -0.3738077,-2.437217 -5.189251 0.2920646,-2.437217 -5.189251 0.2920646,-2.427846 -6.788566 0.4726052,-2.205432 -5.745759 -0.3493631,-2.097387 -5.461165 0.3104191,-2.133794 -6.399302 0.3150754,-2.228475 -6.951268 0.1930866,-1.897276 -5.949577 -0.2933898,-1.791575 -5.646253 0.2303948,-1.85156 -6.321197 0.3132476,-1.971858 -6.758684 0.2517018,-8.311957 -8.390926 0.1298743,-7.641881 -8.030642 0.3617655,-7.09454 -7.12367 0.54568,-6.792789 -6.277333 0.7983318,-6.489058 -5.693626 1.067486,-7.593017 -5.238824 0.0895846,-7.457728 -4.029619 0.2085919,-7.364978 -3.275973 0.4037743,-7.283362 -2.62598 0.5584258,-7.975536 -5.040471 0.2223992,-7.893575 -3.611104 0.2727017,-7.806458 -2.71507 0.5029583,-7.73662 -1.960442 0.6773346,-8.349597 -5.113321 0.4113537,-8.290894 -3.725473 0.4912492,-8.199386 -2.889451 0.6933233,-8.094539 -2.191136 0.8653244,-8.7399 -5.416418 0.6354524,-8.832003 -4.34018 0.7716218,-8.842952 -3.649744 0.925743,-8.816088 -2.991193 1.045017,2.410, 1 0
-2.093993 -8.044668 -0.4392954,-2.54602 -7.738505 0.05262974,-2.889017 -6.97046 0.2989024,-2.992903 -6.166996 0.5419015,-3.097809 -5.431613 0.7956887,-2.864801 -5.638668 -0.01948881,-2.949366 -4.683051 0.4548719,-2.931642 -4.093709 0.7848724,-2.863626 -3.576259 1.037545,-2.522026 -5.522951 -0.08177111,-2.398758 -5.228785 0.5915706,-2.398758 -5.228785 0.5915706,-2.433315 -6.795808 0.8006467,-2.175533 -5.586504 -0.07030627,-2.059874 -5.481372 0.5571771,-2.11444 -6.412237 0.5578008,-2.226768 -6.901376 0.4488603,-1.87056 -5.779797 -0.01937544,-1.75199 -5.644264 0.471636,-1.823874 -6.332018 0.5334603,-1.954642 -6.714946 0.4658138,-8.329982 -8.410385 0.07415387,-7.654494 -8.03916 0.3052988,-7.115403 -7.136915 0.4945174,-6.823824 -6.291191 0.7499558,-6.524787 -5.70483 1.014917,-7.614403 -5.266286 0.06748118,-7.471261 -4.051284 0.1970232,-7.373422 -3.302026 0.3921539,-7.290291 -2.657572 0.5428481,-7.998489 -5.076704 0.2037916,-7.919435 -3.626684 0.2697691,-7.82872 -2.72583 0.4942139,-7.757283 -1.969394 0.6593122,-8.374462 -5.160049 0.3941086,-8.321922 -3.755673 0.4898454,-8.22685 -2.909693 0.6965274,-8.124079 -2.206046 0.8679022,-8.764197 -5.471773 0.6165734,-8.85985 -4.391018 0.766772,-8.870726 -3.692682 0.9298416,-8.845493 -3.033226 1.052787,2.510, 1 0
-2.10992 -7.871044 -0.6361853,-2.532411 -7.63881 -0.06352556,-2.867706 -6.935331 0.240062,-2.965059 -6.154298 0.5208851,-3.049177 -5.418664 0.8192446,-2.845607 -5.518857 -0.1175622,-2.930764 -4.605531 0.3628208,-2.913435 -4.027162 0.7188102,-2.846439 -3.53477 0.9996519,-2.500202 -5.415086 -0.1903864,-2.390504 -5.126663 0.5204395,-2.390504 -5.126663 0.5204395,-2.401763 -6.658977 0.8100901,-2.15374 -5.485805 -0.1905851,-2.040257 -5.432329 0.4750478,-2.092216 -6.331792 0.5287166,-2.199785 -6.857803 0.4338381,-1.841875 -5.674236 -0.1470385,-1.731985 -5.557523 0.4005194,-1.810244 -6.243391 0.4910634,-1.942921 -6.65587 0.432081,-8.385792 -8.432728 0.07092077,-7.705079 -8.076031 0.3020966,-7.164214 -7.172391 0.4862293,-6.86697 -6.321805 0.7437993,-6.563721 -5.733652 1.012985,-7.648997 -5.294626 0.03458326,-7.512868 -4.06436 0.167308,-7.423302 -3.298316 0.3681246,-7.345784 -2.628935 0.5244523,-8.03551 -5.101126 0.179194,-7.952356 -3.64533 0.2473992,-7.866352 -2.72512 0.4834945,-7.796894 -1.949755 0.6599882,-8.416109 -5.185888 0.3789794,-8.358265 -3.775039 0.4781688,-8.265004 -2.913847 0.6884766,-8.162607 -2.195117 0.8630819,-8.812107 -5.503046 0.6133135,-8.904489 -4.413085 0.7728089,-8.90946 -3.711201 0.9395631,-8.874462 -3.043737 1.060458,2.610, 1 0
-2.098446 -7.741219 -0.4913238,-2.508771 -7.552154 0.1436484,-2.844191 -6.853719 0.4574231,-2.94956 -6.065004 0.7337362,-3.046196 -5.299418 1.038242,-2.811481 -5.395603 0.1008199,-2.886785 -4.54169 0.6146519,-2.869272 -3.978419 0.9858161,-2.8017 -3.484094 1.280566,-2.466366 -5.245272 -0.01331395,-2.328339 -5.147098 0.7185854,-2.328339 -5.147098 0.7185854,-2.333615 -6.729392 0.9482019,-2.119176 -5.298877 -0.04615301,-1.992773 -5.39056 0.6485153,-2.039319 -6.306278 0.6763909,-2.146418 -6.824499 0.5432961,-1.816216 -5.476163 -0.02794468,-1.676424 -5.494791 0.5370938,-1.75533 -6.203281 0.6152196,-1.894309 -6.61675 0.5307212,-8.413437 -8.439081 0.131365,-7.732015 -8.075733 0.36064,-7.189398 -7.174968 0.5479879,-6.89272 -6.329313 0.800537,-6.595737 -5.746146 1.070906,-7.680156 -5.287713 0.1094297,-7.541332 -4.073457 0.2335793,-7.452471 -3.323198 0.4317109,-7.378067 -2.666655 0.5872173,-8.069705 -5.089598 0.2458871,-7.993364 -3.640239 0.3054278,-7.907372 -2.73051 0.5361524,-7.840921 -1.963071 0.7106476,-8.451901 -5.173135 0.4360712,-8.400689 -3.775278 0.5302435,-8.309003 -2.920248 0.7413448,-8.210518 -2.205022 0.9196469,-8.846034 -5.490705 0.6606439,-8.94764 -4.423016 0.8082052,-8.959314 -3.72846 0.9719636,-8.930759 -3.063263 1.093795,2.710, 1 0
-2.086868 -7.693338 -0.5006618,-2.506639 -7.505064 0.1721163,-2.846671 -6.815547 0.5065439,-2.941054 -6.02523 0.7939988,-3.026824 -5.24554 1.114948,-2.80645 -5.355243 0.139015,-2.870767 -4.512416 0.6506007,-2.844533 -3.941878 1.023899,-2.769305 -3.452516 1.322425,-2.454615 -5.20656 0.009826005,-2.320946 -5.094978 0.7448092,-2.320946 -5.094978 0.7448092,-2.313127 -6.675686 1.035304,-2.104592 -5.256238 -0.04084143,-1.989017 -5.368122 0.6620761,-2.026709 -6.268675 0.7226943,-2.116741 -6.809553 0.607318,-1.799286 -5.432935 -0.04300645,-1.672392 -5.48678 0.5471138,-1.750425 -6.196804 0.6427183,-1.883114 -6.618923 0.5729772,-8.421308 -8.458035 0.1384763,-7.738153 -8.089584 0.3771581,-7.196789 -7.189369 0.5663294,-6.900493 -6.33853 0.8211043,-6.608918 -5.752938 1.09067,-7.693044 -5.309614 0.1015614,-7.550913 -4.093462 0.2208695,-7.458245 -3.337721 0.4144504,-7.379808 -2.681743 0.5640727,-8.083718 -5.105154 0.2285865,-8.008183 -3.653279 0.2792054,-7.923828 -2.740032 0.5034442,-7.854757 -1.979181 0.6686603,-8.465773 -5.173992 0.411492,-8.412606 -3.770671 0.4976645,-8.323227 -2.918115 0.7012166,-8.22079 -2.212925 0.8708505,-8.858785 -5.470978 0.6306157,-8.962671 -4.403006 0.7708332,-8.976558 -3.714067 0.9273249,-8.945627 -3.059862 1.0433,2.810, 1 0
-2.055866 -7.665327 -0.6217883,-2.470864 -7.474147 0.06550026,-2.808813 -6.788929 0.3982812,-2.895118 -6.002659 0.6763997,-2.982355 -5.234548 0.9881263,-2.755525 -5.337821 0.04640549,-2.818978 -4.481766 0.5362302,-2.788043 -3.912976 0.8936727,-2.711407 -3.432574 1.190905,-2.396755 -5.215175 -0.08861417,-2.274487 -5.058536 0.6545005,-2.274487 -5.058536 0.6545005,-2.273412 -6.64076 0.954437,-2.042064 -5.28141 -0.1474532,-1.929459 -5.333642 0.5705184,-1.970569 -6.237705 0.6401573,-2.065651 -6.796253 0.5229046,-1.731222 -5.462873 -0.1581697,-1.611837 -5.468303 0.4625767,-1.695268 -6.16826 0.5819139,-1.830979 -6.593828 0.525251,-8.430042 -8.445076 0.1553948,-7.74682 -8.077383 0.3936374,-7.210143 -7.183748 0.5753368,-6.919852 -6.338344 0.824702,-6.634753 -5.755281 1.092829,-7.712106 -5.2774 0.09270155,-7.573926 -4.064373 0.2042419,-7.484639 -3.307399 0.3971264,-7.408658 -2.651759 0.5531061,-8.1001 -5.086115 0.2268316,-8.028712 -3.647418 0.2757423,-7.946158 -2.734177 0.5049491,-7.875549 -1.971857 0.6784723,-8.480795 -5.166189 0.4200591,-8.428794 -3.772794 0.5112411,-8.342223 -2.917732 0.725928,-8.237209 -2.210075 0.9085208,-8.876868 -5.472442 0.650234,-8.979048 -4.410644 0.8012642,-8.992523 -3.71825 0.9669575,-8.957198 -3.054595 1.093162,2.910, 1 0
-2.012266 -7.609241 -0.3301836,-2.430934 -7.457223 0.3799689,-2.768785 -6.777092 0.756952,-2.857586 -5.99171 1.075943,-2.936351 -5.212558 1.443464,-2.697896 -5.272592 0.4175704,-2.752578 -4.44133 0.9406744,-2.706396 -3.894044 1.314438,-2.611164 -3.436116 1.621093,-2.333549 -5.086152 0.2724539,-2.189198 -5.104612 1.003494,-2.189198 -5.104612 1.003494,-2.211167 -6.665699 1.265136,-1.968654 -5.135745 0.2052355,-1.844598 -5.355182 0.8870374,-1.895726 -6.254671 0.9092684,-2.000292 -6.754949 0.7787014,-1.654614 -5.312023 0.1945486,-1.526546 -5.482791 0.7651321,-1.620753 -6.201283 0.8537561,-1.766176 -6.587276 0.784314,-8.4407 -8.44894 0.1351087,-7.756668 -8.079905 0.3750088,-7.221218 -7.182065 0.5611991,-6.932951 -6.324783 0.8127898,-6.647687 -5.736043 1.085318,-7.726465 -5.289708 0.08792954,-7.584568 -4.066694 0.2050737,-7.493094 -3.310833 0.399075,-7.415229 -2.651933 0.5559661,-8.11701 -5.095493 0.219375,-8.039333 -3.641779 0.2710714,-7.953833 -2.727396 0.4983193,-7.879732 -1.959387 0.667836,-8.4991 -5.173681 0.4086989,-8.440405 -3.764234 0.5002956,-8.350866 -2.907009 0.7106231,-8.244098 -2.196019 0.8895221,-8.893776 -5.478374 0.634074,-8.990599 -4.411194 0.78328,-9.004954 -3.714185 0.9489511,-8.971873 -3.048052 1.073409,3.010, 1 0
-2.00176 -7.586074 -0.4237542,-2.419444 -7.444545 0.2982517,-2.760235 -6.765069 0.6803057,-2.846009 -5.975097 1.000091,-2.906411 -5.198135 1.3591,-2.686426 -5.274994 0.3725973,-2.739097 -4.456477 0.9268078,-2.688501 -3.918031 1.328041,-2.592769 -3.479752 1.65134,-2.314548 -5.101907 0.2276006,-2.17802 -5.054128 0.9768913,-2.17802 -5.054128 0.9768913,-2.195327 -6.649322 1.223167,-1.944237 -5.156328 0.1629053,-1.822245 -5.317791 0.8703041,-1.874687 -6.226068 0.8804365,-1.977297 -6.745239 0.7377118,-1.622368 -5.336361 0.1539574,-1.498719 -5.464574 0.7435564,-1.599586 -6.185503 0.8263586,-1.748493 -6.580095 0.7562169,-8.449643 -8.461823 0.1633977,-7.75952 -8.092796 0.3923424,-7.222662 -7.186748 0.5645989,-6.936419 -6.334163 0.8034152,-6.647279 -5.761032 1.05678,-7.721995 -5.299783 0.1019917,-7.575688 -4.095373 0.2250588,-7.483292 -3.348226 0.4241759,-7.40566 -2.69376 0.580283,-8.112994 -5.101332 0.2396964,-8.036448 -3.655591 0.2981305,-7.953079 -2.743158 0.5354141,-7.88159 -1.975595 0.7126491,-8.494286 -5.176872 0.4361073,-8.44252 -3.775366 0.5322919,-8.35741 -2.917956 0.7495313,-8.254844 -2.20584 0.9344049,-8.888659 -5.482549 0.6653166,-8.988685 -4.416578 0.8227667,-9.005258 -3.718245 0.993592,-8.97439 -3.049801 1.118508,3.110, 1 0
-1.995663 -7.537174 -0.2371612,-2.412602 -7.450515 0.5149667,-2.751004 -6.787981 0.9339508,-2.833704 -6.012967 1.286372,-2.895681 -5.208059 1.69829,-2.678264 -5.240835 0.6460378,-2.723105 -4.478906 1.206446,-2.660324 -3.952903 1.614993,-2.550527 -3.523258 1.948329,-2.292323 -5.019504 0.5013114,-2.170568 -5.097309 1.24182,-2.170568 -5.097309 1.24182,-2.167944 -6.700368 1.504723,-1.910378 -5.065603 0.4370083,-1.805556 -5.359184 1.118119,-1.853811 -6.266489 1.128202,-1.941745 -6.786197 1.001899,-1.573708 -5.252109 0.4302981,-1.473591 -5.496616 0.9913293,-1.582434 -6.224231 1.059408,-1.726062 -6.615968 0.9952826,-8.446711 -8.455502 0.1918296,-7.763249 -8.089832 0.4341791,-7.225663 -7.188997 0.6213003,-6.935557 -6.336803 0.8754516,-6.645155 -5.749666 1.147848,-7.723082 -5.280635 0.1459887,-7.582502 -4.065681 0.2758631,-7.493476 -3.311408 0.4808638,-7.415507 -2.65517 0.6375403,-8.113233 -5.086966 0.2860731,-8.043911 -3.646513 0.3509656,-7.962202 -2.731306 0.5849339,-7.891328 -1.965246 0.7597129,-8.496218 -5.169664 0.4870902,-8.447148 -3.774995 0.5864122,-8.358506 -2.922294 0.8008763,-8.25323 -2.214058 0.9820478,-8.895082 -5.482328 0.7247548,-8.994411 -4.414705 0.8840745,-9.009955 -3.71128 1.052605,-8.979674 -3.035145 1.176974,3.210, 1 0
-1.973614 -7.52658 -0.1094083,-2.392476 -7.462654 0.6894549,-2.729551 -6.832224 1.133925,-2.798803 -6.064667 1.50234,-2.845173 -5.222621 1.924675,-2.63661 -5.24086 0.8294541,-2.665972 -4.524704 1.422037,-2.607299 -4.004802 1.843259,-2.508396 -3.551218 2.189633,-2.24178 -4.977596 0.6631274,-2.119031 -5.112806 1.422678,-2.119031 -5.112806 1.422678,-2.126038 -6.756359 1.621164,-1.852474 -5.005892 0.5856891,-1.746197 -5.326047 1.304145,-1.796284 -6.269762 1.279202,-1.894535 -6.803619 1.117838,-1.515355 -5.195928 0.5687192,-1.413356 -5.447748 1.147793,-1.526644 -6.194442 1.188303,-1.684708 -6.598663 1.101999,-8.462642 -8.461124 0.1541317,-7.774163 -8.104372 0.3975669,-7.234684 -7.210248 0.5905051,-6.944664 -6.358084 0.8451955,-6.660051 -5.771651 1.119313,-7.735443 -5.30088 0.1265134,-7.590382 -4.083034 0.257191,-7.502564 -3.328811 0.4591761,-7.428587 -2.668361 0.6164585,-8.126863 -5.104018 0.2605381,-8.050213 -3.660763 0.3242529,-7.96709 -2.74788 0.5571167,-7.897387 -1.97643 0.7302468,-8.509965 -5.182073 0.4525181,-8.455187 -3.783597 0.5488393,-8.366495 -2.931698 0.7601254,-8.263186 -2.223911 0.9404015,-8.90703 -5.488552 0.6812831,-9.0014 -4.420393 0.8342212,-9.01608 -3.716606 1.000083,-8.984199 -3.042651 1.12472,3.310, 1 0
-1.962294 -7.518037 0.1096413,-2.393371 -7.476105 0.9256039,-2.721839 -6.84093 1.388608,-2.788498 -6.077114 1.767038,-2.842441 -5.228506 2.20025,-2.603632 -5.213795 1.111689,-2.637099 -4.554451 1.726883,-2.585363 -4.029313 2.150085,-2.482902 -3.540877 2.500852,-2.20309 -4.915135 0.9294313,-2.084478 -5.158288 1.669193,-2.084478 -5.158288 1.669193,-2.131199 -6.791101 1.788285,-1.809956 -4.939544 0.8381596,-1.708498 -5.338262 1.52597,-1.781045 -6.284584 1.459139,-1.892519 -6.792748 1.280268,-1.47618 -5.143782 0.8126089,-1.376304 -5.465393 1.349458,-1.506948 -6.214405 1.352979,-1.67522 -6.599626 1.251095,-8.452055 -8.446945 0.1284114,-7.769725 -8.091047 0.3771968,-7.237118 -7.193113 0.5690712,-6.950287 -6.337369 0.8252013,-6.659113 -5.756145 1.100783,-7.731365 -5.295099 0.09706323,-7.586478 -4.087194 0.2317139,-7.499852 -3.339855 0.4366416,-7.426807 -2.683094 0.5967131,-8.119469 -5.096912 0.2359253,-8.041866 -3.656755 0.3078876,-7.958414 -2.74077 0.5457669,-7.886595 -1.967545 0.7214261,-8.501723 -5.178342 0.4369484,-8.448597 -3.781819 0.5456278,-8.360015 -2.924665 0.7672015,-8.254792 -2.206434 0.9558885,-8.900748 -5.493862 0.6746314,-9.000826 -4.429578 0.8430759,-9.018291 -3.723581 1.019154,-8.987082 -3.036985 1.151904,3.410, 1 0
-1.926345 -7.484065 0.2832304,-2.376546 -7.462539 1.162435,-2.70259 -6.845268 1.646678,-2.750816 -6.094089 2.019279,-2.787492 -5.227993 2.428891,-2.575215 -5.192281 1.398723,-2.590336 -4.589661 2.075259,-2.541048 -4.078685 2.499353,-2.44752 -3.571489 2.843035,-2.157858 -4.853923 1.1823,-2.026065 -5.228416 1.955318,-2.026065 -5.228416 1.955318,-2.082086 -6.892246 1.925051,-1.751052 -4.877896 1.067553,-1.644518 -5.357894 1.779936,-1.712313 -6.328275 1.643504,-1.83421 -6.837427 1.428323,-1.412615 -5.080775 1.029827,-1.307233 -5.398836 1.568064,-1.430392 -6.156685 1.538483,-1.601045 -6.556955 1.428736,-8.463574 -8.445002 0.1670416,-7.778004 -8.082687 0.411286,-7.240255 -7.176866 0.5985256,-6.95192 -6.321779 0.8511285,-6.665213 -5.733574 1.120362,-7.74207 -5.277929 0.121617,-7.595098 -4.075944 0.2462037,-7.504896 -3.329309 0.4488026,-7.431355 -2.676731 0.606414,-8.133001 -5.083143 0.2560988,-8.060256 -3.653087 0.3096854,-7.978598 -2.745693 0.545344,-7.90985 -1.978552 0.7193213,-8.515968 -5.164553 0.4506243,-8.465579 -3.778461 0.5402783,-8.378141 -2.928996 0.7571707,-8.273654 -2.218246 0.9420525,-8.913993 -5.476351 0.681851,-9.015276 -4.421356 0.8320217,-9.034809 -3.721977 0.9981736,-9.007796 -3.046086 1.123223,3.510, 1 0
-1.895817 -7.440412 0.1298827,-2.359736 -7.447481 1.036753,-2.676844 -6.83263 1.511713,-2.703786 -6.080991 1.858511,-2.731757 -5.219411 2.230013,-2.536081 -5.173843 1.284131,-2.559316 -4.585258 1.980406,-2.502323 -4.078598 2.398582,-2.402018 -3.580799 2.732895,-2.109341 -4.867495 1.063536,-1.984973 -5.181274 1.884975,-1.984973 -5.181274 1.884975,-2.030622 -6.884486 1.892068,-1.697792 -4.91088 0.9500716,-1.59751 -5.329489 1.726859,-1.676414 -6.330645 1.622756,-1.795368 -6.885904 1.409295,-1.355787 -5.133768 0.9102594,-1.248354 -5.385765 1.495314,-1.380876 -6.149972 1.477811,-1.549557 -6.586788 1.369109,-8.471707 -8.443172 0.1441919,-7.786684 -8.076231 0.3869509,-7.252365 -7.179361 0.5826608,-6.961069 -6.323014 0.8445143,-6.672791 -5.731157 1.127739,-7.754188 -5.282211 0.1132912,-7.60984 -4.070737 0.2458275,-7.521249 -3.321348 0.4473853,-7.449494 -2.66757 0.5976021,-8.142057 -5.088292 0.2513166,-8.063283 -3.649618 0.3146058,-7.980831 -2.73493 0.5431199,-7.914897 -1.966647 0.7108516,-8.524503 -5.173913 0.4494278,-8.472582 -3.791356 0.5467925,-8.384907 -2.934452 0.7532132,-8.283338 -2.219497 0.9311743,-8.923437 -5.492119 0.6840047,-9.024779 -4.435945 0.8416829,-9.04315 -3.737096 1.003894,-9.015009 -3.068347 1.12182,3.610, 1 0
-1.867741 -7.441872 0.2475361,-2.3456 -7.440248 1.178706,-2.667491 -6.824594 1.671354,-2.693698 -6.089817 2.027234,-2.704305 -5.230604 2.406751,-2.509358 -5.150884 1.45148,-2.536161 -4.591306 2.170471,-2.480152 -4.099678 2.613629,-2.383269 -3.600326 2.96679,-2.07198 -4.847234 1.221794,-1.952714 -5.203546 2.052027,-1.952714 -5.203546 2.052027,-2.006699 -6.899273 2.038064,-1.650678 -4.912473 1.102709,-1.556585 -5.353096 1.870861,-1.64635 -6.348142 1.741836,-1.763381 -6.872884 1.519975,-1.302688 -5.155456 1.06117,-1.204611 -5.419118 1.631976,-1.345649 -6.180254 1.586551,-1.508718 -6.591561 1.463523,-8.468669 -8.435072 0.1225302,-7.779737 -8.07044 0.3600382,-7.248597 -7.178224 0.5466716,-6.964625 -6.323417 0.7969336,-6.679404 -5.73351 1.065746,-7.758217 -5.28513 0.08302709,-7.613722 -4.070557 0.2116168,-7.526765 -3.319366 0.4111894,-7.456976 -2.662971 0.5642203,-8.147986 -5.085213 0.2184747,-8.073156 -3.640094 0.2777606,-7.991598 -2.727588 0.5103224,-7.924692 -1.95821 0.6838397,-8.529787 -5.165102 0.4124267,-8.481361 -3.775325 0.5080796,-8.394499 -2.922523 0.7203888,-8.293002 -2.209686 0.9044292,-8.927083 -5.475814 0.6429249,-9.033237 -4.419586 0.7983051,-9.052253 -3.720342 0.9683028,-9.023693 -3.046974 1.093716,3.710, 1 0
-1.798065 -7.43452 0.3590652,-2.282326 -7.441186 1.275155,-2.622599 -6.852996 1.781803,-2.656137 -6.092412 2.157698,-2.642961 -5.206316 2.554008,-2.466971 -5.1201 1.537822,-2.4856 -4.54068 2.245759,-2.426732 -4.046944 2.676793,-2.338584 -3.568805 3.018133,-2.025696 -4.807941 1.334152,-1.913167 -5.11314 2.176739,-1.913167 -5.11314 2.176739,-1.963775 -6.830265 2.199244,-1.589872 -4.868227 1.240294,-1.50879 -5.276672 2.017215,-1.600293 -6.280911 1.907276,-1.712033 -6.834758 1.697531,-1.221092 -5.101945 1.217969,-1.139728 -5.372995 1.799642,-1.288449 -6.153841 1.761719,-1.455719 -6.590908 1.639547,-8.477602 -8.426426 0.09362134,-7.787025 -8.077637 0.3413075,-7.250979 -7.184453 0.5365947,-6.962805 -6.332066 0.7947715,-6.680497 -5.734661 1.066671,-7.763516 -5.281017 0.06987844,-7.617139 -4.073007 0.2125168,-7.53092 -3.325433 0.419491,-7.458566 -2.672971 0.5725412,-8.151022 -5.085806 0.2014481,-8.073867 -3.639684 0.2746967,-7.993318 -2.730094 0.5103599,-7.927895 -1.958244 0.6781213,-8.530197 -5.171412 0.3940656,-8.480408 -3.777213 0.4978908,-8.394193 -2.923683 0.709514,-8.294857 -2.208097 0.8891497,-8.923237 -5.490043 0.6219354,-9.020699 -4.431781 0.7808396,-9.037689 -3.731898 0.9499152,-9.010559 -3.055188 1.069175,3.810, 1 0
-1.785094 -7.425024 0.3895941,-2.257388 -7.432459 1.295588,-2.596401 -6.815221 1.788717,-2.635552 -6.056581 2.156182,-2.641585 -5.187651 2.552313,-2.448097 -5.10496 1.566954,-2.47684 -4.513725 2.287528,-2.418201 -4.002016 2.735157,-2.313831 -3.508221 3.088585,-2.012074 -4.787359 1.359931,-1.890204 -5.131308 2.186568,-1.890204 -5.131308 2.186568,-1.944545 -6.820809 2.182419,-1.581484 -4.849849 1.26373,-1.486029 -5.268274 2.028573,-1.582188 -6.271875 1.894893,-1.704626 -6.801857 1.671453,-1.217541 -5.091909 1.243182,-1.123571 -5.357383 1.817559,-1.271934 -6.136161 1.77958,-1.445881 -6.557259 1.659137,-8.464766 -8.429344 0.09056608,-7.785252 -8.050573 0.3396513,-7.255136 -7.17621 0.5424354,-6.965569 -6.33389 0.8069252,-6.683256 -5.747255 1.089765,-7.763873 -5.287832 0.08766361,-7.614696 -4.086812 0.2311451,-7.521461 -3.34662 0.4390912,-7.44289 -2.6991 0.5963641,-8.150917 -5.089214 0.2218073,-8.070416 -3.65073 0.2967294,-7.984271 -2.743148 0.5337622,-7.914077 -1.979521 0.7101687,-8.530779 -5.167065 0.4146259,-8.477213 -3.782455 0.5129358,-8.386075 -2.923915 0.7251182,-8.281094 -2.207336 0.9079444,-8.925935 -5.479871 0.6440884,-9.026718 -4.419998 0.7987676,-9.043017 -3.713726 0.9652781,-9.012486 -3.036928 1.087122,3.910, 1 0
-1.720097 -7.367462 -0.003181276,-2.167802 -7.398224 0.893798,-2.507184 -6.77705 1.365296,-2.543311 -5.976487 1.722481,-2.553294 -5.123207 2.12202,-2.433678 -5.147079 1.091383,-2.445941 -4.446446 1.750059,-2.346572 -3.947933 2.161336,-2.214945 -3.514905 2.489476,-2.013812 -4.827494 0.8869042,-1.87362 -5.019964 1.685966,-1.87362 -5.019964 1.685966,-1.855833 -6.746521 1.804129,-1.595038 -4.832364 0.7871477,-1.480343 -5.167098 1.558478,-1.504262 -6.183994 1.50779,-1.59613 -6.795419 1.336375,-1.225378 -4.992719 0.7648231,-1.114876 -5.08757 1.384645,-1.206894 -5.87114 1.421595,-1.350884 -6.367128 1.344516,-8.46481 -8.400843 0.03120186,-7.780893 -8.047735 0.2957767,-7.249414 -7.174818 0.5041144,-6.962058 -6.332149 0.7725925,-6.685093 -5.726499 1.057784,-7.757033 -5.274568 0.03150566,-7.604445 -4.068863 0.1850214,-7.510118 -3.322658 0.3996384,-7.430969 -2.668655 0.556841,-8.144537 -5.07826 0.1597399,-8.069158 -3.636826 0.239856,-7.986292 -2.724514 0.4752582,-7.915578 -1.95364 0.6404509,-8.525784 -5.167449 0.3508656,-8.47962 -3.777993 0.4610457,-8.389347 -2.92171 0.6788928,-8.282073 -2.204057 0.8619791,-8.922266 -5.488056 0.5794688,-9.025002 -4.432192 0.7472894,-9.042175 -3.732686 0.9255622,-9.011248 -3.060421 1.050496,4.010, 1 0
-1.711235 -7.368396 0.1351752,-2.180372 -7.367269 1.035034,-2.525679 -6.731386 1.517834,-2.563878 -5.938629 1.892527,-2.56498 -5.074075 2.301619,-2.429529 -5.101441 1.231231,-2.442695 -4.422239 1.885061,-2.351844 -3.932485 2.303456,-2.226516 -3.49703 2.633773,-2.004513 -4.791154 1.039138,-1.857152 -5.02778 1.871512,-1.857152 -5.02778 1.871512,-1.852327 -6.740891 2.014304,-1.580458 -4.810417 0.9467805,-1.459742 -5.17399 1.709736,-1.492224 -6.188794 1.656949,-1.587228 -6.76736 1.488644,-1.205879 -4.976664 0.9307949,-1.091143 -5.101238 1.527315,-1.188966 -5.891832 1.555179,-1.336331 -6.371353 1.481364,-8.464021 -8.405785 -0.002581752,-7.774944 -8.05224 0.2489564,-7.240688 -7.174435 0.4474888,-6.950093 -6.322589 0.709389,-6.675297 -5.709911 0.9847383,-7.755364 -5.294243 -0.005482592,-7.600943 -4.076299 0.1525812,-7.505546 -3.322898 0.3642094,-7.427761 -2.666191 0.5179954,-8.141521 -5.093163 0.1264358,-8.063807 -3.644251 0.2143999,-7.980975 -2.725801 0.4540188,-7.911553 -1.954515 0.6236783,-8.522209 -5.174007 0.3185045,-8.473066 -3.785029 0.4345312,-8.381788 -2.921965 0.6522418,-8.274714 -2.200647 0.8349198,-8.918745 -5.485517 0.5465804,-9.020106 -4.425844 0.7159486,-9.03717 -3.720739 0.8956625,-9.005219 -3.044647 1.025015,4.110, 1 0
-1.72578 -7.321805 0.3289418,-2.190108 -7.33663 1.253556,-2.520683 -6.697576 1.751236,-2.560064 -5.924615 2.134579,-2.549572 -5.046393 2.550281,-2.446177 -5.059005 1.531698,-2.459154 -4.425163 2.25246,-2.366804 -3.947148 2.703338,-2.217438 -3.508579 3.046414,-2.00711 -4.71249 1.311096,-1.84487 -5.008665 2.148898,-1.84487 -5.008665 2.148898,-1.887328 -6.742261 2.198876,-1.578861 -4.72822 1.196549,-1.43169 -5.087895 1.986294,-1.488806 -6.134969 1.860951,-1.612892 -6.700683 1.635604,-1.214641 -4.909931 1.155862,-1.086103 -4.964941 1.768231,-1.195514 -5.765234 1.754914,-1.357327 -6.250309 1.645321,-8.468481 -8.412809 0.06539274,-7.783636 -8.057531 0.3224346,-7.247931 -7.165994 0.5164052,-6.95631 -6.316825 0.77679,-6.678234 -5.718559 1.050329,-7.759393 -5.279852 0.04294919,-7.604175 -4.072917 0.194939,-7.510059 -3.323156 0.4077743,-7.433235 -2.665094 0.5624661,-8.14616 -5.079815 0.1710157,-8.072615 -3.643771 0.2448106,-7.994347 -2.72594 0.4850187,-7.92775 -1.952644 0.6566848,-8.525896 -5.161152 0.361619,-8.47978 -3.779918 0.4693363,-8.391413 -2.917537 0.6880081,-8.286222 -2.197875 0.8691068,-8.921679 -5.474369 0.5910075,-9.020062 -4.418972 0.7528362,-9.037581 -3.720544 0.9259832,-9.006636 -3.054473 1.047557,4.210, 1 0
-1.690916 -7.293808 0.4125751,-2.167145 -7.348991 1.322235,-2.518219 -6.732688 1.854484,-2.55006 -5.948278 2.269695,-2.537706 -5.057257 2.730072,-2.432514 -5.048702 1.619696,-2.446452 -4.440597 2.337882,-2.355382 -3.956373 2.78663,-2.217595 -3.513767 3.134154,-1.996579 -4.671531 1.421349,-1.843289 -5.005113 2.252981,-1.843289 -5.005113 2.252981,-1.862697 -6.682418 2.325697,-1.560528 -4.668334 1.324419,-1.434873 -5.123685 2.081636,-1.478531 -6.144699 1.969787,-1.589026 -6.67858 1.767684,-1.184093 -4.841024 1.301481,-1.08888 -5.027439 1.859289,-1.189251 -5.834041 1.821383,-1.335014 -6.28081 1.707741,-8.468718 -8.4165 0.06187956,-7.778394 -8.052902 0.3148165,-7.246008 -7.183395 0.5201443,-6.958757 -6.339653 0.7915835,-6.68221 -5.736043 1.082555,-7.763732 -5.283063 0.042295,-7.613012 -4.083683 0.1872667,-7.521535 -3.336088 0.3970306,-7.442684 -2.678894 0.5489204,-8.154014 -5.083964 0.1727897,-8.081223 -3.644809 0.2424387,-8.003513 -2.730226 0.4762827,-7.935897 -1.956586 0.641615,-8.535607 -5.16765 0.3647582,-8.490625 -3.781662 0.4648901,-8.402914 -2.921575 0.6793633,-8.298507 -2.201118 0.856279,-8.932034 -5.484761 0.5947146,-9.037876 -4.419722 0.7513179,-9.054954 -3.719322 0.9221768,-9.023958 -3.05307 1.038872,4.310, 1 0
-1.673255 -7.279938 0.3424772,-2.141853 -7.347167 1.254178,-2.498918 -6.737792 1.763289,-2.52561 -5.949101 2.155541,-2.499821 -5.072978 2.599434,-2.43463 -5.038555 1.517884,-2.435161 -4.432554 2.221703,-2.332668 -3.959068 2.661139,-2.197203 -3.529022 3.003334,-2.001081 -4.668483 1.315819,-1.842516 -4.968486 2.137959,-1.842516 -4.968486 2.137959,-1.831444 -6.686851 2.236837,-1.564935 -4.663769 1.215996,-1.434961 -5.10399 1.982686,-1.467327 -6.128952 1.885533,-1.571148 -6.695087 1.69273,-1.18873 -4.836256 1.196514,-1.084545 -5.029044 1.775553,-1.183654 -5.834544 1.747801,-1.332812 -6.29729 1.638839,-8.467431 -8.404804 0.03500744,-7.790042 -8.032181 0.2881374,-7.259442 -7.163455 0.498348,-6.970255 -6.325778 0.775988,-6.690331 -5.729362 1.070786,-7.773716 -5.274273 0.03045326,-7.626584 -4.072019 0.182323,-7.533723 -3.329639 0.4030982,-7.452761 -2.679351 0.5673772,-8.163973 -5.079864 0.1708414,-8.09545 -3.631037 0.2550443,-8.013095 -2.711909 0.4937537,-7.942394 -1.940932 0.6675859,-8.547613 -5.167734 0.3718375,-8.502792 -3.772004 0.4834163,-8.411287 -2.905782 0.7022111,-8.3049 -2.181547 0.8866109,-8.948498 -5.491115 0.6111587,-9.050589 -4.417297 0.778529,-9.06241 -3.707718 0.9515306,-9.026568 -3.034599 1.075805,4.410, 1 0
-1.668473 -7.265993 0.1194427,-2.119475 -7.322348 1.033099,-2.460762 -6.73564 1.554089,-2.483263 -5.976303 1.971019,-2.443093 -5.103867 2.435209,-2.383523 -5.04276 1.255318,-2.379925 -4.404327 1.95909,-2.272905 -3.916604 2.41336,-2.131392 -3.468674 2.763667,-1.947593 -4.70557 1.061357,-1.822263 -4.895144 1.898778,-1.822263 -4.895144 1.898778,-1.823283 -6.648253 2.007085,-1.516271 -4.701626 0.9715186,-1.41227 -5.042141 1.773309,-1.447921 -6.077087 1.681187,-1.555734 -6.662153 1.455797,-1.138851 -4.870916 0.9593672,-1.052202 -4.89773 1.565881,-1.160673 -5.677673 1.540437,-1.315969 -6.16936 1.404357,-8.483041 -8.403973 -0.01536138,-7.795563 -8.043276 0.2361065,-7.262981 -7.174837 0.4464293,-6.96902 -6.333398 0.7217942,-6.693356 -5.725447 1.010706,-7.785773 -5.288095 -0.00862276,-7.637223 -4.077916 0.1511532,-7.544008 -3.328741 0.3750912,-7.463336 -2.668082 0.5378953,-8.176532 -5.09398 0.1250914,-8.109983 -3.646819 0.2148558,-8.028622 -2.725612 0.4571836,-7.957997 -1.952138 0.6276963,-8.56069 -5.183574 0.3177378,-8.519245 -3.788326 0.4280702,-8.425557 -2.920229 0.6481621,-8.31704 -2.198306 0.8269694,-8.961158 -5.505683 0.5474601,-9.059196 -4.426914 0.7125499,-9.066524 -3.710653 0.8915976,-9.028528 -3.035924 1.012256,4.510, 1 0
-1.643897 -7.230739 -0.1695995,-2.095087 -7.317413 0.7429378,-2.445088 -6.752187 1.283578,-2.478794 -6.003938 1.709421,-2.395641 -5.1506 2.191011,-2.368587 -5.058654 0.9703765,-2.365431 -4.398363 1.637944,-2.249091 -3.911076 2.077612,-2.104225 -3.48743 2.424786,-1.92691 -4.762374 0.7800261,-1.817462 -4.747192 1.608276,-1.817462 -4.747192 1.608276,-1.80789 -6.414884 1.845856,-1.494882 -4.763359 0.6813995,-1.402437 -5.026098 1.477722,-1.433955 -6.039264 1.455608,-1.529668 -6.634614 1.282282,-1.114477 -4.921063 0.6555566,-1.044518 -4.943113 1.249361,-1.150219 -5.71148 1.23167,-1.293436 -6.181286 1.101831,-8.48464 -8.392824 -0.02921497,-7.793919 -8.0445 0.2427254,-7.260455 -7.182809 0.4567964,-6.972159 -6.338533 0.7307619,-6.700419 -5.724095 1.01797,-7.784915 -5.289397 -0.01248023,-7.627687 -4.078824 0.149298,-7.534859 -3.332295 0.3729731,-7.456854 -2.675104 0.5354459,-8.174999 -5.08702 0.1096871,-8.100969 -3.640361 0.2002214,-8.018971 -2.723284 0.4441528,-7.947762 -1.947367 0.619592,-8.558813 -5.166727 0.2926233,-8.511086 -3.771279 0.407159,-8.420075 -2.907352 0.628761,-8.312656 -2.183917 0.8147708,-8.96129 -5.479099 0.5156088,-9.059042 -4.407302 0.6819288,-9.069111 -3.696649 0.861663,-9.031556 -3.022262 0.9872653,4.610, 1 0
-1.636042 -7.200058 -0.3983034,-2.074366 -7.265337 0.5638047,-2.407677 -6.7166 1.135277,-2.420718 -5.987634 1.569696,-2.334767 -5.136827 2.044157,-2.328894 -5.054529 0.7677112,-2.314024 -4.395032 1.463989,-2.196724 -3.902745 1.908697,-2.059423 -3.458683 2.255621,-1.882121 -4.803882 0.5657907,-1.773595 -4.678026 1.472533,-1.773595 -4.678026 1.472533,-1.779909 -6.267835 1.741727,-1.450089 -4.817802 0.4588618,-1.350005 -4.981861 1.347283,-1.381701 -6.008697 1.308663,-1.482301 -6.630056 1.098324,-1.065348 -4.989706 0.4280768,-0.9947171 -4.89331 1.079096,-1.10184 -5.659347 1.047842,-1.248537 -6.151342 0.8953996,-8.478598 -8.399111 0.02131469,-7.794823 -8.050711 0.283188,-7.261082 -7.168273 0.4795822,-6.972221 -6.323108 0.735754,-6.692801 -5.724672 1.006596,-7.77292 -5.280546 0.03543725,-7.617441 -4.061899 0.1998242,-7.521734 -3.313993 0.4186099,-7.440418 -2.658015 0.5773912,-8.162164 -5.079565 0.1631957,-8.089195 -3.636774 0.2622225,-8.007017 -2.721763 0.5068086,-7.934373 -1.943975 0.6791419,-8.543701 -5.160283 0.3509278,-8.498098 -3.772061 0.4767966,-8.407018 -2.907579 0.7030214,-8.300401 -2.181636 0.8882406,-8.938596 -5.471895 0.5762039,-9.036618 -4.404632 0.7477621,-9.049956 -3.697403 0.9286362,-9.015582 -3.022258 1.055828,4.710, 1 0
-1.591479 -7.183463 -0.4042692,-2.059423 -7.227115 0.5655835,-2.367444 -6.660125 1.147483,-2.355705 -5.915639 1.582977,-2.273469 -5.055058 2.089867,-2.242651 -5.052415 0.8107088,-2.234565 -4.418981 1.596838,-2.117413 -3.975315 2.099689,-1.976308 -3.563228 2.466128,-1.781289 -4.791549 0.5784014,-1.686831 -4.726469 1.47719,-1.686831 -4.726469 1.47719,-1.737761 -6.434581 1.539251,-1.348724 -4.821496 0.4600778,-1.275292 -4.953741 1.339683,-1.339062 -5.99636 1.218337,-1.455062 -6.590343 0.9399763,-0.9809523 -5.006885 0.4155926,-0.9368086 -4.868438 1.046399,-1.063677 -5.625437 0.9637272,-1.203298 -6.097405 0.758808,-8.473856 -8.378744 -0.007285876,-7.787824 -8.03433 0.2619967,-7.249638 -7.162029 0.4654745,-6.957093 -6.318965 0.7328813,-6.680959 -5.709976 1.01783,-7.769651 -5.261528 -0.01869132,-7.615358 -4.045423 0.1240459,-7.520667 -3.292836 0.3322634,-7.442472 -2.63656 0.4859388,-8.156582 -5.066355 0.1054265,-8.077554 -3.625225 0.1795084,-7.994471 -2.714021 0.4169718,-7.920966 -1.94471 0.5867981,-8.536857 -5.146747 0.2917756,-8.484151 -3.759225 0.3995774,-8.395039 -2.900068 0.6227736,-8.288143 -2.177707 0.8076845,-8.931774 -5.455075 0.5179566,-9.034464 -4.393454 0.6767867,-9.054121 -3.694353 0.8534747,-9.023981 -3.024704 0.9796033,4.810, 1 0
-1.598049 -7.168907 -0.2434748,-2.056739 -7.187476 0.7427364,-2.347342 -6.61717 1.316914,-2.322609 -5.905923 1.741743,-2.245746 -5.047945 2.238892,-2.235431 -4.986889 0.9746134,-2.218441 -4.426246 1.761642,-2.101096 -3.984214 2.269928,-1.969559 -3.537963 2.651818,-1.771825 -4.724628 0.73561,-1.673856 -4.750497 1.648748,-1.673856 -4.750497 1.648748,-1.720447 -6.467466 1.74314,-1.333803 -4.770361 0.6157819,-1.242125 -4.98755 1.522776,-1.315951 -6.040864 1.416824,-1.43886 -6.63594 1.146287,-0.959095 -4.984313 0.5670484,-0.8992538 -4.905756 1.220454,-1.035834 -5.668842 1.146044,-1.187151 -6.147338 0.9501342,-8.46489 -8.381521 -0.001652632,-7.781294 -8.032101 0.2607404,-7.245467 -7.152236 0.4616577,-6.954108 -6.304056 0.7256986,-6.679822 -5.693955 1.007716,-7.764401 -5.268056 -0.001130202,-7.604526 -4.053092 0.1543502,-7.506252 -3.304594 0.3707273,-7.42467 -2.647499 0.5284606,-8.152576 -5.067647 0.1273597,-8.072896 -3.622161 0.2065741,-7.990266 -2.709598 0.4482942,-7.918953 -1.939323 0.6204074,-8.534709 -5.148136 0.3158669,-8.481603 -3.75525 0.4279971,-8.389838 -2.89116 0.6489445,-8.281742 -2.166649 0.8329467,-8.932586 -5.461174 0.542724,-9.031363 -4.391231 0.7050157,-9.048286 -3.686497 0.8830737,-9.017856 -3.012241 1.011531,4.910, 1 0
-1.548285 -7.123199 -0.4734526,-2.027871 -7.163241 0.5299535,-2.30675 -6.585791 1.119662,-2.278025 -5.851943 1.523454,-2.220975 -5.032682 1.961047,-2.157642 -5.064767 0.9010313,-2.152427 -4.45119 1.679515,-2.057411 -3.940237 2.173642,-1.934625 -3.433383 2.570309,-1.695138 -4.808485 0.6407064,-1.630866 -4.648488 1.539194,-1.630866 -4.648488 1.539194,-1.68758 -6.071092 1.673001,-1.270138 -4.816316 0.482539,-1.187304 -4.924146 1.366325,-1.289687 -5.975812 1.178711,-1.439649 -6.605543 0.8461227,-0.9111652 -5.005773 0.3968174,-0.8467903 -4.830368 1.043278,-0.9939251 -5.577343 0.9129046,-1.152574 -6.077579 0.6749188,-8.469294 -8.373796 0.008025557,-7.788547 -8.02282 0.2792262,-7.250452 -7.149429 0.4877372,-6.957466 -6.307281 0.7583089,-6.679693 -5.704465 1.046531,-7.759682 -5.260198 0.02267097,-7.597926 -4.048913 0.1779584,-7.504667 -3.30238 0.3902454,-7.429096 -2.647852 0.5467258,-8.152474 -5.05805 0.1484986,-8.071635 -3.621952 0.2302631,-7.990321 -2.713905 0.4718671,-7.919508 -1.950018 0.6478683,-8.537807 -5.138944 0.3361692,-8.482761 -3.751553 0.4527014,-8.39017 -2.890001 0.6775456,-8.281998 -2.168861 0.8655516,-8.938483 -5.453415 0.561471,-9.032776 -4.38026 0.7306684,-9.046435 -3.672613 0.9139599,-9.01223 -2.997904 1.047366,5.010, 1 0
-1.41067 -7.63809 2.469283,-1.90653 -7.343455 3.279841,-2.295012 -6.764539 3.89818,-2.360144 -6.012135 4.475385,-2.260308 -5.139707 5.083838,-2.180668 -4.809455 3.65991,-2.169497 -4.055357 4.385414,-2.079044 -3.688392 4.872877,-1.928934 -3.487207 5.164392,-1.726736 -4.411821 3.538535,-1.520333 -4.914236 4.297742,-1.520333 -4.914236 4.297742,-1.706167 -6.470948 4.568078,-1.305732 -4.464238 3.491879,-1.122215 -5.066123 4.174206,-1.230513 -6.043714 4.126482,-1.408126 -6.428859 3.993799,-0.9549122 -4.713165 3.527418,-0.7668295 -4.896289 4.032688,-0.8932848 -5.630826 4.039824,-1.08048 -5.965318 3.952703,-8.474531 -8.397997 0.05561057,-7.783226 -8.048361 0.3027086,-7.246996 -7.15854 0.4997219,-6.952968 -6.305356 0.7622535,-6.671323 -5.705635 1.042123,-7.762543 -5.274655 0.03842656,-7.604164 -4.075058 0.1868918,-7.511348 -3.329807 0.3991183,-7.436534 -2.673819 0.5558352,-8.155214 -5.067893 0.1707782,-8.081432 -3.621334 0.2393285,-7.999034 -2.710069 0.4684277,-7.929311 -1.940605 0.6322443,-8.540817 -5.143137 0.3629719,-8.492141 -3.74761 0.4653279,-8.39824 -2.884703 0.674832,-8.292093 -2.162185 0.8485151,-8.941009 -5.45294 0.592967,-9.041176 -4.375343 0.7505839,-9.053926 -3.66265 0.9195503,-9.021636 -2.989391 1.037174,5.110, 1 1
-1.479865 -7.491367 1.778904,-1.954343 -7.279088 2.617999,-2.311891 -6.736555 3.225223,-2.371854 -6.006586 3.768522,-2.269594 -5.122793 4.359883,-2.186596 -4.794914 2.979994,-2.173768 -4.138732 3.691062,-2.084023 -3.714784 4.143737,-1.944169 -3.347151 4.424293,-1.707442 -4.458999 2.826674,-1.548124 -4.856733 3.612698,-1.548124 -4.856733 3.612698,-1.717598 -6.491544 3.885544,-1.26193 -4.514708 2.75292,-1.141226 -5.016938 3.457553,-1.242787 -6.008933 3.411485,-1.408399 -6.455081 3.261407,-0.8959541 -4.771398 2.758973,-0.7531614 -4.836765 3.29205,-0.8909464 -5.554172 3.294409,-1.084937 -5.925747 3.175718,-8.479703 -8.389587 0.03237647,-7.792672 -8.023804 0.3006731,-7.25892 -7.161531 0.5121786,-6.968169 -6.319097 0.7809879,-6.692899 -5.713495 1.064761,-7.77211 -5.269198 0.06785817,-7.612199 -4.058145 0.2321524,-7.513007 -3.31992 0.4532878,-7.427081 -2.672302 0.6139028,-8.163778 -5.067865 0.1971314,-8.086812 -3.624595 0.29105,-8.001266 -2.709423 0.5350543,-7.926786 -1.940425 0.7149373,-8.548071 -5.150127 0.3860191,-8.496112 -3.759977 0.5077569,-8.400897 -2.894466 0.7357877,-8.290275 -2.172954 0.9271973,-8.948131 -5.466707 0.613072,-9.047497 -4.397459 0.7854283,-9.058671 -3.686556 0.9678954,-9.021574 -3.014562 1.100092,5.210, 1 1
-1.550376 -7.253826 0.8664656,-2.026221 -7.218307 1.825936,-2.347812 -6.613286 2.431672,-2.351125 -5.861619 2.917312,-2.256592 -4.991344 3.459453,-2.193716 -4.847623 2.216572,-2.189653 -4.177104 2.995173,-2.085037 -3.670175 3.513299,-1.941052 -3.224396 3.881155,-1.709352 -4.526174 1.994135,-1.598918 -4.788233 2.852896,-1.598918 -4.788233 2.852896,-1.700935 -6.587039 2.944963,-1.25701 -4.565555 1.881813,-1.1644 -4.896044 2.682525,-1.252868 -5.939973 2.591705,-1.40522 -6.502079 2.3794,-0.8832054 -4.788856 1.837616,-0.7886496 -4.744825 2.436971,-0.923604 -5.5016 2.393061,-1.103471 -5.966175 2.241135,-8.489524 -8.391485 -0.0007871709,-7.802355 -8.037773 0.2705762,-7.267139 -7.155772 0.4846611,-6.977233 -6.304573 0.7603183,-6.696187 -5.691905 1.055985,-7.784274 -5.276609 0.03269996,-7.628132 -4.059909 0.1951131,-7.534427 -3.304644 0.4138118,-7.458936 -2.643132 0.5752226,-8.178282 -5.078529 0.1568902,-8.098168 -3.632387 0.2491481,-8.010309 -2.714714 0.4930035,-7.935845 -1.937739 0.6663535,-8.564821 -5.163555 0.3402968,-8.511546 -3.767126 0.4586376,-8.414858 -2.901083 0.6815642,-8.304697 -2.17578 0.8655056,-8.965745 -5.477993 0.5603148,-9.058694 -4.395626 0.7318068,-9.070143 -3.679954 0.9125228,-9.036283 -3.001969 1.036752,5.310, 1 1
-1.601829 -7.114095 0.6589859,-2.084791 -7.13204 1.703741,-2.37774 -6.534126 2.323137,-2.336565 -5.793919 2.774436,-2.252735 -4.895908 3.269985,-2.213063 -4.815118 2.103419,-2.186757 -4.193141 2.949876,-2.083336 -3.653884 3.501244,-1.952321 -3.112887 3.924078,-1.730573 -4.469224 1.832963,-1.59758 -4.769897 2.749263,-1.59758 -4.769897 2.749263,-1.687527 -6.577566 2.763118,-1.275256 -4.49615 1.685517,-1.167926 -4.923193 2.572115,-1.266829 -5.99797 2.422832,-1.421535 -6.590618 2.140028,-0.9040279 -4.716877 1.611717,-0.8170114 -4.831674 2.229516,-0.9699345 -5.648835 2.118833,-1.152697 -6.109225 1.923353,-8.493445 -8.382242 -0.02064548,-7.811902 -8.036844 0.255853,-7.275566 -7.154977 0.4690706,-6.982028 -6.303731 0.7440428,-6.69682 -5.690156 1.036574,-7.794538 -5.273672 0.002939526,-7.637568 -4.064573 0.1572421,-7.546268 -3.312886 0.372719,-7.471604 -2.650361 0.5309128,-8.185556 -5.07415 0.1252611,-8.113128 -3.632278 0.2111998,-8.030446 -2.715011 0.4506836,-7.957225 -1.937245 0.620787,-8.57 -5.154655 0.3094015,-8.522866 -3.762619 0.4262045,-8.430751 -2.897733 0.6475039,-8.322701 -2.172494 0.8311042,-8.970463 -5.464258 0.5300905,-9.071464 -4.385613 0.7041986,-9.085325 -3.678746 0.87976,-9.052213 -3.013183 1.000356,5.410, 1 1
-1.549016 -7.078041 0.2164558,-2.038465 -7.159627 1.240467,-2.347036 -6.586002 1.850971,-2.335884 -5.818648 2.29042,-2.233222 -4.954192 2.770402,-2.1998 -4.906141 1.651803,-2.204473 -4.200721 2.479361,-2.089725 -3.667763 3.038498,-1.94151 -3.165455 3.459572,-1.727085 -4.57394 1.387715,-1.6093 -4.704521 2.253039,-1.6093 -4.704521 2.253039,-1.681781 -6.450086 2.298052,-1.281065 -4.585568 1.235681,-1.183988 -4.855082 2.086737,-1.266979 -5.898784 1.966792,-1.406549 -6.491806 1.705846,-0.9105368 -4.76404 1.158303,-0.8361015 -4.718259 1.74895,-0.9632349 -5.502101 1.643371,-1.118965 -5.969904 1.449517,-8.50775 -8.387943 -0.02190469,-7.825205 -8.040579 0.2599058,-7.289323 -7.170416 0.4842107,-6.997492 -6.319627 0.7672642,-6.718105 -5.702415 1.072134,-7.807253 -5.277676 0.02718732,-7.648615 -4.060174 0.1922015,-7.553782 -3.310166 0.4147611,-7.472181 -2.654208 0.5730201,-8.202348 -5.080995 0.146122,-8.133473 -3.633561 0.2398882,-8.050526 -2.715003 0.4797148,-7.97591 -1.936233 0.6474907,-8.589087 -5.16699 0.3254343,-8.546396 -3.774256 0.4403831,-8.450409 -2.909599 0.6536509,-8.340917 -2.184202 0.8289156,-8.98936 -5.483881 0.5434933,-9.085512 -4.398384 0.71035,-9.097947 -3.675693 0.8854528,-9.066994 -2.992348 1.004463,5.510, 1 1
-1.590548 -7.078745 0.07205749,-2.050962 -7.158829 1.09145,-2.353211 -6.609485 1.667199,-2.343611 -5.882391 2.084042,-2.222996 -5.041046 2.551211,-2.215802 -4.905592 1.440014,-2.216761 -4.180981 2.20723,-2.110933 -3.620634 2.751002,-1.960094 -3.109536 3.172812,-1.753935 -4.592577 1.185364,-1.620676 -4.787193 2.02869,-1.620676 -4.787193 2.02869,-1.646259 -6.488168 2.187549,-1.31985 -4.627459 1.037481,-1.20823 -4.924562 1.876889,-1.276224 -5.937109 1.835842,-1.39894 -6.559195 1.624201,-0.9574876 -4.835758 0.9609637,-0.8669004 -4.85186 1.571623,-0.9878654 -5.642222 1.513136,-1.145936 -6.13088 1.360802,-8.528114 -8.404606 0.009949953,-7.845565 -8.041977 0.2819699,-7.317443 -7.170965 0.5023143,-7.032104 -6.323987 0.7859083,-6.750584 -5.714389 1.088177,-7.830803 -5.284065 0.03583797,-7.68434 -4.069581 0.1969059,-7.593911 -3.32741 0.4201417,-7.516496 -2.676029 0.5821834,-8.222077 -5.087945 0.1648142,-8.162279 -3.631608 0.2528623,-8.080271 -2.715353 0.4872838,-8.007172 -1.935141 0.6501076,-8.605288 -5.171682 0.3532429,-8.572185 -3.771573 0.4678973,-8.481067 -2.905729 0.6796134,-8.377895 -2.176736 0.8543142,-9.001779 -5.487099 0.5818272,-9.108958 -4.40652 0.7482584,-9.126707 -3.687361 0.9191728,-9.102448 -3.012566 1.034282,5.610, 1 1
-1.689713 -7.219939 -0.5396743,-2.140269 -7.306777 0.410614,-2.459872 -6.749479 0.9063716,-2.504606 -5.991922 1.280167,-2.47039 -5.177131 1.698822,-2.471214 -5.098375 0.6319914,-2.47421 -4.161978 1.180499,-2.368916 -3.558558 1.618481,-2.198859 -3.089074 1.9926,-2.051794 -4.893503 0.4501539,-1.846739 -4.619759 1.253976,-1.846739 -4.619759 1.253976,-1.681176 -6.090118 1.834136,-1.638926 -4.880033 0.3315285,-1.42937 -5.026914 1.103625,-1.386211 -6.002473 1.261081,-1.437908 -6.754975 1.230626,-1.259569 -4.99999 0.281433,-1.107934 -5.002813 0.9343984,-1.129404 -5.773967 1.030052,-1.230701 -6.335126 1.031547,-8.561459 -8.420534 0.04653418,-7.871119 -8.052914 0.3163022,-7.337302 -7.179197 0.5243536,-7.04649 -6.328487 0.7950368,-6.769029 -5.716751 1.080138,-7.868123 -5.291753 0.05856453,-7.721209 -4.075883 0.2094309,-7.62788 -3.335215 0.4192552,-7.547834 -2.684612 0.5744889,-8.257143 -5.092287 0.1802518,-8.194008 -3.633745 0.2649632,-8.111661 -2.716033 0.49409,-8.036946 -1.937418 0.6570767,-8.637421 -5.171707 0.3630539,-8.600626 -3.775531 0.4664297,-8.512576 -2.911829 0.6704659,-8.407826 -2.188556 0.8441161,-9.030715 -5.48014 0.5841899,-9.131647 -4.408719 0.7413203,-9.145239 -3.701012 0.9094723,-9.111113 -3.043898 1.023649,5.710, 1 1
-1.739174 -7.365711 -1.077395,-2.180933 -7.445005 -0.1095805,-2.534232 -6.828495 0.3202043,-2.626969 -5.987519 0.6291345,-2.703679 -5.180167 0.9702629,-2.526791 -5.312662 0.03008771,-2.582654 -4.25875 0.5737274,-2.498906 -3.594162 1.015925,-2.353599 -3.062391 1.397345,-2.130325 -5.162462 -0.2086312,-1.880183 -4.596639 0.6194713,-1.880183 -4.596639 0.6194713,-1.70509 -6.011225 1.119922,-1.740278 -5.17805 -0.3748695,-1.461028 -5.052906 0.4526924,-1.410137 -5.991273 0.6167403,-1.485168 -6.741405 0.5514328,-1.39257 -5.296247 -0.4709097,-1.178079 -5.084018 0.2700313,-1.183924 -5.77581 0.4369637,-1.302956 -6.326427 0.4488999,-8.554037 -8.432095 0.03375533,-7.867716 -8.060648 0.2854041,-7.338181 -7.183834 0.4927405,-7.051438 -6.324682 0.7630725,-6.774535 -5.710973 1.050777,-7.874709 -5.303621 0.05064003,-7.736836 -4.075774 0.2039824,-7.646282 -3.328253 0.4166546,-7.570059 -2.668483 0.5732905,-8.26221 -5.107355 0.1888173,-8.203272 -3.63977 0.2805263,-8.121511 -2.721259 0.510903,-8.050255 -1.946461 0.6708847,-8.640307 -5.189195 0.385644,-8.609753 -3.789245 0.5037782,-8.52096 -2.918465 0.7193831,-8.41787 -2.190189 0.8980735,-9.031126 -5.503759 0.6177702,-9.144913 -4.422086 0.7907912,-9.164054 -3.70657 0.9676225,-9.135125 -3.041601 1.087328,5.810, 1 1
-1.967965 -7.608543 -0.7539333,-2.500913 -7.430314 -0.003924489,-2.830861 -6.722288 0.3742633,-2.982351 -5.870695 0.6655566,-3.203197 -5.132 0.9889388,-2.737157 -5.280527 -0.1760187,-2.866317 -4.309923 0.2013695,-2.826844 -3.639665 0.5490719,-2.72185 -3.120989 0.8199885,-2.337192 -5.172433 -0.37554,-2.234914 -4.227598 0.2649622,-2.234914 -4.227598 0.2649622,-2.052507 -5.201177 0.941577,-1.991646 -5.223767 -0.4789183,-1.846369 -4.429145 0.1078049,-1.799966 -4.935197 0.4665947,-1.78973 -5.516717 0.5422021,-1.667404 -5.402519 -0.5425301,-1.487551 -4.767643 -0.08054072,-1.47917 -4.978668 0.2345899,-1.512396 -5.342203 0.3687391,-8.550543 -8.471085 0.02298346,-7.857667 -8.101236 0.2741422,-7.331725 -7.215349 0.4721958,-7.050138 -6.344614 0.7374641,-6.780068 -5.720906 1.022562,-7.886885 -5.338643 0.007545194,-7.748209 -4.097494 0.1488052,-7.656151 -3.343796 0.3526415,-7.57955 -2.684698 0.5080148,-8.276285 -5.146245 0.1363509,-8.20217 -3.6705 0.221147,-8.11992 -2.750139 0.4570571,-8.048171 -1.964203 0.6251876,-8.652614 -5.230617 0.3248608,-8.606022 -3.809728 0.437542,-8.525124 -2.9347 0.6584741,-8.425094 -2.198997 0.8459807,-9.041282 -5.54841 0.546681,-9.149471 -4.471639 0.7164621,-9.172994 -3.769767 0.896782,-9.147353 -3.10592 1.024616,5.910, 1 1
-2.055774 -7.664079 -0.2261877,-2.599627 -7.527591 0.4901767,-3.001492 -6.827714 0.786038,-3.171745 -6.028717 1.016843,-3.407555 -5.290809 1.279542,-2.885527 -5.25699 0.1726934,-3.08119 -4.226758 0.3412097,-3.140509 -3.552855 0.6117281,-3.129551 -2.981004 0.8829744,-2.503232 -5.063835 -0.06241038,-2.565445 -4.025161 0.1507143,-2.565445 -4.025161 0.1507143,-2.428829 -3.397018 0.7663133,-2.160444 -5.090845 -0.191821,-2.176883 -4.179074 -0.03129961,-2.138666 -3.733015 0.3578848,-2.059676 -3.650831 0.6476079,-1.829415 -5.276574 -0.279081,-1.734095 -4.600126 -0.07270901,-1.676317 -4.275975 0.2525898,-1.616939 -4.158622 0.5199236,-8.542841 -8.507326 0.07105865,-7.851208 -8.132233 0.3107776,-7.327862 -7.242383 0.5078491,-7.050066 -6.373375 0.7741458,-6.782294 -5.757171 1.061897,-7.87673 -5.358797 0.0485337,-7.744427 -4.121192 0.1862841,-7.654481 -3.371095 0.3894761,-7.575973 -2.715835 0.5444549,-8.266318 -5.168893 0.184772,-8.201664 -3.693247 0.268253,-8.122022 -2.772841 0.4996844,-8.04995 -1.989287 0.6686422,-8.64313 -5.256711 0.3792443,-8.605341 -3.830471 0.4867463,-8.526239 -2.953997 0.7003799,-8.426088 -2.217071 0.8863503,-9.031208 -5.575651 0.6088019,-9.145421 -4.490386 0.7722153,-9.169914 -3.782063 0.9452864,-9.143028 -3.115026 1.06996,6.010, 1 1
-2.051351 -7.739295 0.02653708,-2.59501 -7.57834 0.7167748,-3.032465 -6.918567 0.9790043,-3.235283 -6.115502 1.174922,-3.479925 -5.388664 1.400625,-2.925348 -5.283079 0.3188283,-3.133223 -4.254261 0.4367918,-3.204991 -3.575784 0.6608108,-3.199909 -3.015274 0.8896552,-2.577477 -5.075227 0.05781376,-2.675869 -4.038175 0.1059228,-2.675869 -4.038175 0.1059228,-2.537736 -3.111858 0.4884522,-2.24634 -5.096336 -0.09758763,-2.27566 -4.185661 -0.07451762,-2.213735 -3.718161 0.1607702,-2.099143 -3.455935 0.3424965,-1.923484 -5.313706 -0.1912241,-1.832273 -4.641943 -0.09326658,-1.745993 -4.281053 0.105223,-1.641776 -4.039692 0.2766997,-8.551073 -8.526478 0.1178825,-7.856347 -8.14991 0.3373511,-7.330132 -7.249641 0.5185858,-7.05132 -6.377977 0.774779,-6.779111 -5.758226 1.050456,-7.874813 -5.366806 0.05070915,-7.746202 -4.131361 0.1771572,-7.657579 -3.376174 0.3787503,-7.581777 -2.715401 0.5297978,-8.263611 -5.174457 0.1934784,-8.206902 -3.706028 0.2595323,-8.127273 -2.780941 0.4824641,-8.053575 -2.001881 0.6390312,-8.638873 -5.261313 0.3977407,-8.612607 -3.840749 0.4900426,-8.532033 -2.965991 0.691717,-8.429834 -2.237826 0.8673172,-9.023815 -5.57958 0.6354077,-9.141412 -4.491641 0.790585,-9.161509 -3.780406 0.9616204,-9.130336 -3.120684 1.079974,6.110, 1 1
-2.070359 -7.863288 -0.1002626,-2.627721 -7.686514 0.5296443,-3.079845 -7.077251 0.7790164,-3.320383 -6.32164 0.9665407,-3.57642 -5.600382 1.166728,-2.971615 -5.496644 0.2410319,-3.23304 -4.43078 0.4117764,-3.338518 -3.709321 0.6365032,-3.372417 -3.079404 0.8707767,-2.631008 -5.247484 0.04978876,-2.785953 -4.078405 0.1434745,-2.785953 -4.078405 0.1434745,-2.788366 -2.731822 0.5307275,-2.2987 -5.219233 -0.05002537,-2.376448 -4.17746 0.02251492,-2.397694 -3.531885 0.2525914,-2.367968 -2.992442 0.4397315,-1.961719 -5.376608 -0.09596824,-1.929237 -4.55874 0.01833929,-1.9153 -4.064109 0.1895418,-1.87908 -3.621633 0.3297996,-8.562449 -8.545353 0.1463611,-7.870113 -8.166243 0.3642056,-7.347469 -7.254398 0.5488334,-7.067763 -6.385753 0.8088903,-6.790477 -5.782897 1.091657,-7.889924 -5.369301 0.1000287,-7.774215 -4.12816 0.2384204,-7.691669 -3.377573 0.448751,-7.617771 -2.714574 0.6033682,-8.280148 -5.185451 0.2496911,-8.236158 -3.700436 0.3260812,-8.162238 -2.766509 0.5563095,-8.096815 -1.983974 0.7187939,-8.658566 -5.278573 0.4577406,-8.637362 -3.856824 0.5529206,-8.557938 -2.97588 0.7517352,-8.46256 -2.245468 0.9244146,-9.049983 -5.605667 0.7014669,-9.162066 -4.502208 0.8593436,-9.176743 -3.782188 1.024262,-9.145348 -3.119876 1.136835,6.210, 1 1
-1.944344 -7.891197 -0.347944,-2.735698 -7.75043 0.3382108,-3.425469 -7.09568 0.5746025,-3.683672 -6.214276 0.9254724,-4.064064 -5.171448 1.148942,-3.169157 -5.41605 -0.1966382,-3.628489 -4.245884 0.01496108,-3.820581 -3.324453 0.2741954,-3.740794 -2.59745 0.9798949,-2.538697 -5.031646 -0.1790019,-2.824385 -3.932781 -0.002646692,-2.824385 -3.932781 -0.002646692,-2.887563 -2.225737 0.7471429,-2.016236 -5.156806 -0.3346369,-2.155014 -3.98034 -0.1371381,-2.268565 -3.138105 0.192499,-2.248693 -2.406778 0.61695,-1.4338 -5.338162 -0.4682081,-1.461561 -4.371789 -0.1397864,-1.437032 -3.698533 0.2243069,-1.443131 -3.060319 0.5475555,-8.586375 -8.578577 0.2164939,-7.725567 -8.095675 0.4598709,-7.143968 -6.9951 0.3703199,-6.849836 -6.004279 0.452983,-6.504766 -5.18877 0.6740441,-7.742842 -5.221084 -0.04826774,-7.547483 -4.01609 0.1156296,-7.33338 -3.069365 0.2915559,-7.15667 -2.209024 0.4038059,-8.249188 -4.901224 0.2349464,-8.110717 -3.407345 0.2317021,-7.928349 -2.304155 0.38819,-7.792436 -1.346934 0.530277,-8.787133 -4.998834 0.5770876,-8.708659 -3.560022 0.5296594,-8.499998 -2.573109 0.684518,-8.356029 -1.642215 0.8442448,-9.194767 -5.616958 0.8864914,-9.391847 -4.285408 0.9373238,-9.42143 -3.368268 1.080995,-9.325747 -2.508261 1.129947,6.310, 1 1
-2.104436 -8.058298 -0.1282574,-2.676965 -7.909909 0.4844012,-3.14949 -7.329139 0.7493275,-3.397715 -6.574753 0.9504629,-3.630993 -5.852054 1.161421,-3.034355 -5.755207 0.3139761,-3.300196 -4.679599 0.5458177,-3.416426 -3.962889 0.7796022,-3.468678 -3.310821 1.00187,-2.702064 -5.471156 0.1651313,-2.889129 -4.253179 0.3389825,-2.889129 -4.253179 0.3389825,-2.982932 -2.796577 0.7382226,-2.371881 -5.419189 0.1037159,-2.493732 -4.322558 0.2569212,-2.560165 -3.615109 0.4791963,-2.577336 -2.962456 0.671206,-2.019599 -5.55862 0.0885849,-2.02104 -4.672019 0.2651647,-2.03225 -4.13154 0.4544901,-2.022055 -3.615451 0.6073723,-8.625871 -8.620918 0.2676106,-7.932055 -8.222198 0.4545641,-7.408667 -7.293906 0.6135253,-7.129133 -6.42366 0.854784,-6.847525 -5.828602 1.114407,-7.936583 -5.411586 0.1516696,-7.82526 -4.165213 0.2645334,-7.745107 -3.40599 0.4598435,-7.677726 -2.738744 0.6027324,-8.327691 -5.226242 0.3053322,-8.297694 -3.747642 0.3407744,-8.229604 -2.800395 0.5536829,-8.167313 -2.018203 0.7077678,-8.707683 -5.321046 0.5183417,-8.696489 -3.909185 0.5764439,-8.62679 -3.022515 0.755132,-8.537598 -2.296184 0.9174324,-9.098854 -5.648842 0.766171,-9.219086 -4.551024 0.8972311,-9.237432 -3.840752 1.047976,-9.20439 -3.20158 1.147706,6.410, 1 1
-2.096917 -8.12994 -0.07159688,-2.686688 -7.952087 0.4789111,-3.1657 -7.366241 0.7282902,-3.423161 -6.619619 0.9260656,-3.651592 -5.921739 1.134261,-3.035638 -5.816991 0.3200812,-3.3191 -4.753695 0.5588025,-3.437687 -4.052989 0.7821256,-3.49032 -3.406796 0.9847692,-2.710687 -5.52908 0.2147246,-2.926743 -4.309379 0.4022316,-2.926743 -4.309379 0.4022316,-3.033016 -2.82704 0.8161502,-2.38536 -5.472875 0.1906646,-2.53333 -4.357532 0.3597066,-2.609797 -3.630406 0.5761787,-2.63812 -2.948434 0.7632908,-2.028179 -5.608448 0.2102084,-2.045402 -4.701086 0.3989261,-2.064277 -4.144376 0.5902603,-2.059675 -3.613613 0.7419586,-8.634205 -8.62285 0.2527949,-7.939793 -8.239277 0.4690744,-7.421957 -7.313747 0.6538187,-7.150707 -6.433847 0.9109831,-6.86705 -5.837033 1.182999,-7.963378 -5.41959 0.2115944,-7.849601 -4.168264 0.3482804,-7.769536 -3.410215 0.5486956,-7.701267 -2.734771 0.6994321,-8.357996 -5.231771 0.3505274,-8.315251 -3.76018 0.4165756,-8.24104 -2.820409 0.6343397,-8.172992 -2.036526 0.7964304,-8.739651 -5.330678 0.5485624,-8.720407 -3.91686 0.6301292,-8.648218 -3.029877 0.8200646,-8.557353 -2.294561 0.9916043,-9.129945 -5.664174 0.7809793,-9.245839 -4.580222 0.9246699,-9.262091 -3.873764 1.088243,-9.224937 -3.224756 1.20397,6.510, 1 1
-2.096595 -8.223265 0.1108457,-2.690018 -8.044281 0.6398948,-3.183984 -7.432425 0.8750193,-3.446383 -6.677517 1.069788,-3.681976 -5.989021 1.279956,-3.069176 -5.867853 0.4945221,-3.353256 -4.806619 0.7335244,-3.468794 -4.104511 0.9519532,-3.519566 -3.454289 1.155077,-2.738816 -5.576013 0.4034677,-2.951861 -4.359944 0.6037629,-2.951861 -4.359944 0.6037629,-3.049529 -2.890561 1.020721,-2.406 -5.520765 0.3958246,-2.556882 -4.412264 0.574968,-2.635108 -3.696118 0.8016029,-2.664145 -3.020248 0.998679,-2.041871 -5.662806 0.4272548,-2.067339 -4.757892 0.6270711,-2.091263 -4.205836 0.8247131,-2.094274 -3.673288 0.9786159,-8.642539 -8.623793 0.2063108,-7.951217 -8.239037 0.448869,-7.425296 -7.30734 0.6386368,-7.144788 -6.424535 0.898391,-6.859016 -5.816304 1.177333,-7.962789 -5.433948 0.1784909,-7.848528 -4.185559 0.3225916,-7.764437 -3.440175 0.5343011,-7.691573 -2.783517 0.6937072,-8.351888 -5.247654 0.3170318,-8.305456 -3.779163 0.3903144,-8.226658 -2.843161 0.6177512,-8.14966 -2.053861 0.7896079,-8.73045 -5.345336 0.5207061,-8.708614 -3.92947 0.6176554,-8.636638 -3.042914 0.8265795,-8.541416 -2.300094 1.016176,-9.118428 -5.678932 0.7628189,-9.241405 -4.598848 0.9149522,-9.271819 -3.896898 1.084939,-9.248086 -3.232486 1.21284,6.610, 1 1
-2.104673 -8.262104 0.1366001,-2.701401 -8.043653 0.6178163,-3.192232 -7.438688 0.8335574,-3.457481 -6.683116 1.021302,-3.700375 -6.000462 1.230301,-3.069363 -5.881221 0.4297223,-3.351669 -4.82037 0.645276,-3.468719 -4.121992 0.8462183,-3.522896 -3.474204 1.038167,-2.743108 -5.599053 0.3530466,-2.952837 -4.382801 0.5307165,-2.952837 -4.382801 0.5307165,-3.046427 -2.908257 0.9277292,-2.414385 -5.549762 0.3607284,-2.560937 -4.437418 0.5185032,-2.639332 -3.720916 0.7328188,-2.67247 -3.048179 0.9169179,-2.053089 -5.695752 0.4046197,-2.074965 -4.786103 0.5906205,-2.099475 -4.231729 0.778779,-2.104234 -3.693456 0.9219831,-8.635648 -8.619083 0.1972441,-7.939677 -8.239561 0.4405368,-7.420564 -7.318705 0.6391757,-7.146716 -6.448415 0.9085233,-6.863428 -5.848694 1.199048,-7.957137 -5.426528 0.1791898,-7.848541 -4.181758 0.3300503,-7.773308 -3.423838 0.5427312,-7.70912 -2.751646 0.696354,-8.350077 -5.245388 0.3162413,-8.314352 -3.776538 0.3962126,-8.24194 -2.838871 0.6237064,-8.172893 -2.054224 0.7870747,-8.731702 -5.345511 0.5176488,-8.721315 -3.935698 0.6189893,-8.650212 -3.047025 0.8263783,-8.55762 -2.309084 1.007037,-9.124095 -5.677378 0.7567248,-9.244684 -4.591385 0.9146871,-9.269059 -3.878608 1.08611,-9.240379 -3.211694 1.207691,6.710, 1 1
-2.09488 -8.32147 0.1690983,-2.695019 -8.105993 0.6646275,-3.193031 -7.505718 0.8913215,-3.456806 -6.74847 1.084348,-3.696455 -6.061128 1.294793,-3.074039 -5.939874 0.5037638,-3.359093 -4.876298 0.7288251,-3.472112 -4.176879 0.9384389,-3.521832 -3.522159 1.135196,-2.74873 -5.656183 0.4264277,-2.962804 -4.436227 0.6172842,-2.962804 -4.436227 0.6172842,-3.049852 -2.970908 1.030547,-2.419868 -5.602053 0.4314987,-2.571187 -4.495544 0.6004146,-2.646264 -3.781029 0.8216213,-2.677304 -3.104197 1.013537,-2.05772 -5.744079 0.4741536,-2.082137 -4.840318 0.6673703,-2.103218 -4.291491 0.855072,-2.104091 -3.756144 1.001012,-8.628406 -8.618326 0.1182273,-7.929779 -8.234718 0.3308969,-7.411657 -7.319093 0.5097275,-7.13956 -6.449081 0.7648407,-6.861281 -5.848121 1.034087,-7.95865 -5.445282 0.07280046,-7.855077 -4.187744 0.2219638,-7.77592 -3.425162 0.4333768,-7.70822 -2.744206 0.5881885,-8.349162 -5.266332 0.2242643,-8.314798 -3.794782 0.3069867,-8.242648 -2.847478 0.537306,-8.17477 -2.058015 0.7049543,-8.73007 -5.374362 0.436785,-8.722021 -3.960857 0.5436438,-8.651533 -3.068307 0.7518619,-8.558708 -2.328201 0.9355062,-9.12238 -5.718265 0.6840917,-9.244031 -4.635752 0.851152,-9.260321 -3.927999 1.029162,-9.222396 -3.27311 1.152202,6.810, 1 1
-2.022848 -8.25107 0.1086992,-2.742328 -8.118673 0.643051,-3.368704 -7.496873 0.8700166,-3.645565 -6.659283 1.115885,-3.944126 -5.837045 1.320205,-3.16373 -5.86767 0.2855803,-3.54088 -4.788377 0.493468,-3.687624 -4.000843 0.7137488,-3.676896 -3.298187 1.133669,-2.705011 -5.528257 0.2900952,-2.962094 -4.349476 0.4894416,-2.962094 -4.349476 0.4894416,-3.055367 -2.724871 1.062212,-2.260983 -5.561243 0.2504966,-2.437718 -4.399965 0.4526498,-2.557457 -3.606741 0.7205539,-2.592554 -2.871721 1.01475,-1.794853 -5.695907 0.254957,-1.838993 -4.747093 0.5242479,-1.846348 -4.128025 0.7892051,-1.865294 -3.514292 1.000185,-8.624187 -8.620577 0.121173,-7.845303 -8.205908 0.3937389,-7.296108 -7.204402 0.4509832,-7.015302 -6.269706 0.6412585,-6.705138 -5.546213 0.9068749,-7.865942 -5.365901 0.01166277,-7.715954 -4.128528 0.1714547,-7.576488 -3.266687 0.3688817,-7.455578 -2.493339 0.4997301,-8.32167 -5.119293 0.2056267,-8.238724 -3.656051 0.2424871,-8.11458 -2.623606 0.4345355,-8.011418 -1.747312 0.5899311,-8.781738 -5.237096 0.4661943,-8.74122 -3.815808 0.4992895,-8.608257 -2.866893 0.68288,-8.490373 -2.028452 0.8585605,-9.182589 -5.701311 0.741068,-9.352688 -4.508453 0.8399026,-9.387443 -3.707504 1.001623,-9.334902 -2.946112 1.095331,6.910, 1 1
-2.110383 -8.430973 0.2759211,-2.703185 -8.215878 0.7741135,-3.207416 -7.607264 0.9906514,-3.480184 -6.84532 1.177344,-3.729109 -6.163675 1.377426,-3.104371 -6.014949 0.5551619,-3.373228 -4.961439 0.7517359,-3.481064 -4.266307 0.9450183,-3.531364 -3.620453 1.133675,-2.782894 -5.73373 0.4741347,-2.99189 -4.53044 0.6352783,-2.99189 -4.53044 0.6352783,-3.079321 -3.067041 1.031433,-2.45424 -5.683384 0.4779273,-2.602669 -4.589161 0.6221825,-2.677831 -3.882127 0.8320178,-2.712708 -3.219184 1.010947,-2.091764 -5.831132 0.5244695,-2.118927 -4.930183 0.6971605,-2.142129 -4.381766 0.8734354,-2.146093 -3.854648 1.01483,-8.626312 -8.623528 0.1196978,-7.929815 -8.249729 0.3338398,-7.410442 -7.33288 0.5112143,-7.139111 -6.46479 0.7639419,-6.867373 -5.854593 1.033571,-7.960949 -5.450782 0.04757016,-7.844431 -4.206254 0.1831857,-7.760929 -3.450888 0.3911459,-7.691915 -2.78343 0.5416122,-8.350265 -5.269971 0.1918454,-8.310925 -3.806209 0.249203,-8.239437 -2.869827 0.4674992,-8.170571 -2.088266 0.6283255,-8.729528 -5.372186 0.4000163,-8.714466 -3.962628 0.4820822,-8.645679 -3.078354 0.6782954,-8.552989 -2.343816 0.8567494,-9.11881 -5.706111 0.6428747,-9.244544 -4.624678 0.7851204,-9.271928 -3.91794 0.9507685,-9.243672 -3.260753 1.069043,7.010, 1 1
-2.132625 -8.496698 0.3626323,-2.730474 -8.267427 0.823099,-3.233459 -7.651387 1.026606,-3.505333 -6.884587 1.208469,-3.769195 -6.211074 1.409167,-3.126227 -6.056493 0.5927484,-3.397811 -5.012286 0.7796462,-3.509956 -4.332902 0.9642117,-3.566345 -3.694319 1.14433,-2.808424 -5.772657 0.5311555,-3.021113 -4.579269 0.6842296,-3.021113 -4.579269 0.6842296,-3.123445 -3.137449 1.056052,-2.482744 -5.717538 0.5539007,-2.631263 -4.626783 0.6858802,-2.707755 -3.927301 0.8842748,-2.749736 -3.274536 1.051397,-2.1208 -5.86636 0.6182928,-2.145222 -4.960647 0.7781397,-2.163713 -4.405063 0.9429712,-2.165909 -3.872108 1.078052,-8.634426 -8.635458 0.0965554,-7.934484 -8.267729 0.3159325,-7.418136 -7.362657 0.4990113,-7.146102 -6.49584 0.7560044,-6.878952 -5.883136 1.028714,-7.961764 -5.474971 0.04668655,-7.849083 -4.22639 0.1905661,-7.767549 -3.468109 0.404072,-7.698636 -2.798627 0.5560088,-8.349445 -5.289855 0.1918605,-8.312548 -3.824409 0.2570759,-8.238784 -2.883991 0.4747642,-8.167071 -2.103651 0.6336908,-8.728811 -5.38784 0.4013599,-8.717177 -3.978467 0.4853215,-8.648857 -3.08943 0.6810409,-8.555861 -2.352006 0.8571057,-9.120083 -5.719917 0.6481024,-9.247512 -4.636632 0.7937068,-9.275434 -3.920782 0.9605151,-9.248552 -3.26027 1.074626,7.110, 1 1
-2.058682 -8.391235 0.2497214,-2.791313 -8.235371 0.7352689,-3.422466 -7.589118 0.9347822,-3.699887 -6.738653 1.167159,-4.018063 -5.933549 1.364878,-3.216488 -5.967325 0.3551064,-3.595533 -4.903179 0.5316064,-3.741179 -4.133155 0.726975,-3.729698 -3.445023 1.116978,-2.761456 -5.629241 0.3787116,-3.032322 -4.468168 0.5514642,-3.032322 -4.468168 0.5514642,-3.138291 -2.876874 1.083444,-2.320318 -5.657526 0.357792,-2.506771 -4.504905 0.5262781,-2.629313 -3.722334 0.7672014,-2.668507 -3.005187 1.033382,-1.855164 -5.794492 0.3809412,-1.909482 -4.834822 0.6098645,-1.919084 -4.204978 0.8477445,-1.939994 -3.591054 1.049559,-8.631809 -8.632465 0.1040384,-7.844037 -8.2355 0.3811409,-7.299765 -7.225774 0.4423172,-7.01895 -6.2891 0.6295958,-6.708878 -5.579051 0.8974249,-7.873646 -5.388974 -0.002335638,-7.730887 -4.157362 0.1611098,-7.589763 -3.298895 0.3631417,-7.470252 -2.524555 0.500182,-8.330685 -5.135892 0.1913953,-8.250855 -3.66143 0.2355362,-8.124531 -2.624664 0.4270249,-8.018608 -1.742305 0.5863213,-8.792129 -5.244468 0.4516807,-8.749995 -3.805296 0.4838357,-8.611485 -2.855062 0.6656576,-8.487528 -2.00888 0.8441979,-9.191869 -5.711497 0.7277684,-9.356025 -4.509669 0.8289043,-9.387625 -3.702657 0.9901645,-9.332334 -2.932552 1.085836,7.210, 1 1
-2.14766 -8.445351 0.3423028,-2.745429 -8.209658 0.8014215,-3.249443 -7.601485 1.004437,-3.523448 -6.844134 1.184256,-3.786896 -6.181661 1.383678,-3.139776 -6.00385 0.5733227,-3.418106 -4.960861 0.7430905,-3.529324 -4.287785 0.9136807,-3.581188 -3.664373 1.081524,-2.82722 -5.72759 0.4995588,-3.048326 -4.528797 0.6349897,-3.048326 -4.528797 0.6349897,-3.137285 -3.115213 0.9858468,-2.50815 -5.672189 0.5060267,-2.664171 -4.579429 0.6245573,-2.73993 -3.890161 0.8175494,-2.778169 -3.251559 0.9757837,-2.151902 -5.81749 0.5573319,-2.181678 -4.917729 0.6987479,-2.200327 -4.370148 0.8514033,-2.19983 -3.8498 0.9737287,-8.637521 -8.647144 0.1744903,-7.935079 -8.290897 0.3897433,-7.421832 -7.357166 0.5669647,-7.155186 -6.485162 0.8243229,-6.880662 -5.884862 1.100372,-7.963409 -5.461086 0.08765812,-7.862788 -4.216108 0.2184517,-7.787609 -3.452041 0.4212938,-7.720861 -2.776454 0.5706338,-8.354917 -5.278146 0.2340707,-8.324804 -3.806367 0.2860712,-8.251084 -2.857519 0.504017,-8.180008 -2.068268 0.6628858,-8.735065 -5.375459 0.4448681,-8.725468 -3.957018 0.5217884,-8.656617 -3.063118 0.7205793,-8.564159 -2.316656 0.8989897,-9.126766 -5.705104 0.6934636,-9.254082 -4.612585 0.8365805,-9.279508 -3.906106 0.9990686,-9.252355 -3.25147 1.112582,7.310, 1 1
-2.152379 -8.440756 0.361421,-2.751812 -8.208721 0.8002251,-3.262421 -7.584107 0.9884267,-3.538857 -6.812963 1.1553,-3.805385 -6.139078 1.338492,-3.154575 -5.997196 0.5618363,-3.434572 -4.951921 0.7227463,-3.546873 -4.274101 0.8833579,-3.595497 -3.650592 1.041133,-2.844167 -5.719188 0.4950373,-3.068001 -4.521123 0.6336631,-3.068001 -4.521123 0.6336631,-3.156815 -3.088872 0.98224,-2.526246 -5.66119 0.5087948,-2.688614 -4.569274 0.628171,-2.766983 -3.874258 0.8204101,-2.804112 -3.227443 0.9771737,-2.170925 -5.801461 0.5659036,-2.209088 -4.89937 0.7032399,-2.230479 -4.349205 0.8566974,-2.230046 -3.822868 0.9821591,-8.641978 -8.638195 0.1716335,-7.942999 -8.276384 0.4304507,-7.422626 -7.351949 0.6276674,-7.148891 -6.480346 0.8917375,-6.876659 -5.878719 1.171256,-7.964316 -5.460964 0.162016,-7.849824 -4.215359 0.3184993,-7.767797 -3.464082 0.5321737,-7.697865 -2.798151 0.6923589,-8.356153 -5.271847 0.2902818,-8.307777 -3.804841 0.3754113,-8.231142 -2.864297 0.607502,-8.159758 -2.067181 0.7804026,-8.7382 -5.371495 0.4845702,-8.716655 -3.956988 0.5943136,-8.645205 -3.067023 0.8067666,-8.553123 -2.3163 0.9970363,-9.131311 -5.706056 0.7174257,-9.249642 -4.619493 0.8811924,-9.277483 -3.909343 1.061162,-9.253298 -3.233745 1.194836,7.410, 1 1
-2.093797 -8.355162 0.2869133,-2.817422 -8.192738 0.7200066,-3.449676 -7.533428 0.8897337,-3.732882 -6.678449 1.107145,-4.061897 -5.876741 1.296862,-3.255774 -5.917325 0.3158813,-3.639149 -4.855969 0.4732465,-3.784234 -4.089303 0.654296,-3.765158 -3.414061 1.029917,-2.813463 -5.584144 0.3610359,-3.09024 -4.429443 0.5418297,-3.09024 -4.429443 0.5418297,-3.188499 -2.843738 1.055226,-2.377872 -5.613504 0.364349,-2.576146 -4.46256 0.5338352,-2.701043 -3.6888 0.774937,-2.739576 -2.978419 1.032102,-1.914724 -5.757915 0.4065426,-1.975647 -4.801836 0.63972,-1.990049 -4.17708 0.8769978,-2.012675 -3.566872 1.071967,-8.639478 -8.640459 0.177962,-7.859987 -8.232126 0.4427035,-7.312119 -7.219062 0.4918423,-7.027502 -6.286808 0.68248,-6.710732 -5.570205 0.9454442,-7.874996 -5.374259 0.05138814,-7.724713 -4.138923 0.2162479,-7.579435 -3.275688 0.4130571,-7.46172 -2.499607 0.5470027,-8.326744 -5.123325 0.2576423,-8.235197 -3.653257 0.3008499,-8.108184 -2.619754 0.4963729,-8.0068 -1.731763 0.6566843,-8.788274 -5.229967 0.5321663,-8.738469 -3.802895 0.5758883,-8.60391 -2.848996 0.7687637,-8.484268 -1.994937 0.9568892,-9.189215 -5.703292 0.8143733,-9.350551 -4.501912 0.9291732,-9.386081 -3.693195 1.106732,-9.329218 -2.920874 1.215119,7.510, 1 1
-2.16488 -8.436611 0.3908083,-2.760548 -8.206657 0.84421,-3.276443 -7.585144 1.031729,-3.55893 -6.816211 1.194134,-3.830853 -6.150233 1.375572,-3.17614 -5.991525 0.6026138,-3.462509 -4.949934 0.7562962,-3.573343 -4.27477 0.920082,-3.620733 -3.654361 1.08347,-2.865121 -5.708435 0.5226146,-3.091664 -4.515483 0.648129,-3.091664 -4.515483 0.648129,-3.178228 -3.103779 0.9933873,-2.547534 -5.644783 0.5223629,-2.71422 -4.560686 0.6297482,-2.791686 -3.882108 0.816687,-2.829151 -3.251703 0.9684442,-2.194265 -5.779444 0.5685181,-2.236726 -4.891929 0.6950488,-2.258054 -4.354489 0.8380729,-2.258599 -3.841706 0.9527795,-8.648227 -8.620785 0.1718728,-7.953901 -8.250429 0.4132441,-7.430397 -7.325651 0.6023058,-7.155328 -6.452388 0.8599645,-6.877475 -5.851712 1.139285,-7.966492 -5.44588 0.1494337,-7.849466 -4.202602 0.2963329,-7.768936 -3.454167 0.5032725,-7.707209 -2.79012 0.6584941,-8.354688 -5.255032 0.290262,-8.302757 -3.787954 0.3658732,-8.221878 -2.859144 0.5924394,-8.148282 -2.071794 0.7623922,-8.735678 -5.347015 0.4959449,-8.711548 -3.939636 0.6036119,-8.642286 -3.053887 0.821583,-8.552217 -2.303977 1.017992,-9.128605 -5.674554 0.7385151,-9.256559 -4.59827 0.9018316,-9.292603 -3.894344 1.083278,-9.274195 -3.225154 1.221994,7.610, 1 1
-2.177351 -8.45356 0.3907618,-2.77777 -8.225647 0.8202239,-3.292557 -7.597641 0.9989299,-3.578543 -6.828959 1.16241,-3.849224 -6.162755 1.34683,-3.187958 -6.012865 0.5683422,-3.478713 -4.97217 0.7229723,-3.589639 -4.29643 0.8835531,-3.634287 -3.67278 1.042557,-2.884285 -5.726373 0.5061241,-3.112286 -4.527336 0.6309808,-3.112286 -4.527336 0.6309808,-3.205196 -3.107467 0.976191,-2.573624 -5.658787 0.5230665,-2.739538 -4.568491 0.631649,-2.817314 -3.880477 0.8127069,-2.851332 -3.243135 0.9602193,-2.225968 -5.792865 0.5835652,-2.266747 -4.906967 0.7138071,-2.29042 -4.36585 0.8527919,-2.290533 -3.850317 0.9604296,-8.643649 -8.616222 0.1683651,-7.947694 -8.2391 0.4143105,-7.424823 -7.31065 0.6043194,-7.150698 -6.438031 0.8660024,-6.872934 -5.831796 1.144476,-7.964911 -5.431114 0.1410667,-7.848786 -4.177318 0.2941651,-7.763462 -3.420191 0.5110851,-7.692587 -2.749349 0.6721354,-8.355696 -5.250631 0.2758885,-8.309671 -3.785754 0.3599146,-8.231862 -2.84233 0.5943868,-8.159296 -2.046443 0.7678653,-8.736239 -5.353227 0.4775425,-8.719053 -3.944815 0.5841933,-8.646791 -3.053148 0.7999111,-8.552462 -2.305261 0.991636,-9.127957 -5.687271 0.7151322,-9.249561 -4.60684 0.8787552,-9.27521 -3.897041 1.059271,-9.246657 -3.224283 1.192035,7.710, 1 1
-2.14471 -8.36076 0.2934137,-2.865421 -8.183615 0.7418818,-3.501374 -7.538249 0.919644,-3.7861 -6.685304 1.140105,-4.118298 -5.904369 1.334574,-3.30241 -5.918649 0.3467348,-3.691114 -4.864666 0.5066122,-3.834925 -4.100708 0.6898212,-3.818553 -3.434143 1.065199,-2.857833 -5.586206 0.3848832,-3.135521 -4.431056 0.5645653,-3.135521 -4.431056 0.5645653,-3.236608 -2.859485 1.083443,-2.424253 -5.612182 0.3740436,-2.621901 -4.465356 0.5409683,-2.744116 -3.704978 0.7826507,-2.785285 -2.999144 1.035552,-1.970344 -5.756746 0.4045954,-2.034869 -4.801771 0.6323094,-2.052164 -4.188198 0.861319,-2.078057 -3.578456 1.042507,-8.627007 -8.602201 0.1175685,-7.843136 -8.208973 0.3935791,-7.303776 -7.190084 0.4408416,-7.01838 -6.257833 0.6323957,-6.701101 -5.53565 0.8965821,-7.874027 -5.3533 -0.01551481,-7.721633 -4.126215 0.143616,-7.572027 -3.269104 0.3447176,-7.447734 -2.498184 0.4786412,-8.328742 -5.101164 0.1837715,-8.235473 -3.635 0.2220504,-8.106415 -2.611181 0.420285,-7.999103 -1.727437 0.5824039,-8.788268 -5.210851 0.451755,-8.739168 -3.79044 0.4901338,-8.601892 -2.841815 0.6845807,-8.475506 -1.99729 0.8707206,-9.188846 -5.679142 0.7307998,-9.354955 -4.483496 0.8381964,-9.386928 -3.678566 1.009647,-9.328576 -2.904088 1.115664,7.810, 1 1
