TiagoOliveira98/Thesis-Project/Difficulty_0/Dual_Task/Unity_Project/DataLogging/JointData/Logs(1646784664)_DADADADA_Dual.csv
WRIST,THUMB_CMC,THUMB_MCP,THUMB_IP,THUMB_TIP,INDEX_FINGER_MCP,INDEX_FINGER_PIP,INDEX_FINGER_DIP,INDEX_FINGER_TIP,MIDDLE_FINGER_MCP,MIDDLE_FINGER_PIP,MIDDLE_FINGER_DIP,MIDDLE_FINGER_TIP,RING_FINGER_MCP,RING_FINGER_PIP,RING_FINGER_DIP,RING_FINGER_TIP,PINKY_MCP,PINKY_PIP,PINKY_DIP,PINKY_TIP,WRIST2,THUMB_CMC2,THUMB_MCP2,THUMB_IP2,THUMB_TIP2,INDEX_FINGER_MCP2,INDEX_FINGER_PIP2,INDEX_FINGER_DIP2,INDEX_FINGER_TIP2,MIDDLE_FINGER_MCP2,MIDDLE_FINGER_PIP2,MIDDLE_FINGER_DIP2,MIDDLE_FINGER_TIP2,RING_FINGER_MCP2,RING_FINGER_PIP2,RING_FINGER_DIP2,RING_FINGER_TIP2,PINKY_MCP2,PINKY_PIP2,PINKY_DIP2,PINKY_TIP2,Timestamp,Event
-2.211337 -6.922903 0.000512586,-2.849723 -6.684713 0.2486675,-3.376265 -6.023595 0.4035667,-3.708363 -5.327602 0.5842136,-4.068335 -4.864604 0.8154818,-3.002375 -4.406991 0.03778464,-3.236917 -3.380043 0.1904734,-3.361489 -2.771848 0.2903313,-3.456676 -2.197586 0.3632223,-2.661826 -4.186403 0.1005241,-2.807019 -2.972932 0.2482019,-2.807019 -2.972932 0.2482019,-2.936372 -1.552884 0.5218365,-2.324806 -4.194507 0.2388949,-2.386109 -3.011743 0.4074231,-2.468755 -2.250739 0.5881098,-2.543503 -1.586723 0.7403963,-1.965669 -4.407396 0.4090894,-1.90975 -3.492376 0.5690608,-1.907785 -2.896594 0.7372356,-1.917488 -2.344106 0.8822401,-8.286999 -6.656686 0.0005364268,-7.659748 -6.431523 0.2999629,-7.146914 -5.808676 0.5269822,-6.840206 -5.116397 0.7859602,-6.551004 -4.708202 1.054531,-7.501519 -4.102117 0.2342695,-7.343176 -3.048254 0.4080707,-7.264987 -2.388518 0.5686295,-7.196937 -1.818746 0.6837718,-7.849286 -3.872358 0.2823747,-7.702082 -2.641262 0.4096403,-7.607015 -1.864798 0.615351,-7.52464 -1.193126 0.7698959,-8.19104 -3.878956 0.3659113,-8.083991 -2.722041 0.4875525,-8.010722 -2.000405 0.6483532,-7.92906 -1.396495 0.7721917,-8.550128 -4.092538 0.4810261,-8.608253 -3.187668 0.6309229,-8.628655 -2.590086 0.7782447,-8.616876 -2.017991 0.8777406,0.010, 1 0
-2.232634 -6.926766 -0.016712,-2.859725 -6.700328 0.2309668,-3.391795 -6.035488 0.3820579,-3.729794 -5.340118 0.5568786,-4.080332 -4.872786 0.7732195,-3.012038 -4.415841 0.04197763,-3.240496 -3.380165 0.192026,-3.361552 -2.766744 0.2895424,-3.450956 -2.187225 0.3603534,-2.672132 -4.194255 0.1023106,-2.813183 -2.971688 0.2511276,-2.813183 -2.971688 0.2511276,-2.947789 -1.54851 0.5156304,-2.333531 -4.193586 0.2385181,-2.391529 -3.006381 0.4105846,-2.47612 -2.244279 0.5835922,-2.551919 -1.578912 0.7320995,-1.972675 -4.399051 0.4030114,-1.91712 -3.472314 0.5666884,-1.916081 -2.867173 0.7322499,-1.928 -2.302449 0.8775489,-8.279016 -6.688457 0.06993678,-7.662707 -6.451084 0.3462446,-7.157432 -5.800224 0.5643929,-6.855116 -5.109449 0.8201529,-6.563884 -4.717409 1.0831,-7.508901 -4.097746 0.2873778,-7.359758 -3.049489 0.4517069,-7.279793 -2.394155 0.605203,-7.208215 -1.826366 0.7142909,-7.854561 -3.880946 0.3418022,-7.721855 -2.653301 0.462225,-7.631363 -1.870477 0.6621733,-7.554793 -1.203114 0.8153753,-8.193833 -3.90348 0.4311387,-8.105659 -2.754143 0.5463673,-8.034537 -2.024883 0.7050529,-7.956663 -1.425483 0.826638,-8.549593 -4.137739 0.547526,-8.61643 -3.239688 0.6964506,-8.637374 -2.649909 0.8412248,-8.627399 -2.091998 0.93773,0.110, 1 0
-2.237998 -6.945467 0.05923603,-2.865846 -6.708136 0.2852755,-3.384628 -6.020475 0.4282252,-3.702816 -5.298178 0.5926695,-4.055235 -4.841362 0.8035685,-3.024647 -4.4125 0.09275809,-3.245737 -3.370986 0.2454681,-3.363144 -2.770948 0.3289845,-3.455368 -2.203777 0.3883594,-2.679056 -4.190565 0.1629063,-2.815948 -2.982339 0.3201819,-2.815948 -2.982339 0.3201819,-2.941928 -1.579911 0.5976689,-2.335151 -4.200275 0.3070728,-2.402902 -3.023652 0.4893031,-2.481322 -2.266776 0.669009,-2.554052 -1.606009 0.8181522,-1.963942 -4.424671 0.4775622,-1.897197 -3.513402 0.6393124,-1.878781 -2.922445 0.8056049,-1.870301 -2.362712 0.9537601,-8.29178 -6.703014 0.09904704,-7.667724 -6.455798 0.3833597,-7.166126 -5.815871 0.6068714,-6.863741 -5.119924 0.8605486,-6.572026 -4.727655 1.122902,-7.519304 -4.106822 0.3191616,-7.372013 -3.049707 0.4836117,-7.297349 -2.389168 0.6396784,-7.230967 -1.815608 0.7494196,-7.868917 -3.886364 0.3661981,-7.737811 -2.657977 0.4870343,-7.650394 -1.873024 0.6853775,-7.575236 -1.208875 0.8370601,-8.211043 -3.905674 0.4484752,-8.121546 -2.761034 0.5616216,-8.054211 -2.039609 0.7177422,-7.97753 -1.450771 0.8330798,-8.56663 -4.131776 0.5609078,-8.62915 -3.24012 0.7032956,-8.647902 -2.65744 0.8442637,-8.633721 -2.106767 0.932919,0.210, 1 0
-2.2346 -6.957908 0.03249721,-2.863276 -6.722433 0.2406921,-3.382463 -6.023776 0.3719667,-3.698915 -5.30616 0.5281426,-4.047907 -4.845823 0.7262447,-3.014 -4.427207 0.07568245,-3.236877 -3.381691 0.2333094,-3.352055 -2.761392 0.3310425,-3.43642 -2.174749 0.4014616,-2.670897 -4.210821 0.1552599,-2.806257 -2.986052 0.3179041,-2.806257 -2.986052 0.3179041,-2.929626 -1.557306 0.5989727,-2.328088 -4.21899 0.3077549,-2.383799 -3.031557 0.4880365,-2.457095 -2.267364 0.6607073,-2.522616 -1.594263 0.8104818,-1.961189 -4.436159 0.4815423,-1.899039 -3.515222 0.6530762,-1.892034 -2.919539 0.816469,-1.897914 -2.361465 0.9584741,-8.298845 -6.700813 0.07357989,-7.67607 -6.447889 0.3834459,-7.172517 -5.821303 0.6142807,-6.869734 -5.131433 0.8705558,-6.577193 -4.732543 1.129757,-7.52414 -4.116077 0.3204597,-7.375235 -3.055958 0.4912295,-7.302092 -2.389551 0.6507756,-7.239344 -1.809557 0.763204,-7.87231 -3.893545 0.3553222,-7.735128 -2.669898 0.4825337,-7.64914 -1.886245 0.6871727,-7.576312 -1.220133 0.84164,-8.212958 -3.904523 0.4260738,-8.117867 -2.762798 0.5463883,-8.051207 -2.044083 0.7152926,-7.9748 -1.454102 0.8410913,-8.569423 -4.119873 0.5303224,-8.630881 -3.230438 0.6808581,-8.649799 -2.651306 0.8322653,-8.636204 -2.098725 0.9311705,0.310, 1 0
-2.244667 -6.959928 0.003690755,-2.871249 -6.735573 0.2310339,-3.396112 -6.061162 0.3720762,-3.717957 -5.347656 0.5338888,-4.062788 -4.883111 0.7371144,-3.029811 -4.449932 0.04337708,-3.261803 -3.405551 0.2000158,-3.383141 -2.795632 0.2958257,-3.475508 -2.218523 0.3657479,-2.6848 -4.221165 0.111978,-2.821763 -2.991891 0.2719826,-2.821763 -2.991891 0.2719826,-2.941949 -1.574501 0.5587867,-2.343724 -4.218427 0.2555768,-2.40652 -3.034361 0.4350142,-2.48243 -2.280611 0.6085944,-2.552729 -1.622326 0.7572251,-1.979254 -4.421483 0.4238232,-1.91249 -3.509071 0.5888373,-1.896486 -2.919082 0.7515122,-1.892334 -2.366 0.8905595,-8.299097 -6.712741 0.07066861,-7.672306 -6.464188 0.3520626,-7.165874 -5.815936 0.5671114,-6.862994 -5.106023 0.8142859,-6.576259 -4.704296 1.069362,-7.529738 -4.123985 0.2727546,-7.382545 -3.061686 0.4409884,-7.308673 -2.401281 0.5990573,-7.243127 -1.828592 0.7068334,-7.878421 -3.902344 0.3197237,-7.741669 -2.66694 0.4437885,-7.652732 -1.880643 0.6400235,-7.577449 -1.212476 0.7850024,-8.219663 -3.916278 0.4014575,-8.125267 -2.757619 0.5166646,-8.056432 -2.036761 0.6685452,-7.979503 -1.450047 0.7790259,-8.576942 -4.137558 0.5142099,-8.635477 -3.237488 0.6564754,-8.652231 -2.652037 0.7951517,-8.637895 -2.098611 0.8830885,0.410, 1 0
-2.233392 -6.941641 -0.002277825,-2.867611 -6.727282 0.2571918,-3.394629 -6.047348 0.4106301,-3.711535 -5.329925 0.5785958,-4.064245 -4.872865 0.7852752,-3.028034 -4.434683 0.08907949,-3.251724 -3.398416 0.2579556,-3.365208 -2.786521 0.3590831,-3.45345 -2.201197 0.4330558,-2.681044 -4.207654 0.14499,-2.821133 -2.983347 0.3185695,-2.821133 -2.983347 0.3185695,-2.940164 -1.566643 0.6087322,-2.338724 -4.213439 0.2800636,-2.399919 -3.02797 0.4741184,-2.474044 -2.269451 0.6592916,-2.542088 -1.604591 0.8165097,-1.971237 -4.430418 0.4402647,-1.909026 -3.517244 0.6183312,-1.898444 -2.925189 0.7939227,-1.900931 -2.367839 0.9452478,-8.307226 -6.712184 0.07390969,-7.674839 -6.457225 0.3682828,-7.171243 -5.828083 0.5950214,-6.867331 -5.136949 0.8532121,-6.580979 -4.727033 1.11632,-7.52721 -4.120289 0.2925348,-7.378375 -3.061224 0.4536396,-7.302894 -2.394387 0.6099815,-7.237316 -1.818347 0.7223795,-7.877843 -3.902754 0.3297033,-7.737914 -2.679481 0.4458281,-7.650148 -1.90018 0.6411775,-7.575808 -1.233989 0.7903748,-8.222537 -3.918818 0.4019173,-8.124162 -2.773288 0.5068341,-8.05594 -2.053862 0.6567191,-7.979098 -1.461612 0.7676958,-8.581789 -4.140199 0.5063003,-8.640724 -3.246449 0.6393419,-8.658212 -2.663464 0.7746407,-8.642732 -2.107296 0.8592719,0.510, 1 0
-2.24274 -6.93618 0.01333525,-2.87238 -6.71268 0.245992,-3.395685 -6.028873 0.3821775,-3.708048 -5.313188 0.5415256,-4.050708 -4.840053 0.7370852,-3.017237 -4.415702 0.06642707,-3.244329 -3.375114 0.2224979,-3.362936 -2.757892 0.3153855,-3.448991 -2.175723 0.379593,-2.673216 -4.193487 0.1311818,-2.808556 -2.970877 0.2930048,-2.808556 -2.970877 0.2930048,-2.932894 -1.547525 0.5689386,-2.331694 -4.199366 0.2723008,-2.385896 -3.017391 0.4519573,-2.459582 -2.262437 0.6281395,-2.525551 -1.594373 0.781773,-1.966916 -4.414075 0.4375485,-1.90316 -3.510969 0.6080384,-1.894353 -2.924487 0.7780484,-1.89775 -2.374753 0.9261649,-8.311878 -6.70177 0.1050113,-7.687717 -6.44573 0.3920284,-7.18144 -5.807083 0.6189955,-6.874339 -5.113597 0.8789601,-6.581345 -4.716943 1.147337,-7.533374 -4.104289 0.3106728,-7.382574 -3.057021 0.4738716,-7.305004 -2.394061 0.6297852,-7.239239 -1.821596 0.738869,-7.880975 -3.882993 0.3544966,-7.746326 -2.661386 0.4715541,-7.657682 -1.880918 0.6625715,-7.582477 -1.216528 0.8069541,-8.223498 -3.900574 0.4340349,-8.132786 -2.760057 0.5431713,-8.0636 -2.042881 0.6876038,-7.987158 -1.451894 0.7936547,-8.581996 -4.124967 0.5471648,-8.647269 -3.235858 0.6823717,-8.665065 -2.655455 0.8174411,-8.650476 -2.104918 0.9024355,0.610, 1 0
-2.25211 -6.923248 -0.02905138,-2.881631 -6.677471 0.1841091,-3.398193 -6.002283 0.317955,-3.712992 -5.304709 0.4771565,-4.054622 -4.847539 0.6750924,-3.018456 -4.403318 -0.006223811,-3.241112 -3.356999 0.1457273,-3.361504 -2.745224 0.234183,-3.45491 -2.172518 0.2941234,-2.675798 -4.19102 0.06941761,-2.809822 -2.9637 0.2266569,-2.809822 -2.9637 0.2266569,-2.935559 -1.548234 0.4875925,-2.336257 -4.198013 0.2210345,-2.39256 -3.010252 0.4005856,-2.462597 -2.24877 0.5706877,-2.528371 -1.578348 0.7172635,-1.974447 -4.409462 0.3960141,-1.912156 -3.496046 0.5610873,-1.902759 -2.904588 0.7254758,-1.907919 -2.349 0.8652085,-8.309624 -6.704731 0.09622249,-7.678748 -6.450718 0.3677566,-7.17397 -5.81047 0.5760731,-6.870003 -5.104955 0.819626,-6.579372 -4.702449 1.068935,-7.536312 -4.10993 0.279734,-7.388671 -3.056968 0.4344471,-7.315655 -2.395765 0.5833424,-7.252491 -1.825979 0.686533,-7.880841 -3.886445 0.3252656,-7.746957 -2.664983 0.4336967,-7.660831 -1.884687 0.6244862,-7.585982 -1.224374 0.770696,-8.220066 -3.90414 0.4074606,-8.130833 -2.76176 0.5107598,-8.065356 -2.043915 0.6619626,-7.990113 -1.455659 0.7738128,-8.576277 -4.131704 0.520686,-8.645395 -3.250896 0.6525776,-8.66589 -2.677196 0.7930262,-8.652007 -2.137684 0.8827547,0.710, 1 0
-2.226343 -6.926754 -0.03076373,-2.85865 -6.716261 0.2192132,-3.381108 -6.029083 0.36579,-3.698257 -5.301947 0.5275308,-4.053116 -4.841255 0.7286369,-3.023581 -4.433338 0.05202675,-3.251603 -3.392427 0.2171364,-3.370251 -2.782217 0.3136343,-3.461212 -2.20997 0.3850087,-2.677642 -4.201208 0.1086275,-2.820519 -2.981988 0.2863537,-2.820519 -2.981988 0.2863537,-2.944567 -1.558668 0.5829148,-2.333148 -4.201101 0.2400185,-2.400831 -3.023255 0.4349007,-2.474897 -2.267856 0.6198527,-2.542413 -1.595254 0.7795085,-1.964161 -4.414682 0.396585,-1.901372 -3.514704 0.5780986,-1.882656 -2.928664 0.7551723,-1.872944 -2.369062 0.908165,-8.316383 -6.680526 0.09730642,-7.695899 -6.424222 0.3552102,-7.196912 -5.77655 0.5666944,-6.893719 -5.084445 0.81761,-6.59396 -4.69931 1.077685,-7.541696 -4.07597 0.2711267,-7.397797 -3.024116 0.4212241,-7.321214 -2.360818 0.5735275,-7.253885 -1.789555 0.6837851,-7.886665 -3.862891 0.3361692,-7.757685 -2.644274 0.4431136,-7.667136 -1.860126 0.6360623,-7.590549 -1.195135 0.7856426,-8.227544 -3.88418 0.4360833,-8.139281 -2.747718 0.5384531,-8.067539 -2.032093 0.6854751,-7.988059 -1.443453 0.7944599,-8.584633 -4.110219 0.5676081,-8.650007 -3.219581 0.7062885,-8.667546 -2.639216 0.8403811,-8.656156 -2.087816 0.9249436,0.810, 1 0
-2.240223 -6.937073 -0.03550075,-2.870072 -6.678285 0.1845079,-3.378001 -5.993721 0.319834,-3.682905 -5.279017 0.4813628,-4.016378 -4.806221 0.6819718,-3.000506 -4.420057 0.001403093,-3.223728 -3.380832 0.1655788,-3.338594 -2.771775 0.2606156,-3.426126 -2.196535 0.3264316,-2.657918 -4.206261 0.07609075,-2.793506 -2.98539 0.2469921,-2.793506 -2.98539 0.2469921,-2.911485 -1.553528 0.5411778,-2.317059 -4.215742 0.2251829,-2.377838 -3.03162 0.4158372,-2.445933 -2.263734 0.6014197,-2.50885 -1.589793 0.7662483,-1.951993 -4.438527 0.3967035,-1.885112 -3.528381 0.5736916,-1.868892 -2.927927 0.752865,-1.866132 -2.361739 0.909926,-8.33105 -6.67543 0.02353098,-7.704239 -6.43598 0.3184823,-7.193842 -5.79063 0.5332251,-6.885972 -5.088299 0.7744257,-6.593526 -4.687755 1.018911,-7.55535 -4.109514 0.2612008,-7.400305 -3.048937 0.4470559,-7.322314 -2.392118 0.6101757,-7.256109 -1.819808 0.7209587,-7.898643 -3.883626 0.3055333,-7.760406 -2.658537 0.4418071,-7.667643 -1.88247 0.6458881,-7.588316 -1.217477 0.8006036,-8.237617 -3.900327 0.3845606,-8.138431 -2.74454 0.5192591,-8.067362 -2.024264 0.6996881,-7.98877 -1.428208 0.8297982,-8.592531 -4.126819 0.4941503,-8.65886 -3.244175 0.6523705,-8.680811 -2.665456 0.8140095,-8.669539 -2.113865 0.9206259,0.910, 1 0
-2.231866 -6.931785 -0.09524854,-2.856767 -6.679855 0.132196,-3.36425 -6.013389 0.2809407,-3.686517 -5.313677 0.4545273,-4.026592 -4.836298 0.6735604,-2.990735 -4.427467 -0.0582812,-3.215973 -3.378785 0.08797915,-3.330867 -2.757408 0.174521,-3.408718 -2.182383 0.235965,-2.651528 -4.218142 0.00506983,-2.785029 -2.975094 0.1481806,-2.785029 -2.975094 0.1481806,-2.894172 -1.546957 0.3940198,-2.31421 -4.230145 0.1441623,-2.361325 -3.025881 0.3083329,-2.427515 -2.246891 0.4792552,-2.483719 -1.570776 0.6295844,-1.955511 -4.454439 0.3070811,-1.889431 -3.532724 0.4685278,-1.875693 -2.937723 0.6358942,-1.871953 -2.380963 0.7797697,-8.321369 -6.706668 0.02082741,-7.69522 -6.47137 0.3453119,-7.177876 -5.829915 0.5681184,-6.867443 -5.128934 0.8149742,-6.581532 -4.713153 1.058135,-7.547845 -4.14783 0.2839473,-7.392645 -3.085743 0.4773662,-7.315471 -2.42962 0.6443982,-7.249993 -1.854207 0.7572609,-7.888815 -3.916688 0.3127591,-7.747484 -2.698017 0.4583817,-7.657175 -1.918271 0.668655,-7.582419 -1.245615 0.8237149,-8.226097 -3.925247 0.3777529,-8.126225 -2.774378 0.5212165,-8.054508 -2.056884 0.7005133,-7.974699 -1.470116 0.8292839,-8.582159 -4.139087 0.4761701,-8.636089 -3.25505 0.6383443,-8.653169 -2.680716 0.7892517,-8.636096 -2.134817 0.8835109,1.010, 1 0
-2.232996 -6.961885 -0.02157082,-2.860224 -6.718809 0.2305577,-3.380083 -6.040262 0.3882757,-3.697001 -5.335365 0.5643963,-4.038465 -4.855106 0.7823867,-3.008128 -4.445383 0.04129245,-3.230341 -3.396507 0.2022363,-3.352914 -2.785286 0.29757,-3.444573 -2.218444 0.3677769,-2.663876 -4.2294 0.09708598,-2.798904 -3.003825 0.2534831,-2.798904 -3.003825 0.2534831,-2.922852 -1.573339 0.5273632,-2.321688 -4.236209 0.2294231,-2.379087 -3.053453 0.4042138,-2.449706 -2.283816 0.576443,-2.513532 -1.607605 0.7310738,-1.955556 -4.450292 0.3888052,-1.897052 -3.530463 0.5552174,-1.883998 -2.928761 0.72583,-1.878795 -2.363633 0.8770818,-8.320908 -6.732402 0.04875671,-7.691897 -6.485509 0.3319635,-7.187284 -5.856529 0.5471252,-6.884297 -5.168797 0.7951338,-6.594746 -4.776489 1.043353,-7.536798 -4.154719 0.2502135,-7.37904 -3.102783 0.417018,-7.296534 -2.442714 0.5813311,-7.224665 -1.867525 0.6968318,-7.884663 -3.930479 0.2948527,-7.744805 -2.707118 0.4155371,-7.65053 -1.927239 0.6191168,-7.571277 -1.259309 0.7742206,-8.224737 -3.939331 0.3744837,-8.123664 -2.789793 0.4843257,-8.051385 -2.074471 0.6401281,-7.972622 -1.483646 0.7553182,-8.581082 -4.151582 0.4868824,-8.627176 -3.254152 0.6263094,-8.635902 -2.66258 0.7659574,-8.616127 -2.097415 0.854985,1.110, 1 0
-2.228958 -6.953029 -0.04159778,-2.8585 -6.704698 0.2040187,-3.380939 -6.039699 0.3533406,-3.702465 -5.340036 0.5231178,-4.040038 -4.866853 0.7299241,-3.01313 -4.44352 0.0104962,-3.236406 -3.399805 0.1700386,-3.349077 -2.785026 0.2673317,-3.428551 -2.209088 0.3394482,-2.672245 -4.227971 0.06856079,-2.81145 -3.001623 0.2223982,-2.81145 -3.001623 0.2223982,-2.921604 -1.574058 0.4937572,-2.330896 -4.237976 0.2046734,-2.387792 -3.052677 0.3794407,-2.451908 -2.284988 0.5540214,-2.508599 -1.610043 0.7080281,-1.965916 -4.462333 0.365214,-1.905671 -3.552959 0.5296865,-1.890421 -2.962362 0.6994922,-1.884131 -2.403086 0.8456077,-8.321134 -6.718313 0.09236637,-7.704796 -6.464748 0.3844713,-7.204094 -5.842475 0.6171967,-6.897075 -5.159658 0.8841244,-6.603539 -4.763697 1.158914,-7.546929 -4.12745 0.3106195,-7.394171 -3.07999 0.4771248,-7.312594 -2.421821 0.64262,-7.237829 -1.849688 0.7626261,-7.89298 -3.904727 0.3630384,-7.753152 -2.685127 0.4883297,-7.658463 -1.899164 0.6942421,-7.577242 -1.233037 0.8544365,-8.234001 -3.923154 0.4520278,-8.137336 -2.780879 0.5727345,-8.061853 -2.06279 0.7367085,-7.977616 -1.469852 0.8584037,-8.593963 -4.148499 0.5750168,-8.642595 -3.254476 0.7299688,-8.649176 -2.670457 0.8770441,-8.623665 -2.111005 0.9733478,1.210, 1 0
-2.231984 -6.955129 -0.06196935,-2.861878 -6.694704 0.1587179,-3.381431 -6.025617 0.3011017,-3.703901 -5.324148 0.4710485,-4.042421 -4.845625 0.6852372,-3.011101 -4.449159 -0.03558436,-3.238208 -3.395401 0.119738,-3.3542 -2.773029 0.2154161,-3.436918 -2.191686 0.2856707,-2.672629 -4.235105 0.03698169,-2.814001 -2.99905 0.1908451,-2.814001 -2.99905 0.1908451,-2.932549 -1.569225 0.4606538,-2.334139 -4.240167 0.1862717,-2.391233 -3.042469 0.363587,-2.461281 -2.272226 0.5343933,-2.523798 -1.597141 0.68498,-1.971692 -4.456903 0.359327,-1.914021 -3.538726 0.5272645,-1.907515 -2.945814 0.6952064,-1.911019 -2.388649 0.8388209,-8.339346 -6.71507 0.03591891,-7.715899 -6.483732 0.3362614,-7.208948 -5.853317 0.5614368,-6.902571 -5.163299 0.8125161,-6.608706 -4.762962 1.058285,-7.559171 -4.151674 0.3088512,-7.403784 -3.100835 0.4996511,-7.32884 -2.446208 0.6719264,-7.267735 -1.868902 0.7898442,-7.899834 -3.924821 0.3554253,-7.761873 -2.700605 0.4999231,-7.670562 -1.91466 0.7111428,-7.596403 -1.238161 0.8679579,-8.2398 -3.937265 0.4385772,-8.143263 -2.77916 0.5747192,-8.071237 -2.052025 0.7567099,-7.993589 -1.452444 0.8949509,-8.59934 -4.156602 0.5516997,-8.653255 -3.256093 0.7166342,-8.66751 -2.661285 0.8812339,-8.651037 -2.096755 0.9867865,1.310, 1 0
-2.255661 -6.96525 -0.007990452,-2.879163 -6.702518 0.2297431,-3.391293 -6.017986 0.3756594,-3.702769 -5.307432 0.5447968,-4.048046 -4.844965 0.7566039,-3.022432 -4.440567 0.05406731,-3.241817 -3.390771 0.2256924,-3.355728 -2.778759 0.3237376,-3.442586 -2.199201 0.3936083,-2.681783 -4.228761 0.1255054,-2.822827 -3.009782 0.3033648,-2.822827 -3.009782 0.3033648,-2.951364 -1.586219 0.6063412,-2.340294 -4.243217 0.2737452,-2.403213 -3.060009 0.4730605,-2.473815 -2.294944 0.6629713,-2.539922 -1.611081 0.8299009,-1.974596 -4.471207 0.4454308,-1.915411 -3.565199 0.6314239,-1.908672 -2.97311 0.8114765,-1.913801 -2.408052 0.9661493,-8.336589 -6.721595 0.007528761,-7.706616 -6.480766 0.2960622,-7.197805 -5.84814 0.5082296,-6.890039 -5.14813 0.7515507,-6.600516 -4.742847 0.9967945,-7.554343 -4.163854 0.2179241,-7.39706 -3.110964 0.3917089,-7.315355 -2.452312 0.5548432,-7.243754 -1.88216 0.6658451,-7.898292 -3.932837 0.2631792,-7.759304 -2.699447 0.3878045,-7.666746 -1.918997 0.5917416,-7.588114 -1.253503 0.7452196,-8.236961 -3.942362 0.3427623,-8.137642 -2.784122 0.4628417,-8.064178 -2.065747 0.6300076,-7.982568 -1.473697 0.7536519,-8.593031 -4.160226 0.4549285,-8.652626 -3.269256 0.6011263,-8.668031 -2.686689 0.7502738,-8.650641 -2.134464 0.8497562,1.410, 1 0
-2.229341 -6.961394 -0.03503367,-2.861433 -6.716367 0.1932401,-3.375191 -6.024093 0.3253297,-3.681878 -5.300437 0.4817255,-4.02998 -4.834514 0.6822339,-3.00848 -4.454809 0.01783701,-3.223873 -3.398663 0.1845292,-3.332611 -2.784124 0.2856113,-3.413267 -2.200342 0.3617602,-2.664243 -4.233446 0.08452708,-2.799252 -3.004803 0.2604499,-2.799252 -3.004803 0.2604499,-2.913331 -1.577727 0.5633523,-2.319372 -4.237941 0.2259396,-2.383907 -3.055098 0.4194496,-2.455358 -2.300344 0.6085473,-2.520507 -1.633077 0.7776291,-1.952332 -4.4526 0.3894553,-1.895006 -3.544549 0.5733392,-1.888638 -2.958208 0.7567884,-1.894954 -2.404254 0.9174221,-8.330256 -6.730253 0.08717617,-7.701004 -6.491405 0.3772921,-7.191748 -5.852631 0.5904648,-6.88956 -5.152832 0.8355027,-6.602538 -4.751913 1.081966,-7.549264 -4.148362 0.3019835,-7.386701 -3.10011 0.4808258,-7.305532 -2.440998 0.6493923,-7.237226 -1.862366 0.7621113,-7.895688 -3.918489 0.3506916,-7.75671 -2.697663 0.4778908,-7.664448 -1.920849 0.6835465,-7.587134 -1.25399 0.8362094,-8.235053 -3.928144 0.4367214,-8.139007 -2.778642 0.558378,-8.068241 -2.065131 0.725455,-7.990623 -1.472071 0.8496813,-8.591334 -4.143722 0.5540524,-8.649931 -3.251669 0.7042754,-8.66329 -2.663605 0.852643,-8.645008 -2.103974 0.9495149,1.510, 1 0
-2.20392 -6.973907 -0.04987494,-2.833008 -6.741247 0.1768131,-3.343276 -6.040014 0.3222038,-3.659901 -5.317073 0.4882123,-4.014772 -4.848253 0.702912,-2.985644 -4.46788 -0.002851468,-3.21191 -3.406047 0.147704,-3.330543 -2.785426 0.2284264,-3.414351 -2.21344 0.2873394,-2.648417 -4.251325 0.05822065,-2.792141 -3.024286 0.2116691,-2.792141 -3.024286 0.2116691,-2.91966 -1.590936 0.4589909,-2.306791 -4.258478 0.1951363,-2.371278 -3.064811 0.3719755,-2.449599 -2.287293 0.5430362,-2.516619 -1.605155 0.6938076,-1.94244 -4.48196 0.3566025,-1.891814 -3.553585 0.5256506,-1.890712 -2.956825 0.6981029,-1.895977 -2.397313 0.8474396,-8.326943 -6.726079 0.06310027,-7.695442 -6.489661 0.3774067,-7.185785 -5.8778 0.6094458,-6.880033 -5.183492 0.8666188,-6.592049 -4.772563 1.122908,-7.538874 -4.157139 0.3173493,-7.377525 -3.095957 0.5039009,-7.297438 -2.431299 0.6777466,-7.227204 -1.84955 0.7960451,-7.885461 -3.925125 0.3542571,-7.746548 -2.693731 0.494271,-7.656551 -1.915477 0.7037786,-7.580544 -1.246471 0.8614037,-8.226036 -3.935677 0.4269257,-8.124215 -2.769957 0.5565101,-8.050939 -2.050818 0.7295893,-7.971073 -1.451787 0.8587024,-8.584889 -4.154509 0.5334775,-8.632001 -3.255177 0.686338,-8.638567 -2.660325 0.8413495,-8.615533 -2.091468 0.9426672,1.610, 1 0
-2.209501 -6.959301 -0.01978685,-2.831153 -6.711549 0.1945682,-3.341658 -6.007684 0.3292069,-3.656536 -5.288284 0.4970935,-4.010119 -4.831099 0.7078074,-2.973653 -4.437563 -0.007862619,-3.207924 -3.394416 0.1414923,-3.326385 -2.78273 0.2190008,-3.410591 -2.208246 0.2736533,-2.639478 -4.22504 0.06932855,-2.787035 -3.002691 0.228282,-2.787035 -3.002691 0.228282,-2.911521 -1.58534 0.4871514,-2.304168 -4.231119 0.2230424,-2.373063 -3.043951 0.400807,-2.448366 -2.283473 0.5673026,-2.51436 -1.604363 0.7160065,-1.946221 -4.451905 0.4017707,-1.897381 -3.53686 0.5640448,-1.893761 -2.945518 0.7279882,-1.896318 -2.382107 0.8723052,-8.321403 -6.731418 0.07784084,-7.689963 -6.492143 0.3659785,-7.178872 -5.864564 0.5850324,-6.870564 -5.165823 0.8350676,-6.581001 -4.767055 1.088275,-7.536125 -4.154066 0.2862418,-7.37396 -3.097714 0.4588675,-7.291101 -2.435014 0.6240761,-7.217729 -1.857693 0.735406,-7.881627 -3.921893 0.3273582,-7.740183 -2.694115 0.4504282,-7.645679 -1.920146 0.6506665,-7.56585 -1.253314 0.8032048,-8.22121 -3.928787 0.4042344,-8.118068 -2.772462 0.5154973,-8.041516 -2.059469 0.6714302,-7.958373 -1.464543 0.7892382,-8.57724 -4.143421 0.5131482,-8.625368 -3.248809 0.6477569,-8.632897 -2.65942 0.7883024,-8.60885 -2.095285 0.8807453,1.710, 1 0
-2.212945 -6.924744 -0.1547492,-2.8438 -6.663915 0.05383444,-3.348495 -6.005197 0.1999436,-3.666877 -5.30389 0.3763427,-4.014557 -4.813441 0.5992621,-2.987926 -4.441473 -0.1122063,-3.226284 -3.390046 0.04065694,-3.344231 -2.771433 0.1254184,-3.423962 -2.197451 0.1861492,-2.652791 -4.232183 -0.03833696,-2.801663 -2.983943 0.1197529,-2.801663 -2.983943 0.1197529,-2.914871 -1.562222 0.3742836,-2.316302 -4.235267 0.1076144,-2.379915 -3.023982 0.2807638,-2.454416 -2.248779 0.4502179,-2.513898 -1.564616 0.6046532,-1.955902 -4.447965 0.271515,-1.902958 -3.511808 0.43916,-1.902833 -2.911979 0.6139282,-1.907975 -2.347438 0.7624592,-8.314437 -6.733421 0.1233382,-7.683918 -6.493236 0.4037062,-7.177357 -5.864172 0.6249269,-6.871212 -5.177768 0.8802761,-6.575008 -4.778579 1.133961,-7.525077 -4.135511 0.3268907,-7.363968 -3.083467 0.4866225,-7.282337 -2.432746 0.6449878,-7.210999 -1.863187 0.7564573,-7.87201 -3.911725 0.379807,-7.735901 -2.691545 0.4992863,-7.643384 -1.928247 0.7016715,-7.56277 -1.270867 0.8545274,-8.212752 -3.926067 0.4713868,-8.111238 -2.772896 0.5840651,-8.035345 -2.061019 0.7492217,-7.951429 -1.468256 0.8742138,-8.570421 -4.14537 0.5915846,-8.613569 -3.245049 0.7352006,-8.617687 -2.65665 0.8845091,-8.591897 -2.092044 0.9811546,1.810, 1 0
-2.20722 -6.933277 -0.1054969,-2.837659 -6.6858 0.1163188,-3.346983 -5.999841 0.2564026,-3.663814 -5.289034 0.4240428,-4.016026 -4.815591 0.6398554,-2.996845 -4.443661 -0.04948223,-3.220503 -3.38343 0.1098,-3.340132 -2.764026 0.2019905,-3.425941 -2.182817 0.2663825,-2.662038 -4.229219 0.01799274,-2.801766 -3.003709 0.1828392,-2.801766 -3.003709 0.1828392,-2.92686 -1.580232 0.4478421,-2.324261 -4.239347 0.1616305,-2.392337 -3.049905 0.3477083,-2.470827 -2.28322 0.5301144,-2.535331 -1.60189 0.6961122,-1.963459 -4.45845 0.3271339,-1.932194 -3.539436 0.5101051,-1.950871 -2.951199 0.6955374,-1.975466 -2.40014 0.852762,-8.327235 -6.757485 0.1627283,-7.698193 -6.486775 0.4478964,-7.186838 -5.85646 0.6714318,-6.878808 -5.187012 0.9343727,-6.581422 -4.770484 1.194456,-7.534245 -4.137101 0.3030598,-7.374435 -3.124921 0.4391818,-7.292688 -2.489795 0.596845,-7.220856 -1.930623 0.7102611,-7.881217 -3.919209 0.3458597,-7.752831 -2.757504 0.4184613,-7.668944 -2.049742 0.6107194,-7.594373 -1.441598 0.7584796,-8.219249 -3.923017 0.4325766,-8.13088 -2.820037 0.5064583,-8.067616 -2.147295 0.6629626,-7.991192 -1.590959 0.7775457,-8.576518 -4.125253 0.5507151,-8.611639 -3.252148 0.6574007,-8.608582 -2.685268 0.7786322,-8.573153 -2.143191 0.8573534,1.910, 1 0
-2.224476 -6.952617 -0.07383243,-2.843353 -6.708405 0.1590359,-3.346373 -6.0061 0.3015931,-3.653801 -5.298795 0.4764602,-4.017775 -4.820788 0.7071345,-2.995921 -4.445796 -0.02799701,-3.220045 -3.389625 0.1504589,-3.335196 -2.77024 0.257945,-3.41654 -2.180345 0.3328485,-2.665044 -4.236974 0.0492803,-2.800597 -3.012439 0.2324637,-2.800597 -3.012439 0.2324637,-2.911422 -1.581249 0.5316551,-2.333559 -4.255501 0.2051856,-2.400294 -3.074143 0.4117865,-2.4786 -2.310734 0.6137105,-2.544475 -1.624118 0.7881805,-1.978261 -4.488074 0.3866023,-1.953376 -3.574722 0.587311,-1.979752 -2.997248 0.7871245,-2.01 -2.45325 0.9527506,-8.335209 -6.747495 0.1338618,-7.698886 -6.474464 0.4176985,-7.188118 -5.844056 0.6422304,-6.879108 -5.173551 0.909916,-6.572413 -4.757679 1.181514,-7.535151 -4.134972 0.2736633,-7.377073 -3.121713 0.4176126,-7.299735 -2.485149 0.5786077,-7.232722 -1.924943 0.6895198,-7.884144 -3.918573 0.3202817,-7.758275 -2.770493 0.4005218,-7.678237 -2.068456 0.5908967,-7.607177 -1.467438 0.738716,-8.223907 -3.921174 0.4106916,-8.139515 -2.830999 0.4897225,-8.077463 -2.170973 0.6456314,-8.002531 -1.627006 0.7560778,-8.586096 -4.116315 0.5334321,-8.619438 -3.250033 0.6397774,-8.615054 -2.683435 0.7545927,-8.577932 -2.140594 0.8298246,2.010, 1 0
-2.216429 -6.945308 -0.08969421,-2.843503 -6.709381 0.1427197,-3.350989 -5.996609 0.2777225,-3.663744 -5.270715 0.4462906,-4.035164 -4.789371 0.6667834,-3.010265 -4.447122 -0.02541879,-3.237047 -3.380239 0.1444845,-3.35045 -2.763186 0.2343318,-3.43046 -2.174908 0.3007953,-2.673748 -4.237779 0.0476567,-2.812056 -2.998097 0.2229699,-2.812056 -2.998097 0.2229699,-2.92466 -1.590202 0.4977214,-2.338167 -4.254669 0.1994635,-2.40252 -3.059156 0.4088166,-2.48131 -2.298796 0.6045319,-2.546315 -1.61077 0.7767795,-1.979751 -4.488467 0.3740622,-1.955664 -3.575944 0.5742783,-1.987065 -3.003973 0.7678543,-2.021396 -2.461259 0.9288529,-8.353518 -6.765943 0.05381158,-7.722777 -6.471868 0.3292925,-7.227865 -5.803207 0.5356252,-6.932698 -5.119896 0.7870282,-6.63303 -4.682533 1.059712,-7.566442 -4.143685 0.12747,-7.396495 -3.153728 0.266288,-7.309183 -2.540554 0.4131084,-7.230762 -1.9831 0.508592,-7.919372 -3.95397 0.1738255,-7.797877 -2.883237 0.2180689,-7.718074 -2.265553 0.3604974,-7.6415 -1.759049 0.4541536,-8.248095 -3.969521 0.2738587,-8.181957 -2.936369 0.3325849,-8.1269 -2.347147 0.4686454,-8.055425 -1.861167 0.5504056,-8.587438 -4.173814 0.4104803,-8.620755 -3.362593 0.5105969,-8.618138 -2.852522 0.6173874,-8.580886 -2.371011 0.6743647,2.110, 1 0
-2.222435 -6.960851 -0.07015354,-2.846218 -6.72219 0.1809658,-3.351824 -6.022306 0.334905,-3.660384 -5.300098 0.5076381,-4.025429 -4.810932 0.7273659,-3.009117 -4.462865 0.03915804,-3.234273 -3.38433 0.2087911,-3.348984 -2.755537 0.2976083,-3.427246 -2.166497 0.362445,-2.674238 -4.248058 0.09186146,-2.815281 -3.008561 0.2704161,-2.815281 -3.008561 0.2704161,-2.930518 -1.588712 0.5393325,-2.339583 -4.261419 0.2213722,-2.404731 -3.066207 0.4243891,-2.482306 -2.29909 0.6122683,-2.548101 -1.613305 0.7819362,-1.980732 -4.488859 0.3755783,-1.955735 -3.572666 0.5665503,-1.977573 -2.997068 0.7621422,-2.004326 -2.452423 0.9267295,-8.405684 -6.682533 -0.855437,-7.755375 -6.382518 -0.8356475,-7.301104 -5.758953 -0.7445942,-7.026824 -5.034057 -0.6783987,-6.771818 -4.495147 -0.6417269,-7.555665 -4.360519 -0.7649731,-7.416111 -3.208776 -0.6700367,-7.343869 -2.49011 -0.6175805,-7.302769 -1.944398 -0.629837,-7.911973 -4.144561 -0.7403467,-7.848425 -2.831903 -0.7305965,-7.844893 -2.859853 -0.8389747,-7.876602 -3.172971 -0.9430815,-8.250521 -4.107164 -0.7091423,-8.219709 -2.949324 -0.7230093,-8.200199 -3.124805 -0.9015068,-8.219438 -3.530168 -1.0438,-8.598083 -4.219005 -0.6688756,-8.597568 -3.218296 -0.6592796,-8.538587 -3.28161 -0.7765843,-8.506913 -3.624415 -0.8915796,2.210, 1 0
-2.208096 -6.98719 -0.03343754,-2.837766 -6.756232 0.1885459,-3.349065 -6.049285 0.3279685,-3.666062 -5.332197 0.4969624,-4.034245 -4.859517 0.7154736,-3.011147 -4.482272 0.04168595,-3.244628 -3.418002 0.2067154,-3.366551 -2.791262 0.2885579,-3.451975 -2.211632 0.3430591,-2.673333 -4.265012 0.1100477,-2.82615 -3.030807 0.2840803,-2.82615 -3.030807 0.2840803,-2.959788 -1.614514 0.5406162,-2.332241 -4.27172 0.2541803,-2.40398 -3.071685 0.4540163,-2.485517 -2.303185 0.6383619,-2.553506 -1.614538 0.8037356,-1.967868 -4.496434 0.4194604,-1.941762 -3.57604 0.6103483,-1.963751 -2.992224 0.8016213,-1.989896 -2.442014 0.9641176,-8.487185 -6.757386 -1.399981,-7.876775 -6.497884 -0.991127,-7.392762 -5.91733 -0.6778152,-7.196959 -5.148729 -0.3640594,-7.338933 -4.533451 -0.08874679,-7.578277 -4.543773 -1.306034,-7.471561 -3.617889 -0.8049272,-7.442677 -3.187452 -0.4501355,-7.433453 -2.796036 -0.3064355,-7.929121 -4.393009 -1.278378,-7.841076 -3.786266 -0.5403905,-7.868328 -4.783781 -0.3029215,-7.911212 -5.272555 -0.4127984,-8.277744 -4.378473 -1.135915,-8.20377 -3.792835 -0.4671496,-8.202227 -4.753003 -0.311833,-8.22748 -5.234954 -0.4459035,-8.65216 -4.461748 -0.9733363,-8.586541 -3.760947 -0.5521252,-8.511181 -4.371699 -0.4348797,-8.498698 -4.845369 -0.5161378,2.310, 1 0
-2.200414 -6.989089 -0.07701764,-2.835728 -6.753668 0.1359209,-3.349695 -6.060812 0.2750275,-3.672512 -5.340845 0.4381078,-4.033626 -4.859796 0.6487076,-3.004877 -4.508157 0.005647741,-3.243881 -3.437081 0.1579762,-3.362137 -2.815432 0.2298613,-3.445396 -2.242775 0.2793987,-2.66797 -4.279801 0.06360048,-2.819203 -3.033404 0.2245229,-2.819203 -3.033404 0.2245229,-2.940268 -1.631263 0.4480794,-2.329429 -4.273626 0.1993675,-2.398092 -3.059631 0.38605,-2.473547 -2.291554 0.5519782,-2.538262 -1.609704 0.7036988,-1.970346 -4.483184 0.3514963,-1.945099 -3.550722 0.5258856,-1.96166 -2.970756 0.7017598,-1.982142 -2.422452 0.8464577,-8.459513 -6.820991 -1.60383,-7.915092 -6.572192 -1.197706,-7.418751 -6.007386 -0.8751734,-7.235345 -5.233611 -0.5618948,-7.463095 -4.701641 -0.326099,-7.621644 -4.671281 -1.445453,-7.508489 -3.828725 -0.9032583,-7.453241 -3.506733 -0.5357604,-7.404866 -3.240904 -0.3644912,-7.962084 -4.507644 -1.411042,-7.877548 -4.08692 -0.6778271,-7.942148 -5.07764 -0.529876,-7.994204 -5.453063 -0.688652,-8.30274 -4.494878 -1.243676,-8.223973 -4.075628 -0.5842248,-8.255274 -5.026048 -0.5215154,-8.299052 -5.381292 -0.6858869,-8.678794 -4.583342 -1.051747,-8.607551 -3.993409 -0.6764713,-8.561567 -4.629183 -0.6150222,-8.569571 -5.012841 -0.7065649,2.410, 1 0
-2.212826 -6.985752 -0.05318864,-2.842865 -6.740362 0.1771663,-3.353421 -6.046481 0.326609,-3.668915 -5.32418 0.5012044,-4.029684 -4.82311 0.7199863,-3.021184 -4.490249 0.02559951,-3.248214 -3.413789 0.1858475,-3.366331 -2.786003 0.2632882,-3.451533 -2.211463 0.3139549,-2.682962 -4.26985 0.08457112,-2.831019 -3.029634 0.2566314,-2.831019 -3.029634 0.2566314,-2.959024 -1.616148 0.507484,-2.343793 -4.267745 0.2233466,-2.412464 -3.064121 0.4208162,-2.491159 -2.287895 0.596491,-2.561653 -1.599429 0.7555164,-1.981297 -4.48039 0.3820929,-1.952275 -3.549506 0.5610588,-1.967336 -2.966653 0.7356154,-1.986735 -2.418831 0.8852333,-8.441957 -6.741748 -1.631376,-7.937212 -6.591505 -1.11357,-7.436175 -6.045604 -0.7671525,-7.281901 -5.269147 -0.4434984,-7.582874 -4.813229 -0.1880836,-7.657441 -4.607748 -1.333274,-7.55164 -3.958244 -0.62992,-7.498538 -3.769135 -0.1717359,-7.456357 -3.565549 0.02874136,-8.012864 -4.433803 -1.333924,-7.931316 -4.145292 -0.5150472,-7.98148 -5.155263 -0.3994811,-8.029544 -5.413666 -0.5947227,-8.374357 -4.460712 -1.198215,-8.296679 -4.223518 -0.4597195,-8.294801 -5.224279 -0.4561653,-8.328267 -5.46062 -0.7022028,-8.762926 -4.614796 -1.017808,-8.687299 -4.233151 -0.5863848,-8.607828 -4.939437 -0.557988,-8.600641 -5.211287 -0.728514,2.510, 1 0
-2.213177 -6.999531 -0.01278363,-2.840276 -6.744304 0.2125196,-3.343914 -6.044437 0.3486357,-3.650471 -5.319253 0.5150403,-4.009398 -4.831668 0.7289775,-3.003221 -4.492006 0.04020378,-3.236115 -3.435488 0.2072129,-3.354319 -2.827469 0.2901727,-3.440828 -2.25961 0.3481495,-2.666654 -4.268318 0.1091959,-2.813403 -3.044858 0.2861621,-2.813403 -3.044858 0.2861621,-2.935923 -1.629881 0.5554612,-2.328438 -4.268619 0.2569774,-2.393898 -3.074275 0.4568881,-2.468314 -2.306439 0.6484139,-2.534943 -1.613399 0.8200114,-1.965607 -4.486287 0.4274611,-1.930328 -3.561485 0.6161358,-1.940898 -2.971778 0.8048072,-1.959561 -2.414021 0.9667326,-8.452144 -6.660907 -1.728334,-7.987463 -6.626503 -1.133111,-7.467424 -6.073877 -0.7554295,-7.36852 -5.393069 -0.4367927,-7.722528 -5.066973 -0.2070633,-7.700385 -4.59884 -1.225734,-7.635904 -4.129236 -0.3856009,-7.607389 -3.997244 0.1742977,-7.582143 -3.826707 0.4355121,-8.077116 -4.40489 -1.239721,-8.038979 -4.140824 -0.3117868,-8.073193 -5.151886 -0.1840162,-8.114641 -5.528985 -0.3615403,-8.466045 -4.456415 -1.109657,-8.418123 -4.214393 -0.2604126,-8.38328 -5.22063 -0.2756704,-8.406127 -5.571023 -0.5394813,-8.873817 -4.680173 -0.9305322,-8.835618 -4.289993 -0.3981791,-8.732502 -4.970742 -0.3551937,-8.703753 -5.313205 -0.5100948,2.610, 1 0
-2.203251 -6.980033 -0.07305072,-2.831454 -6.744771 0.1356138,-3.339192 -6.051038 0.2798398,-3.654596 -5.343998 0.4555977,-4.011787 -4.87041 0.6813549,-2.995007 -4.487592 -0.01941785,-3.227039 -3.426815 0.1454369,-3.352899 -2.813653 0.2264265,-3.445873 -2.247966 0.2763482,-2.663244 -4.268065 0.06266829,-2.815034 -3.03221 0.2498403,-2.815034 -3.03221 0.2498403,-2.946944 -1.617774 0.5156613,-2.324386 -4.270109 0.2210367,-2.397637 -3.066305 0.4337692,-2.475956 -2.28715 0.6245111,-2.54476 -1.593088 0.7932155,-1.961137 -4.49098 0.3977851,-1.925958 -3.560338 0.5967241,-1.935178 -2.963548 0.7864314,-1.949728 -2.403753 0.9502096,-8.491924 -6.636194 -1.871738,-8.04511 -6.628505 -1.264789,-7.533075 -6.070461 -0.8724572,-7.437124 -5.414615 -0.5477719,-7.782805 -5.102924 -0.2970979,-7.753096 -4.617575 -1.332554,-7.688628 -4.182613 -0.5110502,-7.658536 -4.016718 0.03069389,-7.631241 -3.818441 0.2846692,-8.136479 -4.427305 -1.348783,-8.090833 -4.17711 -0.4167912,-8.108789 -5.138374 -0.269501,-8.142594 -5.536506 -0.4282824,-8.533321 -4.477838 -1.232094,-8.469614 -4.261274 -0.3856013,-8.428915 -5.238369 -0.4058336,-8.452611 -5.616441 -0.6651794,-8.944379 -4.709568 -1.064308,-8.89948 -4.348672 -0.513999,-8.79387 -5.002142 -0.4828892,-8.764797 -5.375556 -0.6490049,2.710, 1 0
-2.21345 -7.025248 -0.009453669,-2.829561 -6.760574 0.2226714,-3.334888 -6.061023 0.3728757,-3.645384 -5.350092 0.5494211,-4.004118 -4.867679 0.779321,-2.990913 -4.506823 0.06741742,-3.222042 -3.454844 0.2417989,-3.343786 -2.837511 0.3443458,-3.437063 -2.257422 0.4184456,-2.655478 -4.292769 0.1445036,-2.804586 -3.069301 0.3310553,-2.804586 -3.069301 0.3310553,-2.935586 -1.646857 0.6136436,-2.31502 -4.303894 0.3002197,-2.384291 -3.106792 0.5081946,-2.459839 -2.334208 0.7097878,-2.528029 -1.636668 0.8903834,-1.950236 -4.531414 0.477834,-1.918775 -3.598258 0.6780907,-1.93387 -2.995606 0.8787676,-1.957595 -2.421893 1.052008,-8.598354 -6.614223 -1.141914,-8.124722 -6.577285 -0.4381509,-7.604878 -6.020366 0.06522191,-7.553829 -5.433565 0.4743248,-7.935146 -5.162738 0.7973335,-7.843656 -4.499135 -0.2692341,-7.805772 -4.150718 0.7295963,-7.800814 -4.046619 1.368844,-7.798089 -3.886197 1.672302,-8.25803 -4.275307 -0.3085415,-8.214072 -4.237327 0.7491047,-8.212338 -5.217517 0.9199474,-8.225293 -5.517879 0.7898264,-8.676344 -4.3324 -0.2217898,-8.620459 -4.300981 0.6926725,-8.555331 -5.288451 0.6053195,-8.55299 -5.572401 0.3129607,-9.085592 -4.615734 -0.07341313,-9.062936 -4.367979 0.5132037,-8.929535 -5.032099 0.5024828,-8.867025 -5.345109 0.2987092,2.810, 1 0
-2.20758 -7.00353 -0.06037719,-2.836757 -6.755235 0.1402614,-3.34478 -6.055995 0.2775748,-3.657887 -5.339313 0.4501107,-4.007484 -4.843414 0.668843,-2.984868 -4.498761 -0.02081866,-3.211639 -3.431818 0.1271066,-3.334594 -2.813711 0.1929336,-3.425301 -2.243423 0.2317401,-2.651018 -4.284084 0.05323526,-2.793972 -3.039523 0.2118624,-2.793972 -3.039523 0.2118624,-2.924475 -1.633404 0.4348904,-2.315177 -4.287865 0.2032715,-2.378062 -3.074835 0.3834447,-2.456928 -2.302255 0.546764,-2.522661 -1.617918 0.6979738,-1.95704 -4.502244 0.3721425,-1.924064 -3.565258 0.5384793,-1.940324 -2.973933 0.7094843,-1.960663 -2.424009 0.8560005,-8.634308 -6.650331 -0.8773383,-8.156713 -6.561632 -0.1468452,-7.635599 -6.021816 0.384419,-7.58823 -5.465967 0.8203977,-7.982463 -5.205174 1.149895,-7.894954 -4.480928 0.04854429,-7.85039 -4.179414 1.072612,-7.851604 -4.102369 1.686811,-7.853233 -3.917004 1.969531,-8.314117 -4.243545 0.0003012419,-8.259006 -4.311445 1.077384,-8.276421 -5.315961 1.202688,-8.298777 -5.521617 1.035435,-8.728511 -4.306552 0.08315802,-8.669395 -4.383199 1.009496,-8.613039 -5.366807 0.8669213,-8.609397 -5.557304 0.5397978,-9.131261 -4.600071 0.2307361,-9.117329 -4.409826 0.7957245,-8.982651 -5.07282 0.7492206,-8.914395 -5.33571 0.5170205,2.910, 1 0
-2.230896 -7.001471 -0.03400202,-2.85058 -6.757802 0.1774854,-3.350667 -6.037361 0.3124228,-3.6549 -5.310969 0.4815544,-4.014614 -4.83227 0.7022422,-2.996763 -4.485136 0.03311826,-3.226856 -3.420488 0.2043523,-3.35284 -2.793104 0.2953099,-3.443458 -2.203973 0.3580817,-2.661214 -4.273942 0.113838,-2.802553 -3.029323 0.2990928,-2.802553 -3.029323 0.2990928,-2.934476 -1.609893 0.5573478,-2.324423 -4.287371 0.2707984,-2.381716 -3.077344 0.4800387,-2.457578 -2.305703 0.6684125,-2.520447 -1.616838 0.831718,-1.968441 -4.519393 0.44797,-1.926063 -3.585676 0.6501127,-1.942089 -2.991474 0.8421333,-1.964835 -2.434676 1.003425,-8.663959 -6.684553 -0.7521412,-8.161573 -6.511188 0.06853503,-7.668276 -5.971454 0.6391829,-7.667127 -5.431962 1.095618,-8.075961 -5.162351 1.443098,-7.914524 -4.502376 0.3556195,-7.865921 -4.180952 1.429542,-7.893136 -4.076837 2.087025,-7.922245 -3.821963 2.417443,-8.358091 -4.300434 0.2843746,-8.294576 -4.323505 1.448174,-8.279646 -5.281457 1.667832,-8.266973 -5.452329 1.565427,-8.788157 -4.356575 0.3286904,-8.719809 -4.384567 1.320089,-8.632024 -5.288818 1.190458,-8.597137 -5.417176 0.858001,-9.195068 -4.641413 0.4442383,-9.201828 -4.454066 1.04044,-9.050346 -5.054159 0.9974525,-8.955439 -5.271696 0.7465023,3.010, 1 0
-2.207573 -6.99192 -0.03692737,-2.834827 -6.743532 0.1604336,-3.340941 -6.029916 0.2878073,-3.652856 -5.308824 0.4515951,-4.005821 -4.824081 0.6674348,-2.999584 -4.48306 -0.01505849,-3.231542 -3.421142 0.1436619,-3.357965 -2.795948 0.2322178,-3.449504 -2.214445 0.2967296,-2.667489 -4.268085 0.06829232,-2.810272 -3.029712 0.2368262,-2.810272 -3.029712 0.2368262,-2.940701 -1.612282 0.4914417,-2.331558 -4.275621 0.230201,-2.397361 -3.072299 0.4195617,-2.477869 -2.303979 0.5936249,-2.546144 -1.619408 0.7501672,-1.970047 -4.495708 0.4116912,-1.929226 -3.565602 0.5924687,-1.941717 -2.97195 0.7728485,-1.959763 -2.411119 0.927865,-8.674942 -6.645578 -0.9079641,-8.162549 -6.456985 -0.1439927,-7.671377 -5.920097 0.4174235,-7.671714 -5.41562 0.8771993,-8.084654 -5.186958 1.210399,-7.94126 -4.504677 0.2152303,-7.898841 -4.146653 1.27937,-7.923065 -4.009515 1.91117,-7.955266 -3.748987 2.23688,-8.382992 -4.332506 0.1807115,-8.314785 -4.345268 1.321115,-8.301171 -5.278409 1.498517,-8.288333 -5.453754 1.381681,-8.802345 -4.41517 0.2526895,-8.739971 -4.38462 1.220737,-8.658144 -5.200925 1.086219,-8.618251 -5.312007 0.7885629,-9.199477 -4.719224 0.3922887,-9.230249 -4.449125 0.9775521,-9.105758 -4.920593 0.9645214,-9.022442 -5.082889 0.7710582,3.110, 1 0
-2.225208 -6.990826 -0.03686421,-2.844586 -6.73809 0.1492676,-3.339587 -6.0214 0.2712689,-3.644095 -5.295599 0.431862,-4.000879 -4.814014 0.6445188,-2.999063 -4.477516 -0.003250517,-3.229824 -3.419889 0.1586977,-3.354045 -2.801082 0.2353757,-3.444941 -2.22437 0.2828481,-2.664558 -4.264574 0.09169026,-2.808689 -3.032033 0.2761672,-2.808689 -3.032033 0.2761672,-2.948257 -1.610457 0.5281329,-2.326288 -4.275682 0.2645189,-2.390114 -3.068162 0.4747638,-2.469287 -2.290254 0.6577761,-2.538054 -1.597389 0.8204258,-1.965581 -4.504436 0.4540289,-1.92241 -3.571942 0.6500755,-1.933687 -2.969996 0.8380345,-1.952693 -2.401124 1.001437,-8.733104 -6.611032 -0.6900421,-8.216784 -6.395221 0.05722553,-7.704667 -5.862545 0.6344626,-7.714142 -5.390411 1.109385,-8.142562 -5.175277 1.445062,-8.001801 -4.416255 0.4773177,-7.954536 -4.066043 1.526087,-7.976181 -3.923515 2.138625,-7.998281 -3.716274 2.454607,-8.450337 -4.256084 0.4586116,-8.391907 -4.30759 1.610759,-8.375082 -5.201402 1.805086,-8.352921 -5.447203 1.733782,-8.87135 -4.367033 0.5471865,-8.828535 -4.413227 1.535343,-8.739632 -5.182637 1.441774,-8.678404 -5.336549 1.191651,-9.270667 -4.709503 0.7043934,-9.332035 -4.396087 1.314551,-9.228136 -4.691833 1.379753,-9.140361 -4.77932 1.269594,3.210, 1 0
-2.202159 -7.017816 -0.06354944,-2.823524 -6.767103 0.12503,-3.325252 -6.056654 0.2505285,-3.635267 -5.335811 0.4115347,-3.985483 -4.841455 0.6247235,-2.965006 -4.50798 -0.02571741,-3.197453 -3.43915 0.1318951,-3.325877 -2.812146 0.208585,-3.417444 -2.229455 0.2608724,-2.633294 -4.297649 0.05744222,-2.775736 -3.049759 0.2305892,-2.775736 -3.049759 0.2305892,-2.902737 -1.611743 0.4736677,-2.29714 -4.310028 0.2135118,-2.364265 -3.101643 0.4049374,-2.443893 -2.324272 0.5815303,-2.507315 -1.637386 0.7421965,-1.939035 -4.536136 0.387362,-1.907414 -3.597728 0.5728692,-1.926061 -2.997867 0.7586281,-1.948381 -2.438667 0.9178553,-8.791204 -6.635864 -0.4167013,-8.269535 -6.423837 0.3382164,-7.730273 -5.863451 0.9576803,-7.767667 -5.425518 1.471557,-8.206325 -5.265606 1.861361,-8.073383 -4.388984 0.8072234,-8.046884 -4.011213 1.820219,-8.065365 -3.858974 2.417879,-8.088289 -3.696941 2.731356,-8.537481 -4.218537 0.7893076,-8.483992 -4.268953 1.929165,-8.453152 -5.162275 2.159529,-8.429865 -5.478933 2.141168,-8.965461 -4.330549 0.8658861,-8.933133 -4.386102 1.836114,-8.837823 -5.162427 1.741218,-8.774021 -5.373327 1.509246,-9.365617 -4.689056 1.008608,-9.42419 -4.384364 1.601763,-9.324039 -4.730133 1.641155,-9.241847 -4.893348 1.528651,3.310, 1 0
-2.203016 -7.026964 0.02345605,-2.824898 -6.7786 0.2125579,-3.331354 -6.063316 0.341633,-3.637375 -5.340922 0.5104548,-3.98595 -4.844539 0.7285473,-2.969158 -4.492853 0.04394159,-3.194071 -3.432847 0.2005462,-3.319094 -2.811655 0.2830076,-3.410927 -2.231073 0.3356179,-2.636296 -4.281644 0.137695,-2.778688 -3.04982 0.3078794,-2.778688 -3.04982 0.3078794,-2.914133 -1.630065 0.5531393,-2.298644 -4.298116 0.3065009,-2.365947 -3.101897 0.4978696,-2.446181 -2.330902 0.6752555,-2.511152 -1.646509 0.8346455,-1.938306 -4.532899 0.49456,-1.90816 -3.600179 0.6802469,-1.928565 -2.997896 0.8632854,-1.953179 -2.437189 1.022978,-8.842783 -6.614506 -0.01521628,-8.309896 -6.440673 0.800073,-7.759051 -5.879793 1.455237,-7.801782 -5.447295 1.99454,-8.253357 -5.293424 2.418256,-8.115146 -4.309568 1.326575,-8.096311 -3.900026 2.361783,-8.118449 -3.809254 2.947692,-8.159237 -3.761633 3.23391,-8.588848 -4.110742 1.275073,-8.5489 -4.217784 2.428592,-8.515224 -5.096655 2.717196,-8.49666 -5.427013 2.751372,-9.026516 -4.213819 1.307729,-8.99914 -4.401636 2.279753,-8.906788 -5.228652 2.209079,-8.85297 -5.444634 1.976773,-9.437647 -4.560926 1.405895,-9.487932 -4.3687 2.001084,-9.353224 -4.870371 2.007671,-9.250106 -5.104518 1.833999,3.410, 1 0
-2.183289 -7.026689 0.005217731,-2.808603 -6.775201 0.2049419,-3.316649 -6.064533 0.3366361,-3.627349 -5.344892 0.502043,-3.976429 -4.843997 0.7161902,-2.967633 -4.504455 0.03760319,-3.198402 -3.442378 0.1986359,-3.325639 -2.823352 0.2799301,-3.421618 -2.246203 0.3358434,-2.630156 -4.288896 0.1206767,-2.777039 -3.057909 0.2931854,-2.777039 -3.057909 0.2931854,-2.90589 -1.636682 0.5347808,-2.287896 -4.300184 0.2816518,-2.357028 -3.109601 0.4722144,-2.436973 -2.342024 0.6484387,-2.502687 -1.655889 0.8100867,-1.923496 -4.528671 0.4622721,-1.894685 -3.605039 0.6525317,-1.913282 -3.012343 0.8361471,-1.937674 -2.455965 0.9928404,-8.887975 -6.699378 0.9872422,-8.363578 -6.471869 1.809445,-7.814033 -5.846534 2.520864,-7.932066 -5.525253 3.113124,-8.41148 -5.367144 3.555488,-8.266679 -4.139402 2.436608,-8.25342 -3.808672 3.470533,-8.282539 -3.805844 3.98157,-8.323251 -3.848512 4.190878,-8.762437 -3.914609 2.37653,-8.699864 -4.241711 3.486264,-8.647587 -5.111537 3.699369,-8.609959 -5.403984 3.713809,-9.196255 -4.053221 2.401317,-9.157317 -4.543592 3.337006,-9.024948 -5.386849 3.239087,-8.939103 -5.555681 3.015111,-9.586906 -4.460407 2.501034,-9.650826 -4.472159 3.025569,-9.504688 -4.997867 3.006734,-9.393762 -5.193971 2.822047,3.510, 1 1
-2.186071 -7.035852 -0.04249783,-2.810533 -6.768848 0.1524917,-3.31735 -6.07645 0.2907271,-3.624153 -5.3621 0.4684981,-3.967605 -4.850278 0.6945676,-2.959233 -4.517711 0.0117597,-3.194247 -3.442455 0.1769222,-3.327125 -2.821912 0.2569268,-3.425562 -2.248389 0.3072332,-2.627818 -4.312137 0.09597963,-2.776078 -3.061901 0.2757103,-2.776078 -3.061901 0.2757103,-2.912568 -1.628494 0.5270618,-2.292702 -4.327508 0.2536922,-2.357379 -3.122377 0.4493992,-2.435136 -2.350755 0.6245604,-2.49703 -1.663183 0.782162,-1.937453 -4.553138 0.4280301,-1.910848 -3.613069 0.61901,-1.931187 -3.018897 0.7981489,-1.952847 -2.468479 0.9459829,-8.938498 -6.680393 1.167888,-8.417314 -6.487323 2.062526,-7.851781 -5.908208 2.837111,-7.943578 -5.643255 3.481255,-8.425839 -5.418952 3.97475,-8.300421 -4.127014 2.734157,-8.302027 -3.83618 3.819758,-8.33581 -3.837362 4.352618,-8.377817 -3.854667 4.558946,-8.812926 -3.888012 2.655211,-8.749767 -4.193326 3.832283,-8.682086 -5.069837 4.076725,-8.642843 -5.335636 4.106733,-9.263531 -4.019976 2.65685,-9.211335 -4.627756 3.623348,-9.051764 -5.549616 3.503118,-8.961334 -5.701281 3.242652,-9.662266 -4.428911 2.743006,-9.691255 -4.538961 3.263668,-9.515368 -5.155349 3.206082,-9.402205 -5.350727 2.974122,3.610, 1 1
-2.175867 -7.048845 -0.03546222,-2.803548 -6.803398 0.160865,-3.316135 -6.099333 0.2983561,-3.63232 -5.377232 0.4678054,-3.984455 -4.87663 0.6843892,-2.961741 -4.53631 0.03496233,-3.19533 -3.46247 0.1905609,-3.323192 -2.839776 0.2559658,-3.419367 -2.268796 0.2991926,-2.626251 -4.324996 0.1132896,-2.772767 -3.072722 0.2911787,-2.772767 -3.072722 0.2911787,-2.902659 -1.649092 0.5136079,-2.287052 -4.338903 0.2634665,-2.346926 -3.124233 0.4617939,-2.422907 -2.347549 0.6371531,-2.485388 -1.662644 0.7898962,-1.927741 -4.568372 0.4328141,-1.89529 -3.6317 0.6247392,-1.913661 -3.039076 0.8095694,-1.935638 -2.490281 0.9599627,-8.973078 -6.737844 1.37563,-8.46191 -6.542879 2.286112,-7.904305 -5.942649 3.080154,-8.033174 -5.749238 3.73246,-8.553461 -5.495133 4.183727,-8.387169 -4.096525 2.902515,-8.395542 -3.834338 4.073257,-8.465723 -3.845695 4.649974,-8.541849 -3.850082 4.859988,-8.90571 -3.851837 2.814672,-8.823943 -4.463109 4.018714,-8.745736 -5.451499 4.069483,-8.683453 -5.654719 3.930558,-9.355345 -4.038988 2.857007,-9.286977 -4.748506 3.86671,-9.116591 -5.639724 3.681233,-9.011411 -5.724928 3.389056,-9.750203 -4.473183 2.992988,-9.797342 -4.612228 3.510306,-9.623528 -5.182054 3.40939,-9.508425 -5.332202 3.166929,3.710, 1 1
-2.185875 -7.063777 0.02165644,-2.811978 -6.799751 0.2154745,-3.3182 -6.082988 0.3514508,-3.627628 -5.360597 0.5287666,-3.981604 -4.856398 0.7559463,-2.959898 -4.527895 0.08261141,-3.192581 -3.454723 0.2455713,-3.321859 -2.833613 0.3206809,-3.418875 -2.25559 0.3672642,-2.625248 -4.321912 0.1758261,-2.773134 -3.076382 0.3636033,-2.773134 -3.076382 0.3636033,-2.908418 -1.656581 0.6052634,-2.285577 -4.33544 0.3433081,-2.353702 -3.126552 0.5540491,-2.434035 -2.343729 0.7437288,-2.498985 -1.651707 0.9065534,-1.924503 -4.566355 0.5285125,-1.898206 -3.623087 0.7246607,-1.9172 -3.016723 0.9134357,-1.938415 -2.454224 1.072722,-8.985859 -6.729057 1.380651,-8.45636 -6.509239 2.234799,-7.903928 -5.868561 3.000648,-8.0816 -5.690073 3.632019,-8.620361 -5.564839 4.05109,-8.423658 -4.082024 2.910714,-8.418355 -3.783571 4.055665,-8.478039 -3.843737 4.593976,-8.545969 -3.943183 4.77881,-8.946657 -3.855184 2.848119,-8.859899 -4.484012 4.05126,-8.785889 -5.443622 4.122132,-8.720223 -5.686583 3.994707,-9.389988 -4.063406 2.901865,-9.328624 -4.725671 3.899372,-9.162598 -5.582522 3.741105,-9.048184 -5.715002 3.488055,-9.773587 -4.526203 3.041438,-9.853767 -4.624521 3.553017,-9.704973 -5.091151 3.495829,-9.585751 -5.230805 3.300431,3.810, 1 1
-2.176782 -7.064012 0.06770979,-2.794096 -6.801356 0.2918143,-3.309572 -6.089335 0.4330987,-3.627271 -5.366202 0.6112345,-3.982946 -4.855505 0.8371765,-2.954973 -4.518064 0.1159637,-3.186323 -3.467301 0.2759085,-3.313599 -2.851007 0.3609744,-3.412876 -2.271842 0.4197591,-2.620589 -4.307897 0.1894276,-2.765984 -3.080919 0.3608711,-2.765984 -3.080919 0.3608711,-2.900263 -1.664998 0.6185691,-2.283842 -4.322711 0.3410327,-2.350158 -3.132819 0.536099,-2.428407 -2.361815 0.7234868,-2.494566 -1.675183 0.8901266,-1.925776 -4.550861 0.5164092,-1.896593 -3.624 0.7046611,-1.911983 -3.02646 0.8899412,-1.931843 -2.472096 1.04503,-9.020276 -6.736446 1.775386,-8.498441 -6.513193 2.616087,-7.935101 -5.908272 3.389353,-8.084154 -5.758205 4.025445,-8.612546 -5.574329 4.462433,-8.437065 -4.009084 3.352102,-8.465915 -3.764409 4.465066,-8.547149 -3.780443 5.015413,-8.61388 -3.851519 5.232939,-8.982988 -3.756958 3.283839,-8.925869 -4.480758 4.429223,-8.843533 -5.438049 4.50752,-8.75383 -5.716465 4.424807,-9.438544 -3.961341 3.323632,-9.391969 -4.722044 4.280246,-9.220574 -5.560703 4.135347,-9.086907 -5.721742 3.92049,-9.836816 -4.430515 3.450141,-9.919986 -4.601377 3.938069,-9.767866 -5.096521 3.888838,-9.62994 -5.284922 3.716791,3.910, 1 1
-2.145392 -7.079964 0.06714173,-2.759999 -6.821029 0.2976739,-3.268815 -6.098001 0.4432431,-3.581877 -5.370061 0.6235542,-3.934459 -4.871244 0.8558173,-2.920936 -4.538564 0.1024302,-3.155617 -3.482982 0.2556795,-3.280869 -2.872293 0.3486045,-3.379948 -2.301677 0.4197876,-2.59113 -4.3236 0.1711619,-2.737543 -3.098314 0.3414519,-2.737543 -3.098314 0.3414519,-2.854973 -1.672607 0.6228809,-2.255069 -4.330275 0.3181541,-2.327012 -3.148096 0.5112069,-2.404093 -2.369561 0.7070398,-2.474134 -1.682298 0.8807721,-1.894109 -4.55388 0.4925545,-1.860817 -3.629968 0.6801703,-1.864239 -3.032344 0.8670498,-1.873698 -2.484383 1.028898,-8.958133 -6.750509 1.073562,-8.421035 -6.478244 1.832974,-7.883222 -5.839284 2.555195,-8.039698 -5.616592 3.153733,-8.584649 -5.497274 3.544284,-8.370503 -4.197237 2.620722,-8.427901 -3.838608 3.622113,-8.495021 -3.768768 4.114307,-8.552135 -3.853551 4.363985,-8.906663 -4.014621 2.612218,-8.869178 -4.175596 3.683126,-8.784544 -4.882242 3.939031,-8.708467 -5.233417 4.039313,-9.358255 -4.175903 2.666103,-9.33742 -4.472999 3.560203,-9.181579 -5.169603 3.468727,-9.073511 -5.405267 3.307235,-9.753623 -4.576564 2.797144,-9.865394 -4.383829 3.330259,-9.723736 -4.781091 3.344089,-9.596105 -5.061662 3.201564,4.010, 1 1
-2.13634 -7.066731 0.02557339,-2.753278 -6.8033 0.2519749,-3.254807 -6.078247 0.3942449,-3.564653 -5.353172 0.5729437,-3.922541 -4.876226 0.8054035,-2.906603 -4.526767 0.07807219,-3.133141 -3.471351 0.2470477,-3.250092 -2.862367 0.3479196,-3.338481 -2.285261 0.4222445,-2.573511 -4.322246 0.1581021,-2.713972 -3.089345 0.3513016,-2.713972 -3.089345 0.3513016,-2.825173 -1.668678 0.6450467,-2.237613 -4.342193 0.3149831,-2.303241 -3.1535 0.5346557,-2.375969 -2.386084 0.7410865,-2.440858 -1.7007 0.9184906,-1.878817 -4.57858 0.4957341,-1.833622 -3.667877 0.7016773,-1.834333 -3.083617 0.898025,-1.842871 -2.537612 1.066713,-8.881143 -6.814624 0.1017392,-8.333683 -6.45005 0.6943303,-7.835855 -5.841154 1.296061,-7.917191 -5.455322 1.836023,-8.392902 -5.373748 2.252805,-8.296466 -4.310953 1.265487,-8.335911 -3.611571 1.998909,-8.355194 -3.634487 2.389962,-8.372682 -3.925458 2.588866,-8.774864 -4.217212 1.297866,-8.77759 -3.904943 2.064898,-8.730435 -4.549715 2.377713,-8.658325 -5.035331 2.528207,-9.193163 -4.384623 1.371016,-9.224091 -4.132431 1.968349,-9.124619 -4.718691 2.052364,-9.027924 -5.109805 2.074344,-9.588696 -4.712089 1.51258,-9.746626 -4.209966 1.898807,-9.616581 -4.538732 2.018152,-9.460293 -4.907953 2.031474,4.110, 1 1
-2.129102 -7.13438 0.04268024,-2.742785 -6.859868 0.2533307,-3.2512 -6.138398 0.3891687,-3.566361 -5.419399 0.5637979,-3.913261 -4.933597 0.7832523,-2.888 -4.581351 0.07630882,-3.113306 -3.524011 0.2519122,-3.234909 -2.902648 0.3518368,-3.32495 -2.32308 0.4187915,-2.556811 -4.383028 0.1657779,-2.699565 -3.150278 0.3529939,-2.699565 -3.150278 0.3529939,-2.814037 -1.719082 0.6380113,-2.220549 -4.402827 0.3327534,-2.28912 -3.206744 0.5445918,-2.362292 -2.430736 0.7438266,-2.424182 -1.741899 0.9131122,-1.862013 -4.641456 0.5219345,-1.814021 -3.716951 0.7188865,-1.814799 -3.120605 0.9073046,-1.820615 -2.563691 1.069478,-8.670827 -6.790012 -1.812577,-8.152361 -6.464728 -1.189296,-7.733084 -5.836559 -0.7218425,-7.660287 -5.114206 -0.3288077,-7.970835 -4.663961 0.003822327,-8.122626 -4.618674 -1.145078,-8.058769 -3.652651 -0.5228703,-8.06549 -3.180301 -0.0933224,-8.096215 -2.760101 0.1687565,-8.504272 -4.569755 -1.180189,-8.493293 -3.751844 -0.2914187,-8.419334 -4.662723 -0.04841042,-8.411363 -5.330272 -0.09727478,-8.901825 -4.628 -1.109736,-8.884089 -3.863274 -0.3247266,-8.814395 -4.756103 -0.1520346,-8.807832 -5.422863 -0.2816358,-9.317283 -4.762462 -0.9964134,-9.390273 -3.838642 -0.4427582,-9.260276 -4.278118 -0.3065398,-9.188029 -4.857429 -0.3938242,4.210, 1 1
-2.115312 -7.144639 0.04387314,-2.737226 -6.894338 0.2578605,-3.250872 -6.15982 0.382705,-3.565084 -5.428022 0.5420465,-3.90913 -4.939584 0.7409014,-2.882983 -4.607959 0.1004518,-3.107405 -3.542107 0.2654731,-3.221091 -2.924428 0.3504786,-3.301268 -2.346373 0.4081392,-2.546543 -4.393751 0.1720333,-2.690425 -3.163244 0.3511392,-2.690425 -3.163244 0.3511392,-2.79784 -1.741451 0.6060433,-2.207994 -4.399444 0.3216448,-2.279424 -3.214967 0.5234078,-2.354979 -2.450318 0.6986138,-2.418698 -1.773221 0.8510429,-1.850209 -4.623533 0.4949477,-1.806815 -3.714867 0.6757627,-1.808413 -3.138381 0.849216,-1.816284 -2.595337 0.9958777,-8.63988 -6.548599 -1.476342,-8.028568 -6.399969 -0.914592,-7.611678 -5.677801 -0.5691065,-7.469903 -4.903717 -0.2409105,-7.410617 -4.150068 0.04842043,-7.95574 -4.284624 -1.171822,-7.925426 -3.259355 -0.8273853,-7.914841 -2.47731 -0.4950776,-7.926012 -1.775568 -0.2727901,-8.319716 -4.175772 -1.196144,-8.334959 -3.130804 -0.6104382,-8.285385 -3.797258 -0.3021284,-8.280148 -4.406428 -0.2805907,-8.6941 -4.223812 -1.147719,-8.719506 -3.247682 -0.5879282,-8.667298 -3.98913 -0.3140619,-8.650694 -4.639379 -0.3110009,-9.094298 -4.363026 -1.067132,-9.134196 -3.494237 -0.6336795,-9.046706 -3.869358 -0.5163704,-9.015532 -4.396318 -0.570395,4.310, 1 1
-2.121697 -7.111425 0.03769771,-2.743881 -6.868801 0.2433072,-3.252098 -6.124776 0.3677431,-3.554852 -5.401098 0.5333233,-3.900766 -4.940811 0.7406402,-2.889772 -4.570275 0.08609225,-3.105138 -3.504879 0.2577364,-3.215006 -2.883111 0.3549882,-3.296144 -2.295834 0.4229444,-2.556229 -4.363321 0.17638,-2.695195 -3.130685 0.3763587,-2.695195 -3.130685 0.3763587,-2.806181 -1.70058 0.6699213,-2.216455 -4.376108 0.3451521,-2.285727 -3.182078 0.5624593,-2.355462 -2.413309 0.7535341,-2.416619 -1.733407 0.917443,-1.855187 -4.607833 0.5348589,-1.801935 -3.692894 0.7341706,-1.795315 -3.104425 0.9200106,-1.79636 -2.552265 1.081528,-8.611776 -6.51356 -1.317819,-7.987237 -6.356385 -0.7965058,-7.564598 -5.589575 -0.5009544,-7.4219 -4.828983 -0.2199519,-7.364725 -4.065242 0.006783605,-7.933523 -4.160179 -1.110919,-7.866576 -3.098883 -0.7964684,-7.818449 -2.284564 -0.4475072,-7.806833 -1.573545 -0.1975212,-8.299553 -4.086254 -1.111975,-8.30997 -2.880292 -0.5331827,-8.239975 -3.400264 -0.1333635,-8.226004 -4.014374 -0.01535535,-8.663516 -4.169963 -1.035591,-8.693612 -3.028081 -0.4614372,-8.612815 -3.65649 -0.1023229,-8.575473 -4.348011 -0.02881253,-9.057395 -4.369535 -0.9452326,-9.120277 -3.448393 -0.4598274,-9.009562 -3.698921 -0.2644885,-8.939813 -4.219947 -0.2382658,4.410, 1 1
-2.118865 -7.074722 0.01117136,-2.738507 -6.834758 0.2212354,-3.244026 -6.088558 0.3485793,-3.55359 -5.35372 0.5120685,-3.900721 -4.876409 0.7219328,-2.880295 -4.539629 0.06675211,-3.104498 -3.455167 0.2317414,-3.214808 -2.82147 0.3207896,-3.285913 -2.234479 0.3819894,-2.545698 -4.332838 0.1443659,-2.683195 -3.085598 0.3333171,-2.683195 -3.085598 0.3333171,-2.779969 -1.641237 0.5825993,-2.206966 -4.339386 0.297478,-2.277728 -3.13365 0.5062677,-2.34919 -2.350145 0.6831039,-2.404648 -1.659162 0.835246,-1.845976 -4.561532 0.4736253,-1.800211 -3.633296 0.6598158,-1.794414 -3.044759 0.8364007,-1.792091 -2.488416 0.9894153,-8.617016 -6.492445 -0.8271068,-7.973608 -6.298679 -0.3554853,-7.545181 -5.495165 -0.1529654,-7.374334 -4.695028 0.05020434,-7.344166 -3.993893 0.1733527,-7.936677 -3.982107 -0.9187738,-7.830348 -2.882318 -0.6473598,-7.764973 -2.101356 -0.3329168,-7.738856 -1.428312 -0.1234023,-8.280414 -3.919997 -0.922803,-8.255329 -2.643882 -0.3433408,-8.171668 -3.251523 0.1019925,-8.154572 -3.91549 0.1991537,-8.624306 -3.974915 -0.8462626,-8.641058 -2.826707 -0.3034256,-8.530947 -3.506465 0.0534277,-8.481961 -4.227053 0.09029967,-8.996188 -4.176534 -0.7417483,-9.052826 -3.294803 -0.2974415,-8.9361 -3.585075 -0.06727755,-8.859078 -4.128 -0.05065846,4.510, 1 1
-2.114395 -7.077533 0.05587579,-2.734064 -6.837362 0.2642514,-3.246971 -6.107658 0.3924547,-3.559287 -5.386947 0.5576375,-3.89559 -4.901285 0.7637325,-2.873987 -4.526784 0.06916729,-3.106316 -3.462875 0.2377709,-3.22566 -2.836598 0.3389136,-3.303293 -2.256219 0.4098222,-2.544095 -4.321586 0.1516964,-2.689763 -3.081377 0.3355632,-2.689763 -3.081377 0.3355632,-2.795135 -1.638404 0.608689,-2.209282 -4.334363 0.3140124,-2.283935 -3.134777 0.5225437,-2.357184 -2.356955 0.7124262,-2.416698 -1.664237 0.8715101,-1.851126 -4.566116 0.4991636,-1.800645 -3.647064 0.687637,-1.792943 -3.064192 0.8684328,-1.789286 -2.511156 1.02557,-8.62944 -6.521242 -0.640591,-7.995391 -6.282128 -0.1670301,-7.556261 -5.465034 0.06737328,-7.376918 -4.669231 0.2985419,-7.34325 -3.972313 0.4501805,-7.932936 -3.945752 -0.6559188,-7.833196 -2.831691 -0.3499563,-7.773762 -2.06221 -0.01963115,-7.749833 -1.401843 0.2011469,-8.280967 -3.894859 -0.6493503,-8.257865 -2.634429 -0.03871101,-8.172248 -3.252243 0.41668,-8.155946 -3.906513 0.5264313,-8.626527 -3.960824 -0.5650896,-8.642272 -2.851282 -0.01086897,-8.525137 -3.531322 0.3464698,-8.477607 -4.233461 0.3906561,-9.005649 -4.173353 -0.4512506,-9.054498 -3.294542 0.01226008,-8.932078 -3.58591 0.2599367,-8.858871 -4.117916 0.2923312,4.610, 1 1
-2.103274 -7.09502 0.05174012,-2.723941 -6.855367 0.2711156,-3.237697 -6.122127 0.4063764,-3.552125 -5.39231 0.5796237,-3.898787 -4.911018 0.7927901,-2.882069 -4.55314 0.1031303,-3.108907 -3.482164 0.2850694,-3.220766 -2.856817 0.3865435,-3.297762 -2.275552 0.4542861,-2.546625 -4.343816 0.1814444,-2.691541 -3.095421 0.3755364,-2.691541 -3.095421 0.3755364,-2.793846 -1.655131 0.6474823,-2.204131 -4.353128 0.3396388,-2.280027 -3.149694 0.5541935,-2.353471 -2.372108 0.7431701,-2.413628 -1.680772 0.9048803,-1.837135 -4.583503 0.520358,-1.791035 -3.66518 0.7170715,-1.78596 -3.077743 0.9040578,-1.785052 -2.520183 1.062135,-8.64427 -6.58314 -0.5272675,-8.002441 -6.336469 -0.0276379,-7.565322 -5.531162 0.2091574,-7.379938 -4.72553 0.4389291,-7.336484 -4.018304 0.5918127,-7.939186 -3.980096 -0.5345656,-7.835027 -2.876976 -0.2313024,-7.773618 -2.123207 0.08141363,-7.745515 -1.4634 0.2923313,-8.281812 -3.926002 -0.5439848,-8.261383 -2.71425 0.1030338,-8.179818 -3.41837 0.5647552,-8.159981 -4.105148 0.6697841,-8.624285 -3.979961 -0.474259,-8.64521 -2.886172 0.1181983,-8.530405 -3.612186 0.4935864,-8.476242 -4.341432 0.5319842,-9.000428 -4.172381 -0.3737081,-9.056984 -3.300861 0.1056331,-8.931582 -3.589334 0.369358,-8.845451 -4.122505 0.4016879,4.710, 1 1
-2.095443 -7.0892 0.05060434,-2.720181 -6.844512 0.2808737,-3.232243 -6.105028 0.4199896,-3.545361 -5.363512 0.5936106,-3.894569 -4.876432 0.8114378,-2.875155 -4.548346 0.1222477,-3.098346 -3.456459 0.2993684,-3.207628 -2.823892 0.400277,-3.279585 -2.234854 0.4701638,-2.537565 -4.338863 0.1950293,-2.68366 -3.094939 0.3923016,-2.68366 -3.094939 0.3923016,-2.786906 -1.649801 0.6728482,-2.194609 -4.34179 0.3454557,-2.275043 -3.144272 0.561667,-2.353852 -2.375072 0.7461535,-2.418866 -1.681797 0.9050201,-1.82778 -4.559267 0.521077,-1.780138 -3.64036 0.7208482,-1.771986 -3.059205 0.9006051,-1.766978 -2.498994 1.056538,-8.631357 -6.583354 -0.6290962,-7.998287 -6.346034 -0.1089762,-7.552962 -5.570743 0.1385593,-7.353594 -4.776395 0.3741992,-7.311933 -4.074574 0.5285764,-7.939713 -4.007786 -0.614011,-7.829751 -2.900354 -0.2901171,-7.761789 -2.152425 0.03054911,-7.735014 -1.483673 0.2374825,-8.279317 -3.95408 -0.6293451,-8.243745 -2.769231 0.06824702,-8.169587 -3.560556 0.5078022,-8.160769 -4.288928 0.5677047,-8.62559 -4.005865 -0.5568671,-8.633629 -2.923557 0.06995714,-8.526752 -3.707815 0.4181204,-8.482092 -4.454023 0.4159677,-9.005991 -4.200526 -0.455494,-9.057077 -3.320164 0.03798777,-8.930582 -3.653533 0.2864941,-8.848045 -4.210712 0.290616,4.810, 1 1
-2.094819 -7.053136 -0.04894797,-2.716023 -6.801286 0.238767,-3.236767 -6.106616 0.4113874,-3.556541 -5.387811 0.6051317,-3.886061 -4.881722 0.8328692,-2.864358 -4.535547 0.1083588,-3.085439 -3.43509 0.2989693,-3.193447 -2.791176 0.4195864,-3.262783 -2.188632 0.5118362,-2.528938 -4.333721 0.148474,-2.678287 -3.064337 0.3465298,-2.678287 -3.064337 0.3465298,-2.781442 -1.610581 0.6431811,-2.190991 -4.348524 0.2694106,-2.266126 -3.135116 0.488654,-2.337584 -2.350623 0.6910509,-2.392859 -1.655516 0.8650966,-1.830112 -4.58083 0.4150235,-1.777612 -3.650523 0.6174422,-1.767456 -3.067224 0.8093714,-1.759711 -2.517915 0.9736267,-8.562949 -6.659786 -0.8166717,-7.941464 -6.403217 -0.3445147,-7.507 -5.659268 -0.1375521,-7.315016 -4.88635 0.06686825,-7.240536 -4.178487 0.186216,-7.886578 -4.156698 -0.8527309,-7.783491 -3.01171 -0.5322938,-7.708615 -2.258708 -0.2300845,-7.675686 -1.56091 -0.05845082,-8.209031 -4.085159 -0.8543072,-8.138651 -2.965593 -0.1571842,-8.066797 -3.800105 0.2584038,-8.081838 -4.518766 0.2980207,-8.546651 -4.123424 -0.7655401,-8.529025 -3.115985 -0.1252235,-8.441984 -3.943985 0.2145078,-8.419985 -4.675037 0.1871448,-8.92835 -4.286008 -0.6540883,-8.959383 -3.409404 -0.14759,-8.829895 -3.765739 0.1037842,-8.75224 -4.341712 0.1058199,4.910, 1 1
-2.115134 -7.073514 -0.001372799,-2.725956 -6.824909 0.2322291,-3.241152 -6.110612 0.3768348,-3.558864 -5.399553 0.5552351,-3.897446 -4.904021 0.7772532,-2.882755 -4.541479 0.05254007,-3.106174 -3.459267 0.2288137,-3.223482 -2.813344 0.3453996,-3.307703 -2.208495 0.4323412,-2.547005 -4.33583 0.1274227,-2.688597 -3.087032 0.3259745,-2.688597 -3.087032 0.3259745,-2.811653 -1.622576 0.6273576,-2.204189 -4.347842 0.2826339,-2.280651 -3.15097 0.4914508,-2.362604 -2.367669 0.6870813,-2.431144 -1.674182 0.8560469,-1.83964 -4.571331 0.4589627,-1.794221 -3.639682 0.6501787,-1.793737 -3.044817 0.8359364,-1.800147 -2.484668 1.00255,-8.546356 -6.57592 -0.9617079,-7.930319 -6.353392 -0.44564,-7.502928 -5.622232 -0.2173401,-7.307437 -4.854002 -0.0009281039,-7.247805 -4.162467 0.1356425,-7.880787 -4.104917 -0.93076,-7.765002 -3.001272 -0.5974438,-7.6912 -2.242563 -0.2948094,-7.662382 -1.5191 -0.1194411,-8.210135 -4.040475 -0.937276,-8.170342 -2.940163 -0.1988042,-8.091232 -3.783039 0.21919,-8.080286 -4.514379 0.2441386,-8.548969 -4.089847 -0.8740381,-8.546144 -3.083444 -0.2154117,-8.440413 -3.8941 0.1364582,-8.388696 -4.649555 0.1200324,-8.923759 -4.256595 -0.7679767,-8.964797 -3.396251 -0.2517677,-8.83003 -3.754026 -0.007011473,-8.735041 -4.327499 -0.007732987,5.010, 1 1
-2.109948 -7.079973 0.01914604,-2.726116 -6.845132 0.2485366,-3.240076 -6.110093 0.3909003,-3.554805 -5.384569 0.5618687,-3.895408 -4.894439 0.778806,-2.88117 -4.556809 0.08005519,-3.121021 -3.484174 0.2532836,-3.245024 -2.846855 0.3591525,-3.329136 -2.252452 0.4345068,-2.545468 -4.336921 0.1474883,-2.693962 -3.091007 0.3429479,-2.693962 -3.091007 0.3429479,-2.808515 -1.620763 0.6212271,-2.203944 -4.342616 0.2946794,-2.280488 -3.140446 0.5083694,-2.357334 -2.347442 0.7072664,-2.421877 -1.642771 0.8780216,-1.839856 -4.568586 0.4656619,-1.794435 -3.643428 0.6626598,-1.789436 -3.054438 0.8533772,-1.79224 -2.496668 1.022292,-8.563475 -6.568092 -1.0029,-7.940045 -6.358984 -0.4762224,-7.500883 -5.619502 -0.2589605,-7.303298 -4.847769 -0.05395973,-7.236356 -4.150234 0.07458949,-7.887787 -4.107507 -0.9765005,-7.776495 -3.008068 -0.6500564,-7.704239 -2.247394 -0.3418822,-7.676332 -1.53077 -0.1594211,-8.218585 -4.045617 -0.9923616,-8.188846 -2.959017 -0.2588879,-8.107608 -3.782353 0.1771567,-8.089078 -4.51893 0.2253271,-8.560197 -4.094243 -0.9185607,-8.562267 -3.091924 -0.2313825,-8.447519 -3.890775 0.1298497,-8.384915 -4.641436 0.1134533,-8.931578 -4.260768 -0.8183201,-8.979667 -3.408718 -0.2956718,-8.847673 -3.749635 -0.04417109,-8.750731 -4.304533 -0.04023999,5.110, 1 1
-2.11857 -7.109052 -0.01190393,-2.734165 -6.860532 0.2308753,-3.249953 -6.14354 0.388527,-3.566164 -5.425569 0.5760443,-3.912519 -4.930887 0.8117704,-2.893863 -4.589994 0.06744955,-3.132316 -3.525844 0.2713957,-3.246312 -2.898005 0.3957996,-3.326629 -2.310482 0.4776119,-2.556653 -4.376731 0.1423711,-2.711915 -3.131184 0.3553478,-2.711915 -3.131184 0.3553478,-2.824632 -1.660227 0.6620675,-2.211196 -4.378194 0.2995878,-2.295195 -3.169887 0.5241199,-2.372264 -2.381059 0.7295448,-2.43739 -1.675799 0.9020859,-1.840548 -4.597707 0.4786683,-1.801306 -3.656727 0.6862189,-1.799278 -3.055274 0.8814163,-1.800763 -2.484527 1.049074,-8.594413 -6.605066 -0.9913684,-7.973835 -6.393162 -0.4704054,-7.534489 -5.654556 -0.2609881,-7.324944 -4.894184 -0.0620169,-7.227014 -4.204578 0.0566839,-7.9081 -4.143719 -0.9704964,-7.802958 -3.041725 -0.6561217,-7.729839 -2.293101 -0.393415,-7.698378 -1.574665 -0.2532438,-8.239115 -4.080703 -0.982455,-8.208591 -3.046673 -0.2470465,-8.14992 -3.913965 0.1402264,-8.149872 -4.626518 0.1360965,-8.58465 -4.126398 -0.9037595,-8.578675 -3.171127 -0.1921141,-8.480811 -3.995794 0.1418155,-8.433779 -4.72191 0.08913207,-8.967138 -4.286518 -0.7976733,-9.001211 -3.428861 -0.2745215,-8.871476 -3.787035 -0.03018647,-8.785886 -4.330069 -0.04595405,5.210, 1 1
-2.11446 -7.106409 0.002421673,-2.737541 -6.885593 0.2494692,-3.2562 -6.153226 0.403619,-3.568712 -5.416303 0.5858892,-3.918497 -4.919028 0.8097954,-2.90655 -4.590899 0.1105933,-3.136956 -3.49509 0.2908717,-3.253843 -2.84349 0.3985509,-3.331963 -2.237992 0.4795388,-2.564936 -4.372875 0.1725831,-2.713794 -3.113275 0.3682067,-2.713794 -3.113275 0.3682067,-2.831234 -1.654139 0.6412249,-2.217746 -4.37239 0.3144058,-2.298164 -3.16661 0.516696,-2.376338 -2.380073 0.6986848,-2.438478 -1.68048 0.8615794,-1.850101 -4.589828 0.4761209,-1.809625 -3.64851 0.6640185,-1.806461 -3.058191 0.8423922,-1.805138 -2.500102 1.005325,-8.605218 -6.601618 -1.063966,-7.990644 -6.394975 -0.5246309,-7.552975 -5.663408 -0.2931549,-7.345295 -4.903556 -0.07750887,-7.242837 -4.209091 0.0588944,-7.921589 -4.157083 -0.9914121,-7.816635 -3.045962 -0.6824465,-7.749962 -2.289877 -0.4268214,-7.723838 -1.570833 -0.2871819,-8.255778 -4.097856 -1.013195,-8.226225 -3.067237 -0.2758528,-8.163092 -3.925533 0.1205196,-8.15616 -4.647607 0.1355541,-8.598694 -4.136775 -0.948181,-8.593073 -3.181856 -0.2455031,-8.495222 -3.994357 0.09576976,-8.44479 -4.72742 0.05835712,-8.97619 -4.286308 -0.8548483,-9.011896 -3.425194 -0.3365113,-8.88333 -3.767812 -0.09116656,-8.795653 -4.306732 -0.09622645,5.310, 1 1
-2.123043 -7.121143 -0.0466255,-2.745831 -6.90586 0.1946955,-3.263895 -6.17663 0.3426933,-3.572809 -5.437409 0.5203846,-3.918402 -4.930738 0.7429152,-2.916153 -4.62045 0.02990421,-3.161127 -3.519974 0.2070872,-3.283964 -2.877722 0.3048753,-3.370774 -2.286787 0.3733199,-2.575189 -4.400331 0.09204073,-2.7293 -3.128078 0.2812662,-2.7293 -3.128078 0.2812662,-2.841149 -1.6574 0.5522135,-2.230514 -4.393355 0.2361108,-2.310302 -3.17465 0.4456127,-2.384047 -2.380137 0.6422899,-2.44833 -1.676692 0.8045633,-1.863845 -4.603979 0.4002297,-1.818911 -3.655949 0.6037483,-1.811209 -3.069667 0.7898836,-1.807698 -2.520985 0.9468697,-8.619438 -6.595437 -1.019795,-7.998492 -6.380579 -0.5043861,-7.564306 -5.640601 -0.2969703,-7.358719 -4.882221 -0.1029007,-7.259191 -4.195865 0.01384616,-7.934712 -4.138527 -0.9866285,-7.829635 -3.038043 -0.6712191,-7.76487 -2.269655 -0.3931066,-7.744547 -1.545515 -0.2324848,-8.266358 -4.079004 -1.000821,-8.244012 -3.044948 -0.2742466,-8.172054 -3.887519 0.1367762,-8.156661 -4.6161 0.1736661,-8.60929 -4.119651 -0.9295886,-8.610716 -3.173517 -0.2261491,-8.502814 -3.990856 0.1238492,-8.445162 -4.736457 0.09471071,-8.981758 -4.273723 -0.8337647,-9.022432 -3.434855 -0.3053255,-8.889069 -3.791365 -0.05658823,-8.795371 -4.343969 -0.05926305,5.410, 1 1
-2.120808 -7.124029 0.008773723,-2.746932 -6.899654 0.2267147,-3.266401 -6.165661 0.3636264,-3.581333 -5.433 0.5352927,-3.931155 -4.937099 0.7521864,-2.915292 -4.603197 0.08061718,-3.152855 -3.512062 0.2704256,-3.27673 -2.873167 0.3769442,-3.365085 -2.279481 0.4515047,-2.57881 -4.388797 0.1600509,-2.726525 -3.133834 0.3662334,-2.726525 -3.133834 0.3662334,-2.841518 -1.666529 0.6428908,-2.233613 -4.392196 0.3189574,-2.310822 -3.190748 0.537054,-2.385168 -2.407745 0.7285247,-2.447141 -1.711792 0.8874936,-1.8657 -4.612394 0.4959644,-1.822352 -3.680346 0.7030394,-1.818033 -3.091453 0.887955,-1.815845 -2.536892 1.04521,-8.609625 -6.584811 -1.065234,-7.99108 -6.369915 -0.5527915,-7.552296 -5.639168 -0.339873,-7.343805 -4.886068 -0.1376631,-7.23753 -4.194162 -0.007056117,-7.928838 -4.145288 -1.048815,-7.827551 -3.03584 -0.7338207,-7.763598 -2.272277 -0.4650925,-7.738971 -1.537681 -0.3156871,-8.260752 -4.080842 -1.063921,-8.236118 -3.043832 -0.3276709,-8.163373 -3.890831 0.09168959,-8.146649 -4.617784 0.1260803,-8.600504 -4.123582 -0.9909274,-8.604647 -3.159459 -0.2901486,-8.500868 -3.963609 0.06391835,-8.445672 -4.698803 0.03637695,-8.975785 -4.276765 -0.8916669,-9.016074 -3.424663 -0.3796812,-8.884147 -3.745302 -0.1398633,-8.791862 -4.273567 -0.1508385,5.510, 1 1
-2.118153 -7.168234 0.1441329,-2.744008 -6.929842 0.3834121,-3.26322 -6.204037 0.5284501,-3.58291 -5.478027 0.7064043,-3.936077 -4.978076 0.9312571,-2.910274 -4.610122 0.1957675,-3.148342 -3.538537 0.3794405,-3.27245 -2.911764 0.4924167,-3.361464 -2.325041 0.5715917,-2.572415 -4.391701 0.2668077,-2.722843 -3.152556 0.4505416,-2.722843 -3.152556 0.4505416,-2.840245 -1.698417 0.7282668,-2.2269 -4.39748 0.4199772,-2.305843 -3.204507 0.6199727,-2.38588 -2.426578 0.8077348,-2.454412 -1.737874 0.962253,-1.857304 -4.62295 0.5980664,-1.807434 -3.693742 0.7916282,-1.801279 -3.101617 0.969326,-1.79985 -2.548719 1.119318,-8.601529 -6.587441 -1.080923,-7.986863 -6.384899 -0.5798725,-7.543779 -5.645135 -0.3850486,-7.334139 -4.884573 -0.1994794,-7.234569 -4.195871 -0.09182751,-7.925124 -4.161349 -1.097903,-7.821831 -3.042515 -0.8027087,-7.757355 -2.282418 -0.5356299,-7.73256 -1.549154 -0.3851212,-8.25302 -4.088123 -1.109136,-8.213558 -3.040955 -0.3915196,-8.140765 -3.894928 0.02137232,-8.129968 -4.630458 0.05476975,-8.59518 -4.124048 -1.034752,-8.581512 -3.153808 -0.3513252,-8.481032 -3.979434 -0.01077735,-8.431949 -4.727899 -0.04537058,-8.973825 -4.272026 -0.9333812,-9.004408 -3.416175 -0.4309919,-8.871746 -3.777155 -0.1990629,-8.782755 -4.339374 -0.211606,5.610, 1 1
-2.098786 -7.204413 0.06549419,-2.731792 -6.978 0.3059036,-3.253414 -6.236048 0.4521555,-3.57263 -5.487804 0.6310644,-3.936378 -4.990522 0.8541992,-2.918953 -4.677701 0.1650847,-3.156038 -3.581064 0.3608834,-3.278978 -2.940433 0.4673125,-3.365634 -2.345357 0.546785,-2.574354 -4.456789 0.2352358,-2.731602 -3.199852 0.440428,-2.731602 -3.199852 0.440428,-2.860401 -1.743246 0.7223015,-2.221793 -4.457613 0.3868763,-2.306996 -3.245914 0.6066153,-2.384908 -2.473135 0.7997684,-2.452161 -1.778675 0.9627111,-1.84894 -4.681839 0.5581769,-1.801854 -3.74126 0.7692792,-1.790484 -3.150517 0.9600681,-1.783321 -2.581397 1.121203,-8.631284 -6.59929 -1.119469,-8.000553 -6.395595 -0.6195137,-7.552595 -5.661185 -0.4340847,-7.346935 -4.888621 -0.2596821,-7.252874 -4.200843 -0.1650132,-7.933468 -4.180569 -1.127047,-7.830881 -3.055811 -0.8209535,-7.763623 -2.288915 -0.5584042,-7.737149 -1.564905 -0.4148147,-8.267238 -4.113198 -1.137065,-8.248145 -3.072553 -0.4084867,-8.188875 -3.911821 0.001828671,-8.180789 -4.642692 0.03502214,-8.610217 -4.150755 -1.059811,-8.612709 -3.203338 -0.3473803,-8.518858 -4.010161 0.01002455,-8.466522 -4.749197 -0.017465,-8.987745 -4.297871 -0.9582572,-9.024174 -3.449213 -0.4360996,-8.897772 -3.77301 -0.1863415,-8.808049 -4.296886 -0.1922239,5.710, 1 1
-2.099519 -7.199663 0.0409874,-2.725162 -6.994218 0.3058427,-3.253517 -6.263189 0.4626292,-3.570889 -5.515235 0.6463647,-3.926189 -5.009991 0.8757351,-2.925867 -4.69474 0.1712427,-3.170416 -3.598138 0.3779033,-3.297724 -2.959746 0.4922959,-3.388448 -2.365675 0.5780716,-2.578188 -4.460989 0.230058,-2.73184 -3.19346 0.4464599,-2.73184 -3.19346 0.4464599,-2.855724 -1.718083 0.729982,-2.225505 -4.454114 0.3735995,-2.310569 -3.242743 0.5966237,-2.390334 -2.4656 0.7918806,-2.456751 -1.770951 0.9540139,-1.851704 -4.670252 0.537358,-1.807986 -3.727394 0.7527253,-1.799067 -3.141316 0.9465046,-1.794041 -2.580389 1.10806,-8.630504 -6.608646 -1.053868,-8.010562 -6.396984 -0.5350278,-7.564915 -5.665177 -0.3291818,-7.352194 -4.916341 -0.1356579,-7.255416 -4.234834 -0.02018833,-7.940526 -4.162769 -1.03038,-7.837582 -3.065238 -0.7112885,-7.768384 -2.300989 -0.4434329,-7.739 -1.570227 -0.2943544,-8.275305 -4.102299 -1.0438,-8.260063 -3.072849 -0.2943356,-8.192144 -3.91455 0.1202823,-8.177934 -4.627414 0.1433568,-8.618364 -4.147696 -0.9683579,-8.628705 -3.205812 -0.2471555,-8.526046 -4.004818 0.1073498,-8.467752 -4.726957 0.07328713,-8.992466 -4.304388 -0.865433,-9.040992 -3.465911 -0.3490792,-8.912485 -3.779659 -0.1068681,-8.819317 -4.290104 -0.1177959,5.810, 1 1
-2.129758 -7.19893 0.05983086,-2.752694 -6.984993 0.2986508,-3.273109 -6.247852 0.4490767,-3.587865 -5.51296 0.6334898,-3.945366 -5.035556 0.8652923,-2.939132 -4.674427 0.1521132,-3.178006 -3.590091 0.3521515,-3.30261 -2.959285 0.462776,-3.391691 -2.36631 0.5449213,-2.598357 -4.451892 0.2316836,-2.752579 -3.201044 0.4414753,-2.752579 -3.201044 0.4414753,-2.889059 -1.735533 0.7475166,-2.24577 -4.455411 0.3930824,-2.328955 -3.257759 0.6217651,-2.40969 -2.485543 0.8312689,-2.479352 -1.798332 1.004906,-1.8706 -4.683227 0.5741004,-1.819279 -3.748104 0.7952338,-1.808461 -3.157906 0.9927713,-1.804327 -2.596435 1.162621,-8.627101 -6.596813 -1.078033,-8.00561 -6.4075 -0.5213832,-7.562604 -5.680355 -0.2866038,-7.356032 -4.919847 -0.07299221,-7.246902 -4.224092 0.06580484,-7.923104 -4.163764 -0.9804415,-7.824301 -3.057956 -0.6464156,-7.763461 -2.304506 -0.3685668,-7.736694 -1.588768 -0.2156782,-8.265619 -4.099149 -1.013359,-8.260648 -3.094312 -0.2569624,-8.201323 -3.942483 0.1534197,-8.181369 -4.658069 0.1833233,-8.611981 -4.147776 -0.9547791,-8.628461 -3.219759 -0.2297,-8.530102 -4.029886 0.1243161,-8.46764 -4.758156 0.09814906,-8.986036 -4.311786 -0.8679188,-9.034773 -3.47092 -0.3456386,-8.913181 -3.772098 -0.09773743,-8.819801 -4.263372 -0.1045734,5.910, 1 1
-2.149935 -7.209074 0.04626341,-2.769883 -6.979982 0.29968,-3.285782 -6.252073 0.4571403,-3.601162 -5.518146 0.6470259,-3.964069 -5.039157 0.8865659,-2.952084 -4.692486 0.1721123,-3.203083 -3.613531 0.3839501,-3.337782 -2.977896 0.5055217,-3.435472 -2.370922 0.5937774,-2.608514 -4.465973 0.2432021,-2.764545 -3.222167 0.4636543,-2.764545 -3.222167 0.4636543,-2.906665 -1.753967 0.7686589,-2.255665 -4.470685 0.3945762,-2.338467 -3.27449 0.6265832,-2.419194 -2.504724 0.8428221,-2.487215 -1.819431 1.021742,-1.882401 -4.697073 0.5649184,-1.832327 -3.760871 0.7835685,-1.822303 -3.160322 0.9904317,-1.819107 -2.586719 1.165604,-8.629206 -6.616923 -1.067345,-8.015591 -6.413471 -0.5604227,-7.572317 -5.682481 -0.3486995,-7.365636 -4.918708 -0.1468744,-7.272178 -4.225194 -0.02174103,-7.950878 -4.18516 -1.062909,-7.844962 -3.064472 -0.7482427,-7.7768 -2.310969 -0.4878097,-7.74951 -1.580938 -0.3469198,-8.284988 -4.112917 -1.072326,-8.253915 -3.084279 -0.3317542,-8.191567 -3.964921 0.06089759,-8.189109 -4.685494 0.06676686,-8.629029 -4.150623 -0.9898937,-8.619547 -3.200972 -0.2780873,-8.528453 -4.034063 0.05801392,-8.486414 -4.761595 0.009019852,-9.010598 -4.299072 -0.8833349,-9.038222 -3.432723 -0.3738678,-8.909949 -3.768536 -0.1444148,-8.829963 -4.292322 -0.1698496,6.010, 1 1
-2.142625 -7.202172 0.04245937,-2.762515 -6.997121 0.3079894,-3.280151 -6.268068 0.466978,-3.597902 -5.526949 0.6518079,-3.966919 -5.048078 0.8876191,-2.950173 -4.694219 0.1773391,-3.203514 -3.621373 0.3781423,-3.334032 -2.984755 0.4964549,-3.426918 -2.378326 0.5861785,-2.606188 -4.460723 0.2357989,-2.764338 -3.213523 0.4455591,-2.764338 -3.213523 0.4455591,-2.89412 -1.75974 0.7456946,-2.254099 -4.46198 0.3756816,-2.336914 -3.267282 0.6015185,-2.415966 -2.500959 0.8125358,-2.485134 -1.818528 0.9866509,-1.88168 -4.688316 0.5360975,-1.833539 -3.760056 0.753423,-1.822728 -3.172246 0.9538168,-1.81919 -2.609985 1.122268,-8.63812 -6.621822 -1.051228,-8.019434 -6.426966 -0.5416705,-7.567999 -5.689274 -0.3345013,-7.363753 -4.921038 -0.1384037,-7.286649 -4.233356 -0.02321255,-7.941315 -4.187747 -1.03819,-7.840372 -3.070925 -0.7197044,-7.775702 -2.313874 -0.4526029,-7.750813 -1.584813 -0.305394,-8.277804 -4.115457 -1.047308,-8.252603 -3.094638 -0.3192799,-8.195514 -3.956659 0.07757473,-8.192448 -4.672674 0.09673584,-8.6219 -4.15402 -0.96635,-8.619033 -3.226175 -0.2639778,-8.528416 -4.05303 0.07515895,-8.483318 -4.777609 0.03911507,-9.004034 -4.305177 -0.8601987,-9.029103 -3.456737 -0.3494483,-8.90433 -3.806006 -0.1158755,-8.824998 -4.336032 -0.1335006,6.110, 1 1
-2.128789 -7.219575 0.1020859,-2.753961 -7.018928 0.3901387,-3.278023 -6.276794 0.557125,-3.594412 -5.529074 0.747324,-3.965662 -5.049256 0.9831318,-2.958815 -4.700204 0.2511814,-3.198456 -3.624658 0.4636183,-3.321161 -2.987289 0.5836415,-3.406472 -2.379858 0.6709893,-2.607259 -4.464115 0.3056164,-2.759121 -3.212804 0.5201973,-2.759121 -3.212804 0.5201973,-2.885883 -1.76463 0.8183757,-2.249383 -4.465154 0.4437567,-2.330892 -3.259737 0.6733803,-2.409564 -2.487761 0.8812735,-2.477152 -1.799592 1.054755,-1.870616 -4.695182 0.607335,-1.824548 -3.765395 0.8178054,-1.813586 -3.172086 1.014531,-1.809947 -2.602239 1.188201,-8.649944 -6.648963 -1.039024,-8.03692 -6.434801 -0.5222108,-7.591022 -5.71043 -0.3064781,-7.380485 -4.952735 -0.09940934,-7.286557 -4.263303 0.03384316,-7.955201 -4.210691 -1.024636,-7.851795 -3.099393 -0.6998574,-7.784464 -2.345253 -0.4330095,-7.754515 -1.617667 -0.2890968,-8.288963 -4.139144 -1.032498,-8.258271 -3.111736 -0.2900424,-8.196801 -3.976292 0.1146955,-8.189991 -4.69082 0.1345625,-8.633948 -4.172248 -0.9505099,-8.624954 -3.236131 -0.2290735,-8.533831 -4.057296 0.1160915,-8.489848 -4.781639 0.07109833,-9.018547 -4.31056 -0.8412638,-9.044854 -3.445019 -0.3231199,-8.919458 -3.78402 -0.09204233,-8.840145 -4.317111 -0.1185205,6.210, 1 1
-2.133469 -7.226261 0.1470328,-2.751528 -7.026078 0.4111142,-3.270622 -6.273735 0.5679553,-3.586342 -5.518468 0.7553345,-3.956696 -5.024904 0.9956337,-2.949068 -4.691532 0.2354171,-3.195376 -3.626635 0.4282717,-3.324983 -2.995295 0.5379759,-3.419466 -2.395712 0.621985,-2.602662 -4.452943 0.3006015,-2.758478 -3.210323 0.4942263,-2.758478 -3.210323 0.4942263,-2.894445 -1.749851 0.7792591,-2.247154 -4.446513 0.4503111,-2.332517 -3.248517 0.6577028,-2.415269 -2.471251 0.8539011,-2.488111 -1.779664 1.021611,-1.867756 -4.667335 0.6249785,-1.821937 -3.724207 0.8241282,-1.807482 -3.12689 1.012819,-1.799222 -2.556029 1.184116,-8.65543 -6.628173 -1.035393,-8.035382 -6.412721 -0.5041513,-7.593489 -5.680879 -0.2807041,-7.392155 -4.913909 -0.07409018,-7.291724 -4.224498 0.0598371,-7.954966 -4.182662 -0.9942449,-7.856071 -3.088225 -0.6806338,-7.794615 -2.331496 -0.4206342,-7.76891 -1.609057 -0.2804637,-8.296786 -4.117036 -1.015933,-8.287477 -3.099043 -0.2783142,-8.224248 -3.944669 0.1283798,-8.208031 -4.658254 0.1546167,-8.64262 -4.159413 -0.9484037,-8.654482 -3.222705 -0.24087,-8.555817 -4.028839 0.1097883,-8.498431 -4.755905 0.08257711,-9.018542 -4.310295 -0.8532208,-9.062101 -3.465578 -0.3530777,-8.938993 -3.766118 -0.118181,-8.853127 -4.259862 -0.1310337,6.310, 1 1
-2.065001 -7.225095 0.1953978,-2.696641 -6.97183 0.4784876,-3.212783 -6.225511 0.6330914,-3.50962 -5.461389 0.8286118,-3.867879 -4.919984 1.06143,-2.909283 -4.651801 0.2896674,-3.155102 -3.603524 0.5079731,-3.276188 -2.975507 0.6421994,-3.360537 -2.353958 0.7486004,-2.562187 -4.442978 0.3562804,-2.726344 -3.25904 0.5718957,-2.726344 -3.25904 0.5718957,-2.868305 -1.889534 0.8848916,-2.20638 -4.464793 0.5175753,-2.291788 -3.315958 0.7515486,-2.381145 -2.589223 0.9777946,-2.461003 -1.934595 1.158044,-1.826042 -4.712306 0.7052219,-1.790318 -3.813856 0.9413683,-1.807047 -3.235604 1.166373,-1.835106 -2.68203 1.349379,-8.630666 -6.588645 -1.124221,-8.007131 -6.36794 -0.5915557,-7.568405 -5.658479 -0.3626475,-7.361756 -4.909665 -0.1487247,-7.262956 -4.21134 -0.002289414,-7.930082 -4.173744 -1.094032,-7.825837 -3.070344 -0.7609969,-7.758256 -2.310153 -0.4738349,-7.727258 -1.594672 -0.3106508,-8.266342 -4.103916 -1.117275,-8.247577 -3.06781 -0.3494893,-8.183069 -3.907111 0.08964658,-8.168983 -4.629104 0.1334549,-8.610473 -4.144302 -1.049773,-8.624611 -3.182717 -0.3309919,-8.526465 -3.98243 0.04229999,-8.472015 -4.714324 0.02959645,-8.987392 -4.291811 -0.9534848,-9.036404 -3.436247 -0.4514562,-8.911892 -3.716741 -0.2087572,-8.821384 -4.21631 -0.2164276,6.410, 1 1
-2.065639 -7.235466 0.2178521,-2.688767 -6.971404 0.5055876,-3.197553 -6.222394 0.657536,-3.481716 -5.443031 0.8592122,-3.837166 -4.878038 1.091075,-2.902089 -4.624916 0.270467,-3.144727 -3.606795 0.4647909,-3.278777 -2.987625 0.5982521,-3.383399 -2.360947 0.7160078,-2.549166 -4.442029 0.328783,-2.697924 -3.337537 0.5118935,-2.697924 -3.337537 0.5118935,-2.858262 -2.078165 0.8014992,-2.196439 -4.465839 0.4787013,-2.267503 -3.401959 0.6753485,-2.363345 -2.732572 0.89205,-2.44866 -2.126247 1.068997,-1.82734 -4.692612 0.6581451,-1.804022 -3.83311 0.8755372,-1.835097 -3.274623 1.090655,-1.877315 -2.728126 1.270184,-8.602801 -6.562881 -1.101596,-7.999837 -6.342839 -0.5700306,-7.570057 -5.623816 -0.3498188,-7.366889 -4.882227 -0.1469141,-7.258788 -4.199934 -0.01735985,-7.940633 -4.131353 -1.063891,-7.831147 -3.039522 -0.7433334,-7.765136 -2.284708 -0.467675,-7.736526 -1.56143 -0.3122171,-8.273061 -4.066816 -1.090382,-8.251103 -3.039928 -0.3346974,-8.176546 -3.888184 0.08922482,-8.149838 -4.621013 0.1261263,-8.613282 -4.113876 -1.026831,-8.622264 -3.16019 -0.3226027,-8.515326 -3.973687 0.02989781,-8.449432 -4.712345 0.008904696,-8.979671 -4.274107 -0.9359423,-9.027821 -3.436103 -0.4319193,-8.899462 -3.731787 -0.1955129,-8.803654 -4.229314 -0.2024078,6.510, 1 1
-2.066889 -7.211565 -0.008669222,-2.681273 -7.002632 0.3448135,-3.185349 -6.267421 0.5089248,-3.44969 -5.48412 0.7022069,-3.790762 -4.891353 0.9293443,-2.936094 -4.669675 0.1010884,-3.177387 -3.667449 0.2999088,-3.329402 -3.06798 0.4286302,-3.454472 -2.458491 0.5433287,-2.56932 -4.488487 0.1292172,-2.734414 -3.432515 0.3124654,-2.734414 -3.432515 0.3124654,-2.931986 -2.323403 0.5780064,-2.212438 -4.514068 0.2492845,-2.288455 -3.468376 0.4600997,-2.381543 -2.811103 0.704442,-2.458504 -2.224231 0.8932259,-1.840314 -4.737407 0.4076923,-1.862345 -3.888993 0.6240711,-1.925792 -3.345321 0.8529471,-1.989709 -2.806432 1.040939,-8.631194 -6.582265 -1.130116,-8.012527 -6.38611 -0.6196142,-7.570032 -5.645998 -0.4205814,-7.373069 -4.867588 -0.2328945,-7.286234 -4.175687 -0.1267952,-7.944298 -4.170468 -1.142496,-7.839479 -3.042208 -0.8153392,-7.76618 -2.279313 -0.540582,-7.732726 -1.548666 -0.3961032,-8.278464 -4.097686 -1.15516,-8.243975 -3.064699 -0.4085957,-8.185666 -3.923954 -0.006941557,-8.185731 -4.63364 -0.001839995,-8.625047 -4.134283 -1.07612,-8.610603 -3.190059 -0.3494576,-8.520731 -4.021298 -0.01111615,-8.478394 -4.746061 -0.06456196,-9.009688 -4.276176 -0.9730247,-9.034058 -3.417865 -0.4528518,-8.908 -3.768824 -0.2193596,-8.827139 -4.302454 -0.2492152,6.610, 1 1
-2.068452 -7.244149 -0.006486982,-2.677039 -7.052935 0.3280624,-3.170561 -6.3045 0.4824464,-3.411006 -5.511543 0.6759953,-3.755402 -4.935709 0.9200825,-2.964361 -4.693544 0.04677704,-3.203561 -3.72204 0.2255669,-3.350403 -3.125197 0.3637165,-3.477314 -2.501825 0.5012279,-2.591595 -4.522474 0.08925114,-2.755994 -3.509116 0.2730046,-2.755994 -3.509116 0.2730046,-2.96276 -2.512013 0.6130129,-2.225362 -4.56533 0.2224677,-2.308903 -3.572013 0.4394252,-2.410073 -2.959962 0.7132937,-2.507521 -2.454528 0.9162298,-1.840251 -4.798404 0.3980014,-1.875016 -3.992157 0.6444542,-1.947087 -3.47263 0.8939428,-2.024158 -2.977404 1.101928,-8.634186 -6.601514 -1.06595,-8.021971 -6.383832 -0.5542653,-7.582151 -5.644385 -0.3479324,-7.385817 -4.879175 -0.1505106,-7.304164 -4.205129 -0.03560662,-7.951452 -4.158781 -1.053795,-7.850752 -3.046705 -0.7310975,-7.781411 -2.297621 -0.4713832,-7.749166 -1.578687 -0.3310796,-8.285297 -4.097759 -1.058789,-8.262421 -3.089308 -0.3079274,-8.196978 -3.9396 0.1014711,-8.187109 -4.646863 0.125685,-8.628263 -4.1456 -0.9720957,-8.626945 -3.230121 -0.2353354,-8.532133 -4.045936 0.1232566,-8.480956 -4.769073 0.09231329,-9.007123 -4.301377 -0.8621314,-9.045221 -3.446537 -0.3438976,-8.917448 -3.746463 -0.101624,-8.829981 -4.24694 -0.1171622,6.710, 1 1
-2.001203 -7.211462 -0.4934686,-2.588063 -7.077028 -0.0860337,-3.091761 -6.350481 0.2193632,-3.356199 -5.658773 0.5295005,-3.717348 -5.073495 0.8885303,-3.034915 -4.841743 -0.2428261,-3.305448 -3.924143 0.062262,-3.49972 -3.272251 0.4315874,-3.682259 -2.692482 0.7860808,-2.657844 -4.685279 -0.1386523,-2.774761 -3.609146 0.4878719,-2.774761 -3.609146 0.4878719,-2.856684 -3.989952 1.303095,-2.276409 -4.743112 0.03693515,-2.327397 -3.716778 0.5947115,-2.463035 -3.951206 1.049277,-2.510321 -4.437232 1.293874,-1.844957 -4.969593 0.2448254,-1.911104 -4.232052 0.7670293,-2.04497 -4.482456 1.121582,-2.108585 -4.941083 1.380405,-8.663627 -6.600658 -1.029696,-8.044812 -6.372812 -0.4996113,-7.624883 -5.643461 -0.2717814,-7.441468 -4.881591 -0.05931842,-7.350403 -4.196028 0.0743866,-7.983811 -4.138483 -0.9762901,-7.879833 -3.02865 -0.6527651,-7.816763 -2.276786 -0.3912508,-7.80208 -1.564112 -0.2539029,-8.323715 -4.085643 -0.9826691,-8.300906 -3.072181 -0.2198037,-8.237682 -3.947759 0.1766789,-8.231013 -4.664196 0.1876357,-8.671324 -4.131662 -0.8971786,-8.670813 -3.2276 -0.1584643,-8.570434 -4.063593 0.183974,-8.519987 -4.783174 0.1364667,-9.052521 -4.284406 -0.7866001,-9.085747 -3.436168 -0.2545159,-8.960058 -3.79968 -0.007723927,-8.878715 -4.336398 -0.02674365,6.810, 1 1
-1.929009 -7.320541 0.125735,-2.517432 -7.193122 0.5661645,-3.0457 -6.457791 0.87786,-3.358553 -5.756659 1.195918,-3.737949 -5.213554 1.56824,-3.098694 -4.881382 0.5169047,-3.350407 -4.188886 1.003473,-3.534557 -3.673051 1.428539,-3.732841 -3.128836 1.747704,-2.709254 -4.664491 0.6129827,-2.877683 -3.956642 1.409847,-2.877683 -3.956642 1.409847,-2.875184 -5.353471 1.948263,-2.300502 -4.726894 0.7867558,-2.404752 -4.188237 1.560181,-2.50806 -5.1408 1.794445,-2.536088 -5.726884 1.803502,-1.869615 -4.993131 0.9851044,-1.9842 -4.590972 1.610402,-2.133018 -5.234607 1.824419,-2.206559 -5.698033 1.894071,-8.68012 -6.567695 -1.076146,-8.064775 -6.34023 -0.5597156,-7.637071 -5.611816 -0.3476297,-7.451818 -4.832654 -0.1529324,-7.373579 -4.142568 -0.04004526,-8.00271 -4.138223 -1.058922,-7.897045 -3.006137 -0.7294044,-7.835319 -2.24944 -0.460987,-7.815928 -1.523167 -0.3209063,-8.342975 -4.065241 -1.07606,-8.319503 -3.046987 -0.3155651,-8.256706 -3.925958 0.08650267,-8.243504 -4.648673 0.09157789,-8.688305 -4.105776 -1.003817,-8.691593 -3.184939 -0.2797914,-8.598107 -4.025334 0.05750608,-8.5429 -4.752966 0.005499005,-9.067492 -4.255906 -0.9060495,-9.106157 -3.40254 -0.3910468,-8.981186 -3.743892 -0.1575015,-8.895264 -4.266356 -0.1911578,6.910, 1 1
-1.913755 -7.340957 -0.7628357,-2.528856 -7.156539 -0.3424971,-3.069691 -6.388664 -0.09154832,-3.372523 -5.747797 0.155579,-3.693991 -5.330913 0.4043655,-3.103376 -5.121887 -0.3530797,-3.411295 -4.351331 0.1275094,-3.613909 -3.835304 0.4957402,-3.82737 -3.30073 0.7828453,-2.708396 -4.961224 -0.2696898,-2.933731 -4.26457 0.5436413,-2.933731 -4.26457 0.5436413,-2.865925 -5.832834 0.8795913,-2.289296 -4.998054 -0.1195738,-2.474202 -4.505638 0.6262226,-2.52181 -5.539278 0.7318534,-2.506402 -6.174053 0.6456661,-1.852954 -5.202074 0.07001054,-2.033912 -4.80434 0.6491423,-2.154954 -5.555543 0.741652,-2.199078 -6.074905 0.6986505,-8.685464 -6.562046 -1.05844,-8.078586 -6.354285 -0.5362102,-7.638992 -5.608192 -0.3135787,-7.45828 -4.826083 -0.1082709,-7.395873 -4.143157 0.01966763,-8.004704 -4.12045 -1.020239,-7.905803 -2.97218 -0.6998566,-7.846598 -2.203645 -0.4384702,-7.825806 -1.476149 -0.2913886,-8.341706 -4.055587 -1.028623,-8.308647 -3.045712 -0.2672347,-8.245214 -3.910541 0.1469545,-8.232232 -4.642248 0.1717398,-8.687848 -4.097906 -0.9470686,-8.677434 -3.175181 -0.2204748,-8.594261 -3.995336 0.1340803,-8.543281 -4.723953 0.09968233,-9.07316 -4.246942 -0.840509,-9.103505 -3.377006 -0.3150669,-8.980985 -3.689676 -0.06800467,-8.894221 -4.206785 -0.08798349,7.010, 1 1
-1.762807 -7.224966 -1.10176,-2.372247 -7.094299 -0.8390303,-2.960905 -6.358924 -0.6968099,-3.266042 -5.674522 -0.537964,-3.601753 -5.263946 -0.3538739,-3.002556 -5.22491 -0.6583133,-3.35496 -4.486858 -0.06058979,-3.574759 -3.948715 0.2980095,-3.795881 -3.421084 0.5491469,-2.610006 -4.988644 -0.5245825,-2.839633 -4.73018 0.3280461,-2.839633 -4.73018 0.3280461,-2.681398 -6.296402 0.4407533,-2.203241 -5.017324 -0.3747335,-2.41051 -4.955638 0.4606435,-2.376899 -6.007175 0.4396648,-2.324857 -6.520088 0.2713675,-1.766807 -5.149117 -0.160506,-1.958797 -5.026317 0.4243351,-2.046689 -5.802146 0.4410388,-2.073946 -6.227016 0.3464011,-8.675068 -6.614847 -1.042744,-8.064099 -6.37861 -0.5313716,-7.64331 -5.64069 -0.3075306,-7.472271 -4.861085 -0.09555268,-7.40308 -4.16953 0.03938937,-7.999845 -4.163618 -1.035385,-7.896678 -3.010767 -0.7116479,-7.832113 -2.261056 -0.465142,-7.80721 -1.547816 -0.3385844,-8.334636 -4.103217 -1.039168,-8.294114 -3.076622 -0.2701766,-8.230862 -3.95425 0.1332124,-8.220364 -4.664429 0.1319911,-8.681973 -4.150846 -0.9500624,-8.671194 -3.228286 -0.2063213,-8.587296 -4.051515 0.1442037,-8.537826 -4.755251 0.09458864,-9.072418 -4.300872 -0.8357276,-9.108069 -3.394248 -0.3195393,-8.984931 -3.681707 -0.08188355,-8.898805 -4.179683 -0.1194417,7.110, 1 1
-1.736383 -7.164006 -0.8067704,-2.360889 -7.08901 -0.5863646,-2.972748 -6.324247 -0.4316165,-3.274132 -5.604271 -0.2392266,-3.612333 -5.16929 -0.02166021,-2.961535 -5.144947 -0.311339,-3.308677 -4.452735 0.3519127,-3.532352 -3.911011 0.7574415,-3.754045 -3.359829 1.017419,-2.561224 -4.843974 -0.1659687,-2.766427 -4.789432 0.6876817,-2.766427 -4.789432 0.6876817,-2.536108 -6.362577 0.6781529,-2.113346 -4.821657 0.03125471,-2.296195 -5.006732 0.8106716,-2.240514 -6.010067 0.7450275,-2.180087 -6.448307 0.5699517,-1.667746 -4.979364 0.2584141,-1.847902 -5.14141 0.7599878,-1.916852 -5.895664 0.7355943,-1.934362 -6.231477 0.6149231,-8.705248 -6.6084 -1.037737,-8.096104 -6.372875 -0.5305197,-7.661357 -5.653114 -0.315331,-7.480637 -4.872247 -0.1131901,-7.433969 -4.199762 0.007700682,-8.011542 -4.157607 -1.007273,-7.919942 -3.002625 -0.6758974,-7.87613 -2.237813 -0.4156546,-7.867628 -1.514423 -0.2759296,-8.354445 -4.096879 -1.01389,-8.343057 -3.077028 -0.2408754,-8.285871 -3.942026 0.1699116,-8.266435 -4.666303 0.1841083,-8.701029 -4.14598 -0.9358521,-8.712083 -3.236887 -0.1969178,-8.627195 -4.056528 0.1549565,-8.563869 -4.771206 0.1105601,-9.078629 -4.305522 -0.8294613,-9.13159 -3.432048 -0.318274,-9.016362 -3.70185 -0.07900816,-8.92447 -4.167003 -0.1103503,7.210, 1 1
-1.706203 -7.08275 -0.3324015,-2.315547 -7.022495 -0.1956663,-2.939198 -6.287267 0.00844872,-3.253651 -5.639246 0.2737883,-3.576118 -5.297366 0.5856675,-2.897617 -5.050913 0.3364698,-3.246698 -4.412387 1.026567,-3.472876 -3.893737 1.433404,-3.699247 -3.346782 1.704004,-2.479879 -4.660854 0.5146772,-2.672596 -4.877327 1.269172,-2.672596 -4.877327 1.269172,-2.405119 -6.399024 1.162236,-2.013177 -4.623598 0.7193818,-2.178674 -5.12114 1.372786,-2.104184 -6.061861 1.204272,-2.037829 -6.423005 0.9982232,-1.566006 -4.784806 0.9503077,-1.74739 -5.23981 1.328241,-1.79365 -5.95332 1.22146,-1.792573 -6.197681 1.080222,-8.698183 -6.642972 -1.006293,-8.084475 -6.392912 -0.4921639,-7.659167 -5.657512 -0.2620347,-7.492361 -4.878009 -0.0436399,-7.447746 -4.198797 0.09641576,-8.029958 -4.171354 -0.9846076,-7.937467 -3.001983 -0.6384395,-7.886925 -2.241706 -0.3558934,-7.87877 -1.52825 -0.2065088,-8.3671 -4.119679 -0.990884,-8.318573 -3.117559 -0.1900359,-8.25413 -4.00329 0.2256619,-8.243186 -4.713062 0.2291746,-8.716299 -4.169126 -0.9056409,-8.701184 -3.274338 -0.1592827,-8.6176 -4.112224 0.1770551,-8.565605 -4.805614 0.1113765,-9.107273 -4.319961 -0.7926665,-9.141871 -3.435256 -0.2587306,-9.016765 -3.776973 -0.02145648,-8.92662 -4.297888 -0.06693298,7.310, 1 1
-1.699102 -7.052612 -0.2250489,-2.316503 -6.984031 -0.108557,-2.918366 -6.293926 0.1244685,-3.242216 -5.69197 0.4148484,-3.580605 -5.409235 0.7542724,-2.878617 -5.053485 0.5533621,-3.238306 -4.448264 1.266881,-3.453696 -3.961214 1.689394,-3.665554 -3.437446 1.954718,-2.442395 -4.626037 0.7268848,-2.649796 -4.907686 1.444859,-2.649796 -4.907686 1.444859,-2.366593 -6.317206 1.282606,-1.957812 -4.586811 0.9161327,-2.115469 -5.164152 1.553382,-2.056597 -6.073004 1.35797,-2.000948 -6.320127 1.14762,-1.49575 -4.751872 1.125522,-1.671553 -5.288399 1.484358,-1.724933 -5.98841 1.3574,-1.723632 -6.144658 1.230319,-8.685047 -6.657327 -0.9693215,-8.074766 -6.398825 -0.4515677,-7.648107 -5.668002 -0.2095701,-7.481367 -4.889967 0.01631367,-7.448516 -4.210617 0.1627399,-8.021104 -4.180182 -0.9037271,-7.927497 -3.012854 -0.5593188,-7.876635 -2.259758 -0.2823871,-7.867902 -1.55059 -0.1290347,-8.358019 -4.12355 -0.9070241,-8.312693 -3.113118 -0.1175863,-8.244629 -3.997247 0.2957913,-8.235353 -4.715777 0.3069122,-8.708211 -4.17131 -0.8193211,-8.688931 -3.260889 -0.08268011,-8.608752 -4.096889 0.257063,-8.564102 -4.806554 0.2017784,-9.101995 -4.328155 -0.7060754,-9.133929 -3.434908 -0.1676663,-9.009671 -3.767086 0.07748938,-8.924845 -4.300637 0.04045296,7.410, 1 1
-1.696314 -7.031976 0.2876497,-2.296678 -7.00064 0.5754539,-2.879299 -6.29799 0.9168148,-3.168801 -5.685335 1.267631,-3.523648 -5.389814 1.638195,-2.80213 -4.956831 1.301374,-3.086398 -4.509119 2.065525,-3.308349 -4.01782 2.505667,-3.53157 -3.482452 2.796294,-2.364672 -4.496386 1.421883,-2.54276 -4.963614 2.165304,-2.54276 -4.963614 2.165304,-2.307228 -6.388277 1.894601,-1.86756 -4.454375 1.581803,-2.001961 -5.147141 2.224001,-1.982491 -6.102743 1.930225,-1.938469 -6.343618 1.679632,-1.390353 -4.638246 1.774312,-1.554075 -5.277312 2.144314,-1.637029 -6.007019 1.963237,-1.638532 -6.142107 1.822507,-8.677114 -6.577335 -1.048073,-8.072929 -6.324058 -0.5475951,-7.648089 -5.608504 -0.3178565,-7.481837 -4.84538 -0.104426,-7.455554 -4.18577 0.02995837,-8.024434 -4.115537 -1.001012,-7.928983 -2.950513 -0.6681361,-7.886197 -2.198433 -0.3950051,-7.885672 -1.488304 -0.2429352,-8.362436 -4.064338 -1.002606,-8.320233 -3.059689 -0.2152786,-8.240534 -3.954915 0.2034919,-8.219198 -4.693721 0.2282467,-8.709829 -4.118351 -0.9123881,-8.696608 -3.209938 -0.1818292,-8.604394 -4.050636 0.1653861,-8.54847 -4.774403 0.1251268,-9.09202 -4.279243 -0.7993489,-9.13621 -3.389767 -0.2760031,-9.011269 -3.686716 -0.03537369,-8.921124 -4.190408 -0.0651924,7.510, 1 1
-1.621567 -6.985805 0.4760635,-2.225224 -6.959796 0.8483198,-2.833284 -6.334758 1.269688,-3.153309 -5.743108 1.653718,-3.515303 -5.384696 2.040818,-2.716626 -4.929903 1.742607,-3.006393 -4.547561 2.544425,-3.241771 -4.084169 2.974358,-3.492634 -3.557828 3.263205,-2.249941 -4.485137 1.826897,-2.466481 -4.884448 2.632029,-2.466481 -4.884448 2.632029,-2.2543 -6.285564 2.357217,-1.739205 -4.461211 1.948136,-1.926127 -5.109975 2.670386,-1.937326 -6.034562 2.29132,-1.877923 -6.270633 1.944915,-1.254232 -4.668638 2.092988,-1.46386 -5.281059 2.531383,-1.569946 -5.969194 2.293377,-1.549819 -6.06389 2.095033,-8.693 -6.595485 -1.037839,-8.077045 -6.333278 -0.5425829,-7.637209 -5.603754 -0.3267592,-7.469368 -4.824485 -0.1290616,-7.461515 -4.167632 -0.009857297,-8.023745 -4.132062 -1.00879,-7.928287 -2.955823 -0.685657,-7.880267 -2.192842 -0.4206807,-7.866578 -1.484796 -0.2693845,-8.366234 -4.080837 -1.008529,-8.328611 -3.07132 -0.2385276,-8.254402 -3.940826 0.1860936,-8.227008 -4.680763 0.2223258,-8.714472 -4.131604 -0.9215979,-8.704868 -3.218311 -0.2034048,-8.618199 -4.035184 0.1558654,-8.551989 -4.759492 0.1265252,-9.097433 -4.287639 -0.8096867,-9.145924 -3.39449 -0.2914078,-9.022747 -3.667181 -0.03873438,-8.919353 -4.166369 -0.05451715,7.610, 1 1
-1.540751 -6.956565 -0.1265378,-2.165042 -6.978799 0.2160991,-2.777966 -6.382341 0.6280461,-3.114836 -5.761739 1.008127,-3.497606 -5.384112 1.365984,-2.639684 -5.142769 1.185329,-2.946938 -4.634369 1.979681,-3.190222 -4.118262 2.379939,-3.448325 -3.574077 2.634046,-2.17088 -4.697717 1.288081,-2.401425 -4.792813 2.111782,-2.401425 -4.792813 2.111782,-2.212096 -6.009573 1.90662,-1.671702 -4.623689 1.411055,-1.874409 -5.048885 2.141752,-1.866652 -5.887988 1.781564,-1.801208 -6.077838 1.461421,-1.191535 -4.764532 1.554432,-1.423029 -5.256475 2.006481,-1.502134 -5.884258 1.817766,-1.458818 -5.948263 1.661016,-8.680384 -6.603504 -1.002944,-8.073719 -6.355726 -0.4718108,-7.655536 -5.617054 -0.2209873,-7.503799 -4.831552 0.01400697,-7.482993 -4.157249 0.1645755,-8.015234 -4.132176 -0.9138732,-7.928116 -2.940261 -0.542927,-7.878152 -2.189255 -0.2703599,-7.86965 -1.479957 -0.1317329,-8.356767 -4.079648 -0.917267,-8.322809 -3.084463 -0.09085774,-8.257729 -4.000189 0.3023535,-8.246166 -4.713647 0.2802238,-8.707513 -4.132843 -0.8258291,-8.702215 -3.244775 -0.04661369,-8.620967 -4.09931 0.2810209,-8.570535 -4.794235 0.2045275,-9.096586 -4.292318 -0.7061027,-9.141829 -3.3912 -0.1551912,-9.021173 -3.718086 0.08747578,-8.937088 -4.225269 0.04184997,7.710, 1 1
