TiagoOliveira98/Thesis-Project/Difficulty_0/Dual_Task/Unity_Project/DataLogging/JointData/Logs(1646760087)_zzzzzzz_Dual.csv
WRIST,THUMB_CMC,THUMB_MCP,THUMB_IP,THUMB_TIP,INDEX_FINGER_MCP,INDEX_FINGER_PIP,INDEX_FINGER_DIP,INDEX_FINGER_TIP,MIDDLE_FINGER_MCP,MIDDLE_FINGER_PIP,MIDDLE_FINGER_DIP,MIDDLE_FINGER_TIP,RING_FINGER_MCP,RING_FINGER_PIP,RING_FINGER_DIP,RING_FINGER_TIP,PINKY_MCP,PINKY_PIP,PINKY_DIP,PINKY_TIP,WRIST2,THUMB_CMC2,THUMB_MCP2,THUMB_IP2,THUMB_TIP2,INDEX_FINGER_MCP2,INDEX_FINGER_PIP2,INDEX_FINGER_DIP2,INDEX_FINGER_TIP2,MIDDLE_FINGER_MCP2,MIDDLE_FINGER_PIP2,MIDDLE_FINGER_DIP2,MIDDLE_FINGER_TIP2,RING_FINGER_MCP2,RING_FINGER_PIP2,RING_FINGER_DIP2,RING_FINGER_TIP2,PINKY_MCP2,PINKY_PIP2,PINKY_DIP2,PINKY_TIP2,Timestamp,Event
-2.921724 -7.704479 0.0005678287,-3.507227 -7.515126 0.2878188,-4.098553 -6.996492 0.4540601,-4.579696 -6.518339 0.6345319,-4.965343 -6.348904 0.8575301,-3.8585 -5.28317 0.153552,-4.157296 -4.293059 0.308881,-4.30402 -3.677118 0.4508927,-4.413254 -3.105531 0.6147379,-3.560909 -5.000453 0.1830871,-3.818831 -3.869424 0.3164076,-3.818831 -3.869424 0.3164076,-4.060236 -2.569151 0.6480702,-3.235535 -4.961154 0.2637849,-3.417908 -3.868696 0.4178785,-3.539575 -3.212437 0.5463367,-3.660969 -2.639403 0.6617536,-2.868929 -5.154172 0.3878204,-2.798801 -4.296928 0.5581875,-2.761684 -3.743577 0.6845609,-2.732553 -3.229668 0.7913238,-8.90624 -8.072447 0.0009509148,-8.177833 -7.896386 0.2635879,-7.496254 -7.187726 0.5129935,-6.996271 -6.622024 0.8316224,-6.507026 -6.445301 1.215441,-7.947108 -4.867797 0.08201546,-7.745108 -3.635732 0.2132354,-7.654617 -2.854874 0.3971866,-7.567548 -2.175207 0.5458368,-8.358367 -4.58387 0.2415656,-8.196722 -3.111804 0.3085594,-8.09713 -2.15862 0.5449137,-8.004508 -1.338392 0.7371241,-8.782103 -4.612829 0.4521981,-8.672252 -3.180473 0.5619301,-8.59573 -2.268516 0.8127842,-8.510166 -1.484283 0.9968501,-9.228374 -4.909387 0.7025236,-9.344591 -3.787669 0.8638126,-9.403955 -3.044 1.042207,-9.426443 -2.332426 1.172695,0.010, 1 0
-2.939246 -7.693981 -0.05112445,-3.515228 -7.505922 0.2677369,-4.098375 -6.999523 0.4499417,-4.572201 -6.517155 0.6420327,-4.95038 -6.34736 0.8761156,-3.851203 -5.278612 0.1487866,-4.14766 -4.28593 0.313109,-4.294645 -3.667946 0.4640383,-4.403919 -3.089036 0.6366192,-3.553474 -5.0018 0.1647348,-3.813353 -3.87245 0.3074581,-3.813353 -3.87245 0.3074581,-4.051277 -2.547542 0.6655143,-3.227594 -4.969636 0.2291352,-3.412469 -3.882179 0.3881629,-3.53406 -3.22311 0.5256753,-3.653152 -2.645491 0.6465993,-2.861864 -5.163839 0.3377868,-2.796515 -4.30727 0.5142084,-2.757323 -3.751448 0.6435618,-2.724281 -3.231447 0.7500402,-8.902958 -8.102146 0.0508872,-8.180905 -7.903003 0.3098769,-7.504896 -7.195866 0.5669935,-7.007768 -6.627904 0.8926283,-6.521163 -6.455202 1.29091,-7.954729 -4.882104 0.147452,-7.752156 -3.660665 0.2810374,-7.661852 -2.877414 0.468256,-7.577557 -2.194704 0.6244153,-8.365813 -4.598438 0.3056294,-8.203895 -3.130144 0.371606,-8.100449 -2.166528 0.612964,-8.007693 -1.333614 0.8124648,-8.788816 -4.628215 0.5116695,-8.685286 -3.199375 0.6144661,-8.609344 -2.282827 0.8572882,-8.523243 -1.494182 1.036163,-9.234013 -4.924949 0.7581323,-9.353737 -3.795753 0.909542,-9.411464 -3.043575 1.081117,-9.431585 -2.324416 1.205613,0.110, 1 0
-2.931362 -7.671773 -0.07564954,-3.501168 -7.479841 0.2870117,-4.07901 -7.004211 0.5045657,-4.544206 -6.540691 0.7195622,-4.92943 -6.369987 0.9773997,-3.841599 -5.270051 0.1900765,-4.141983 -4.280215 0.3618708,-4.291099 -3.664682 0.5168875,-4.402837 -3.092023 0.6936588,-3.544428 -4.990028 0.1798625,-3.808638 -3.865448 0.3273584,-3.808638 -3.865448 0.3273584,-4.05475 -2.559683 0.6854848,-3.220463 -4.956224 0.221864,-3.406533 -3.871222 0.3768864,-3.527483 -3.212026 0.5186283,-3.648729 -2.638044 0.6475469,-2.855584 -5.155459 0.3091297,-2.789347 -4.314569 0.4853882,-2.753546 -3.765937 0.6205808,-2.724998 -3.261183 0.735132,-8.903496 -8.083683 -0.02091719,-8.179812 -7.878749 0.2285133,-7.506454 -7.177639 0.4817612,-7.007019 -6.619006 0.8060271,-6.523098 -6.454854 1.202046,-7.953291 -4.87878 0.044945,-7.751674 -3.644909 0.1729775,-7.661754 -2.864445 0.356705,-7.581141 -2.190894 0.5077704,-8.364006 -4.599405 0.2089549,-8.201124 -3.11962 0.2699587,-8.098636 -2.160781 0.5141976,-8.00733 -1.32858 0.7155994,-8.783959 -4.623878 0.4200199,-8.68565 -3.193502 0.5187909,-8.610213 -2.284708 0.7636255,-8.522651 -1.498659 0.9486494,-9.224695 -4.913864 0.6724694,-9.353723 -3.791845 0.815305,-9.41318 -3.057889 0.9846408,-9.43257 -2.352588 1.110565,0.210, 1 0
-2.929676 -7.632212 -0.317331,-3.509064 -7.48269 -0.005995423,-4.089396 -7.03387 0.1770312,-4.556355 -6.57204 0.3639613,-4.920179 -6.377494 0.5829341,-3.846769 -5.303303 -0.1220803,-4.142408 -4.299932 0.0503909,-4.287539 -3.676666 0.2048593,-4.39075 -3.097097 0.3707096,-3.548074 -5.018947 -0.1059791,-3.809868 -3.864428 0.04030114,-3.809868 -3.864428 0.04030114,-4.050131 -2.554548 0.3900272,-3.221947 -4.972279 -0.03833929,-3.409658 -3.870748 0.1247278,-3.531843 -3.204987 0.2754515,-3.650463 -2.631814 0.4026046,-2.852509 -5.150539 0.06840619,-2.787646 -4.28078 0.2477621,-2.753913 -3.734126 0.384855,-2.730685 -3.233433 0.4988,-8.89449 -8.130648 -0.04574066,-8.164083 -7.938623 0.199331,-7.492184 -7.235284 0.4391511,-6.993529 -6.667009 0.7492113,-6.515744 -6.493798 1.116949,-7.951047 -4.933769 0.009045672,-7.754364 -3.694191 0.1308529,-7.663045 -2.904932 0.3184773,-7.584661 -2.217893 0.4804371,-8.360575 -4.651311 0.162579,-8.196165 -3.158266 0.2074365,-8.089566 -2.171923 0.444886,-7.999842 -1.339382 0.6486209,-8.780679 -4.678278 0.3652198,-8.681096 -3.241039 0.451682,-8.602873 -2.307632 0.6705857,-8.515583 -1.524145 0.8395329,-9.222733 -4.971503 0.6098518,-9.351226 -3.828275 0.7555915,-9.41159 -3.066778 0.914463,-9.431903 -2.363827 1.025081,0.310, 1 0
-2.941569 -7.65138 -0.4108432,-3.522619 -7.503229 -0.1238602,-4.099749 -7.048193 0.03564629,-4.565515 -6.584985 0.1968017,-4.925131 -6.401762 0.3858024,-3.854237 -5.34387 -0.2404213,-4.145056 -4.337059 -0.07570565,-4.292542 -3.706748 0.0763762,-4.395471 -3.122901 0.244093,-3.554866 -5.063196 -0.215654,-3.817082 -3.89748 -0.06951505,-3.817082 -3.89748 -0.06951505,-4.059326 -2.566456 0.281978,-3.227657 -5.012368 -0.1413432,-3.412502 -3.903971 0.02241492,-3.534435 -3.23244 0.1723731,-3.650171 -2.655801 0.2984821,-2.858994 -5.178838 -0.03055555,-2.794521 -4.302734 0.1482369,-2.762089 -3.745821 0.2878762,-2.739994 -3.232192 0.4048218,-8.919888 -8.129831 -0.01518705,-8.183869 -7.946739 0.242091,-7.511909 -7.252138 0.499584,-7.011215 -6.684713 0.8211444,-6.526223 -6.510752 1.214515,-7.955996 -4.933385 0.05975424,-7.752943 -3.679203 0.1916001,-7.659773 -2.880356 0.3774989,-7.579577 -2.191915 0.5267261,-8.367931 -4.64595 0.215583,-8.208494 -3.153344 0.2778516,-8.100767 -2.175894 0.5126425,-8.006299 -1.341203 0.7036646,-8.791903 -4.671839 0.4224766,-8.691277 -3.234474 0.5233716,-8.608384 -2.312359 0.7533395,-8.513233 -1.529876 0.9256281,-9.237867 -4.965099 0.6708696,-9.369222 -3.830364 0.8252872,-9.428594 -3.079202 0.9968284,-9.448896 -2.374527 1.113831,0.410, 1 0
-2.939604 -7.656011 -0.4817845,-3.513466 -7.528696 -0.1590562,-4.089869 -7.104232 0.01844668,-4.552568 -6.653984 0.1868166,-4.910219 -6.476772 0.374867,-3.850758 -5.376255 -0.2509011,-4.141714 -4.37173 -0.07222259,-4.281914 -3.739588 0.09342313,-4.375872 -3.146839 0.2697139,-3.551345 -5.092478 -0.2381135,-3.814566 -3.930335 -0.0752483,-3.814566 -3.930335 -0.0752483,-4.048537 -2.591262 0.2986226,-3.223881 -5.045269 -0.1765531,-3.407362 -3.935131 0.003552377,-3.524464 -3.268692 0.1636626,-3.636097 -2.687111 0.2985142,-2.852258 -5.21524 -0.07442448,-2.78898 -4.34156 0.1171457,-2.752541 -3.787201 0.262273,-2.726344 -3.26366 0.3836839,-8.926022 -8.164309 0.1039606,-8.19567 -7.973184 0.3517306,-7.519082 -7.262245 0.6092418,-7.017131 -6.697 0.9381676,-6.530387 -6.505348 1.338872,-7.972879 -4.923492 0.1670099,-7.778443 -3.654775 0.3130231,-7.686205 -2.846511 0.5162537,-7.604356 -2.143758 0.6760163,-8.388663 -4.64413 0.3426298,-8.232226 -3.142261 0.4155991,-8.1237 -2.159875 0.6615073,-8.027676 -1.318315 0.8614322,-8.817165 -4.680968 0.5701264,-8.709759 -3.224809 0.6867525,-8.624518 -2.289173 0.9322402,-8.529205 -1.49009 1.108607,-9.269244 -4.989566 0.8373754,-9.39505 -3.829575 1.00579,-9.452289 -3.060577 1.177955,-9.471871 -2.334424 1.29561,0.510, 1 0
-2.954527 -7.66607 -0.4058009,-3.520058 -7.530923 -0.04959804,-4.088161 -7.09074 0.1482745,-4.547836 -6.637794 0.3348878,-4.912445 -6.456251 0.5533336,-3.839011 -5.361026 -0.1261559,-4.136324 -4.368112 0.06562376,-4.281431 -3.739404 0.2340677,-4.38216 -3.149969 0.4140394,-3.541321 -5.077256 -0.1328297,-3.805312 -3.927354 0.03345317,-3.805312 -3.927354 0.03345317,-4.041044 -2.589989 0.4033448,-3.215078 -5.035064 -0.09055158,-3.400198 -3.934847 0.08841008,-3.517029 -3.266664 0.2454975,-3.629934 -2.682171 0.3852005,-2.847679 -5.215234 -0.004619509,-2.780474 -4.351556 0.1866833,-2.738268 -3.78572 0.3366565,-2.706645 -3.24608 0.4671351,-8.943501 -8.140818 0.05189742,-8.20574 -7.947457 0.3336791,-7.519758 -7.245435 0.6001166,-7.014284 -6.674154 0.9305793,-6.530789 -6.481079 1.325712,-7.975464 -4.921584 0.1579039,-7.772661 -3.669207 0.2998465,-7.683645 -2.872319 0.4970248,-7.608699 -2.17925 0.6588281,-8.392645 -4.638671 0.3028663,-8.223769 -3.139825 0.3673241,-8.117493 -2.159032 0.6166079,-8.028994 -1.308814 0.8298522,-8.819351 -4.668615 0.4974416,-8.719493 -3.232121 0.6044463,-8.63908 -2.308465 0.8392746,-8.547307 -1.515028 1.022844,-9.269054 -4.963922 0.7370502,-9.401913 -3.825271 0.8925561,-9.461006 -3.072512 1.061878,-9.47835 -2.361425 1.180399,0.610, 1 0
-2.945394 -7.639957 -0.5263214,-3.517164 -7.521013 -0.1821112,-4.088968 -7.097974 0.01444423,-4.546425 -6.644851 0.197065,-4.907709 -6.450705 0.4085046,-3.857277 -5.377523 -0.246493,-4.149889 -4.366575 -0.06903386,-4.294312 -3.732307 0.08818519,-4.393175 -3.148685 0.2601342,-3.554344 -5.091868 -0.2533877,-3.815445 -3.921987 -0.09064448,-3.815445 -3.921987 -0.09064448,-4.05172 -2.59122 0.2771158,-3.226339 -5.04096 -0.2088028,-3.413646 -3.930542 -0.02994955,-3.536333 -3.254699 0.1351174,-3.654513 -2.666618 0.2787104,-2.858348 -5.207469 -0.1286711,-2.795522 -4.333597 0.06666255,-2.760263 -3.776777 0.221141,-2.735838 -3.259126 0.3529289,-8.921289 -8.148766 0.07328332,-8.196162 -7.948183 0.3046196,-7.526725 -7.23447 0.5418528,-7.027794 -6.658082 0.8491026,-6.541087 -6.488805 1.222337,-7.972575 -4.920318 0.1154736,-7.773482 -3.663794 0.2386737,-7.680241 -2.858101 0.4248981,-7.600763 -2.161035 0.579502,-8.385909 -4.635536 0.2863362,-8.224548 -3.132253 0.3396454,-8.115784 -2.142032 0.5849159,-8.022457 -1.305289 0.788272,-8.810148 -4.669764 0.5046921,-8.706452 -3.224761 0.6003882,-8.624043 -2.287895 0.8362607,-8.530142 -1.494874 1.014747,-9.254637 -4.975088 0.7625987,-9.386663 -3.827123 0.92119,-9.442647 -3.071231 1.094044,-9.458355 -2.369056 1.212247,0.710, 1 0
-2.951579 -7.643493 -0.5273359,-3.522223 -7.510748 -0.1997353,-4.093717 -7.07246 -0.01556402,-4.557499 -6.621559 0.1568784,-4.923687 -6.441419 0.3585433,-3.855675 -5.379709 -0.2697104,-4.148267 -4.369838 -0.09438574,-4.290044 -3.728984 0.06404066,-4.383139 -3.136406 0.2385056,-3.555576 -5.092711 -0.2718688,-3.817635 -3.926264 -0.1114717,-3.817635 -3.926264 -0.1114717,-4.048141 -2.583833 0.2532456,-3.228446 -5.0407 -0.2275022,-3.413513 -3.929175 -0.05033246,-3.531849 -3.254934 0.1096442,-3.645983 -2.665962 0.2503278,-2.861326 -5.207231 -0.1465538,-2.792892 -4.337776 0.04804289,-2.74925 -3.779703 0.1979386,-2.716084 -3.251953 0.3265314,-8.929282 -8.160704 0.05449683,-8.19533 -7.955831 0.3022195,-7.522351 -7.242855 0.5484623,-7.025325 -6.650516 0.8638147,-6.545379 -6.450922 1.242467,-7.974427 -4.933556 0.1135626,-7.781843 -3.668936 0.2392065,-7.690621 -2.869494 0.4259152,-7.613721 -2.180912 0.5822195,-8.384052 -4.654703 0.2721319,-8.222742 -3.14195 0.3249521,-8.114801 -2.155136 0.5646647,-8.026381 -1.315674 0.7652199,-8.806861 -4.687213 0.4798663,-8.704281 -3.228698 0.5761237,-8.622337 -2.296158 0.8009542,-8.534128 -1.505652 0.9718887,-9.252236 -4.983525 0.7289823,-9.386797 -3.824584 0.8806375,-9.443464 -3.060571 1.047014,-9.463172 -2.351339 1.159597,0.810, 1 0
-2.953634 -7.700975 -0.5549926,-3.520031 -7.552026 -0.2235708,-4.080918 -7.106909 -0.03589851,-4.53612 -6.645435 0.1450756,-4.893967 -6.44904 0.3533829,-3.842947 -5.425904 -0.313797,-4.125223 -4.40706 -0.1202777,-4.259321 -3.762598 0.05630684,-4.34837 -3.169143 0.2396986,-3.54204 -5.154348 -0.3030552,-3.793663 -3.971781 -0.1336013,-3.793663 -3.971781 -0.1336013,-4.009838 -2.612616 0.2547969,-3.214777 -5.10753 -0.2393719,-3.40032 -3.985021 -0.06048679,-3.517887 -3.301299 0.1070029,-3.630103 -2.704912 0.255968,-2.847097 -5.267047 -0.1378499,-2.788682 -4.386209 0.05205536,-2.756042 -3.826025 0.1983979,-2.733005 -3.292608 0.323249,-8.943057 -8.156935 0.0959699,-8.214984 -7.961208 0.3592345,-7.530841 -7.238169 0.6158438,-7.023521 -6.659271 0.9376518,-6.544356 -6.464276 1.324244,-7.981902 -4.923341 0.1693772,-7.779832 -3.660881 0.3093511,-7.69095 -2.857236 0.5005426,-7.612189 -2.155994 0.6527674,-8.398558 -4.639346 0.3221523,-8.232515 -3.13565 0.3901975,-8.125982 -2.156059 0.626608,-8.031641 -1.312497 0.8201223,-8.826967 -4.668572 0.5260796,-8.716284 -3.229795 0.6313995,-8.632332 -2.301744 0.8594434,-8.535047 -1.507699 1.03059,-9.276561 -4.966896 0.7728159,-9.392702 -3.839731 0.9305905,-9.444834 -3.092235 1.10079,-9.456387 -2.391555 1.217962,0.910, 1 0
-2.944655 -7.728646 -0.4880923,-3.521856 -7.584178 -0.1911434,-4.089975 -7.137905 -0.01691848,-4.550865 -6.670536 0.1583265,-4.914101 -6.475992 0.3633587,-3.85755 -5.434584 -0.3129795,-4.139946 -4.410674 -0.1500399,-4.279457 -3.767902 0.001561165,-4.367174 -3.182561 0.1646571,-3.558776 -5.163253 -0.2952811,-3.807686 -3.97795 -0.1600879,-3.807686 -3.97795 -0.1600879,-4.019278 -2.636549 0.1886675,-3.233856 -5.118047 -0.2227466,-3.410528 -4.002692 -0.07106316,-3.528536 -3.331233 0.08309209,-3.638115 -2.739518 0.2149323,-2.869529 -5.281994 -0.1158157,-2.813982 -4.403038 0.05629945,-2.786186 -3.850301 0.1937701,-2.765281 -3.328487 0.3075799,-8.947367 -8.183292 0.09014963,-8.211686 -7.971439 0.3297045,-7.52849 -7.240838 0.5682728,-7.026585 -6.640638 0.8769475,-6.552429 -6.442173 1.239006,-7.974928 -4.948028 0.1398867,-7.769411 -3.697846 0.2596896,-7.677561 -2.896684 0.4386359,-7.601038 -2.200372 0.5872804,-8.384412 -4.668969 0.2944984,-8.217513 -3.16543 0.3464142,-8.10985 -2.182159 0.5788912,-8.021819 -1.338664 0.7773851,-8.806483 -4.697388 0.4973425,-8.700786 -3.253108 0.5922652,-8.617865 -2.325615 0.8115142,-8.528013 -1.532046 0.9779999,-9.250054 -4.989524 0.7422034,-9.37384 -3.847332 0.8891315,-9.427697 -3.093 1.055144,-9.446511 -2.390954 1.166178,1.010, 1 0
-2.953935 -7.748119 -0.4631956,-3.536228 -7.602041 -0.1526031,-4.107053 -7.167373 0.02491125,-4.567618 -6.698675 0.2002859,-4.92727 -6.488805 0.4089439,-3.875731 -5.453231 -0.2765818,-4.166481 -4.444181 -0.1138601,-4.305901 -3.809995 0.04174811,-4.397409 -3.225621 0.2125342,-3.574076 -5.176905 -0.2694244,-3.826247 -4.005542 -0.1349454,-3.826247 -4.005542 -0.1349454,-4.039438 -2.672765 0.2257484,-3.247553 -5.128947 -0.2085115,-3.430141 -4.017993 -0.06189016,-3.549581 -3.351049 0.09451538,-3.657272 -2.768807 0.2317302,-2.881111 -5.292943 -0.1128523,-2.828212 -4.410651 0.05608404,-2.805242 -3.852136 0.2012568,-2.785914 -3.328779 0.322437,-8.953893 -8.19323 0.09703658,-8.215842 -7.989847 0.3066896,-7.526031 -7.253049 0.5306232,-7.018191 -6.658674 0.8286696,-6.547319 -6.456378 1.181091,-7.98674 -4.953529 0.1013817,-7.773633 -3.707555 0.2098552,-7.673675 -2.908727 0.3860758,-7.589103 -2.212965 0.5334215,-8.394186 -4.674549 0.2672023,-8.223912 -3.168748 0.3096995,-8.109609 -2.185617 0.5384194,-8.016238 -1.345762 0.7294461,-8.814553 -4.704086 0.4816787,-8.703507 -3.255495 0.566856,-8.614284 -2.322888 0.7851826,-8.519063 -1.526577 0.9494429,-9.25646 -4.998605 0.7340531,-9.378884 -3.851717 0.8789193,-9.431098 -3.092959 1.047239,-9.448628 -2.388788 1.158637,1.110, 1 0
-2.963061 -7.795877 -0.4776646,-3.553979 -7.658729 -0.1722739,-4.131677 -7.216373 -0.01369506,-4.598299 -6.742723 0.1386245,-4.961576 -6.542116 0.3180716,-3.875114 -5.5123 -0.2949721,-4.172421 -4.495688 -0.1315485,-4.315057 -3.859103 0.02099931,-4.407293 -3.278509 0.189345,-3.569918 -5.225133 -0.2918903,-3.826596 -4.03722 -0.1531576,-3.826596 -4.03722 -0.1531576,-4.045938 -2.66262 0.2021273,-3.240495 -5.16926 -0.239637,-3.424461 -4.049438 -0.08395171,-3.543465 -3.364239 0.07234806,-3.64827 -2.775054 0.2067123,-2.871928 -5.323846 -0.1502615,-2.820158 -4.43041 0.02436191,-2.794792 -3.862928 0.1694619,-2.774474 -3.324247 0.2929063,-8.968306 -8.240093 0.07122284,-8.236718 -8.033527 0.3428875,-7.560817 -7.316778 0.6195192,-7.055308 -6.730666 0.956773,-6.573708 -6.506847 1.351421,-8.006046 -5.015563 0.2060067,-7.795039 -3.74311 0.3619892,-7.693835 -2.949305 0.5603019,-7.606163 -2.257181 0.7171637,-8.415719 -4.736034 0.366421,-8.253928 -3.216055 0.4609563,-8.135281 -2.236452 0.7100197,-8.034157 -1.396976 0.9112858,-8.838033 -4.770028 0.5767137,-8.733466 -3.31546 0.7098013,-8.642139 -2.378812 0.9588159,-8.538855 -1.580805 1.14109,-9.279515 -5.07113 0.8255882,-9.408794 -3.913715 1.014566,-9.456678 -3.150003 1.206652,-9.464462 -2.44499 1.333934,1.210, 1 0
-2.964653 -7.83872 -0.4265847,-3.551861 -7.69739 -0.1052275,-4.123405 -7.24891 0.06050164,-4.579918 -6.779527 0.2097327,-4.941296 -6.575877 0.3841473,-3.857958 -5.541559 -0.1936096,-4.148491 -4.531138 -0.02423316,-4.288876 -3.889164 0.1396966,-4.381848 -3.303644 0.3204407,-3.548973 -5.25073 -0.2032003,-3.801666 -4.055807 -0.05465919,-3.801666 -4.055807 -0.05465919,-4.022394 -2.674181 0.3053005,-3.218096 -5.193836 -0.1658885,-3.398548 -4.063688 -0.002758801,-3.514299 -3.376327 0.1547686,-3.61729 -2.788371 0.2903844,-2.850419 -5.351517 -0.09158936,-2.796439 -4.458648 0.09293449,-2.771408 -3.889598 0.2370073,-2.751159 -3.35856 0.3596051,-8.999567 -8.256842 -0.00897393,-8.259122 -8.053825 0.2537364,-7.57589 -7.348217 0.5297082,-7.066321 -6.75517 0.8626221,-6.589639 -6.535802 1.25461,-8.026656 -5.064193 0.1453028,-7.808252 -3.807543 0.305995,-7.704754 -3.017795 0.5036429,-7.620797 -2.326701 0.6629882,-8.436979 -4.778868 0.3002401,-8.26485 -3.25052 0.3959411,-8.147987 -2.26256 0.645183,-8.055634 -1.419316 0.8511354,-8.8598 -4.81105 0.5028017,-8.750574 -3.351814 0.6354452,-8.662127 -2.41216 0.8747493,-8.568331 -1.61299 1.05835,-9.303397 -5.113641 0.7414091,-9.427137 -3.952878 0.9261447,-9.475694 -3.190986 1.111293,-9.486177 -2.487545 1.239544,1.310, 1 0
-2.956805 -7.882855 -0.3839693,-3.548653 -7.738963 -0.09957829,-4.123877 -7.264732 0.04120573,-4.585361 -6.796594 0.1709489,-4.946594 -6.616119 0.3221043,-3.838951 -5.561649 -0.2092861,-4.124793 -4.541527 -0.04988107,-4.265125 -3.89422 0.1013853,-4.359209 -3.3087 0.2667569,-3.530524 -5.277252 -0.1951317,-3.780942 -4.080202 -0.05275339,-3.780942 -4.080202 -0.05275339,-4.006349 -2.702591 0.3020473,-3.199163 -5.227922 -0.1292708,-3.381584 -4.087316 0.03328982,-3.500311 -3.394019 0.1905142,-3.60912 -2.805446 0.3232961,-2.829008 -5.394828 -0.02944955,-2.773707 -4.489336 0.1532086,-2.747815 -3.914948 0.2939144,-2.728889 -3.38179 0.4157086,-9.008621 -8.311832 0.02806312,-8.275758 -8.104324 0.3132838,-7.599599 -7.392033 0.5911874,-7.093001 -6.795317 0.9228051,-6.616212 -6.556978 1.311165,-8.048728 -5.104287 0.178586,-7.827943 -3.842302 0.3320421,-7.719514 -3.05304 0.5283465,-7.631907 -2.366411 0.6881519,-8.459564 -4.819608 0.321995,-8.286759 -3.292288 0.4090916,-8.163705 -2.305062 0.6585348,-8.064337 -1.469018 0.8626614,-8.882749 -4.854194 0.515788,-8.769301 -3.401399 0.638126,-8.676588 -2.460909 0.8826227,-8.572656 -1.665266 1.070213,-9.32496 -5.156635 0.7476656,-9.45126 -3.992233 0.9353055,-9.499563 -3.230661 1.131389,-9.505235 -2.537439 1.266773,1.410, 1 0
-2.912684 -7.879146 -0.4292078,-3.509166 -7.725633 -0.1361232,-4.081517 -7.285247 0.0254274,-4.546162 -6.838098 0.1747875,-4.919473 -6.656411 0.3487388,-3.78756 -5.563335 -0.2227191,-4.076357 -4.542843 -0.06144416,-4.210253 -3.901742 0.09187907,-4.29928 -3.315825 0.2558535,-3.474245 -5.286726 -0.2078255,-3.720868 -4.092697 -0.05861872,-3.720868 -4.092697 -0.05861872,-3.936274 -2.726899 0.2958633,-3.138979 -5.242477 -0.1441183,-3.319 -4.105517 0.02225947,-3.43416 -3.416708 0.1758457,-3.540589 -2.823732 0.3118049,-2.76559 -5.411857 -0.04610857,-2.705686 -4.509807 0.1381825,-2.674446 -3.930286 0.2783503,-2.651808 -3.384563 0.405896,-9.039135 -8.278814 0.03864184,-8.285761 -8.080072 0.3304171,-7.601605 -7.356585 0.6035048,-7.096911 -6.739734 0.93286,-6.638044 -6.473155 1.306711,-8.068907 -5.064283 0.183329,-7.838269 -3.8139 0.3466262,-7.733653 -3.035486 0.5455133,-7.652235 -2.359044 0.6978419,-8.484358 -4.782875 0.3136913,-8.316906 -3.26899 0.3972762,-8.205522 -2.300514 0.6372301,-8.120185 -1.475809 0.836834,-8.912516 -4.814523 0.4997563,-8.811327 -3.38681 0.6249729,-8.721174 -2.481016 0.8551282,-8.627485 -1.712901 1.029705,-9.361248 -5.109738 0.7271349,-9.482127 -3.991741 0.9041395,-9.531917 -3.242115 1.088172,-9.543821 -2.553592 1.212193,1.510, 1 0
-2.893904 -7.88907 -0.3819931,-3.491661 -7.749561 -0.07081667,-4.064944 -7.305044 0.0943011,-4.519739 -6.851642 0.2438064,-4.894604 -6.669582 0.4173577,-3.775308 -5.564746 -0.165259,-4.062979 -4.547664 -0.004224926,-4.19247 -3.908223 0.1575024,-4.277925 -3.323152 0.3264292,-3.457031 -5.283094 -0.1611518,-3.699436 -4.094904 -0.01888904,-3.699436 -4.094904 -0.01888904,-3.915452 -2.722235 0.3452535,-3.118629 -5.236342 -0.1062331,-3.296667 -4.111725 0.05147928,-3.40913 -3.428509 0.2064088,-3.513231 -2.84128 0.3472346,-2.74079 -5.405669 -0.01388443,-2.690123 -4.512348 0.16465,-2.665319 -3.934639 0.3090147,-2.651663 -3.391704 0.4450294,-9.051116 -8.29542 0.02242393,-8.30992 -8.105173 0.3194363,-7.61956 -7.395123 0.6024812,-7.10568 -6.785932 0.9341077,-6.638549 -6.525692 1.312607,-8.075246 -5.102191 0.1904464,-7.844659 -3.854791 0.3506813,-7.739702 -3.067441 0.5486263,-7.657015 -2.388265 0.7061875,-8.492454 -4.806686 0.320428,-8.315351 -3.296059 0.4043444,-8.199105 -2.322792 0.6404599,-8.110776 -1.499768 0.841733,-8.920238 -4.835647 0.5028141,-8.806577 -3.40173 0.6253904,-8.714061 -2.486142 0.8532038,-8.619213 -1.712003 1.033194,-9.368579 -5.137449 0.7256201,-9.483058 -3.999866 0.9086298,-9.526659 -3.253018 1.092426,-9.533471 -2.573112 1.220812,1.610, 1 0
-2.863498 -7.960865 -0.2802799,-3.469889 -7.822716 0.01568243,-4.051533 -7.341823 0.165457,-4.512354 -6.864118 0.2993575,-4.884129 -6.665156 0.4575331,-3.745165 -5.59757 -0.09344289,-4.035594 -4.558163 0.04072481,-4.174669 -3.909938 0.1789861,-4.264932 -3.32909 0.3356417,-3.421542 -5.321649 -0.08979718,-3.65892 -4.121259 0.03443021,-3.65892 -4.121259 0.03443021,-3.86503 -2.747087 0.3902016,-3.079763 -5.281173 -0.03339298,-3.2493 -4.145441 0.1085146,-3.363568 -3.444209 0.2663852,-3.464149 -2.853377 0.4052221,-2.703709 -5.458632 0.058552,-2.650739 -4.555826 0.2233899,-2.627165 -3.969773 0.3671852,-2.612269 -3.420801 0.5005377,-9.037443 -8.346479 0.08512576,-8.294316 -8.148716 0.3709714,-7.613108 -7.434509 0.6485743,-7.110632 -6.82542 0.9848962,-6.64405 -6.553228 1.375161,-8.057673 -5.127052 0.2244904,-7.824763 -3.881168 0.3747106,-7.711122 -3.092885 0.5725828,-7.622587 -2.4197 0.7281122,-8.473671 -4.838977 0.366251,-8.304083 -3.318174 0.4360236,-8.187008 -2.339801 0.6771224,-8.095117 -1.520459 0.8783897,-8.901532 -4.876194 0.5615853,-8.796577 -3.43683 0.6719258,-8.704127 -2.515201 0.8980637,-8.604306 -1.739727 1.071359,-9.347979 -5.181943 0.7983044,-9.4704 -4.032279 0.9756631,-9.515723 -3.270174 1.151734,-9.519208 -2.576663 1.269947,1.710, 1 0
-2.859089 -7.953407 -0.2891734,-3.46996 -7.806283 -0.007622063,-4.051867 -7.317919 0.1342869,-4.514389 -6.830985 0.2589373,-4.893823 -6.647762 0.4045149,-3.745605 -5.596049 -0.1124645,-4.030333 -4.557655 0.01085284,-4.1674 -3.915639 0.1428731,-4.25868 -3.333042 0.2975152,-3.41894 -5.316429 -0.1096577,-3.656096 -4.117976 0.01018378,-3.656096 -4.117976 0.01018378,-3.864374 -2.738242 0.3614816,-3.07761 -5.271295 -0.05905433,-3.242491 -4.137792 0.07586867,-3.358451 -3.4382 0.2327499,-3.460291 -2.846258 0.3740658,-2.702673 -5.441597 0.02630895,-2.646571 -4.544121 0.1833896,-2.622056 -3.965783 0.3242595,-2.605478 -3.422739 0.4581006,-9.067789 -8.358486 0.08759096,-8.314882 -8.148073 0.3983978,-7.624338 -7.423894 0.6800405,-7.119361 -6.795427 1.010807,-6.644944 -6.527914 1.392243,-8.068174 -5.151571 0.2786176,-7.826246 -3.901537 0.4404512,-7.715367 -3.115423 0.6334383,-7.632497 -2.439778 0.786629,-8.486876 -4.855918 0.4021865,-8.307858 -3.336725 0.489024,-8.188554 -2.368871 0.7287151,-8.098166 -1.550419 0.9310412,-8.916194 -4.883542 0.5783111,-8.807054 -3.458332 0.7107319,-8.717413 -2.54609 0.9457768,-8.62617 -1.778063 1.13133,-9.366794 -5.180217 0.794777,-9.479891 -4.059626 0.9830664,-9.521625 -3.321331 1.173482,-9.528288 -2.647632 1.308626,1.810, 1 0
-2.869523 -7.94914 -0.3039678,-3.472849 -7.804069 -0.01088208,-4.058893 -7.324699 0.1494821,-4.525799 -6.835607 0.2925212,-4.89858 -6.624349 0.4610265,-3.756367 -5.599212 -0.08654551,-4.041903 -4.552409 0.05367416,-4.178568 -3.905399 0.192581,-4.267811 -3.321376 0.3524618,-3.435225 -5.321001 -0.08175665,-3.672666 -4.112278 0.0559369,-3.672666 -4.112278 0.0559369,-3.876116 -2.728655 0.4195725,-3.096385 -5.278104 -0.02750343,-3.261076 -4.136189 0.1238021,-3.375071 -3.429479 0.2884279,-3.474852 -2.836788 0.4334615,-2.723038 -5.454473 0.05923373,-2.66111 -4.545167 0.2276137,-2.631927 -3.959382 0.3767024,-2.609367 -3.413585 0.5130228,-9.165361 -8.319485 0.04283565,-8.429757 -8.098619 0.3768816,-7.757179 -7.403888 0.6824462,-7.26965 -6.767272 1.025205,-6.813687 -6.444145 1.413934,-8.201382 -5.134759 0.3057976,-7.948517 -3.874217 0.4904807,-7.833407 -3.103181 0.6832868,-7.743286 -2.432585 0.8313413,-8.62763 -4.829343 0.420743,-8.442094 -3.290792 0.5412546,-8.31329 -2.315927 0.7820508,-8.206487 -1.492823 0.987813,-9.063273 -4.852413 0.5901222,-8.955369 -3.394072 0.7183122,-8.854201 -2.480128 0.9746972,-8.738699 -1.710667 1.177986,-9.519581 -5.153711 0.7964806,-9.624283 -4.021883 0.9810006,-9.656297 -3.276736 1.198563,-9.644886 -2.613466 1.365438,1.910, 1 0
-2.869782 -7.959258 -0.297573,-3.474205 -7.813514 0.0004360676,-4.063008 -7.327728 0.1568508,-4.524612 -6.831666 0.2977533,-4.895947 -6.61658 0.4642703,-3.763634 -5.607451 -0.0830833,-4.051973 -4.557739 0.06301555,-4.188768 -3.909029 0.2045246,-4.276794 -3.322888 0.3648629,-3.439832 -5.330166 -0.07572065,-3.678548 -4.114543 0.06791216,-3.678548 -4.114543 0.06791216,-3.877947 -2.723812 0.4368021,-3.096981 -5.288109 -0.01619837,-3.268463 -4.140218 0.141184,-3.383192 -3.429653 0.3059382,-3.481993 -2.824873 0.4551226,-2.718872 -5.460052 0.07543519,-2.664263 -4.544416 0.2540618,-2.637506 -3.950832 0.4089154,-2.617176 -3.394147 0.5482258,-9.202309 -8.323799 0.09279594,-8.453587 -8.083637 0.4249103,-7.77145 -7.388465 0.7364032,-7.262501 -6.774484 1.100471,-6.796954 -6.464619 1.509724,-8.219738 -5.116745 0.32942,-7.972778 -3.869186 0.5106147,-7.857655 -3.092693 0.7230178,-7.770539 -2.425411 0.8822628,-8.637005 -4.82133 0.450133,-8.456376 -3.308384 0.554938,-8.342075 -2.32919 0.7987868,-8.256201 -1.504552 1.012118,-9.066208 -4.84976 0.6259273,-8.952334 -3.428055 0.7589249,-8.852167 -2.513719 0.983977,-8.749591 -1.750777 1.15999,-9.516076 -5.151085 0.8473632,-9.626482 -4.031024 1.038041,-9.659563 -3.27441 1.220436,-9.65296 -2.587812 1.350048,2.010, 1 0
-2.866641 -7.991872 -0.2283051,-3.469116 -7.853597 0.08303511,-4.056961 -7.356296 0.2508261,-4.520009 -6.84524 0.4098954,-4.901819 -6.6177 0.6009679,-3.771416 -5.626934 -0.02206065,-4.064543 -4.580509 0.1388673,-4.204268 -3.930792 0.2920421,-4.293386 -3.337151 0.4611291,-3.451933 -5.345066 -0.01501124,-3.692638 -4.124617 0.1339616,-3.692638 -4.124617 0.1339616,-3.88467 -2.719738 0.5026653,-3.113272 -5.306072 0.04552051,-3.281933 -4.156112 0.2036541,-3.395376 -3.443618 0.3694004,-3.493332 -2.833538 0.5171076,-2.738483 -5.485847 0.1420956,-2.681163 -4.575517 0.3224304,-2.655218 -3.98711 0.4802367,-2.634055 -3.434139 0.6183246,-9.205494 -8.286737 0.0359925,-8.468934 -8.06159 0.3823231,-7.791837 -7.362966 0.6985796,-7.287438 -6.755276 1.059533,-6.82561 -6.450332 1.464262,-8.249722 -5.089468 0.3065362,-7.994564 -3.841917 0.5030394,-7.875236 -3.063787 0.7197368,-7.78637 -2.384613 0.8837902,-8.66505 -4.799975 0.4228294,-8.477887 -3.292938 0.55973,-8.356838 -2.315101 0.8142997,-8.267159 -1.488178 1.030366,-9.092679 -4.830228 0.5956568,-8.982321 -3.423246 0.7588053,-8.881207 -2.506978 1.001124,-8.777857 -1.741436 1.182845,-9.539127 -5.134589 0.8144403,-9.64931 -4.022049 1.026873,-9.685171 -3.263753 1.221049,-9.679398 -2.577785 1.356436,2.110, 1 0
-2.868276 -7.99893 -0.2300666,-3.477979 -7.836603 0.08537266,-4.067049 -7.359181 0.266895,-4.533692 -6.849261 0.4391284,-4.918416 -6.612105 0.6449935,-3.779288 -5.632735 -0.002317771,-4.071972 -4.586606 0.1574477,-4.207787 -3.939165 0.3113011,-4.296019 -3.341632 0.4827176,-3.455761 -5.354544 0.0001094639,-3.692691 -4.137697 0.1495885,-3.692691 -4.137697 0.1495885,-3.880443 -2.728574 0.5339361,-3.114319 -5.312622 0.05520332,-3.279354 -4.165552 0.210039,-3.391416 -3.453066 0.3816976,-3.489979 -2.838669 0.5382279,-2.737551 -5.484821 0.1431417,-2.679382 -4.566946 0.3206565,-2.655839 -3.97666 0.4804755,-2.639212 -3.418169 0.6263611,-9.198882 -8.270891 0.01690152,-8.457498 -8.030294 0.3364519,-7.7891 -7.328643 0.6560723,-7.283926 -6.723238 1.025269,-6.824756 -6.403561 1.444035,-8.251871 -5.066085 0.2830462,-8.012926 -3.79947 0.50403,-7.894512 -3.021342 0.7421541,-7.798048 -2.340215 0.9136499,-8.670835 -4.790374 0.4268094,-8.489493 -3.272143 0.585367,-8.37199 -2.292052 0.8570108,-8.278685 -1.460639 1.081743,-9.102356 -4.841106 0.6225905,-8.985353 -3.403859 0.8061558,-8.88086 -2.478971 1.064148,-8.772897 -1.703178 1.253314,-9.551765 -5.166294 0.8583642,-9.652129 -4.030847 1.08662,-9.682652 -3.255673 1.293375,-9.67255 -2.543976 1.437345,2.210, 1 0
-2.857382 -8.028948 -0.1500246,-3.460437 -7.89026 0.2033234,-4.048342 -7.39322 0.3846678,-4.502057 -6.857699 0.5520391,-4.872057 -6.591918 0.7489958,-3.767068 -5.647651 0.08624634,-4.058054 -4.60423 0.2584675,-4.189743 -3.949749 0.4209958,-4.272835 -3.345662 0.5976573,-3.443907 -5.360186 0.07247014,-3.683519 -4.133871 0.221257,-3.683519 -4.133871 0.221257,-3.863149 -2.706585 0.5968529,-3.103292 -5.319668 0.1150384,-3.26853 -4.160276 0.2734843,-3.372234 -3.443384 0.4469897,-3.458941 -2.825171 0.6007013,-2.728591 -5.500165 0.1977658,-2.670025 -4.586879 0.3802409,-2.644398 -3.998291 0.546579,-2.623981 -3.44266 0.6918749,-9.215652 -8.303846 0.06638023,-8.480548 -8.059774 0.3907747,-7.81176 -7.341541 0.7146705,-7.308177 -6.733444 1.090007,-6.847263 -6.39896 1.518816,-8.271804 -5.068596 0.318837,-8.035753 -3.792252 0.5301045,-7.913122 -2.999454 0.7645009,-7.812242 -2.314254 0.9355566,-8.688374 -4.807509 0.4648005,-8.513272 -3.277437 0.6248361,-8.394597 -2.28617 0.8953668,-8.299082 -1.451162 1.116246,-9.121001 -4.867151 0.6659937,-9.003734 -3.419056 0.8511245,-8.892651 -2.487505 1.111784,-8.776846 -1.70848 1.303907,-9.573419 -5.201793 0.9093952,-9.673939 -4.046087 1.141645,-9.697644 -3.262279 1.351156,-9.680109 -2.545836 1.496876,2.310, 1 0
-2.857005 -8.033213 -0.1519017,-3.461068 -7.882827 0.2000043,-4.046907 -7.395975 0.3962079,-4.500447 -6.860077 0.5760174,-4.881645 -6.600244 0.7842208,-3.772753 -5.649524 0.09018236,-4.061144 -4.597496 0.2657498,-4.190064 -3.945613 0.4324034,-4.272692 -3.334079 0.6119003,-3.442606 -5.366096 0.08549777,-3.673802 -4.133495 0.2477975,-3.673802 -4.133495 0.2477975,-3.842113 -2.699042 0.6480995,-3.099707 -5.32831 0.1380354,-3.253857 -4.163373 0.3018839,-3.355323 -3.439758 0.4835773,-3.443644 -2.808293 0.6483795,-2.722872 -5.509367 0.229306,-2.664908 -4.589264 0.4085348,-2.642247 -4.002192 0.5727667,-2.62549 -3.443867 0.7200031,-9.217566 -8.309914 0.0003483667,-8.473419 -8.046219 0.314056,-7.803845 -7.336935 0.6294358,-7.298447 -6.724749 0.9964602,-6.842844 -6.39641 1.414477,-8.278942 -5.095914 0.2500065,-8.038219 -3.8202 0.4687039,-7.91017 -3.036212 0.7112929,-7.812081 -2.355542 0.8833752,-8.697948 -4.830282 0.3869997,-8.517937 -3.285938 0.533581,-8.393981 -2.289331 0.8053525,-8.301226 -1.44815 1.032646,-9.126586 -4.884204 0.5728992,-9.013058 -3.43629 0.7415501,-8.904877 -2.508812 0.9804972,-8.799383 -1.731782 1.162783,-9.571179 -5.207166 0.8011457,-9.666239 -4.051285 1.02182,-9.686756 -3.262051 1.217717,-9.671351 -2.5427 1.352781,2.410, 1 0
-2.869453 -8.089014 -0.04312414,-3.467339 -7.926883 0.2677268,-4.035309 -7.421599 0.4397786,-4.464678 -6.849632 0.605367,-4.826205 -6.549873 0.7968692,-3.759975 -5.663276 0.1392227,-4.048834 -4.613718 0.3044919,-4.181347 -3.962121 0.4636227,-4.263186 -3.349808 0.6343728,-3.435062 -5.382179 0.1502194,-3.65905 -4.136848 0.3004114,-3.65905 -4.136848 0.3004114,-3.813202 -2.689546 0.675898,-3.097174 -5.352083 0.2148075,-3.240169 -4.174676 0.3642402,-3.336069 -3.445202 0.5404962,-3.414961 -2.812126 0.695914,-2.725038 -5.547966 0.3174061,-2.655793 -4.632463 0.4855457,-2.626379 -4.041787 0.6492067,-2.601027 -3.487446 0.7872898,-9.199877 -8.319664 0.02371631,-8.458563 -8.060102 0.370315,-7.793525 -7.340274 0.6951074,-7.297812 -6.709411 1.064881,-6.837437 -6.383253 1.478891,-8.263054 -5.103925 0.3213462,-8.024108 -3.833944 0.555245,-7.90228 -3.051573 0.8009628,-7.809913 -2.368485 0.9715383,-8.683515 -4.837203 0.4484865,-8.507631 -3.294439 0.6097345,-8.39297 -2.297902 0.8870855,-8.307345 -1.458776 1.116307,-9.110933 -4.889274 0.626115,-9.000315 -3.444069 0.806173,-8.896313 -2.515824 1.050525,-8.792033 -1.740267 1.235365,-9.554094 -5.207582 0.8481635,-9.646943 -4.061651 1.078496,-9.665825 -3.279903 1.270078,-9.647691 -2.574908 1.40042,2.510, 1 0
-2.857535 -8.097256 -0.01881462,-3.455418 -7.941046 0.3322307,-4.026851 -7.431966 0.5370046,-4.464605 -6.860501 0.7350447,-4.827055 -6.535739 0.9683802,-3.764545 -5.666418 0.2221798,-4.051025 -4.592645 0.4060103,-4.184454 -3.934019 0.5715293,-4.269512 -3.323376 0.7441057,-3.441057 -5.391389 0.2270086,-3.662701 -4.132982 0.3970361,-3.662701 -4.132982 0.3970361,-3.816641 -2.700268 0.7883769,-3.103251 -5.36913 0.2925988,-3.245329 -4.186073 0.4669473,-3.341931 -3.460792 0.6570242,-3.42319 -2.812881 0.8229262,-2.729547 -5.57088 0.3926921,-2.657082 -4.656496 0.5853155,-2.624071 -4.074384 0.7603284,-2.592717 -3.517305 0.9045611,-9.193716 -8.332964 0.09444363,-8.452008 -8.069109 0.4276805,-7.789046 -7.335153 0.7489596,-7.293001 -6.708616 1.119664,-6.834398 -6.366226 1.538127,-8.255962 -5.08575 0.3552781,-8.018532 -3.814362 0.5794502,-7.897761 -3.035036 0.8221415,-7.807761 -2.364451 0.9907604,-8.677446 -4.826358 0.4888519,-8.506234 -3.291547 0.632307,-8.391071 -2.3012 0.8978638,-8.307366 -1.47487 1.116559,-9.10837 -4.89221 0.6772439,-9.002788 -3.450046 0.847046,-8.897394 -2.526288 1.083897,-8.794055 -1.755948 1.263032,-9.556273 -5.229196 0.9101171,-9.650004 -4.076451 1.132873,-9.665913 -3.293818 1.318471,-9.646246 -2.58131 1.443876,2.610, 1 0
-2.837924 -8.157606 0.1215087,-3.433556 -7.966634 0.494689,-3.996149 -7.441859 0.7094045,-4.418657 -6.842838 0.9141197,-4.770462 -6.490629 1.145976,-3.74493 -5.687183 0.3865661,-4.041203 -4.612339 0.5657696,-4.174453 -3.950313 0.7204679,-4.257742 -3.336341 0.8822207,-3.424764 -5.411273 0.3671269,-3.654651 -4.143758 0.5345083,-3.654651 -4.143758 0.5345083,-3.79912 -2.707439 0.9043868,-3.092999 -5.386848 0.4062742,-3.236242 -4.197236 0.5694429,-3.329163 -3.467904 0.7542609,-3.406525 -2.819685 0.9201285,-2.726911 -5.589676 0.4801628,-2.657457 -4.672836 0.6682095,-2.626982 -4.084362 0.8449013,-2.595222 -3.533083 0.9843278,-9.226781 -8.397566 0.1725367,-8.481792 -8.125656 0.4517248,-7.81077 -7.368399 0.7323124,-7.315783 -6.714489 1.072754,-6.858485 -6.369934 1.454824,-8.278144 -5.134632 0.3648122,-8.041018 -3.875509 0.5613021,-7.918527 -3.09184 0.7888489,-7.826112 -2.411384 0.9493396,-8.695548 -4.8652 0.5161377,-8.520703 -3.3251 0.6408942,-8.399906 -2.323637 0.8985072,-8.309397 -1.488493 1.109852,-9.122217 -4.919811 0.7190838,-9.01371 -3.466394 0.8750064,-8.905018 -2.529241 1.107878,-8.79747 -1.75043 1.283069,-9.568399 -5.248319 0.9600729,-9.664783 -4.076189 1.179287,-9.68103 -3.27755 1.369993,-9.661674 -2.555633 1.496896,2.710, 1 0
-2.83558 -8.200384 0.2722234,-3.427797 -7.944579 0.6866063,-3.970915 -7.387393 0.9213625,-4.349895 -6.741333 1.149252,-4.659719 -6.277161 1.407752,-3.749022 -5.687147 0.5349712,-4.040271 -4.615533 0.7257866,-4.171597 -3.963681 0.8941204,-4.255957 -3.351944 1.065489,-3.42674 -5.409369 0.5011533,-3.650087 -4.158321 0.6563346,-3.650087 -4.158321 0.6563346,-3.78149 -2.724329 1.063722,-3.093819 -5.393264 0.532988,-3.230523 -4.230188 0.6862739,-3.315858 -3.515237 0.885435,-3.388689 -2.867011 1.065746,-2.723971 -5.601913 0.6004731,-2.657678 -4.709802 0.7800291,-2.625417 -4.131009 0.956145,-2.591811 -3.580122 1.091727,-9.260779 -8.391232 0.1407639,-8.514124 -8.121344 0.455115,-7.83738 -7.385419 0.7628174,-7.341398 -6.739307 1.120259,-6.886921 -6.377283 1.521392,-8.296166 -5.138273 0.397178,-8.059109 -3.857893 0.6031237,-7.933363 -3.063884 0.8248819,-7.832857 -2.377548 0.9912462,-8.713971 -4.876464 0.5407935,-8.537024 -3.330042 0.6945875,-8.417057 -2.330981 0.9582722,-8.325191 -1.491721 1.176016,-9.142261 -4.935419 0.7376713,-9.024994 -3.475159 0.9163138,-8.911235 -2.537757 1.167755,-8.795396 -1.751126 1.358201,-9.59293 -5.267562 0.9733636,-9.687352 -4.106428 1.204446,-9.701753 -3.318779 1.410409,-9.680407 -2.595963 1.553001,2.810, 1 0
-2.80414 -8.317425 0.6155689,-3.384148 -8.020771 1.045915,-3.930927 -7.372823 1.26958,-4.306597 -6.662834 1.488493,-4.624777 -6.131782 1.745876,-3.725603 -5.698513 0.8695467,-4.028296 -4.625701 1.066397,-4.161059 -3.947207 1.241382,-4.238716 -3.308294 1.423607,-3.408547 -5.42761 0.8308037,-3.632711 -4.165258 0.9829661,-3.632711 -4.165258 0.9829661,-3.760057 -2.727569 1.372678,-3.079432 -5.418096 0.8670745,-3.214792 -4.243545 1.022599,-3.297102 -3.516013 1.228736,-3.367629 -2.861459 1.407479,-2.712766 -5.642936 0.9351544,-2.656508 -4.71989 1.113309,-2.634132 -4.128532 1.28833,-2.610315 -3.588856 1.413372,-9.262209 -8.343685 0.07886447,-8.51366 -8.065176 0.3657894,-7.843027 -7.331085 0.657956,-7.350688 -6.684274 1.006645,-6.888605 -6.330036 1.399737,-8.303194 -5.100502 0.3107749,-8.07533 -3.805945 0.53258,-7.951142 -3.014772 0.7662151,-7.853971 -2.328445 0.9361891,-8.723959 -4.844663 0.4710006,-8.550129 -3.285786 0.6406482,-8.422482 -2.283168 0.9170476,-8.324317 -1.437794 1.137034,-9.153399 -4.908161 0.6802855,-9.0439 -3.441009 0.8805939,-8.928004 -2.507982 1.138518,-8.810563 -1.725401 1.328624,-9.601816 -5.243153 0.9283664,-9.701055 -4.075832 1.175193,-9.716432 -3.279132 1.385096,-9.692121 -2.551662 1.522445,2.910, 1 0
-2.81472 -8.364567 0.7149395,-3.397038 -8.041847 1.057128,-3.940497 -7.349045 1.236901,-4.315042 -6.633066 1.434641,-4.643076 -6.124696 1.672407,-3.749663 -5.708454 0.8699638,-4.057988 -4.634128 1.073656,-4.186098 -3.953358 1.246189,-4.255934 -3.31221 1.428266,-3.442559 -5.447841 0.8884826,-3.660624 -4.167333 1.054059,-3.660624 -4.167333 1.054059,-3.801901 -2.739203 1.437301,-3.117791 -5.446536 0.9841811,-3.243649 -4.254753 1.162729,-3.328171 -3.531238 1.36752,-3.393862 -2.871003 1.537193,-2.752326 -5.686258 1.100085,-2.685951 -4.755113 1.304736,-2.662876 -4.151773 1.486011,-2.635446 -3.584947 1.614107,-9.216603 -8.306622 0.1003644,-8.467315 -8.040102 0.3951721,-7.804405 -7.294991 0.6837298,-7.325554 -6.632942 1.027501,-6.870794 -6.279644 1.4124,-8.278616 -5.046884 0.3212783,-8.053789 -3.763193 0.5401303,-7.932734 -2.981216 0.7774864,-7.838659 -2.301153 0.9432182,-8.706877 -4.794704 0.4707345,-8.544622 -3.240776 0.6231122,-8.425276 -2.248048 0.8915392,-8.336296 -1.41988 1.106262,-9.140114 -4.857976 0.6719481,-9.036742 -3.413535 0.8454686,-8.925357 -2.496891 1.076257,-8.81096 -1.728088 1.247367,-9.589795 -5.188722 0.916363,-9.681589 -4.043359 1.145402,-9.690091 -3.264097 1.329982,-9.657534 -2.556212 1.45082,3.010, 1 0
-2.788421 -8.445099 0.9638645,-3.367871 -8.095772 1.337933,-3.920073 -7.37655 1.522016,-4.298105 -6.638566 1.724607,-4.62294 -6.108819 1.969725,-3.739456 -5.713338 1.070882,-4.046639 -4.633386 1.240159,-4.181175 -3.955798 1.392233,-4.255975 -3.329386 1.556633,-3.434832 -5.456218 1.066287,-3.658842 -4.19256 1.20274,-3.658842 -4.19256 1.20274,-3.787494 -2.76102 1.567044,-3.115046 -5.454899 1.143881,-3.24435 -4.275288 1.295358,-3.330792 -3.556564 1.488142,-3.388067 -2.893095 1.643852,-2.754047 -5.693807 1.251741,-2.691223 -4.778809 1.435731,-2.670367 -4.184467 1.603349,-2.636781 -3.622625 1.72241,-9.210065 -8.319208 0.04796043,-8.468819 -8.064562 0.341815,-7.807957 -7.313151 0.6364867,-7.321855 -6.672736 0.9855378,-6.861868 -6.334396 1.380163,-8.279041 -5.07525 0.2680444,-8.048153 -3.792957 0.486846,-7.919164 -3.008222 0.7277189,-7.816469 -2.327433 0.8955652,-8.701241 -4.822679 0.421122,-8.533193 -3.258676 0.5763397,-8.408583 -2.259541 0.8450346,-8.312081 -1.429001 1.057556,-9.130362 -4.891805 0.6258231,-9.024543 -3.418303 0.8072486,-8.911361 -2.485948 1.048679,-8.793656 -1.703905 1.225512,-9.573202 -5.232765 0.8703007,-9.669911 -4.070867 1.101929,-9.683338 -3.28176 1.294179,-9.656172 -2.564414 1.420241,3.110, 1 0
-2.766413 -8.467712 1.018354,-3.352355 -8.092037 1.386421,-3.908226 -7.377317 1.569372,-4.292835 -6.636098 1.776936,-4.60965 -6.078104 2.033586,-3.728971 -5.71805 1.096441,-4.041157 -4.629886 1.264096,-4.176388 -3.94981 1.418158,-4.250431 -3.331284 1.579895,-3.425392 -5.464887 1.094356,-3.653058 -4.195426 1.214323,-3.653058 -4.195426 1.214323,-3.777261 -2.769844 1.564185,-3.106981 -5.465374 1.174157,-3.235197 -4.283806 1.311818,-3.31872 -3.567646 1.497823,-3.369839 -2.91469 1.647993,-2.746804 -5.707722 1.285309,-2.686144 -4.795333 1.455074,-2.666829 -4.19984 1.61151,-2.630775 -3.642213 1.719698,-9.227094 -8.353701 0.1498678,-8.482766 -8.094656 0.4951591,-7.816376 -7.35131 0.8195315,-7.324142 -6.709529 1.187931,-6.863176 -6.358404 1.598665,-8.282307 -5.098821 0.4486629,-8.046232 -3.846684 0.6792408,-7.915959 -3.072321 0.9208246,-7.814475 -2.394509 1.089366,-8.70148 -4.836824 0.5820127,-8.53426 -3.297701 0.7361113,-8.4192 -2.309509 1.002333,-8.329337 -1.472296 1.220899,-9.128887 -4.896596 0.7664328,-9.0179 -3.449815 0.9382604,-8.906864 -2.529306 1.172269,-8.793243 -1.75881 1.350517,-9.575165 -5.225301 0.9960496,-9.666965 -4.072219 1.224728,-9.674555 -3.287871 1.411799,-9.645025 -2.572937 1.540326,3.210, 1 0
-2.770985 -8.521917 1.154353,-3.366085 -8.11261 1.491532,-3.91381 -7.397842 1.656311,-4.291832 -6.649208 1.853323,-4.596135 -6.084779 2.101078,-3.718934 -5.720729 1.195884,-4.028454 -4.634525 1.34853,-4.164771 -3.969839 1.498354,-4.245214 -3.358192 1.656927,-3.416413 -5.47612 1.215884,-3.634503 -4.210775 1.339328,-3.634503 -4.210775 1.339328,-3.762188 -2.787443 1.694939,-3.10351 -5.479011 1.314595,-3.220577 -4.301221 1.443749,-3.298855 -3.586993 1.634939,-3.348057 -2.929229 1.785529,-2.752223 -5.723136 1.445183,-2.687399 -4.805098 1.604859,-2.667242 -4.207073 1.751508,-2.633647 -3.639224 1.8603,-9.206362 -8.37505 0.08802513,-8.460855 -8.117245 0.4049384,-7.794901 -7.351105 0.7047549,-7.30495 -6.69586 1.062099,-6.839825 -6.351561 1.463832,-8.257904 -5.128548 0.3321839,-8.02433 -3.861844 0.5552227,-7.897174 -3.082199 0.7987727,-7.799154 -2.396547 0.9701841,-8.679107 -4.87243 0.4867471,-8.511116 -3.321994 0.6416832,-8.391705 -2.31654 0.9157214,-8.299265 -1.47393 1.130946,-9.108402 -4.928752 0.6926203,-8.994279 -3.465158 0.8810126,-8.882 -2.528565 1.118301,-8.766851 -1.74601 1.291367,-9.555787 -5.251221 0.9432239,-9.642067 -4.079323 1.185709,-9.652386 -3.281041 1.373471,-9.624462 -2.558962 1.496238,3.310, 1 0
-2.748873 -8.531744 1.155494,-3.336325 -8.158241 1.563054,-3.894388 -7.438106 1.758307,-4.27833 -6.687658 1.971307,-4.593407 -6.118225 2.233421,-3.720089 -5.748925 1.254015,-4.029327 -4.655091 1.419486,-4.162374 -3.979297 1.5747,-4.238358 -3.364868 1.737681,-3.416785 -5.490964 1.239417,-3.638443 -4.213527 1.362948,-3.638443 -4.213527 1.362948,-3.76714 -2.790401 1.724873,-3.100971 -5.488071 1.309382,-3.221554 -4.30179 1.447829,-3.301798 -3.589376 1.648627,-3.351439 -2.931287 1.810698,-2.746516 -5.729414 1.415183,-2.685573 -4.815979 1.591256,-2.665734 -4.221089 1.755726,-2.63127 -3.654787 1.874867,-9.202636 -8.36725 0.1156211,-8.454685 -8.123989 0.4304276,-7.786527 -7.356427 0.7307435,-7.300445 -6.696002 1.087999,-6.84074 -6.342069 1.48433,-8.252054 -5.113128 0.3431666,-8.016176 -3.833614 0.5637487,-7.891104 -3.046142 0.8057554,-7.795387 -2.360107 0.9721503,-8.671678 -4.855113 0.4958662,-8.497274 -3.305889 0.6470324,-8.379025 -2.306087 0.9109497,-8.288363 -1.466578 1.118282,-9.100238 -4.912343 0.7029418,-8.983819 -3.450412 0.8861434,-8.870213 -2.52041 1.12246,-8.75456 -1.740253 1.30013,-9.547746 -5.239748 0.9548065,-9.6354 -4.077449 1.188023,-9.647223 -3.285705 1.37703,-9.621484 -2.567695 1.504294,3.410, 1 0
-2.768122 -8.552843 1.247024,-3.349751 -8.146687 1.652341,-3.897214 -7.425514 1.848127,-4.278725 -6.664752 2.063099,-4.594831 -6.096487 2.331432,-3.715794 -5.731031 1.338817,-4.022821 -4.643281 1.48918,-4.155169 -3.970904 1.644979,-4.230692 -3.360261 1.81061,-3.414092 -5.480201 1.314756,-3.633297 -4.213199 1.433236,-3.633297 -4.213199 1.433236,-3.749356 -2.788356 1.797934,-3.103548 -5.479104 1.372983,-3.221462 -4.301761 1.498197,-3.299207 -3.598339 1.694687,-3.346109 -2.943805 1.847477,-2.755167 -5.726216 1.46739,-2.685042 -4.824388 1.624753,-2.658204 -4.234837 1.769701,-2.61475 -3.673986 1.877774,-9.184852 -8.369066 0.06116744,-8.446635 -8.133371 0.376397,-7.779007 -7.36334 0.6672726,-7.298803 -6.691234 1.015967,-6.829765 -6.33876 1.405929,-8.236084 -5.135028 0.2844387,-8.001627 -3.863266 0.4917625,-7.871501 -3.073835 0.7243833,-7.775777 -2.387707 0.8879522,-8.65607 -4.87178 0.4353267,-8.484999 -3.309843 0.5700942,-8.364032 -2.307091 0.8346642,-8.274285 -1.47212 1.04319,-9.082381 -4.917512 0.6387444,-8.966175 -3.45389 0.806151,-8.854132 -2.524687 1.038112,-8.740872 -1.750923 1.21593,-9.527025 -5.226387 0.8867885,-9.620358 -4.056787 1.115626,-9.632668 -3.271833 1.29812,-9.607281 -2.567791 1.421273,3.510, 1 0
-2.759539 -8.58675 1.314475,-3.347649 -8.179062 1.739226,-3.897424 -7.455322 1.937908,-4.278566 -6.684906 2.151237,-4.607006 -6.11359 2.414898,-3.721438 -5.751989 1.4278,-4.035748 -4.652706 1.571115,-4.172157 -3.981931 1.715107,-4.251174 -3.37829 1.870337,-3.418017 -5.497169 1.386984,-3.646057 -4.22225 1.495869,-3.646057 -4.22225 1.495869,-3.773551 -2.802332 1.829928,-3.1081 -5.494067 1.429373,-3.230501 -4.302452 1.547322,-3.312134 -3.601667 1.73994,-3.360346 -2.946884 1.887473,-2.763754 -5.743343 1.510278,-2.702042 -4.836323 1.664237,-2.681855 -4.252976 1.809682,-2.643258 -3.6977 1.916791,-9.206938 -8.365412 0.0500858,-8.450144 -8.145302 0.3646438,-7.764049 -7.377162 0.6505961,-7.279472 -6.679451 0.9955115,-6.816115 -6.331848 1.37619,-8.199183 -5.165926 0.2779531,-7.969983 -3.888715 0.4776652,-7.836524 -3.110453 0.7003697,-7.730764 -2.433591 0.8572059,-8.615017 -4.881889 0.4280846,-8.427553 -3.344565 0.5713639,-8.286897 -2.361659 0.8235071,-8.175227 -1.540081 1.018756,-9.041281 -4.897088 0.6331644,-8.896751 -3.433436 0.8052075,-8.756715 -2.521974 1.028486,-8.616086 -1.759205 1.199258,-9.497396 -5.169005 0.8820121,-9.563847 -3.996283 1.11122,-9.556016 -3.223533 1.286419,-9.511386 -2.521877 1.41223,3.610, 1 0
-2.740324 -8.590195 1.272957,-3.333094 -8.198032 1.694024,-3.889248 -7.465669 1.88494,-4.277054 -6.688236 2.084235,-4.600763 -6.111818 2.332988,-3.726374 -5.777689 1.397054,-4.036067 -4.663272 1.545814,-4.164705 -3.979877 1.684172,-4.237749 -3.363496 1.832718,-3.423014 -5.518458 1.362246,-3.650002 -4.221397 1.471477,-3.650002 -4.221397 1.471477,-3.778074 -2.806777 1.801425,-3.11125 -5.509544 1.409264,-3.234571 -4.291894 1.537989,-3.314826 -3.583907 1.730083,-3.364265 -2.928644 1.877104,-2.765073 -5.753799 1.495945,-2.705207 -4.826606 1.660737,-2.684822 -4.228729 1.815941,-2.647959 -3.659844 1.926738,-9.187692 -8.372612 0.02481226,-8.42955 -8.142988 0.2741535,-7.759056 -7.366676 0.5338413,-7.280736 -6.670078 0.866397,-6.806449 -6.310277 1.24027,-8.193707 -5.157667 0.1482858,-7.972574 -3.868796 0.3420923,-7.836052 -3.103813 0.5737987,-7.717848 -2.417787 0.7357497,-8.603255 -4.88812 0.3313262,-8.41503 -3.364041 0.4727801,-8.256116 -2.40809 0.739018,-8.120961 -1.630288 0.9258599,-9.02709 -4.911937 0.5708437,-8.892469 -3.431063 0.7498959,-8.744428 -2.525481 0.9912552,-8.588362 -1.771783 1.16848,-9.482683 -5.188365 0.8494757,-9.522737 -3.964935 1.093802,-9.47121 -3.172582 1.290015,-9.379913 -2.460135 1.4151,3.710, 1 0
-2.727594 -8.607494 1.272194,-3.32355 -8.223871 1.709247,-3.886354 -7.487369 1.899102,-4.280943 -6.702539 2.089846,-4.6026 -6.122461 2.32808,-3.711828 -5.795278 1.407647,-4.029238 -4.66716 1.5387,-4.165987 -3.979291 1.668528,-4.244984 -3.368366 1.807736,-3.41014 -5.535518 1.34497,-3.64159 -4.233591 1.43617,-3.64159 -4.233591 1.43617,-3.778919 -2.814116 1.747319,-3.100736 -5.518337 1.362474,-3.227156 -4.306266 1.473214,-3.306007 -3.596297 1.656036,-3.353001 -2.941621 1.797511,-2.759455 -5.751064 1.420689,-2.704235 -4.823507 1.566573,-2.683702 -4.23513 1.708443,-2.644961 -3.677824 1.809775,-9.188967 -8.388342 0.008840381,-8.432483 -8.146053 0.2319047,-7.764688 -7.355175 0.4737932,-7.293917 -6.65411 0.7877734,-6.822787 -6.317437 1.151914,-8.188769 -5.176282 0.1100189,-7.945122 -3.91236 0.2922039,-7.794837 -3.15452 0.5265113,-7.667342 -2.472244 0.6958492,-8.60228 -4.907147 0.2948381,-8.401766 -3.414358 0.4235538,-8.233133 -2.481084 0.693124,-8.086505 -1.712698 0.8799295,-9.030828 -4.927474 0.5338078,-8.893806 -3.474763 0.7034339,-8.739414 -2.587743 0.9480387,-8.570508 -1.840348 1.12143,-9.488516 -5.200649 0.8080667,-9.515691 -4.003277 1.050023,-9.455287 -3.21412 1.249139,-9.351841 -2.489713 1.37279,3.810, 1 0
-2.742755 -8.641384 1.396083,-3.324196 -8.22558 1.816767,-3.880574 -7.499927 2.017238,-4.265966 -6.730995 2.233986,-4.59246 -6.159302 2.504344,-3.710152 -5.7843 1.513963,-4.032009 -4.690025 1.676729,-4.170671 -4.014569 1.83924,-4.249812 -3.402314 2.007407,-3.410172 -5.530481 1.490991,-3.638769 -4.248721 1.618869,-3.638769 -4.248721 1.618869,-3.761694 -2.807761 1.985986,-3.099841 -5.529476 1.551319,-3.221386 -4.331899 1.687384,-3.301346 -3.621125 1.889284,-3.345411 -2.963474 2.046249,-2.751225 -5.783657 1.651506,-2.691608 -4.876531 1.824481,-2.675005 -4.282661 1.97592,-2.639202 -3.718424 2.090168,-9.190458 -8.374115 -0.03603136,-8.431236 -8.130981 0.2091326,-7.764837 -7.348159 0.4638586,-7.28711 -6.651113 0.7829739,-6.813088 -6.322554 1.146347,-8.191724 -5.174724 0.09970747,-7.94834 -3.901096 0.2978826,-7.797391 -3.144392 0.5395381,-7.669658 -2.464883 0.7136987,-8.606698 -4.907793 0.2770548,-8.406853 -3.41556 0.4235945,-8.240124 -2.48089 0.7015843,-8.098258 -1.717402 0.8992873,-9.036384 -4.93366 0.5082505,-8.899017 -3.481572 0.6878448,-8.742979 -2.602032 0.9285304,-8.57742 -1.868214 1.103267,-9.495379 -5.209732 0.7774683,-9.519567 -4.026498 1.022624,-9.460813 -3.24498 1.219175,-9.363332 -2.52365 1.343587,3.910, 1 0
-2.726996 -8.659184 1.42521,-3.315359 -8.253813 1.886766,-3.869717 -7.527586 2.095508,-4.256207 -6.748685 2.310995,-4.589205 -6.162315 2.576292,-3.703739 -5.798795 1.557897,-4.022228 -4.684205 1.696239,-4.157799 -3.99808 1.834226,-4.234792 -3.384352 1.985245,-3.396419 -5.539503 1.494764,-3.630819 -4.24842 1.590324,-3.630819 -4.24842 1.590324,-3.756559 -2.812346 1.910932,-3.082009 -5.532833 1.51793,-3.210404 -4.327665 1.628255,-3.292961 -3.618378 1.819485,-3.342073 -2.957477 1.966504,-2.734088 -5.78264 1.584425,-2.676665 -4.871854 1.732833,-2.658988 -4.284385 1.878878,-2.621766 -3.729111 1.986067,-9.216608 -8.41412 -0.04991304,-8.4581 -8.168238 0.2090265,-7.79034 -7.378427 0.4708431,-7.312707 -6.671974 0.8040683,-6.830604 -6.316841 1.183511,-8.211654 -5.215345 0.07082091,-7.967081 -3.947952 0.2715303,-7.809697 -3.185224 0.5181649,-7.672657 -2.500141 0.694995,-8.629902 -4.95092 0.2468064,-8.433095 -3.462418 0.3985098,-8.262276 -2.531489 0.6784126,-8.11202 -1.780421 0.8772891,-9.058018 -4.975258 0.4849114,-8.92405 -3.526918 0.6702111,-8.763528 -2.646718 0.9133713,-8.586934 -1.915039 1.088461,-9.513786 -5.2486 0.7623112,-9.533331 -4.051132 1.015305,-9.463721 -3.267651 1.215105,-9.349509 -2.548533 1.340949,4.010, 1 0
-2.716458 -8.673687 1.454017,-3.304247 -8.268814 1.901466,-3.863718 -7.52503 2.096221,-4.255729 -6.734508 2.293234,-4.585083 -6.150122 2.53953,-3.6936 -5.809321 1.571371,-4.01144 -4.686485 1.698397,-4.145967 -4.007215 1.826449,-4.22422 -3.398899 1.970402,-3.387749 -5.545679 1.507239,-3.620335 -4.252449 1.589519,-3.620335 -4.252449 1.589519,-3.754423 -2.829064 1.891516,-3.073634 -5.535829 1.525014,-3.203119 -4.334278 1.624226,-3.284305 -3.630651 1.805533,-3.33646 -2.979507 1.941406,-2.728469 -5.779464 1.588015,-2.6735 -4.863554 1.72761,-2.656171 -4.279184 1.867555,-2.623663 -3.726211 1.966143,-9.204768 -8.424074 -0.07542852,-8.445273 -8.17329 0.1898136,-7.778506 -7.386244 0.4553765,-7.311036 -6.681058 0.7845993,-6.838655 -6.331773 1.158219,-8.207753 -5.234306 0.07511494,-7.95985 -3.981649 0.2883513,-7.797261 -3.235673 0.5430694,-7.653995 -2.564543 0.7229487,-8.625197 -4.96899 0.2426592,-8.437241 -3.491914 0.4069161,-8.267089 -2.579998 0.6932332,-8.111233 -1.837313 0.8969299,-9.050819 -4.985528 0.4682288,-8.923109 -3.546734 0.651399,-8.7657 -2.683843 0.8938916,-8.58789 -1.964295 1.070265,-9.501608 -5.246538 0.7332131,-9.523911 -4.064825 0.9724309,-9.457553 -3.290929 1.160902,-9.345938 -2.583009 1.280381,4.110, 1 0
-2.727497 -8.679438 1.462202,-3.321299 -8.254284 1.873621,-3.880453 -7.518287 2.055951,-4.269241 -6.735699 2.25541,-4.587496 -6.157176 2.506182,-3.706921 -5.805506 1.51259,-4.013962 -4.695915 1.641008,-4.147574 -4.02437 1.774793,-4.230846 -3.419448 1.921549,-3.403004 -5.54953 1.475517,-3.622852 -4.260953 1.55377,-3.622852 -4.260953 1.55377,-3.757061 -2.846725 1.864502,-3.089566 -5.539909 1.522569,-3.210369 -4.34216 1.617374,-3.287201 -3.644665 1.792531,-3.337317 -2.999225 1.930225,-2.741616 -5.781368 1.614477,-2.678379 -4.870538 1.749664,-2.654052 -4.29009 1.884521,-2.615552 -3.739772 1.980189,-9.19105 -8.420717 -0.09123369,-8.428897 -8.187483 0.1293076,-7.758013 -7.401472 0.3617243,-7.288177 -6.699222 0.668728,-6.811984 -6.354547 1.026412,-8.182926 -5.241699 -0.06140685,-7.926378 -4.028947 0.1197822,-7.763043 -3.296559 0.3613216,-7.616357 -2.63642 0.5329059,-8.602626 -4.963245 0.1150633,-8.411063 -3.566123 0.2253955,-8.240378 -2.709456 0.4913574,-8.079832 -2.020131 0.6809832,-9.029926 -4.969507 0.3560485,-8.898947 -3.595518 0.4953645,-8.744808 -2.768059 0.7286353,-8.564982 -2.077569 0.8954689,-9.485894 -5.217851 0.6348319,-9.496659 -4.060493 0.848748,-9.422915 -3.30273 1.029156,-9.299723 -2.600974 1.141699,4.210, 1 0
-2.729648 -8.673611 1.397053,-3.326062 -8.255589 1.811531,-3.879177 -7.520122 1.997868,-4.26663 -6.734413 2.196074,-4.594597 -6.160326 2.443832,-3.70527 -5.81618 1.49985,-4.017323 -4.693574 1.639413,-4.149438 -4.012569 1.773813,-4.225771 -3.400814 1.918687,-3.399203 -5.562053 1.459643,-3.628317 -4.260496 1.563404,-3.628317 -4.260496 1.563404,-3.752631 -2.838019 1.876238,-3.085207 -5.554321 1.501816,-3.210651 -4.343278 1.620184,-3.287228 -3.638286 1.805057,-3.334047 -2.984453 1.943482,-2.737988 -5.796001 1.58395,-2.676712 -4.873668 1.731911,-2.656372 -4.286838 1.870343,-2.619995 -3.731581 1.966647,-9.176375 -8.416542 -0.1721701,-8.409624 -8.195786 0.05160657,-7.74459 -7.406003 0.2930559,-7.272917 -6.723354 0.6138502,-6.79043 -6.365151 0.9899712,-8.163562 -5.252627 -0.1412005,-7.902357 -4.045409 0.04694933,-7.731819 -3.312627 0.2939074,-7.577441 -2.646239 0.4671544,-8.584111 -4.983795 0.04390374,-8.391881 -3.605184 0.1718709,-8.210283 -2.769671 0.4521511,-8.036027 -2.097957 0.6491799,-9.010033 -4.98653 0.2969324,-8.881927 -3.619174 0.4512627,-8.721479 -2.797798 0.7005397,-8.531981 -2.110446 0.8768697,-9.461794 -5.229255 0.5873393,-9.473811 -4.066555 0.8082366,-9.394533 -3.304231 0.9928864,-9.26069 -2.587423 1.114549,4.310, 1 0
-2.731911 -8.689028 1.426355,-3.32268 -8.269773 1.836383,-3.876016 -7.538881 2.02744,-4.260319 -6.760049 2.232562,-4.586978 -6.197427 2.489843,-3.697449 -5.824741 1.532334,-4.012213 -4.720619 1.684703,-4.148949 -4.047491 1.83552,-4.230242 -3.43841 1.996487,-3.394463 -5.567785 1.505068,-3.621281 -4.279242 1.625014,-3.621281 -4.279242 1.625014,-3.747398 -2.851776 1.96626,-3.081957 -5.560154 1.560186,-3.203843 -4.361272 1.687847,-3.280297 -3.657937 1.879486,-3.327272 -3.00712 2.026621,-2.733684 -5.804729 1.655832,-2.670314 -4.894406 1.812488,-2.648117 -4.310475 1.954326,-2.611135 -3.758678 2.05458,-9.163351 -8.448591 -0.1023142,-8.385397 -8.24832 0.1083482,-7.71916 -7.44227 0.3256503,-7.242674 -6.747802 0.6254395,-6.773731 -6.369889 0.9845378,-8.13433 -5.256668 -0.1555057,-7.865134 -4.074267 -0.008940585,-7.690956 -3.361969 0.2432935,-7.518662 -2.721231 0.435408,-8.566293 -4.991661 0.0160803,-8.384933 -3.715688 0.1200811,-8.207302 -2.981985 0.4233854,-8.024791 -2.437276 0.6389375,-8.99572 -4.989078 0.2607028,-8.882478 -3.684151 0.377904,-8.722455 -2.938272 0.6360082,-8.527021 -2.346492 0.8166776,-9.441099 -5.219759 0.5427198,-9.444647 -4.097858 0.7067101,-9.365291 -3.360832 0.8706868,-9.225402 -2.662923 0.9814337,4.410, 1 0
-2.722134 -8.66894 1.367403,-3.319352 -8.274906 1.788328,-3.879553 -7.543038 1.982216,-4.265412 -6.767998 2.187088,-4.583487 -6.184576 2.443416,-3.713099 -5.826869 1.456991,-4.019407 -4.715206 1.607156,-4.145038 -4.038812 1.748511,-4.217593 -3.429785 1.899756,-3.404835 -5.568822 1.425497,-3.627157 -4.271927 1.530271,-3.627157 -4.271927 1.530271,-3.750657 -2.844652 1.860785,-3.085507 -5.562244 1.478638,-3.205538 -4.356258 1.598158,-3.280643 -3.648896 1.782568,-3.327397 -2.995733 1.924614,-2.732208 -5.803198 1.5745,-2.669966 -4.874961 1.727758,-2.648078 -4.278751 1.871933,-2.610512 -3.711965 1.97283,-9.177069 -8.386837 -0.2902873,-8.40563 -8.235891 -0.01058298,-7.730249 -7.442313 0.2351506,-7.239363 -6.765174 0.5417544,-6.77034 -6.389511 0.9057924,-8.120048 -5.250129 -0.2538191,-7.839238 -4.05331 -0.0787355,-7.669941 -3.337627 0.1990937,-7.49778 -2.701374 0.4129604,-8.564266 -4.990105 -0.1076377,-8.375943 -3.729808 0.08120385,-8.191109 -3.041953 0.4561811,-7.999976 -2.571611 0.7162805,-9.001258 -4.979728 0.1118929,-8.884154 -3.686635 0.2881484,-8.722205 -2.977441 0.6032106,-8.519385 -2.432473 0.8113596,-9.450524 -5.1896 0.3717607,-9.451824 -4.076498 0.5548134,-9.379066 -3.35703 0.7393457,-9.232786 -2.664967 0.860544,4.510, 1 0
-2.736027 -8.705969 1.438122,-3.32296 -8.289438 1.83015,-3.877165 -7.540571 2.007415,-4.262413 -6.754779 2.206053,-4.584887 -6.180075 2.45883,-3.698996 -5.833002 1.501983,-4.015738 -4.725399 1.648841,-4.151794 -4.045726 1.794484,-4.23065 -3.428236 1.949162,-3.396601 -5.580245 1.486533,-3.624654 -4.292192 1.59445,-3.624654 -4.292192 1.59445,-3.748767 -2.863728 1.935872,-3.083791 -5.57826 1.553825,-3.208737 -4.376699 1.674797,-3.28487 -3.669277 1.866166,-3.329933 -3.012993 2.013254,-2.733917 -5.828014 1.65977,-2.670993 -4.908601 1.810948,-2.649323 -4.319683 1.950146,-2.610045 -3.758486 2.05394,-9.148759 -8.386698 -0.3267586,-8.382332 -8.23016 -0.07555211,-7.718988 -7.439841 0.1584171,-7.229874 -6.77474 0.4633336,-6.758959 -6.388397 0.8318433,-8.118394 -5.248346 -0.3873571,-7.83516 -4.077254 -0.2376956,-7.661499 -3.359719 0.03402844,-7.488132 -2.721451 0.2438695,-8.562666 -4.992253 -0.2321093,-8.376333 -3.759571 -0.0897451,-8.189694 -3.074148 0.2667297,-7.996407 -2.618273 0.5169008,-9.006207 -4.99377 -0.002833933,-8.886415 -3.718809 0.1379827,-8.719397 -3.028697 0.4421507,-8.509697 -2.511318 0.643877,-9.463825 -5.216495 0.2692959,-9.465534 -4.118986 0.4272715,-9.391329 -3.405147 0.6013397,-9.239471 -2.727419 0.7223964,4.610, 1 0
-2.717303 -8.729414 1.461508,-3.297797 -8.305933 1.894831,-3.850559 -7.552703 2.088268,-4.231813 -6.761295 2.291968,-4.574968 -6.193881 2.550441,-3.680166 -5.849208 1.561725,-3.989548 -4.741261 1.718607,-4.116575 -4.056964 1.883059,-4.187756 -3.430343 2.054741,-3.375055 -5.596586 1.526735,-3.596909 -4.30884 1.653715,-3.596909 -4.30884 1.653715,-3.704905 -2.849512 2.032218,-3.061818 -5.593324 1.576901,-3.181096 -4.399336 1.708781,-3.256133 -3.694988 1.916483,-3.301435 -3.032552 2.079237,-2.71105 -5.838197 1.668748,-2.65566 -4.939205 1.832189,-2.638779 -4.349489 1.980084,-2.604892 -3.778336 2.085889,-9.150268 -8.293009 -0.5865847,-8.389556 -8.182289 -0.3228778,-7.727316 -7.41938 -0.08881593,-7.237939 -6.759927 0.2099316,-6.769109 -6.371316 0.56534,-8.123915 -5.233974 -0.6238489,-7.837667 -4.053535 -0.4572037,-7.663216 -3.33683 -0.1883532,-7.489753 -2.698767 0.004710078,-8.562191 -4.975095 -0.4667699,-8.364457 -3.729537 -0.3023183,-8.177958 -3.03688 0.05095714,-7.990112 -2.574504 0.2889988,-9.002546 -4.967071 -0.2335497,-8.865694 -3.680149 -0.08323669,-8.703071 -2.977426 0.2079799,-8.504231 -2.454704 0.3994391,-9.461299 -5.181147 0.04263067,-9.454206 -4.059831 0.2050043,-9.38034 -3.338411 0.3764445,-9.235179 -2.659523 0.4963692,4.710, 1 0
-2.71454 -8.706175 1.511706,-3.292255 -8.273256 2.004018,-3.856352 -7.482442 2.176975,-4.221533 -6.689485 2.364435,-4.562805 -6.100157 2.605481,-3.703115 -5.778566 1.490254,-3.997581 -4.679948 1.586011,-4.124256 -4.013427 1.739339,-4.201052 -3.404304 1.90076,-3.364633 -5.55911 1.381446,-3.549173 -4.302288 1.411495,-3.549173 -4.302288 1.411495,-3.605391 -2.921859 1.731876,-3.044341 -5.572711 1.3657,-3.135891 -4.458677 1.407494,-3.186533 -3.811098 1.605014,-3.204372 -3.230382 1.753866,-2.714717 -5.802032 1.415789,-2.670602 -4.993488 1.50577,-2.656215 -4.479164 1.642833,-2.615133 -3.996822 1.736797,-9.157951 -8.282799 -0.7338166,-8.407388 -8.17127 -0.4754764,-7.748877 -7.45293 -0.2296556,-7.272231 -6.797431 0.0887295,-6.79839 -6.411335 0.4693186,-8.156353 -5.279294 -0.7071773,-7.867662 -4.07945 -0.5006047,-7.696278 -3.349652 -0.2470269,-7.544195 -2.695266 -0.0755688,-8.575677 -5.009943 -0.5432664,-8.352518 -3.657918 -0.3980628,-8.18212 -2.819376 -0.1329122,-8.026027 -2.149632 0.04739821,-9.008924 -5.018194 -0.3046013,-8.845894 -3.656888 -0.146926,-8.686439 -2.841903 0.09985191,-8.507959 -2.17583 0.2702731,-9.47027 -5.254354 -0.02837771,-9.445931 -4.098367 0.1787946,-9.363482 -3.341642 0.3618193,-9.224245 -2.645394 0.4883794,4.810, 1 0
-2.747122 -8.843729 1.102106,-3.293156 -8.172922 1.693273,-3.70144 -7.25613 1.965999,-3.894529 -6.347605 2.234573,-3.943827 -5.48454 2.514909,-3.628941 -5.863295 1.304273,-3.785767 -4.618701 1.487715,-3.815722 -3.928886 1.689732,-3.801728 -3.29496 1.894988,-3.231723 -5.784612 1.206759,-3.228147 -4.737762 1.736667,-3.228147 -4.737762 1.736667,-3.164732 -6.235288 2.260355,-2.888917 -5.90339 1.174965,-2.836599 -4.953491 1.656056,-2.82513 -5.73173 1.930138,-2.880243 -6.393461 1.976397,-2.571506 -6.178437 1.190443,-2.478999 -5.425504 1.55498,-2.491832 -5.750652 1.751198,-2.544291 -6.162759 1.802459,-9.192121 -8.305595 -0.4874851,-8.459035 -8.193319 -0.1482051,-7.787729 -7.464263 0.1358445,-7.298056 -6.779869 0.4823757,-6.836333 -6.39631 0.8626201,-8.171897 -5.275793 -0.3001203,-7.907489 -3.989607 -0.07816914,-7.776937 -3.222674 0.1490554,-7.670221 -2.534024 0.2946911,-8.579062 -4.976248 -0.1715173,-8.359612 -3.445554 0.002368063,-8.215601 -2.484236 0.2551166,-8.092896 -1.673275 0.4369323,-9.011659 -4.985686 0.0162431,-8.82046 -3.497246 0.2208111,-8.671835 -2.580709 0.4772832,-8.519359 -1.804163 0.6614968,-9.480635 -5.259358 0.246017,-9.437071 -4.061725 0.4865376,-9.371065 -3.296791 0.6949701,-9.273785 -2.596986 0.8458699,4.910, 1 0
-2.709249 -8.880581 0.6829595,-3.232973 -8.162134 1.163898,-3.581241 -7.166154 1.37785,-3.765356 -6.220191 1.602135,-3.94626 -5.363382 1.821448,-3.584854 -5.955042 0.7785252,-3.752487 -4.675254 1.073788,-3.737289 -3.964823 1.257943,-3.666166 -3.319193 1.393777,-3.207241 -5.94342 0.7202352,-3.125118 -4.955066 1.369286,-3.125118 -4.955066 1.369286,-3.108891 -6.520055 1.645119,-2.860487 -6.090909 0.7298251,-2.722162 -5.21353 1.270987,-2.742353 -6.137002 1.380441,-2.820041 -6.686843 1.266965,-2.539191 -6.377418 0.7749719,-2.408814 -5.641025 1.140831,-2.456875 -6.133729 1.2342,-2.535398 -6.540253 1.158324,-9.220818 -8.381104 -0.1256541,-8.477087 -8.219091 0.2332671,-7.78912 -7.463172 0.5347481,-7.305071 -6.751384 0.8912712,-6.845985 -6.382717 1.283144,-8.163785 -5.255954 0.1494803,-7.909422 -3.976031 0.3773956,-7.788844 -3.201932 0.614974,-7.696637 -2.504259 0.7790527,-8.58351 -4.958457 0.265616,-8.363162 -3.421159 0.4482715,-8.227292 -2.438251 0.7051826,-8.124378 -1.602696 0.8923105,-9.020037 -4.97192 0.4385566,-8.833477 -3.489105 0.6375123,-8.686734 -2.570801 0.8660203,-8.546525 -1.796507 1.038512,-9.489181 -5.248138 0.6532659,-9.443596 -4.043831 0.8969934,-9.374835 -3.266755 1.092831,-9.28585 -2.557011 1.232023,5.010, 1 0
-2.613024 -8.867502 0.2682569,-3.146075 -8.08551 0.5990342,-3.470091 -7.061126 0.6933623,-3.65377 -6.058692 0.8196079,-3.896059 -5.216868 0.9273326,-3.470303 -6.067337 0.1973191,-3.611439 -4.786214 0.4909395,-3.591942 -4.075 0.6358019,-3.523867 -3.431389 0.756391,-3.116397 -6.052722 0.1772363,-3.013712 -5.110491 0.7457896,-3.013712 -5.110491 0.7457896,-2.990744 -6.786822 0.8484808,-2.772641 -6.169127 0.226187,-2.640606 -5.428709 0.7926851,-2.648751 -6.426679 0.8522319,-2.732361 -7.018438 0.7196609,-2.456316 -6.41226 0.2917973,-2.333621 -5.714409 0.671333,-2.375614 -6.315952 0.7318827,-2.457727 -6.776372 0.6272018,-9.216889 -8.508968 0.2352469,-8.465599 -8.275295 0.553882,-7.774996 -7.477926 0.8359002,-7.304542 -6.730579 1.182142,-6.843189 -6.357666 1.569779,-8.175415 -5.277145 0.4949661,-7.932258 -3.999883 0.7129709,-7.810247 -3.2234 0.9466397,-7.713672 -2.526101 1.118912,-8.59519 -4.979672 0.640436,-8.382888 -3.414398 0.8037431,-8.23734 -2.414857 1.068472,-8.131196 -1.575187 1.269965,-9.026627 -4.992761 0.8374029,-8.855121 -3.510435 1.022868,-8.709895 -2.589627 1.249056,-8.572237 -1.809672 1.439433,-9.490167 -5.273612 1.075595,-9.481011 -4.071762 1.312133,-9.427223 -3.299969 1.508151,-9.352901 -2.593584 1.654691,5.110, 1 0
-2.584695 -8.875744 0.1878795,-3.093357 -8.124611 0.5852103,-3.410835 -7.09959 0.6822194,-3.585039 -6.099351 0.7945967,-3.815315 -5.236703 0.888988,-3.395985 -6.08917 0.1455702,-3.530278 -4.797073 0.4418961,-3.505795 -4.078381 0.5945169,-3.429753 -3.419754 0.7234004,-3.054317 -6.079265 0.07397869,-2.947929 -5.170948 0.6424102,-2.947929 -5.170948 0.6424102,-2.931686 -6.857917 0.7538546,-2.723492 -6.190359 0.08286195,-2.59241 -5.475886 0.6559162,-2.605851 -6.459173 0.7395283,-2.689419 -7.048742 0.6208706,-2.424739 -6.418818 0.1144118,-2.305209 -5.744529 0.4884668,-2.345941 -6.323593 0.5663317,-2.424295 -6.761991 0.4804008,-9.220162 -8.557499 0.2662168,-8.470576 -8.304909 0.5488681,-7.786709 -7.499122 0.8105907,-7.319011 -6.755346 1.138556,-6.859803 -6.397012 1.49758,-8.200051 -5.296196 0.4903359,-7.967443 -3.995555 0.6832837,-7.843702 -3.213349 0.9064381,-7.744106 -2.510649 1.076287,-8.614699 -5.013996 0.6503916,-8.40888 -3.431738 0.8084906,-8.258614 -2.424693 1.073306,-8.146495 -1.579066 1.272703,-9.039154 -5.037231 0.8572432,-8.870365 -3.52548 1.037619,-8.721457 -2.599288 1.264327,-8.581315 -1.818338 1.449319,-9.496688 -5.322299 1.102528,-9.494617 -4.101797 1.333543,-9.437819 -3.322397 1.529014,-9.36214 -2.607076 1.67058,5.210, 1 0
-2.539995 -8.794271 -0.03109511,-3.024095 -8.090845 0.3518323,-3.310688 -7.070127 0.4486566,-3.435013 -6.086709 0.5826124,-3.613707 -5.195678 0.7104711,-3.271444 -6.032157 -0.01719842,-3.392757 -4.745039 0.3169101,-3.349876 -4.05405 0.4980075,-3.238495 -3.456336 0.6544631,-2.93087 -6.046661 -0.0586744,-2.816113 -5.206598 0.5368998,-2.816113 -5.206598 0.5368998,-2.835428 -6.887872 0.7129207,-2.597222 -6.16793 -0.02686559,-2.464658 -5.546705 0.5716761,-2.505574 -6.503767 0.6619626,-2.603561 -7.104409 0.55572,-2.294363 -6.397777 0.03071045,-2.155199 -5.75921 0.4571524,-2.209572 -6.347816 0.5558349,-2.304317 -6.816801 0.4858429,-9.274291 -8.587273 0.2969991,-8.514696 -8.314859 0.5912355,-7.829415 -7.518734 0.8623966,-7.357974 -6.771921 1.198468,-6.88955 -6.407941 1.55868,-8.238832 -5.323931 0.5512677,-8.000198 -4.013325 0.767444,-7.873092 -3.22465 0.9985337,-7.770282 -2.514669 1.168771,-8.657991 -5.039083 0.702759,-8.448071 -3.451695 0.8852648,-8.298559 -2.443195 1.154422,-8.189126 -1.598302 1.35618,-9.082353 -5.060935 0.9034373,-8.91106 -3.550624 1.100695,-8.761412 -2.626184 1.328846,-8.621072 -1.853931 1.509615,-9.536298 -5.34593 1.141175,-9.526273 -4.131864 1.382438,-9.464513 -3.35649 1.585474,-9.384626 -2.656023 1.728837,5.310, 1 0
-2.536053 -8.772444 -0.1116638,-3.003836 -8.078957 0.2544608,-3.266964 -7.049133 0.3625762,-3.381948 -6.085441 0.5047851,-3.577574 -5.229242 0.6482489,-3.219096 -6.011247 -0.06535151,-3.313776 -4.733123 0.2654395,-3.252322 -4.046269 0.4419404,-3.133341 -3.455053 0.5949456,-2.884422 -6.042314 -0.08550697,-2.754372 -5.198915 0.5131506,-2.754372 -5.198915 0.5131506,-2.803489 -6.872219 0.6544202,-2.553014 -6.182042 -0.03455985,-2.405163 -5.546234 0.569149,-2.458193 -6.506812 0.6436239,-2.564115 -7.109063 0.5350462,-2.249564 -6.435468 0.03618409,-2.096344 -5.773491 0.475371,-2.160172 -6.37735 0.5633615,-2.262061 -6.857328 0.4890417,-9.291114 -8.612089 0.3167305,-8.540735 -8.328074 0.617594,-7.858191 -7.534658 0.911906,-7.387938 -6.783142 1.270043,-6.922207 -6.40795 1.658008,-8.259889 -5.357717 0.6167709,-8.016812 -4.048255 0.847631,-7.891693 -3.248218 1.091089,-7.793596 -2.530645 1.272149,-8.67983 -5.062811 0.7681603,-8.469808 -3.462265 0.9723027,-8.319814 -2.441062 1.254505,-8.207972 -1.590044 1.472373,-9.107984 -5.072595 0.965003,-8.942884 -3.55263 1.17628,-8.80053 -2.609885 1.411951,-8.662645 -1.820061 1.601503,-9.566381 -5.344978 1.199216,-9.56094 -4.112657 1.452828,-9.499454 -3.325151 1.660157,-9.417445 -2.616225 1.808417,5.410, 1 0
-2.449874 -8.718168 -0.1332441,-2.902577 -8.071331 0.2102451,-3.158319 -7.031011 0.3342822,-3.275595 -6.070906 0.4944623,-3.443385 -5.208549 0.6666586,-3.133578 -5.987941 -0.04967683,-3.202856 -4.74691 0.323047,-3.11067 -4.058969 0.5538528,-2.967721 -3.463779 0.7595316,-2.804421 -5.996283 -0.04813405,-2.661458 -5.196355 0.5469577,-2.661458 -5.196355 0.5469577,-2.702107 -6.881111 0.6609505,-2.470707 -6.122594 0.02492335,-2.307857 -5.555625 0.6461173,-2.365802 -6.539525 0.6810417,-2.486405 -7.168068 0.5501075,-2.170904 -6.369496 0.1203564,-2.017655 -5.797575 0.5796918,-2.089116 -6.457689 0.6297319,-2.207524 -6.974908 0.5296888,-9.329351 -8.629259 0.4183966,-8.579872 -8.314575 0.6827011,-7.896868 -7.504705 0.9641722,-7.413174 -6.775053 1.314378,-6.940385 -6.420391 1.706526,-8.297934 -5.31833 0.6580385,-8.05886 -4.017003 0.8788432,-7.926373 -3.229117 1.118387,-7.8215 -2.52399 1.287826,-8.715289 -5.046562 0.8355821,-8.514141 -3.44489 1.030315,-8.363297 -2.426979 1.309554,-8.250564 -1.577777 1.517056,-9.146449 -5.079921 1.059166,-8.9852 -3.556743 1.270031,-8.838657 -2.608411 1.507318,-8.698479 -1.806955 1.693776,-9.60961 -5.376531 1.317087,-9.610514 -4.129904 1.571279,-9.549962 -3.331144 1.777192,-9.471661 -2.605288 1.923389,5.510, 1 0
-2.389315 -8.649555 -0.2617448,-2.841137 -8.030823 0.09721279,-3.094 -7.018515 0.214298,-3.185396 -6.072033 0.376798,-3.330111 -5.235908 0.5380486,-3.052475 -5.929948 -0.1644011,-3.093092 -4.666402 0.2606463,-2.994804 -3.981458 0.5334168,-2.839701 -3.402997 0.7598857,-2.724651 -5.962568 -0.167365,-2.55868 -5.202209 0.4771162,-2.55868 -5.202209 0.4771162,-2.618943 -6.916682 0.5850953,-2.390099 -6.097495 -0.09187448,-2.224444 -5.546329 0.5676844,-2.290536 -6.561052 0.586106,-2.424546 -7.174869 0.4358273,-2.084176 -6.3457 0.008129358,-1.917481 -5.767608 0.4952412,-1.99085 -6.459116 0.5350554,-2.119893 -6.954438 0.4156792,-9.349091 -8.638023 0.4559867,-8.598891 -8.317337 0.7161123,-7.911673 -7.509084 0.9929699,-7.428683 -6.780232 1.339653,-6.956278 -6.417103 1.736447,-8.311923 -5.312534 0.6879889,-8.080383 -3.9976 0.8925627,-7.948545 -3.193681 1.120701,-7.841896 -2.476144 1.287637,-8.731977 -5.044277 0.8679466,-8.532534 -3.455237 1.047437,-8.385519 -2.426301 1.327893,-8.275322 -1.574789 1.536444,-9.168268 -5.087595 1.093489,-9.007268 -3.579967 1.29503,-8.86274 -2.631509 1.536372,-8.723008 -1.842301 1.724192,-9.640265 -5.392314 1.352974,-9.646182 -4.151737 1.607434,-9.591068 -3.347204 1.821615,-9.514345 -2.616734 1.971254,5.610, 1 0
-2.347263 -8.603048 -0.227821,-2.784057 -8.004953 0.1576001,-3.032368 -7.006727 0.2810037,-3.12159 -6.085781 0.4305776,-3.276266 -5.276012 0.5908077,-2.989357 -5.901458 -0.1072257,-3.026685 -4.707201 0.3166112,-2.922841 -4.038718 0.5846117,-2.779629 -3.481396 0.7980425,-2.672639 -5.905221 -0.1277114,-2.534031 -5.176755 0.4926234,-2.534031 -5.176755 0.4926234,-2.581248 -6.924327 0.6567665,-2.346021 -6.03717 -0.07286389,-2.202787 -5.545983 0.6031856,-2.257826 -6.555795 0.6579946,-2.384006 -7.209627 0.5369659,-2.046732 -6.288633 0.002894327,-1.907857 -5.780172 0.5364438,-1.981006 -6.48386 0.6070271,-2.106437 -6.998991 0.5061362,-9.340125 -8.645008 0.4097478,-8.579472 -8.343988 0.6456916,-7.888734 -7.512195 0.897614,-7.414149 -6.755085 1.225143,-6.943544 -6.386463 1.604045,-8.30257 -5.331182 0.6121123,-8.075656 -3.999053 0.8128155,-7.948613 -3.187217 1.037809,-7.846234 -2.462881 1.202798,-8.729666 -5.062242 0.8096846,-8.536388 -3.450665 0.9814346,-8.394689 -2.423085 1.254031,-8.285856 -1.567267 1.453357,-9.168612 -5.09768 1.049041,-9.008812 -3.567379 1.242211,-8.86084 -2.626253 1.478079,-8.715993 -1.837791 1.663802,-9.641802 -5.389009 1.325101,-9.653944 -4.143137 1.569858,-9.60568 -3.341239 1.769017,-9.532987 -2.600778 1.91031,5.710, 1 0
-2.33371 -8.572104 -0.2719943,-2.766442 -7.99212 0.1040765,-3.002274 -6.975049 0.2297615,-3.077814 -6.058921 0.3830767,-3.242501 -5.276609 0.559796,-2.957782 -5.879699 -0.1025591,-2.992003 -4.714484 0.3406982,-2.890366 -4.055 0.6281772,-2.743172 -3.504613 0.8659496,-2.635909 -5.887443 -0.1075383,-2.499877 -5.196421 0.5282706,-2.499877 -5.196421 0.5282706,-2.553246 -6.944023 0.7084919,-2.302323 -6.024087 -0.04475862,-2.168084 -5.549062 0.6294883,-2.236075 -6.567125 0.667695,-2.360111 -7.217775 0.5451738,-1.993126 -6.285241 0.0418036,-1.865284 -5.774436 0.5783389,-1.950734 -6.493757 0.6289973,-2.078794 -7.009363 0.51445,-9.341302 -8.653385 0.42981,-8.579 -8.349068 0.6972399,-7.886282 -7.525638 0.9615484,-7.408482 -6.772393 1.292516,-6.935593 -6.414127 1.674291,-8.298692 -5.337537 0.6779795,-8.073058 -3.995015 0.8828161,-7.948898 -3.176827 1.109641,-7.849224 -2.451383 1.274087,-8.729789 -5.067939 0.8554949,-8.537753 -3.449206 1.039181,-8.39661 -2.416315 1.314659,-8.291295 -1.557778 1.519501,-9.170776 -5.103443 1.074255,-9.013477 -3.572988 1.282914,-8.868526 -2.620859 1.526618,-8.727533 -1.825204 1.718217,-9.641474 -5.395271 1.331659,-9.659151 -4.150056 1.588404,-9.611956 -3.344606 1.794707,-9.540113 -2.605571 1.942363,5.810, 1 0
-2.309757 -8.521276 -0.321578,-2.740433 -7.939664 0.05810469,-2.96944 -6.936904 0.1948183,-3.011095 -6.054609 0.359341,-3.15547 -5.285417 0.5517393,-2.898373 -5.832832 -0.1675179,-2.913844 -4.747796 0.2661237,-2.812694 -4.092399 0.5493827,-2.671812 -3.534482 0.7841041,-2.57028 -5.845972 -0.1655219,-2.449903 -5.259849 0.4673085,-2.449903 -5.259849 0.4673085,-2.522953 -7.020959 0.6443787,-2.231546 -5.979186 -0.09625088,-2.117951 -5.590733 0.5691286,-2.205185 -6.614688 0.5999432,-2.329353 -7.279498 0.4653652,-1.911362 -6.238485 0.002242565,-1.804171 -5.755155 0.5418053,-1.909248 -6.470022 0.5781275,-2.040943 -6.989181 0.4534343,-9.35784 -8.663004 0.4665458,-8.594058 -8.351231 0.7201802,-7.897665 -7.526908 0.9806409,-7.413068 -6.772886 1.308879,-6.941946 -6.412655 1.689569,-8.315838 -5.341632 0.7022161,-8.07776 -4.016 0.9004257,-7.947746 -3.204072 1.12095,-7.844111 -2.484057 1.283554,-8.747179 -5.065795 0.8846295,-8.540552 -3.459092 1.058081,-8.394194 -2.428198 1.328805,-8.282841 -1.570924 1.534048,-9.189441 -5.100374 1.10559,-9.020324 -3.575813 1.300842,-8.871695 -2.624885 1.536778,-8.726424 -1.831735 1.723048,-9.663346 -5.392084 1.364799,-9.68405 -4.156148 1.610235,-9.641461 -3.353622 1.812595,-9.572312 -2.618762 1.959261,5.910, 1 0
-2.298195 -8.500141 0.07489844,-2.737503 -7.883438 0.4964233,-2.967132 -6.922701 0.6689462,-3.004694 -6.071363 0.8719335,-3.172656 -5.303258 1.139358,-2.900405 -5.735506 0.2503384,-2.903331 -4.747427 0.7042829,-2.811803 -4.123483 1.031345,-2.684945 -3.610637 1.286172,-2.550467 -5.710668 0.2401327,-2.431493 -5.350647 0.9062079,-2.431493 -5.350647 0.9062079,-2.500413 -7.137929 1.175072,-2.196617 -5.828413 0.2947659,-2.094796 -5.674095 0.9792946,-2.184064 -6.717109 1.062147,-2.30783 -7.388502 0.9567718,-1.870483 -6.081005 0.3811548,-1.77048 -5.79846 0.9388294,-1.881798 -6.543884 0.9993378,-2.018263 -7.062374 0.8834522,-9.354182 -8.660168 0.4957141,-8.591609 -8.351357 0.7578769,-7.896583 -7.521853 1.012055,-7.420263 -6.763652 1.334861,-6.950858 -6.408178 1.708404,-8.313659 -5.321746 0.6916431,-8.081944 -3.99835 0.8803856,-7.949396 -3.187195 1.097318,-7.844049 -2.475255 1.258591,-8.748735 -5.048486 0.8673409,-8.553943 -3.431422 1.025559,-8.410111 -2.4026 1.289092,-8.300635 -1.547483 1.489102,-9.193832 -5.08513 1.08559,-9.032844 -3.555466 1.265171,-8.886513 -2.611317 1.496297,-8.74064 -1.816722 1.680718,-9.669048 -5.380926 1.346126,-9.705777 -4.163773 1.577088,-9.671326 -3.371748 1.775993,-9.606637 -2.637374 1.922724,6.010, 1 0
-2.268879 -8.424324 0.3836125,-2.718975 -7.794483 0.7844913,-2.937407 -6.849151 0.9491948,-2.962762 -6.041972 1.147462,-3.170732 -5.331883 1.430118,-2.848637 -5.611644 0.5817197,-2.86798 -4.741193 1.048705,-2.795977 -4.143974 1.382335,-2.677515 -3.655303 1.642074,-2.483738 -5.545224 0.5830408,-2.393912 -5.445091 1.283187,-2.393912 -5.445091 1.283187,-2.469784 -7.281254 1.581767,-2.121873 -5.665145 0.6448096,-2.04902 -5.749775 1.338786,-2.151875 -6.804235 1.421211,-2.282043 -7.473125 1.306252,-1.79605 -5.935489 0.7353698,-1.723154 -5.874404 1.290579,-1.857356 -6.642908 1.344542,-2.014788 -7.162763 1.220869,-9.36867 -8.673946 0.5905056,-8.599834 -8.377102 0.8587205,-7.90324 -7.522466 1.102953,-7.435133 -6.758312 1.415989,-6.964034 -6.424755 1.776122,-8.32256 -5.313453 0.7950925,-8.095421 -3.990526 0.9685498,-7.965675 -3.178595 1.170703,-7.86058 -2.473495 1.327532,-8.763699 -5.034894 0.9653307,-8.574692 -3.419562 1.116576,-8.435707 -2.394819 1.370683,-8.32923 -1.54374 1.566153,-9.207508 -5.068721 1.17876,-9.054884 -3.537405 1.353912,-8.912282 -2.599349 1.582127,-8.76852 -1.812648 1.762367,-9.678989 -5.363218 1.434793,-9.73538 -4.165082 1.658666,-9.71629 -3.385645 1.846667,-9.664083 -2.658165 1.987304,6.110, 1 0
-2.254054 -8.40826 0.3683107,-2.690021 -7.816255 0.7560312,-2.923201 -6.865449 0.9359865,-2.954113 -6.044374 1.145297,-3.137553 -5.35086 1.43558,-2.812856 -5.612079 0.5787814,-2.819609 -4.74785 1.013961,-2.74758 -4.14359 1.333959,-2.650191 -3.641815 1.589793,-2.448223 -5.534057 0.5936991,-2.375468 -5.438482 1.253291,-2.375468 -5.438482 1.253291,-2.454898 -7.222024 1.576396,-2.091427 -5.655101 0.6655962,-2.033364 -5.784539 1.323206,-2.131717 -6.796255 1.412281,-2.255291 -7.44886 1.317296,-1.77137 -5.932451 0.7639362,-1.713995 -5.920841 1.295464,-1.841918 -6.673769 1.35504,-1.989569 -7.176927 1.250838,-9.383261 -8.674278 0.6523131,-8.614254 -8.370594 0.9439625,-7.916115 -7.534946 1.216581,-7.433191 -6.775661 1.557295,-6.948846 -6.425298 1.949624,-8.333344 -5.294208 0.8646649,-8.101292 -3.97648 1.060601,-7.973022 -3.171454 1.285598,-7.873096 -2.467126 1.451906,-8.76718 -5.019042 1.026677,-8.579062 -3.404314 1.184297,-8.442364 -2.380686 1.445512,-8.340931 -1.532046 1.649333,-9.20954 -5.059175 1.238488,-9.054681 -3.537504 1.419403,-8.914323 -2.596879 1.646152,-8.778341 -1.80964 1.82764,-9.679051 -5.361055 1.497857,-9.724201 -4.154419 1.71853,-9.700482 -3.367605 1.904966,-9.646298 -2.636185 2.041674,6.210, 1 0
-2.215735 -8.396952 0.6279708,-2.640746 -7.857863 1.063311,-2.881155 -6.935486 1.321859,-2.90984 -6.106879 1.595544,-3.079716 -5.388465 1.980222,-2.73689 -5.579142 0.9666225,-2.72109 -4.766902 1.402807,-2.646189 -4.192606 1.726235,-2.53989 -3.714472 1.985902,-2.347103 -5.453672 0.9503967,-2.265962 -5.532077 1.575159,-2.265962 -5.532077 1.575159,-2.387184 -7.276003 1.873589,-1.972795 -5.576774 0.9918247,-1.913795 -5.872783 1.572551,-2.024327 -6.860155 1.631271,-2.156312 -7.443292 1.547766,-1.651148 -5.862257 1.067347,-1.588538 -5.945079 1.53277,-1.7255 -6.685707 1.562022,-1.883074 -7.154315 1.458763,-9.419451 -8.697016 0.6714182,-8.655435 -8.381927 0.9680099,-7.951291 -7.550546 1.23088,-7.466483 -6.781216 1.559084,-6.98913 -6.431739 1.938549,-8.357437 -5.320295 0.8926276,-8.121996 -3.978899 1.080636,-7.992106 -3.159902 1.29644,-7.885012 -2.445386 1.466757,-8.786851 -5.040521 1.059889,-8.589331 -3.419987 1.227582,-8.448751 -2.385279 1.495731,-8.337728 -1.514199 1.704735,-9.226825 -5.07686 1.274703,-9.06557 -3.542744 1.475049,-8.925906 -2.595323 1.721827,-8.784044 -1.791643 1.916409,-9.699036 -5.376611 1.534423,-9.755141 -4.178548 1.775426,-9.74324 -3.388795 1.98078,-9.697288 -2.638863 2.132906,6.310, 1 0
-2.188568 -8.374983 0.5815377,-2.614235 -7.857151 1.139314,-2.851711 -6.988164 1.472264,-2.876619 -6.177846 1.792028,-3.054998 -5.414365 2.223986,-2.723774 -5.59878 1.117413,-2.697794 -4.767906 1.633442,-2.611986 -4.186837 2.009272,-2.486888 -3.711504 2.303217,-2.329703 -5.4654 1.050617,-2.228817 -5.567033 1.752373,-2.228817 -5.567033 1.752373,-2.339411 -7.318464 2.036009,-1.953211 -5.573169 1.050633,-1.88726 -5.900398 1.698424,-1.989423 -6.890607 1.757912,-2.113002 -7.470771 1.653339,-1.630802 -5.833845 1.091068,-1.551384 -5.971115 1.604979,-1.689187 -6.726492 1.636156,-1.843311 -7.18573 1.527718,-9.420939 -8.713774 0.7037086,-8.651739 -8.393707 0.9715607,-7.949301 -7.55603 1.218345,-7.468968 -6.77227 1.538368,-6.989536 -6.427086 1.90955,-8.359172 -5.321243 0.8707352,-8.133828 -3.981374 1.050757,-8.007734 -3.154754 1.26365,-7.901902 -2.428151 1.427779,-8.793131 -5.042669 1.048456,-8.605858 -3.424834 1.201022,-8.467723 -2.380769 1.470828,-8.357461 -1.502291 1.684483,-9.236472 -5.078659 1.273623,-9.078679 -3.557959 1.451872,-8.942838 -2.605541 1.686099,-8.803942 -1.798853 1.875531,-9.711105 -5.377475 1.542489,-9.761793 -4.165821 1.766413,-9.744937 -3.375178 1.957365,-9.695574 -2.636146 2.094622,6.410, 1 0
-2.155447 -8.312523 0.7684438,-2.596641 -7.836349 1.409877,-2.809144 -6.996707 1.818122,-2.817353 -6.182549 2.185907,-3.00543 -5.385364 2.677226,-2.667829 -5.541739 1.487855,-2.639313 -4.769432 2.029619,-2.551485 -4.212417 2.397018,-2.417717 -3.732286 2.673099,-2.250722 -5.374019 1.384781,-2.158112 -5.565779 2.074091,-2.158112 -5.565779 2.074091,-2.286909 -7.292121 2.302081,-1.861871 -5.481945 1.34923,-1.795197 -5.86785 1.967485,-1.91048 -6.881997 1.988362,-2.035062 -7.425167 1.869608,-1.535028 -5.760709 1.363947,-1.45254 -5.876474 1.848284,-1.601393 -6.628266 1.867338,-1.759138 -7.073588 1.766407,-9.42828 -8.703094 0.6530942,-8.654787 -8.392046 0.9240339,-7.95702 -7.553676 1.178082,-7.47774 -6.775327 1.501574,-6.992041 -6.420748 1.877407,-8.371737 -5.334081 0.8688101,-8.133392 -4.003908 1.068539,-7.999442 -3.196739 1.289868,-7.8938 -2.484543 1.452237,-8.804145 -5.051477 1.050656,-8.60998 -3.424883 1.219705,-8.46746 -2.39062 1.496871,-8.358227 -1.524688 1.708403,-9.244807 -5.083863 1.27581,-9.091109 -3.556248 1.469285,-8.953958 -2.599592 1.715166,-8.815757 -1.787139 1.909173,-9.714514 -5.377869 1.543861,-9.773213 -4.167379 1.78432,-9.753551 -3.369229 1.987315,-9.699552 -2.622513 2.133968,6.510, 1 0
-2.139842 -8.237204 0.8264076,-2.591801 -7.78844 1.551649,-2.781497 -6.969036 2.009226,-2.778532 -6.138555 2.389372,-2.997029 -5.324604 2.887213,-2.619447 -5.534811 1.816454,-2.567483 -4.780838 2.391013,-2.482268 -4.243627 2.716606,-2.357565 -3.743504 2.957705,-2.187336 -5.334178 1.659516,-2.066914 -5.562973 2.335444,-2.066914 -5.562973 2.335444,-2.269407 -7.220767 2.397423,-1.794488 -5.442937 1.564491,-1.702411 -5.849059 2.188723,-1.846374 -6.837938 2.144465,-1.997582 -7.355789 1.984565,-1.483353 -5.739908 1.52609,-1.370791 -5.837231 2.01602,-1.536637 -6.562833 2.012154,-1.712059 -6.98841 1.902429,-9.425035 -8.70783 0.6788664,-8.655622 -8.389708 0.9749262,-7.957414 -7.557056 1.244212,-7.479577 -6.78142 1.579076,-6.991563 -6.420726 1.959819,-8.373879 -5.332765 0.9099416,-8.13599 -3.999765 1.113418,-8.002865 -3.18066 1.339644,-7.895364 -2.460146 1.506224,-8.810892 -5.047175 1.078191,-8.619952 -3.412542 1.250702,-8.479984 -2.37306 1.531752,-8.370414 -1.502748 1.74995,-9.255667 -5.080295 1.292787,-9.103243 -3.54356 1.482694,-8.968331 -2.578742 1.728956,-8.831505 -1.761926 1.926245,-9.729987 -5.377788 1.552173,-9.784799 -4.163049 1.787086,-9.767107 -3.363657 1.990122,-9.718954 -2.621046 2.140648,6.610, 1 0
-1.656157 -8.134527 0.2988644,-2.030032 -7.99364 1.052063,-2.204026 -7.628677 1.632624,-2.149903 -7.415075 2.17583,-2.047322 -7.319546 2.746079,-2.159329 -5.755944 1.648402,-2.299048 -5.040614 2.357298,-2.331773 -5.403927 2.667302,-2.346264 -5.844533 2.684288,-1.934505 -5.577346 1.57056,-2.148577 -5.303071 2.400974,-2.148577 -5.303071 2.400974,-2.214656 -7.013525 2.48099,-1.715113 -5.563716 1.557977,-2.014385 -5.311882 2.397401,-2.127088 -6.277087 2.481545,-2.162724 -6.974363 2.404337,-1.544207 -5.602748 1.56538,-1.780271 -4.830777 2.153538,-1.98197 -5.232342 2.332955,-2.079929 -5.628809 2.42403,-9.436755 -8.710773 0.7331954,-8.667522 -8.386324 1.026293,-7.967359 -7.540365 1.298093,-7.483925 -6.77281 1.63674,-6.994224 -6.410591 2.030063,-8.385205 -5.31319 0.9580065,-8.145452 -3.987342 1.160968,-8.013623 -3.163867 1.387699,-7.908366 -2.443643 1.557276,-8.823053 -5.033828 1.129017,-8.629219 -3.407466 1.29741,-8.490255 -2.36667 1.571414,-8.381945 -1.497227 1.786521,-9.269525 -5.073881 1.345408,-9.115355 -3.541781 1.536269,-8.979323 -2.57696 1.778126,-8.839505 -1.759671 1.970462,-9.746104 -5.383633 1.607977,-9.80844 -4.181295 1.840878,-9.794861 -3.384794 2.032972,-9.746666 -2.63822 2.176872,6.710, 1 0
-1.707393 -7.986001 0.578257,-2.209078 -7.851009 1.488071,-2.388899 -7.47497 2.162105,-2.268616 -7.255474 2.751273,-2.067778 -7.149147 3.34012,-2.315289 -5.636405 2.224113,-2.40018 -4.903303 2.95237,-2.401545 -5.311662 3.243202,-2.378416 -5.750307 3.265128,-1.985188 -5.465553 2.084471,-2.185865 -5.123123 2.899405,-2.185865 -5.123123 2.899405,-2.204326 -6.692504 2.971166,-1.654226 -5.493639 2.016079,-1.95356 -5.385664 2.831326,-2.038748 -6.328941 2.878604,-2.072887 -6.949838 2.792046,-1.358806 -5.575461 1.996033,-1.610806 -4.994775 2.575506,-1.806677 -5.555365 2.732487,-1.914833 -6.044569 2.798062,-9.448334 -8.726503 0.6801752,-8.67547 -8.402081 0.9594298,-7.972361 -7.55996 1.220072,-7.489631 -6.778376 1.551129,-7.007921 -6.403917 1.929172,-8.403139 -5.347305 0.9063418,-8.16793 -4.013603 1.11175,-8.032065 -3.191129 1.335932,-7.920984 -2.471014 1.504014,-8.836851 -5.065916 1.087469,-8.646582 -3.429976 1.26674,-8.50846 -2.382167 1.551809,-8.40138 -1.503547 1.77725,-9.278712 -5.101661 1.314441,-9.127705 -3.568935 1.511007,-8.991101 -2.598304 1.763054,-8.850842 -1.77913 1.967807,-9.751072 -5.402515 1.583464,-9.819285 -4.188318 1.827691,-9.809051 -3.386966 2.029724,-9.765247 -2.641859 2.181556,6.810, 1 0
-1.787074 -8.112896 1.255486,-2.437375 -7.473459 1.755929,-2.678187 -6.47297 2.158227,-2.646341 -5.591545 2.531122,-2.601817 -5.025441 2.959814,-2.392584 -5.153587 2.204045,-2.403906 -4.416622 2.765163,-2.40337 -4.578682 3.037916,-2.389018 -4.885181 3.099905,-1.88607 -5.127674 2.233184,-2.085409 -5.243253 2.919228,-2.085409 -5.243253 2.919228,-2.231244 -6.656077 3.102546,-1.479631 -5.345052 2.288587,-1.75413 -5.682333 2.9778,-1.903018 -6.492006 3.086532,-2.001688 -7.000872 3.064016,-1.159242 -5.632659 2.368939,-1.357161 -5.525483 2.801028,-1.582675 -6.095056 2.881808,-1.739037 -6.543441 2.894384,-9.476377 -8.723854 0.653776,-8.700969 -8.422569 0.9739633,-7.996714 -7.583374 1.242368,-7.51515 -6.796617 1.57291,-7.023499 -6.435188 1.946788,-8.418276 -5.358926 0.8922929,-8.178176 -4.013641 1.098641,-8.046041 -3.187682 1.326178,-7.941586 -2.463884 1.497348,-8.854542 -5.071323 1.048345,-8.664739 -3.438385 1.219386,-8.527421 -2.39284 1.505244,-8.418404 -1.515344 1.735368,-9.299217 -5.104215 1.251403,-9.152418 -3.580481 1.443439,-9.024203 -2.618495 1.694714,-8.890792 -1.801728 1.900454,-9.769694 -5.400781 1.503234,-9.837555 -4.197559 1.740991,-9.835039 -3.404733 1.94505,-9.798977 -2.66662 2.094179,6.910, 1 0
-2.003733 -8.013365 0.8747296,-2.456278 -7.686397 1.727161,-2.674889 -6.89736 2.265856,-2.660144 -6.146169 2.681789,-2.791078 -5.349466 3.214471,-2.44698 -5.439904 2.264126,-2.410704 -4.88795 3.024168,-2.303231 -4.421857 3.480731,-2.152821 -4.009313 3.814575,-1.979433 -5.230167 2.083107,-1.861575 -5.593143 2.889734,-1.861575 -5.593143 2.889734,-2.104505 -7.280019 2.978077,-1.575819 -5.386541 1.966583,-1.500062 -5.929948 2.71405,-1.678528 -6.872385 2.602748,-1.860493 -7.383188 2.39659,-1.264297 -5.711929 1.916669,-1.159641 -5.89649 2.506687,-1.362734 -6.590004 2.484404,-1.568301 -6.99468 2.380878,-9.481727 -8.722918 0.707833,-8.709186 -8.410784 1.010872,-8.012089 -7.57867 1.286166,-7.532173 -6.805619 1.626474,-7.037951 -6.442146 2.018744,-8.439157 -5.334405 0.9282316,-8.197455 -4.006998 1.132496,-8.067838 -3.191516 1.363705,-7.965857 -2.471737 1.53681,-8.873189 -5.052362 1.102022,-8.685312 -3.432199 1.264808,-8.550301 -2.394945 1.550097,-8.444654 -1.521613 1.779907,-9.315235 -5.092184 1.324982,-9.170329 -3.580148 1.512082,-9.042564 -2.617633 1.766427,-8.912256 -1.798745 1.972924,-9.784805 -5.401166 1.59508,-9.853279 -4.189279 1.834608,-9.850567 -3.387396 2.042924,-9.817978 -2.638224 2.193743,7.010, 1 0
-1.699862 -7.979531 0.03008918,-2.282932 -7.278621 0.6044285,-2.454959 -6.30488 0.9702488,-2.427892 -5.507652 1.258751,-2.409587 -5.028435 1.540528,-2.1339 -5.362143 1.163969,-2.24358 -4.999742 1.735648,-2.307431 -5.504552 1.909098,-2.323848 -5.923256 1.829577,-1.77755 -5.402213 1.102619,-1.969975 -5.286886 1.741132,-1.969975 -5.286886 1.741132,-2.191177 -6.702535 1.746041,-1.480721 -5.483908 1.070161,-1.741903 -5.337995 1.700772,-1.933311 -6.091804 1.749941,-2.018376 -6.62775 1.679331,-1.262678 -5.564108 1.053113,-1.457536 -4.795198 1.423387,-1.676428 -4.898393 1.548658,-1.779627 -5.092727 1.58546,-9.498511 -8.727848 0.6930193,-8.720342 -8.427965 1.009116,-8.0175 -7.595174 1.290333,-7.534925 -6.811466 1.632596,-7.040719 -6.435726 2.02471,-8.443995 -5.356329 0.9500133,-8.19843 -4.017084 1.165303,-8.067232 -3.188523 1.399193,-7.964672 -2.46293 1.576637,-8.885034 -5.064975 1.110207,-8.689257 -3.439764 1.28299,-8.554683 -2.398386 1.56794,-8.452449 -1.521471 1.797987,-9.332878 -5.093648 1.316921,-9.179533 -3.579333 1.50634,-9.050016 -2.619811 1.752212,-8.919674 -1.804842 1.952174,-9.805241 -5.391651 1.572163,-9.865664 -4.179866 1.805312,-9.860204 -3.381961 2.005671,-9.825481 -2.635612 2.150884,7.110, 1 1
-1.670084 -8.155115 0.3589299,-2.028276 -7.956422 1.390377,-2.101482 -7.50741 2.060271,-1.899503 -7.197753 2.612936,-1.68796 -7.117786 3.173831,-2.064254 -5.834522 1.985344,-2.158428 -5.335092 2.731267,-2.183679 -5.901006 2.920612,-2.18284 -6.372298 2.769182,-1.867805 -5.619449 1.724828,-1.987802 -5.439825 2.594782,-1.987802 -5.439825 2.594782,-2.090664 -7.082427 2.393119,-1.689514 -5.508249 1.557335,-1.876262 -5.398437 2.361568,-1.973598 -6.278673 2.35676,-2.023818 -6.85732 2.188913,-1.542527 -5.428393 1.45546,-1.712851 -4.555063 1.948447,-1.793137 -4.355772 2.172032,-1.806443 -4.286499 2.29073,-9.513248 -8.753529 0.7478271,-8.735383 -8.444658 1.078307,-8.032747 -7.596708 1.364411,-7.54905 -6.810204 1.712645,-7.047228 -6.44777 2.118607,-8.449356 -5.359539 0.9961678,-8.205917 -4.021535 1.208973,-8.077227 -3.198543 1.441875,-7.976597 -2.471059 1.616386,-8.895454 -5.073947 1.152313,-8.702438 -3.450165 1.318125,-8.566154 -2.40975 1.60226,-8.460041 -1.528789 1.830296,-9.347692 -5.110988 1.357525,-9.198675 -3.592906 1.548567,-9.069921 -2.631223 1.805358,-8.938042 -1.81176 2.011928,-9.824651 -5.420696 1.613364,-9.884708 -4.20442 1.85087,-9.879465 -3.404172 2.059217,-9.843108 -2.655643 2.209137,7.210, 1 1
-2.059534 -7.907825 0.5827093,-2.499232 -7.524061 1.424218,-2.683366 -6.724629 1.959548,-2.656052 -6.002 2.3727,-2.848567 -5.23259 2.915167,-2.447484 -5.348684 1.940502,-2.406936 -4.813043 2.666247,-2.300025 -4.339494 3.117674,-2.159233 -3.922125 3.445983,-1.981573 -5.203756 1.761404,-1.908245 -5.531372 2.573765,-1.908245 -5.531372 2.573765,-2.11122 -7.288372 2.693523,-1.573502 -5.378282 1.645823,-1.529855 -5.894267 2.400135,-1.694557 -6.842979 2.314288,-1.854189 -7.390468 2.107872,-1.240758 -5.706874 1.582292,-1.16011 -5.838317 2.14803,-1.358255 -6.535917 2.1042,-1.547331 -6.94407 1.980596,-9.537831 -8.761429 0.6877264,-8.755939 -8.450998 1.037832,-8.058913 -7.610937 1.342037,-7.572856 -6.829814 1.702366,-7.081764 -6.443263 2.109666,-8.49681 -5.382595 0.9949079,-8.256653 -4.028242 1.23773,-8.126757 -3.200925 1.482395,-8.021977 -2.471088 1.660465,-8.940373 -5.102609 1.148011,-8.750705 -3.455184 1.348905,-8.611497 -2.410804 1.635693,-8.501787 -1.528165 1.862099,-9.385823 -5.150648 1.351063,-9.241175 -3.599476 1.576429,-9.109121 -2.630942 1.83854,-8.975666 -1.801364 2.045162,-9.853722 -5.474101 1.603642,-9.912462 -4.242231 1.873384,-9.905567 -3.438004 2.094993,-9.86972 -2.687294 2.260072,7.310, 1 1
-1.607031 -8.380026 1.047207,-2.309389 -7.738266 1.751946,-2.574171 -6.780946 2.211192,-2.528914 -5.897785 2.606879,-2.453347 -5.301466 3.012447,-2.321706 -5.52638 2.168388,-2.367734 -4.755988 2.884367,-2.379059 -5.026853 3.211292,-2.390546 -5.408666 3.220764,-1.854399 -5.48936 2.091542,-2.003333 -5.365366 2.914827,-2.003333 -5.365366 2.914827,-2.155881 -6.912755 2.908587,-1.446405 -5.599406 2.087912,-1.667023 -5.57068 2.854181,-1.833171 -6.439163 2.951346,-1.924993 -7.01452 2.866957,-1.102369 -5.757776 2.131031,-1.248472 -5.17237 2.551296,-1.468191 -5.339026 2.721786,-1.602359 -5.510643 2.807042,-9.540008 -8.756411 0.6680067,-8.767805 -8.436859 1.007976,-8.070044 -7.59719 1.309406,-7.583986 -6.819602 1.669011,-7.081436 -6.443761 2.082626,-8.50354 -5.38397 0.9524014,-8.25419 -4.032215 1.185135,-8.120975 -3.203325 1.427709,-8.018296 -2.469612 1.605457,-8.945444 -5.100959 1.112901,-8.749893 -3.458906 1.300569,-8.612378 -2.415712 1.589479,-8.505373 -1.537892 1.817474,-9.393065 -5.140632 1.320689,-9.243999 -3.605098 1.531453,-9.116209 -2.635765 1.787932,-8.98537 -1.809658 1.990321,-9.865856 -5.451106 1.579543,-9.929632 -4.236869 1.833031,-9.927173 -3.442155 2.044557,-9.891965 -2.696327 2.197525,7.410, 1 1
-2.024422 -8.165743 1.068204,-2.48562 -7.709268 1.818587,-2.712801 -6.885345 2.338817,-2.738782 -6.134382 2.766856,-2.946333 -5.395039 3.322972,-2.472126 -5.463169 2.29587,-2.471053 -4.861171 2.92791,-2.386342 -4.360425 3.335181,-2.242173 -3.939907 3.62917,-2.014912 -5.268238 2.14046,-1.93986 -5.760779 2.888271,-1.93986 -5.760779 2.888271,-2.104213 -7.486198 2.985729,-1.605231 -5.437841 2.045072,-1.549797 -5.987155 2.68493,-1.692575 -6.898008 2.598053,-1.844838 -7.413345 2.427652,-1.270486 -5.769468 2.000813,-1.195835 -5.980213 2.499817,-1.381256 -6.687896 2.492339,-1.568531 -7.090988 2.414131,-9.541128 -8.745338 0.6299211,-8.77274 -8.419176 0.9621438,-8.084268 -7.585683 1.258839,-7.601813 -6.809879 1.613068,-7.10405 -6.42359 2.02223,-8.521975 -5.372295 0.92551,-8.275373 -4.009586 1.156716,-8.138874 -3.184944 1.390854,-8.029401 -2.452955 1.560989,-8.964663 -5.099887 1.089599,-8.773952 -3.438723 1.284818,-8.633122 -2.400245 1.568101,-8.525354 -1.533224 1.786243,-9.410711 -5.152996 1.303361,-9.270501 -3.591169 1.529394,-9.138519 -2.616671 1.800634,-9.005042 -1.785898 2.013391,-9.878511 -5.480214 1.562844,-9.946263 -4.250192 1.83256,-9.940234 -3.445879 2.064477,-9.903012 -2.69558 2.229869,7.510, 1 1
-2.14202 -8.133911 0.657784,-2.575796 -7.864892 1.434009,-2.809602 -7.093208 1.922823,-2.82614 -6.334548 2.287625,-3.077331 -5.639192 2.781334,-2.643142 -5.551029 1.904728,-2.623566 -4.93461 2.474801,-2.51893 -4.414537 2.915223,-2.373903 -3.974456 3.282404,-2.206074 -5.368058 1.744036,-2.09823 -5.708118 2.449372,-2.09823 -5.708118 2.449372,-2.182452 -7.540336 2.774069,-1.812821 -5.511775 1.626851,-1.73914 -6.066154 2.288484,-1.812547 -6.998238 2.355085,-1.906885 -7.640848 2.302131,-1.482604 -5.821218 1.548151,-1.388585 -6.07283 2.095023,-1.505166 -6.805501 2.127775,-1.638624 -7.260354 2.110825,-9.567664 -8.786995 0.7423953,-8.792604 -8.461002 1.092711,-8.090288 -7.617317 1.387736,-7.613055 -6.830185 1.740423,-7.133615 -6.440492 2.132205,-8.538947 -5.387875 1.019064,-8.301428 -4.046703 1.24168,-8.18064 -3.226477 1.47907,-8.087166 -2.506633 1.654276,-8.982818 -5.104761 1.156899,-8.797509 -3.468376 1.332904,-8.670123 -2.423878 1.611848,-8.571844 -1.54151 1.83641,-9.428288 -5.145032 1.345555,-9.288662 -3.607956 1.536473,-9.164198 -2.645855 1.778054,-9.036986 -1.829237 1.974641,-9.899466 -5.456661 1.583802,-9.968485 -4.238126 1.815001,-9.963096 -3.444465 2.011789,-9.927697 -2.700552 2.155791,7.610, 1 1
-2.091 -8.79254 0.8120379,-2.522751 -8.357979 1.381016,-2.872491 -7.491292 1.614279,-3.074793 -6.660297 1.833003,-3.374231 -5.964006 2.122204,-2.873689 -5.946313 1.05987,-2.944626 -4.903953 1.373139,-2.837157 -4.319089 1.594907,-2.66802 -3.856176 1.766253,-2.538571 -5.810962 0.9063376,-2.312565 -5.514354 1.414095,-2.312565 -5.514354 1.414095,-2.26722 -7.20022 1.764165,-2.196666 -5.910698 0.8093515,-1.964539 -5.806002 1.363705,-1.94506 -6.795364 1.530339,-2.040437 -7.409383 1.473168,-1.880008 -6.146866 0.756555,-1.689991 -6.026295 1.23197,-1.702469 -6.715358 1.413127,-1.80197 -7.163055 1.401032,-9.603038 -8.846632 0.7969131,-8.822221 -8.500261 1.133202,-8.130075 -7.645296 1.414155,-7.655219 -6.853139 1.747436,-7.187623 -6.482963 2.108718,-8.603636 -5.430217 1.083954,-8.363464 -4.078916 1.265223,-8.235089 -3.247484 1.468518,-8.133341 -2.526893 1.632676,-9.048691 -5.141912 1.193726,-8.858294 -3.482709 1.358881,-8.725875 -2.444797 1.620817,-8.626705 -1.567568 1.841154,-9.4863 -5.177261 1.347087,-9.348404 -3.611644 1.524902,-9.22457 -2.644858 1.752591,-9.098414 -1.818091 1.939898,-9.940531 -5.481023 1.542219,-10.01811 -4.265578 1.75173,-10.01791 -3.481227 1.940487,-9.989275 -2.741189 2.081532,7.710, 1 1
-2.143528 -8.815681 0.2841937,-2.642149 -8.402983 0.9312194,-2.995011 -7.571012 1.249,-3.212942 -6.70964 1.493388,-3.519024 -5.984722 1.81378,-2.938451 -6.10781 0.7908859,-3.080115 -4.955633 1.025513,-2.971169 -4.314693 1.214659,-2.77783 -3.81776 1.379137,-2.590374 -6.000213 0.5755723,-2.484514 -5.277007 0.954396,-2.484514 -5.277007 0.954396,-2.455175 -6.591733 1.376348,-2.263872 -6.066413 0.4128496,-2.100524 -5.416342 0.7424026,-2.092788 -6.083812 0.9507389,-2.139011 -6.622656 1.02507,-1.960465 -6.244273 0.3045042,-1.782206 -5.62194 0.6077115,-1.782411 -5.973698 0.8266652,-1.830602 -6.336082 0.9264863,-9.647236 -8.891596 0.8352726,-8.862958 -8.534925 1.175159,-8.154674 -7.665804 1.460855,-7.668057 -6.877918 1.806942,-7.190084 -6.489271 2.185438,-8.621074 -5.453792 1.120135,-8.391558 -4.083208 1.324688,-8.271564 -3.23598 1.54092,-8.179511 -2.503975 1.702593,-9.067976 -5.181009 1.245645,-8.884731 -3.527977 1.418043,-8.763672 -2.488292 1.687639,-8.672344 -1.609586 1.897912,-9.510528 -5.235017 1.416905,-9.371448 -3.682121 1.604621,-9.251305 -2.722669 1.83814,-9.128071 -1.906219 2.022031,-9.972673 -5.556499 1.632621,-10.05873 -4.352274 1.85339,-10.06399 -3.567086 2.041567,-10.03402 -2.821659 2.177657,7.810, 1 1
