TiagoOliveira98/Thesis-Project/Difficulty_0/Dual_Task/Unity_Project/DataLogging/JointData/Logs(1646757839)_tttt_Dual.csv
WRIST,THUMB_CMC,THUMB_MCP,THUMB_IP,THUMB_TIP,INDEX_FINGER_MCP,INDEX_FINGER_PIP,INDEX_FINGER_DIP,INDEX_FINGER_TIP,MIDDLE_FINGER_MCP,MIDDLE_FINGER_PIP,MIDDLE_FINGER_DIP,MIDDLE_FINGER_TIP,RING_FINGER_MCP,RING_FINGER_PIP,RING_FINGER_DIP,RING_FINGER_TIP,PINKY_MCP,PINKY_PIP,PINKY_DIP,PINKY_TIP,WRIST2,THUMB_CMC2,THUMB_MCP2,THUMB_IP2,THUMB_TIP2,INDEX_FINGER_MCP2,INDEX_FINGER_PIP2,INDEX_FINGER_DIP2,INDEX_FINGER_TIP2,MIDDLE_FINGER_MCP2,MIDDLE_FINGER_PIP2,MIDDLE_FINGER_DIP2,MIDDLE_FINGER_TIP2,RING_FINGER_MCP2,RING_FINGER_PIP2,RING_FINGER_DIP2,RING_FINGER_TIP2,PINKY_MCP2,PINKY_PIP2,PINKY_DIP2,PINKY_TIP2,Timestamp,Event
-5.589079 -4.020721 0.0002123545,-5.408799 -3.937734 -0.09947138,-5.285357 -4.00518 -0.1549542,-5.205238 -4.130159 -0.2153793,-5.165353 -4.232749 -0.2621071,-5.193222 -4.311244 -0.09246655,-5.127316 -4.31365 -0.2444759,-5.15222 -4.21781 -0.2999969,-5.18429 -4.136737 -0.301284,-5.242977 -4.446806 -0.08617837,-5.179895 -4.423938 -0.281982,-5.179895 -4.423938 -0.281982,-5.25247 -4.255796 -0.3059358,-5.310844 -4.518758 -0.1037112,-5.250957 -4.493728 -0.2821378,-5.26815 -4.390878 -0.3023699,-5.307949 -4.330722 -0.2591415,-5.389189 -4.544713 -0.1242199,-5.333356 -4.548139 -0.2754349,-5.341082 -4.460327 -0.322989,-5.373915 -4.399292 -0.3217037,2 0 0,2 0 0,2 0 0,2 0 0,2 0 0,2 0 0,2 0 0,2 0 0,2 0 0,2 0 0,2 0 0,2 0 0,2 0 0,2 0 0,2 0 0,2 0 0,2 0 0,2 0 0,2 0 0,2 0 0,2 0 0,0.010, 1 0
-5.589079 -4.020721 0.0002123545,-5.408799 -3.937734 -0.09947138,-5.285357 -4.00518 -0.1549542,-5.205238 -4.130159 -0.2153793,-5.165353 -4.232749 -0.2621071,-5.193222 -4.311244 -0.09246655,-5.127316 -4.31365 -0.2444759,-5.15222 -4.21781 -0.2999969,-5.18429 -4.136737 -0.301284,-5.242977 -4.446806 -0.08617837,-5.179895 -4.423938 -0.281982,-5.179895 -4.423938 -0.281982,-5.25247 -4.255796 -0.3059358,-5.310844 -4.518758 -0.1037112,-5.250957 -4.493728 -0.2821378,-5.26815 -4.390878 -0.3023699,-5.307949 -4.330722 -0.2591415,-5.389189 -4.544713 -0.1242199,-5.333356 -4.548139 -0.2754349,-5.341082 -4.460327 -0.322989,-5.373915 -4.399292 -0.3217037,2 0 0,2 0 0,2 0 0,2 0 0,2 0 0,2 0 0,2 0 0,2 0 0,2 0 0,2 0 0,2 0 0,2 0 0,2 0 0,2 0 0,2 0 0,2 0 0,2 0 0,2 0 0,2 0 0,2 0 0,2 0 0,0.110, 1 0
-5.589079 -4.020721 0.0002123545,-5.408799 -3.937734 -0.09947138,-5.285357 -4.00518 -0.1549542,-5.205238 -4.130159 -0.2153793,-5.165353 -4.232749 -0.2621071,-5.193222 -4.311244 -0.09246655,-5.127316 -4.31365 -0.2444759,-5.15222 -4.21781 -0.2999969,-5.18429 -4.136737 -0.301284,-5.242977 -4.446806 -0.08617837,-5.179895 -4.423938 -0.281982,-5.179895 -4.423938 -0.281982,-5.25247 -4.255796 -0.3059358,-5.310844 -4.518758 -0.1037112,-5.250957 -4.493728 -0.2821378,-5.26815 -4.390878 -0.3023699,-5.307949 -4.330722 -0.2591415,-5.389189 -4.544713 -0.1242199,-5.333356 -4.548139 -0.2754349,-5.341082 -4.460327 -0.322989,-5.373915 -4.399292 -0.3217037,2 0 0,2 0 0,2 0 0,2 0 0,2 0 0,2 0 0,2 0 0,2 0 0,2 0 0,2 0 0,2 0 0,2 0 0,2 0 0,2 0 0,2 0 0,2 0 0,2 0 0,2 0 0,2 0 0,2 0 0,2 0 0,0.210, 1 0
-5.589079 -4.020721 0.0002123545,-5.408799 -3.937734 -0.09947138,-5.285357 -4.00518 -0.1549542,-5.205238 -4.130159 -0.2153793,-5.165353 -4.232749 -0.2621071,-5.193222 -4.311244 -0.09246655,-5.127316 -4.31365 -0.2444759,-5.15222 -4.21781 -0.2999969,-5.18429 -4.136737 -0.301284,-5.242977 -4.446806 -0.08617837,-5.179895 -4.423938 -0.281982,-5.179895 -4.423938 -0.281982,-5.25247 -4.255796 -0.3059358,-5.310844 -4.518758 -0.1037112,-5.250957 -4.493728 -0.2821378,-5.26815 -4.390878 -0.3023699,-5.307949 -4.330722 -0.2591415,-5.389189 -4.544713 -0.1242199,-5.333356 -4.548139 -0.2754349,-5.341082 -4.460327 -0.322989,-5.373915 -4.399292 -0.3217037,2 0 0,2 0 0,2 0 0,2 0 0,2 0 0,2 0 0,2 0 0,2 0 0,2 0 0,2 0 0,2 0 0,2 0 0,2 0 0,2 0 0,2 0 0,2 0 0,2 0 0,2 0 0,2 0 0,2 0 0,2 0 0,0.310, 1 0
-5.589079 -4.020721 0.0002123545,-5.408799 -3.937734 -0.09947138,-5.285357 -4.00518 -0.1549542,-5.205238 -4.130159 -0.2153793,-5.165353 -4.232749 -0.2621071,-5.193222 -4.311244 -0.09246655,-5.127316 -4.31365 -0.2444759,-5.15222 -4.21781 -0.2999969,-5.18429 -4.136737 -0.301284,-5.242977 -4.446806 -0.08617837,-5.179895 -4.423938 -0.281982,-5.179895 -4.423938 -0.281982,-5.25247 -4.255796 -0.3059358,-5.310844 -4.518758 -0.1037112,-5.250957 -4.493728 -0.2821378,-5.26815 -4.390878 -0.3023699,-5.307949 -4.330722 -0.2591415,-5.389189 -4.544713 -0.1242199,-5.333356 -4.548139 -0.2754349,-5.341082 -4.460327 -0.322989,-5.373915 -4.399292 -0.3217037,2 0 0,2 0 0,2 0 0,2 0 0,2 0 0,2 0 0,2 0 0,2 0 0,2 0 0,2 0 0,2 0 0,2 0 0,2 0 0,2 0 0,2 0 0,2 0 0,2 0 0,2 0 0,2 0 0,2 0 0,2 0 0,0.410, 1 0
-5.589079 -4.020721 0.0002123545,-5.408799 -3.937734 -0.09947138,-5.285357 -4.00518 -0.1549542,-5.205238 -4.130159 -0.2153793,-5.165353 -4.232749 -0.2621071,-5.193222 -4.311244 -0.09246655,-5.127316 -4.31365 -0.2444759,-5.15222 -4.21781 -0.2999969,-5.18429 -4.136737 -0.301284,-5.242977 -4.446806 -0.08617837,-5.179895 -4.423938 -0.281982,-5.179895 -4.423938 -0.281982,-5.25247 -4.255796 -0.3059358,-5.310844 -4.518758 -0.1037112,-5.250957 -4.493728 -0.2821378,-5.26815 -4.390878 -0.3023699,-5.307949 -4.330722 -0.2591415,-5.389189 -4.544713 -0.1242199,-5.333356 -4.548139 -0.2754349,-5.341082 -4.460327 -0.322989,-5.373915 -4.399292 -0.3217037,2 0 0,2 0 0,2 0 0,2 0 0,2 0 0,2 0 0,2 0 0,2 0 0,2 0 0,2 0 0,2 0 0,2 0 0,2 0 0,2 0 0,2 0 0,2 0 0,2 0 0,2 0 0,2 0 0,2 0 0,2 0 0,0.510, 1 0
-5.589079 -4.020721 0.0002123545,-5.408799 -3.937734 -0.09947138,-5.285357 -4.00518 -0.1549542,-5.205238 -4.130159 -0.2153793,-5.165353 -4.232749 -0.2621071,-5.193222 -4.311244 -0.09246655,-5.127316 -4.31365 -0.2444759,-5.15222 -4.21781 -0.2999969,-5.18429 -4.136737 -0.301284,-5.242977 -4.446806 -0.08617837,-5.179895 -4.423938 -0.281982,-5.179895 -4.423938 -0.281982,-5.25247 -4.255796 -0.3059358,-5.310844 -4.518758 -0.1037112,-5.250957 -4.493728 -0.2821378,-5.26815 -4.390878 -0.3023699,-5.307949 -4.330722 -0.2591415,-5.389189 -4.544713 -0.1242199,-5.333356 -4.548139 -0.2754349,-5.341082 -4.460327 -0.322989,-5.373915 -4.399292 -0.3217037,2 0 0,2 0 0,2 0 0,2 0 0,2 0 0,2 0 0,2 0 0,2 0 0,2 0 0,2 0 0,2 0 0,2 0 0,2 0 0,2 0 0,2 0 0,2 0 0,2 0 0,2 0 0,2 0 0,2 0 0,2 0 0,0.610, 1 0
-5.589079 -4.020721 0.0002123545,-5.408799 -3.937734 -0.09947138,-5.285357 -4.00518 -0.1549542,-5.205238 -4.130159 -0.2153793,-5.165353 -4.232749 -0.2621071,-5.193222 -4.311244 -0.09246655,-5.127316 -4.31365 -0.2444759,-5.15222 -4.21781 -0.2999969,-5.18429 -4.136737 -0.301284,-5.242977 -4.446806 -0.08617837,-5.179895 -4.423938 -0.281982,-5.179895 -4.423938 -0.281982,-5.25247 -4.255796 -0.3059358,-5.310844 -4.518758 -0.1037112,-5.250957 -4.493728 -0.2821378,-5.26815 -4.390878 -0.3023699,-5.307949 -4.330722 -0.2591415,-5.389189 -4.544713 -0.1242199,-5.333356 -4.548139 -0.2754349,-5.341082 -4.460327 -0.322989,-5.373915 -4.399292 -0.3217037,2 0 0,2 0 0,2 0 0,2 0 0,2 0 0,2 0 0,2 0 0,2 0 0,2 0 0,2 0 0,2 0 0,2 0 0,2 0 0,2 0 0,2 0 0,2 0 0,2 0 0,2 0 0,2 0 0,2 0 0,2 0 0,0.710, 1 0
-5.589079 -4.020721 0.0002123545,-5.408799 -3.937734 -0.09947138,-5.285357 -4.00518 -0.1549542,-5.205238 -4.130159 -0.2153793,-5.165353 -4.232749 -0.2621071,-5.193222 -4.311244 -0.09246655,-5.127316 -4.31365 -0.2444759,-5.15222 -4.21781 -0.2999969,-5.18429 -4.136737 -0.301284,-5.242977 -4.446806 -0.08617837,-5.179895 -4.423938 -0.281982,-5.179895 -4.423938 -0.281982,-5.25247 -4.255796 -0.3059358,-5.310844 -4.518758 -0.1037112,-5.250957 -4.493728 -0.2821378,-5.26815 -4.390878 -0.3023699,-5.307949 -4.330722 -0.2591415,-5.389189 -4.544713 -0.1242199,-5.333356 -4.548139 -0.2754349,-5.341082 -4.460327 -0.322989,-5.373915 -4.399292 -0.3217037,2 0 0,2 0 0,2 0 0,2 0 0,2 0 0,2 0 0,2 0 0,2 0 0,2 0 0,2 0 0,2 0 0,2 0 0,2 0 0,2 0 0,2 0 0,2 0 0,2 0 0,2 0 0,2 0 0,2 0 0,2 0 0,0.810, 1 0
-5.589079 -4.020721 0.0002123545,-5.408799 -3.937734 -0.09947138,-5.285357 -4.00518 -0.1549542,-5.205238 -4.130159 -0.2153793,-5.165353 -4.232749 -0.2621071,-5.193222 -4.311244 -0.09246655,-5.127316 -4.31365 -0.2444759,-5.15222 -4.21781 -0.2999969,-5.18429 -4.136737 -0.301284,-5.242977 -4.446806 -0.08617837,-5.179895 -4.423938 -0.281982,-5.179895 -4.423938 -0.281982,-5.25247 -4.255796 -0.3059358,-5.310844 -4.518758 -0.1037112,-5.250957 -4.493728 -0.2821378,-5.26815 -4.390878 -0.3023699,-5.307949 -4.330722 -0.2591415,-5.389189 -4.544713 -0.1242199,-5.333356 -4.548139 -0.2754349,-5.341082 -4.460327 -0.322989,-5.373915 -4.399292 -0.3217037,2 0 0,2 0 0,2 0 0,2 0 0,2 0 0,2 0 0,2 0 0,2 0 0,2 0 0,2 0 0,2 0 0,2 0 0,2 0 0,2 0 0,2 0 0,2 0 0,2 0 0,2 0 0,2 0 0,2 0 0,2 0 0,0.910, 1 0
-5.589079 -4.020721 0.0002123545,-5.408799 -3.937734 -0.09947138,-5.285357 -4.00518 -0.1549542,-5.205238 -4.130159 -0.2153793,-5.165353 -4.232749 -0.2621071,-5.193222 -4.311244 -0.09246655,-5.127316 -4.31365 -0.2444759,-5.15222 -4.21781 -0.2999969,-5.18429 -4.136737 -0.301284,-5.242977 -4.446806 -0.08617837,-5.179895 -4.423938 -0.281982,-5.179895 -4.423938 -0.281982,-5.25247 -4.255796 -0.3059358,-5.310844 -4.518758 -0.1037112,-5.250957 -4.493728 -0.2821378,-5.26815 -4.390878 -0.3023699,-5.307949 -4.330722 -0.2591415,-5.389189 -4.544713 -0.1242199,-5.333356 -4.548139 -0.2754349,-5.341082 -4.460327 -0.322989,-5.373915 -4.399292 -0.3217037,2 0 0,2 0 0,2 0 0,2 0 0,2 0 0,2 0 0,2 0 0,2 0 0,2 0 0,2 0 0,2 0 0,2 0 0,2 0 0,2 0 0,2 0 0,2 0 0,2 0 0,2 0 0,2 0 0,2 0 0,2 0 0,1.010, 1 0
-1.366875 -14.72709 5.573926,-2.009791 -14.76608 5.625496,-2.484866 -14.43257 5.671832,-2.746362 -13.92473 5.716677,-2.826764 -13.39235 5.72338,-2.305723 -12.92243 5.44127,-2.55687 -12.02432 5.375845,-2.656699 -11.45371 5.358287,-2.732068 -11.0521 5.338675,-1.916036 -12.66159 5.356692,-2.063133 -11.67294 5.215361,-2.063133 -11.67294 5.215361,-2.170031 -10.81262 5.002504,-1.528808 -12.62998 5.2916,-1.59565 -11.83102 5.110449,-1.627664 -11.4047 4.9486,-1.65989 -11.11392 4.862532,-1.179256 -12.76418 5.237223,-1.182991 -12.21976 5.131886,-1.194666 -12.02542 5.0691,-1.228646 -11.87947 5.019071,2 0 0,2 0 0,2 0 0,2 0 0,2 0 0,2 0 0,2 0 0,2 0 0,2 0 0,2 0 0,2 0 0,2 0 0,2 0 0,2 0 0,2 0 0,2 0 0,2 0 0,2 0 0,2 0 0,2 0 0,2 0 0,1.110, 1 0
-1.532383 -12.40953 10.93129,-2.445768 -11.81784 10.76079,-3.017997 -10.89457 10.70062,-3.36607 -9.97385 10.58302,-3.515814 -9.279612 10.28719,-2.829903 -8.976551 11.01641,-3.207 -7.025714 10.73424,-3.324577 -6.767259 10.23894,-3.337962 -6.94632 9.836103,-2.38383 -8.830883 10.95138,-2.750514 -6.816791 10.52635,-2.750514 -6.816791 10.52635,-2.846497 -6.829137 9.445674,-1.954152 -8.962332 10.83744,-2.243179 -7.242802 10.40443,-2.358668 -6.945928 9.878677,-2.389674 -7.034463 9.562279,-1.589495 -9.303568 10.69278,-1.693791 -8.003017 10.36714,-1.815359 -7.60552 10.01457,-1.904769 -7.507487 9.758838,-9.031634 -14.07687 12.08729,-8.105816 -13.54202 12.21727,-7.505063 -12.6317 12.38818,-7.091771 -11.8773 12.60909,-6.792702 -11.06976 12.85346,-8.040893 -10.76321 12.10666,-7.938699 -9.573372 12.305,-7.814234 -8.689283 12.54009,-7.628994 -7.896625 12.77178,-8.368738 -10.69415 12.29233,-8.317687 -9.31502 12.48128,-8.198354 -8.283245 12.66842,-8.03821 -7.38669 12.77287,-8.702074 -10.80577 12.5467,-8.68736 -9.507135 12.6697,-8.614696 -8.530037 12.77116,-8.497088 -7.669586 12.80215,-9.038701 -11.12964 12.81625,-9.090243 -10.08163 12.90892,-9.097513 -9.320242 12.97224,-9.086166 -8.589441 12.99539,1.210, 1 0
-1.681268 -10.51197 10.31196,-2.610634 -10.24222 9.971885,-3.315105 -9.499315 9.758769,-3.773571 -8.590073 9.467392,-3.915133 -7.917459 8.960212,-3.230291 -7.542239 10.19245,-3.638504 -5.8805 9.779994,-3.753662 -5.501379 9.357448,-3.733438 -5.546926 9.147323,-2.795409 -7.201007 10.07293,-3.168912 -5.268302 9.519196,-3.168912 -5.268302 9.519196,-3.287338 -5.542643 8.546026,-2.362406 -7.186011 9.86659,-2.644773 -5.532941 9.330157,-2.754301 -5.413753 8.727865,-2.779695 -5.692527 8.387506,-1.977879 -7.42473 9.612399,-2.014777 -6.195938 9.145791,-2.158202 -5.911083 8.693006,-2.265534 -5.945293 8.373462,-9.117628 -12.38897 12.67472,-8.327101 -11.8689 12.76906,-7.703403 -10.84782 12.9412,-7.334351 -9.966356 13.2068,-7.073596 -9.177496 13.50968,-8.195151 -8.963245 12.48916,-8.021585 -7.758464 12.65881,-7.896417 -6.977097 12.8256,-7.769029 -6.27856 12.9578,-8.576099 -8.808838 12.72198,-8.444983 -7.356468 12.83947,-8.318789 -6.395395 12.99442,-8.188201 -5.528738 13.08868,-8.95614 -8.891016 13.00923,-8.891031 -7.479721 13.11658,-8.775184 -6.587294 13.27284,-8.611609 -5.780519 13.37425,-9.360978 -9.217773 13.33275,-9.400854 -8.057314 13.4279,-9.397682 -7.325444 13.53581,-9.347969 -6.63735 13.59193,1.310, 1 0
-1.816492 -10.72072 10.94603,-2.643226 -10.1191 11.08856,-3.340363 -9.320169 11.12154,-3.76549 -8.443752 11.20295,-4.05766 -7.746828 11.27074,-3.266814 -7.579162 10.56121,-3.637156 -6.40987 10.56448,-3.788876 -5.764286 10.61728,-3.900837 -5.253161 10.67615,-2.924927 -7.225841 10.59865,-3.264462 -5.879869 10.48846,-3.264462 -5.879869 10.48846,-3.574142 -4.559234 10.67627,-2.577825 -7.110887 10.69806,-2.818119 -5.826559 10.6248,-2.980067 -5.141595 10.72275,-3.133659 -4.596128 10.81619,-2.194493 -7.230802 10.84432,-2.272621 -6.232433 10.79835,-2.378486 -5.643739 10.8572,-2.52922 -5.094484 10.91081,-9.300774 -11.73583 13.17339,-8.44916 -11.12581 13.24758,-7.811642 -10.11046 13.39923,-7.430319 -9.230148 13.6456,-7.129541 -8.434605 13.94767,-8.255428 -8.235094 12.93545,-8.056025 -7.054761 13.05329,-7.9389 -6.250793 13.21468,-7.84951 -5.527586 13.38121,-8.650902 -8.02879 13.16263,-8.478248 -6.634361 13.20057,-8.354707 -5.637397 13.28825,-8.243194 -4.726265 13.35616,-9.038752 -8.053848 13.44822,-8.950161 -6.661775 13.50739,-8.851336 -5.744066 13.56912,-8.723027 -4.923252 13.62915,-9.454412 -8.31278 13.7764,-9.481551 -7.184057 13.81332,-9.476933 -6.468883 13.84961,-9.444997 -5.792877 13.87715,1.410, 1 0
-2.1675 -9.810802 10.07605,-2.961975 -9.26297 10.08813,-3.64137 -8.509548 10.10835,-4.05481 -7.699684 10.23234,-4.323271 -6.977336 10.3839,-3.519026 -6.891984 9.677674,-3.861852 -5.920604 9.69061,-4.03611 -5.342096 9.772058,-4.169886 -4.799444 9.837728,-3.228199 -6.554749 9.81511,-3.536693 -5.355703 9.774916,-3.536693 -5.355703 9.774916,-3.828423 -4.040552 10.05736,-2.919722 -6.432521 9.997083,-3.141068 -5.274187 9.976202,-3.285521 -4.644396 10.05603,-3.414911 -4.07328 10.13167,-2.557211 -6.516618 10.22643,-2.650308 -5.584228 10.20344,-2.729707 -5.029409 10.20855,-2.811328 -4.458417 10.22655,-9.445918 -10.68299 12.89072,-8.633917 -10.19831 13.03094,-8.001622 -9.158163 13.19585,-7.649188 -8.230446 13.46553,-7.374363 -7.468288 13.75611,-8.408206 -7.287323 12.71095,-8.245175 -6.073081 12.83046,-8.167348 -5.322732 13.00897,-8.111322 -4.644311 13.1368,-8.784576 -7.060085 12.88506,-8.644737 -5.615998 12.87847,-8.553291 -4.739447 13.01851,-8.468566 -3.927204 13.13808,-9.159287 -7.067138 13.10567,-9.100144 -5.718954 13.14446,-9.031034 -4.921598 13.32555,-8.921454 -4.194779 13.44739,-9.560534 -7.297227 13.36044,-9.626388 -6.268844 13.42467,-9.651891 -5.600282 13.53025,-9.627888 -4.965833 13.62133,1.510, 1 0
-2.29118 -9.536201 9.462631,-3.019106 -9.132336 9.505453,-3.683077 -8.346867 9.51424,-4.100622 -7.517835 9.608332,-4.397242 -6.841741 9.730401,-3.58817 -6.766447 9.117809,-3.927206 -5.777219 9.142463,-4.091433 -5.183776 9.209641,-4.21483 -4.611883 9.263069,-3.285461 -6.43994 9.249208,-3.579134 -5.206386 9.258051,-3.579134 -5.206386 9.258051,-3.871862 -3.860208 9.553048,-2.969525 -6.311271 9.433707,-3.179636 -5.152641 9.471721,-3.318319 -4.521012 9.599646,-3.445486 -3.939708 9.714702,-2.600065 -6.376965 9.658796,-2.689351 -5.450768 9.709685,-2.76376 -4.918541 9.797242,-2.846737 -4.381918 9.8763,-9.451341 -10.44296 12.47229,-8.66449 -10.03652 12.61934,-8.04288 -9.002623 12.77502,-7.691151 -8.05588 13.02673,-7.361117 -7.348245 13.29401,-8.455194 -7.184879 12.40107,-8.290682 -5.923519 12.55536,-8.21831 -5.175259 12.72109,-8.163032 -4.508876 12.82889,-8.832211 -6.934823 12.5524,-8.695732 -5.432415 12.59318,-8.594043 -4.534484 12.76408,-8.501963 -3.732842 12.90686,-9.215186 -6.938612 12.74646,-9.143628 -5.562577 12.83633,-9.062849 -4.741823 13.01222,-8.965301 -4.016958 13.16369,-9.617258 -7.168502 12.95518,-9.669711 -6.116674 13.09287,-9.676845 -5.449924 13.2103,-9.64668 -4.827148 13.30114,1.610, 1 0
-2.381303 -9.141954 8.837981,-3.085321 -8.825821 8.926482,-3.712359 -8.060953 8.929114,-4.108416 -7.236696 9.003613,-4.455557 -6.676214 9.109656,-3.621792 -6.520285 8.568519,-3.966592 -5.541221 8.640655,-4.136209 -4.934606 8.708798,-4.24962 -4.368586 8.76927,-3.316813 -6.210721 8.689545,-3.609247 -5.004201 8.749056,-3.609247 -5.004201 8.749056,-3.911735 -3.661003 9.005212,-2.994889 -6.106416 8.882492,-3.204893 -4.961444 8.968892,-3.354244 -4.318617 9.111088,-3.481338 -3.721745 9.234921,-2.625794 -6.193212 9.107784,-2.71682 -5.267873 9.211954,-2.797399 -4.731046 9.330707,-2.87923 -4.194154 9.424166,-9.556022 -10.13642 12.42868,-8.802497 -9.714607 12.55356,-8.18975 -8.728191 12.68292,-7.816937 -7.833837 12.90112,-7.472897 -7.172668 13.12516,-8.618711 -6.880628 12.24676,-8.445212 -5.665956 12.34664,-8.357773 -4.924852 12.4908,-8.292712 -4.263206 12.59304,-8.972982 -6.633974 12.39894,-8.82938 -5.209266 12.40752,-8.727365 -4.321883 12.58519,-8.64391 -3.549154 12.73325,-9.340359 -6.668479 12.61202,-9.257802 -5.36025 12.67613,-9.171283 -4.534843 12.87722,-9.080013 -3.830753 13.04873,-9.734473 -6.941337 12.83508,-9.785737 -5.910198 12.98731,-9.78999 -5.249723 13.14046,-9.761188 -4.645912 13.25552,1.710, 1 0
-2.340261 -8.941105 8.628028,-3.043617 -8.717415 8.843087,-3.663279 -8.038563 8.903979,-4.057167 -7.253419 9.014576,-4.413314 -6.688678 9.151209,-3.578176 -6.405015 8.462949,-3.924461 -5.415388 8.546144,-4.099733 -4.793489 8.618157,-4.220589 -4.236251 8.683884,-3.264965 -6.068157 8.506911,-3.568092 -4.871576 8.549517,-3.568092 -4.871576 8.549517,-3.87112 -3.524718 8.787534,-2.938796 -5.947102 8.634132,-3.162888 -4.822984 8.693448,-3.323704 -4.167823 8.825117,-3.459387 -3.563593 8.945004,-2.570989 -6.024804 8.802929,-2.673631 -5.114894 8.880834,-2.76041 -4.567991 8.997221,-2.842902 -4.035909 9.091551,-9.644701 -9.958307 12.46752,-8.891791 -9.503174 12.59082,-8.284502 -8.563519 12.72873,-7.91213 -7.702817 12.96483,-7.579659 -7.046423 13.21497,-8.717803 -6.691021 12.26128,-8.546992 -5.472272 12.36439,-8.463641 -4.722763 12.5376,-8.401298 -4.074321 12.66409,-9.080381 -6.44162 12.42745,-8.945167 -5.014095 12.4299,-8.854898 -4.112591 12.63816,-8.781854 -3.343913 12.79495,-9.463235 -6.476407 12.65624,-9.380108 -5.163331 12.71065,-9.295601 -4.331723 12.90425,-9.208592 -3.641588 13.0666,-9.878132 -6.751857 12.90122,-9.93329 -5.698167 13.02644,-9.947184 -5.011178 13.1545,-9.927572 -4.386768 13.25347,1.810, 1 0
-2.311613 -8.867447 8.670079,-3.011673 -8.69302 8.898538,-3.639751 -8.030258 8.95802,-4.036768 -7.262502 9.061527,-4.389933 -6.693712 9.18797,-3.557058 -6.339601 8.495729,-3.90701 -5.350792 8.565721,-4.084015 -4.72307 8.641769,-4.204975 -4.169129 8.713737,-3.245714 -5.985897 8.527137,-3.55814 -4.807564 8.54607,-3.55814 -4.807564 8.54607,-3.865837 -3.475983 8.761817,-2.916655 -5.858762 8.641294,-3.147311 -4.754491 8.686134,-3.31176 -4.10321 8.799087,-3.447154 -3.503936 8.906258,-2.541119 -5.932678 8.805666,-2.645976 -5.042499 8.862159,-2.73241 -4.510444 8.956983,-2.807818 -3.996911 9.037228,-9.649144 -9.913143 12.44439,-8.896868 -9.479628 12.55172,-8.284788 -8.549528 12.68076,-7.904447 -7.704093 12.91234,-7.575506 -7.085042 13.16498,-8.734985 -6.648708 12.21266,-8.565601 -5.412096 12.30741,-8.486443 -4.659094 12.48678,-8.431878 -4.010661 12.61431,-9.098407 -6.401159 12.39,-8.960404 -4.941922 12.37562,-8.8738 -4.021625 12.57612,-8.80861 -3.242514 12.72637,-9.48533 -6.435421 12.62749,-9.399219 -5.087039 12.67391,-9.314606 -4.23857 12.85404,-9.228993 -3.533473 13.00407,-9.905071 -6.716188 12.88762,-9.963455 -5.624362 13.00538,-9.982525 -4.925685 13.11965,-9.968678 -4.304334 13.20771,1.910, 1 0
-2.294706 -8.775383 8.775552,-2.991712 -8.584463 9.02723,-3.629824 -7.94819 9.120725,-4.052324 -7.219007 9.252892,-4.419863 -6.667212 9.41249,-3.527618 -6.220198 8.670909,-3.88175 -5.221811 8.754965,-4.053991 -4.596864 8.844096,-4.17411 -4.038148 8.94051,-3.211369 -5.854101 8.698135,-3.517354 -4.652307 8.745596,-3.517354 -4.652307 8.745596,-3.800211 -3.271387 9.011414,-2.878069 -5.727582 8.802971,-3.107792 -4.589644 8.873751,-3.267591 -3.915205 9.014624,-3.401732 -3.290756 9.147323,-2.494643 -5.811863 8.95373,-2.589998 -4.907487 9.0358,-2.666255 -4.352014 9.154807,-2.734616 -3.816341 9.244387,-9.612281 -9.798937 12.4939,-8.839344 -9.445633 12.68541,-8.202726 -8.553038 12.84965,-7.796445 -7.703372 13.09879,-7.433422 -7.092319 13.36739,-8.679784 -6.537143 12.3713,-8.49372 -5.262884 12.48045,-8.406064 -4.496568 12.67158,-8.343473 -3.826793 12.80372,-9.06188 -6.272174 12.50884,-8.918988 -4.781679 12.5192,-8.830406 -3.842621 12.73044,-8.756043 -3.055237 12.88843,-9.464529 -6.308004 12.70493,-9.358958 -4.910383 12.75554,-9.262408 -4.051824 12.94084,-9.155725 -3.341116 13.09939,-9.900537 -6.58768 12.93557,-9.936065 -5.493503 13.04894,-9.93338 -4.7894 13.17256,-9.892646 -4.158153 13.27228,2.010, 1 0
-2.238961 -8.868006 9.091107,-2.954208 -8.660982 9.229381,-3.595894 -7.980863 9.24857,-4.027199 -7.221885 9.334352,-4.386696 -6.685365 9.45082,-3.424242 -6.200841 8.811428,-3.776636 -5.158927 8.846359,-3.962865 -4.510832 8.90861,-4.097374 -3.933875 8.990825,-3.109818 -5.843902 8.899563,-3.422365 -4.598184 8.908658,-3.422365 -4.598184 8.908658,-3.745539 -3.15911 9.153107,-2.771307 -5.719425 9.06073,-3.005669 -4.528554 9.105567,-3.180233 -3.778391 9.226779,-3.318548 -3.133206 9.352626,-2.379591 -5.814559 9.260927,-2.458029 -4.838609 9.33603,-2.536181 -4.225158 9.441755,-2.610363 -3.675651 9.527628,-9.519912 -9.882999 12.75156,-8.755051 -9.513615 12.97868,-8.113432 -8.592817 13.16455,-7.689201 -7.733667 13.43169,-7.293682 -7.148033 13.72508,-8.596319 -6.539157 12.70654,-8.414887 -5.202652 12.84114,-8.320416 -4.372232 13.03157,-8.253351 -3.652326 13.17098,-8.987452 -6.280269 12.84593,-8.847264 -4.727432 12.90367,-8.744656 -3.734235 13.13402,-8.660866 -2.891516 13.30821,-9.397053 -6.339695 13.04523,-9.297915 -4.873904 13.14744,-9.198706 -3.958297 13.36389,-9.095639 -3.183942 13.54575,-9.838963 -6.657696 13.27772,-9.897536 -5.52116 13.45007,-9.898013 -4.785934 13.61753,-9.864381 -4.109555 13.74743,2.110, 1 0
-2.164976 -8.923784 9.109054,-2.900907 -8.73094 9.298231,-3.569813 -8.046535 9.343456,-4.01852 -7.282254 9.4237,-4.374077 -6.720009 9.517109,-3.364481 -6.249706 8.947036,-3.730138 -5.152917 8.96175,-3.92284 -4.479337 8.996622,-4.05809 -3.89093 9.065819,-3.039207 -5.892204 8.975625,-3.361494 -4.633114 8.964399,-3.361494 -4.633114 8.964399,-3.683239 -3.181187 9.18661,-2.696079 -5.771066 9.069006,-2.934418 -4.572069 9.093843,-3.109678 -3.817367 9.203699,-3.245108 -3.178451 9.329544,-2.309993 -5.865795 9.20376,-2.391356 -4.874223 9.257354,-2.465996 -4.259013 9.367481,-2.530789 -3.715514 9.470699,-9.561014 -9.934208 12.9398,-8.790577 -9.552622 13.18779,-8.128129 -8.635008 13.41212,-7.693132 -7.788831 13.7155,-7.291579 -7.198642 14.05017,-8.596046 -6.541464 13.00305,-8.398829 -5.206354 13.17496,-8.307011 -4.358819 13.38583,-8.247679 -3.618933 13.54977,-8.992209 -6.288305 13.16428,-8.838699 -4.72733 13.27257,-8.732747 -3.710637 13.52427,-8.653312 -2.842951 13.71384,-9.408171 -6.361145 13.38185,-9.302714 -4.893863 13.52402,-9.202511 -3.948509 13.76372,-9.101942 -3.139486 13.95822,-9.855956 -6.706071 13.63117,-9.926328 -5.555306 13.83967,-9.931998 -4.798023 14.02861,-9.903537 -4.087589 14.16969,2.210, 1 0
-2.067388 -9.048235 9.350669,-2.785079 -8.833939 9.544472,-3.43376 -8.084906 9.61297,-3.866406 -7.290809 9.703743,-4.243364 -6.812652 9.813719,-3.19708 -6.271402 9.322742,-3.528233 -5.141634 9.397498,-3.707985 -4.449743 9.467312,-3.837692 -3.816859 9.577001,-2.846481 -5.916917 9.38068,-3.142537 -4.637479 9.466925,-3.142537 -4.637479 9.466925,-3.435755 -3.11671 9.774281,-2.481187 -5.813664 9.500123,-2.690094 -4.590879 9.598874,-2.853882 -3.812578 9.753206,-2.985931 -3.140171 9.91011,-2.077308 -5.942708 9.654484,-2.121315 -4.932019 9.770691,-2.182969 -4.300325 9.913693,-2.250311 -3.737989 10.04381,-9.579476 -10.05982 13.25599,-8.770691 -9.719776 13.54973,-8.073681 -8.823139 13.77068,-7.622138 -7.957355 14.07083,-7.20976 -7.346605 14.38783,-8.555769 -6.609087 13.26861,-8.30875 -5.240127 13.4334,-8.185478 -4.372113 13.65447,-8.107227 -3.61129 13.82041,-8.958033 -6.326966 13.40596,-8.762485 -4.751029 13.48798,-8.643494 -3.714722 13.74197,-8.556865 -2.837358 13.92947,-9.383984 -6.363687 13.61343,-9.232694 -4.872261 13.72237,-9.114738 -3.923778 13.94625,-8.995531 -3.129174 14.13651,-9.848302 -6.663923 13.86414,-9.889028 -5.484946 14.04423,-9.882572 -4.709428 14.21762,-9.838408 -3.992507 14.35454,2.310, 1 0
-1.868125 -8.84679 9.483694,-2.617355 -8.658741 9.748629,-3.284081 -7.887834 9.85911,-3.739366 -7.103871 9.964403,-4.132341 -6.66197 10.07197,-3.005475 -6.031715 9.597891,-3.349266 -4.853107 9.653988,-3.536922 -4.137763 9.696596,-3.667982 -3.49222 9.783363,-2.646679 -5.677494 9.580401,-2.956465 -4.334838 9.65801,-2.956465 -4.334838 9.65801,-3.261299 -2.760644 9.933764,-2.282286 -5.58321 9.626354,-2.495394 -4.293968 9.713458,-2.666687 -3.461296 9.850884,-2.810866 -2.757789 10.00385,-1.887175 -5.736135 9.702321,-1.897879 -4.68882 9.809143,-1.929261 -4.032959 9.960117,-1.964737 -3.453712 10.10331,-9.481649 -9.971462 13.4575,-8.652877 -9.651861 13.75573,-7.950528 -8.691605 13.97962,-7.500877 -7.776056 14.28317,-7.090137 -7.163467 14.61188,-8.420033 -6.473037 13.53774,-8.193617 -5.052123 13.74921,-8.086612 -4.170753 13.98541,-8.016851 -3.399754 14.14586,-8.845926 -6.185987 13.67748,-8.652109 -4.504785 13.80662,-8.516976 -3.425255 14.07303,-8.415845 -2.509628 14.27058,-9.295499 -6.23846 13.88226,-9.153872 -4.635364 14.04845,-9.031275 -3.624508 14.30621,-8.915699 -2.759449 14.52014,-9.781251 -6.567168 14.1246,-9.813119 -5.319666 14.34706,-9.79642 -4.504489 14.54904,-9.749593 -3.737975 14.71255,2.410, 1 0
-1.846373 -8.719767 9.661109,-2.585354 -8.542736 9.93626,-3.250347 -7.792139 10.07311,-3.719393 -7.020512 10.21655,-4.123423 -6.522304 10.3879,-2.997425 -5.865583 9.808681,-3.336742 -4.661742 9.892797,-3.515802 -3.937502 9.953366,-3.646928 -3.289075 10.04108,-2.628488 -5.500991 9.808937,-2.925796 -4.112405 9.926086,-2.925796 -4.112405 9.926086,-3.224986 -2.504755 10.20393,-2.252749 -5.410513 9.866712,-2.448859 -4.094854 9.983211,-2.614511 -3.269815 10.1329,-2.751921 -2.556258 10.28907,-1.843156 -5.568721 9.950033,-1.857329 -4.503308 10.08232,-1.89571 -3.830426 10.24534,-1.946783 -3.216316 10.38449,-9.41109 -9.795031 13.62004,-8.574321 -9.467583 14.00339,-7.877437 -8.514811 14.30639,-7.445637 -7.567478 14.66248,-7.035972 -6.900861 15.04462,-8.354046 -6.269495 13.90539,-8.137404 -4.80444 14.18655,-8.041283 -3.936737 14.45373,-7.975677 -3.162487 14.63364,-8.811378 -5.971435 14.02271,-8.616117 -4.241884 14.22701,-8.494102 -3.177862 14.50976,-8.393575 -2.245383 14.72505,-9.281042 -6.026416 14.2041,-9.142848 -4.385232 14.42508,-9.034973 -3.369182 14.68994,-8.918035 -2.4708 14.91475,-9.788866 -6.358222 14.42594,-9.80353 -5.078234 14.66671,-9.798103 -4.257188 14.86492,-9.756545 -3.459369 15.02873,2.510, 1 0
-1.865238 -8.831856 9.999815,-2.619999 -8.59922 10.21364,-3.277758 -7.789335 10.32403,-3.759695 -7.024387 10.45751,-4.194784 -6.608127 10.63966,-2.993287 -5.856233 10.0651,-3.35063 -4.664657 10.13124,-3.550388 -3.933283 10.17013,-3.694086 -3.280259 10.2386,-2.633382 -5.508113 10.08838,-2.942249 -4.143407 10.18953,-2.942249 -4.143407 10.18953,-3.268864 -2.508996 10.45509,-2.267003 -5.43597 10.17338,-2.465827 -4.095936 10.2663,-2.637735 -3.234367 10.40605,-2.782043 -2.506237 10.5583,-1.874317 -5.628509 10.27904,-1.85393 -4.533849 10.39112,-1.867311 -3.821681 10.54931,-1.878878 -3.179905 10.68496,-9.418616 -9.800919 14.03352,-8.562566 -9.447765 14.33669,-7.852038 -8.433914 14.54109,-7.404816 -7.460177 14.8186,-6.994775 -6.859 15.11225,-8.34971 -6.143789 14.0877,-8.114212 -4.678787 14.28806,-8.010762 -3.764522 14.52568,-7.941418 -2.955778 14.69794,-8.795101 -5.845037 14.22629,-8.598196 -4.121902 14.34774,-8.473682 -3.028963 14.62297,-8.376081 -2.073125 14.83928,-9.256267 -5.898193 14.43128,-9.103007 -4.265575 14.58252,-8.993746 -3.248586 14.81613,-8.885434 -2.355213 15.01284,-9.754207 -6.242362 14.6776,-9.793725 -4.971792 14.88365,-9.794894 -4.135595 15.06659,-9.760656 -3.325454 15.21611,2.610, 1 0
-1.845692 -9.06414 9.794533,-2.630843 -8.908031 10.10512,-3.312548 -8.162128 10.2437,-3.801096 -7.370641 10.34367,-4.207361 -6.947206 10.45428,-3.014107 -6.200013 10.02993,-3.373226 -4.930603 10.06866,-3.568141 -4.158593 10.10403,-3.695238 -3.478034 10.17816,-2.629789 -5.805864 9.92703,-2.949334 -4.358665 9.969709,-2.949334 -4.358665 9.969709,-3.258344 -2.673725 10.20377,-2.245614 -5.690629 9.871279,-2.473237 -4.329055 9.915892,-2.643393 -3.437799 10.05592,-2.778076 -2.719953 10.20695,-1.848643 -5.840162 9.834401,-1.833999 -4.70903 9.90138,-1.834533 -3.994663 10.04121,-1.834382 -3.361128 10.17032,-9.402904 -10.08325 14.41956,-8.539169 -9.732502 14.66436,-7.824947 -8.660837 14.85513,-7.390418 -7.649543 15.13452,-6.972696 -7.052858 15.42527,-8.327651 -6.316044 14.40948,-8.105183 -4.823373 14.57357,-7.994774 -3.894039 14.79239,-7.911146 -3.069111 14.96824,-8.773417 -6.015155 14.57899,-8.580893 -4.267314 14.68537,-8.45616 -3.150197 14.96751,-8.355824 -2.175836 15.18771,-9.234326 -6.06084 14.81365,-9.066079 -4.412966 14.94742,-8.946527 -3.364636 15.17785,-8.826089 -2.466077 15.37456,-9.733002 -6.393157 15.07883,-9.767699 -5.048168 15.28364,-9.764287 -4.176497 15.47927,-9.726322 -3.346901 15.62329,2.710, 1 0
-1.847002 -9.180969 9.981854,-2.62076 -9.004381 10.27193,-3.308121 -8.226837 10.38922,-3.802031 -7.445518 10.49335,-4.21883 -7.026617 10.60435,-3.005718 -6.22833 10.12928,-3.352321 -4.987016 10.18293,-3.54726 -4.223295 10.22795,-3.67944 -3.542001 10.30414,-2.64015 -5.868722 10.08361,-2.947852 -4.447111 10.15307,-2.947852 -4.447111 10.15307,-3.255641 -2.781738 10.42216,-2.264006 -5.765848 10.09136,-2.47613 -4.410749 10.15794,-2.640568 -3.541173 10.28507,-2.773323 -2.805517 10.42334,-1.863638 -5.91971 10.12901,-1.844953 -4.816997 10.21196,-1.842572 -4.106771 10.34683,-1.838449 -3.45537 10.46484,-9.472838 -10.17422 14.50393,-8.607063 -9.781279 14.82082,-7.880601 -8.73954 15.07178,-7.431427 -7.747055 15.40702,-6.992107 -7.137663 15.7569,-8.348486 -6.402421 14.62634,-8.118244 -4.892017 14.84294,-8.007251 -3.946712 15.08838,-7.923674 -3.110988 15.28319,-8.798609 -6.094789 14.77604,-8.592048 -4.331217 14.93418,-8.467274 -3.191429 15.23903,-8.368877 -2.196332 15.47652,-9.263406 -6.134653 14.99366,-9.086392 -4.475122 15.15958,-8.969042 -3.417221 15.39735,-8.849888 -2.503932 15.5958,-9.770338 -6.460219 15.2467,-9.786688 -5.122785 15.47573,-9.771119 -4.263725 15.6694,-9.723191 -3.437964 15.81237,2.810, 1 0
-1.85322 -9.362944 10.01007,-2.636739 -9.186607 10.28328,-3.331697 -8.400743 10.37664,-3.830587 -7.612946 10.44863,-4.231989 -7.207984 10.52155,-3.021695 -6.42793 10.15921,-3.373234 -5.181613 10.19919,-3.571912 -4.41546 10.22734,-3.708618 -3.739105 10.28707,-2.657971 -6.044562 10.08908,-2.97271 -4.62023 10.144,-2.97271 -4.62023 10.144,-3.286028 -2.954904 10.38863,-2.283709 -5.931848 10.06885,-2.507681 -4.567459 10.13375,-2.66916 -3.690233 10.26481,-2.80438 -2.963486 10.40159,-1.883434 -6.083575 10.0745,-1.851645 -4.989542 10.1577,-1.836853 -4.272062 10.30209,-1.820402 -3.626424 10.42467,-9.512425 -10.24374 14.80233,-8.65492 -9.805031 15.1206,-7.927476 -8.775599 15.38095,-7.481671 -7.793787 15.72521,-7.060913 -7.149641 16.08339,-8.398473 -6.391371 14.88472,-8.156207 -4.91311 15.08972,-8.049137 -3.98988 15.33582,-7.970863 -3.169303 15.52738,-8.844006 -6.074163 15.02975,-8.646873 -4.335807 15.16088,-8.529279 -3.223102 15.46127,-8.433743 -2.243875 15.69989,-9.307728 -6.116788 15.24283,-9.151174 -4.483333 15.38019,-9.045325 -3.444257 15.62369,-8.932351 -2.549757 15.82587,-9.818929 -6.45235 15.49118,-9.863888 -5.170578 15.69955,-9.856903 -4.347042 15.88257,-9.814697 -3.571759 16.01941,2.910, 1 0
-1.89582 -9.499142 10.05931,-2.662936 -9.321699 10.29193,-3.352856 -8.534592 10.36952,-3.844798 -7.743324 10.46367,-4.246559 -7.332358 10.56431,-3.070383 -6.536359 10.06163,-3.398125 -5.319734 10.12489,-3.579306 -4.563381 10.17923,-3.70508 -3.880874 10.26146,-2.712042 -6.168115 10.05481,-3.005484 -4.752199 10.12643,-3.005484 -4.752199 10.12643,-3.302037 -3.0819 10.41421,-2.335217 -6.072898 10.11091,-2.542132 -4.713212 10.19917,-2.699044 -3.845704 10.33829,-2.833411 -3.113431 10.4756,-1.922463 -6.24224 10.19445,-1.8756 -5.163793 10.2987,-1.861107 -4.456067 10.44714,-1.851948 -3.815695 10.56633,-9.535425 -10.29658 14.688,-8.66216 -9.837803 14.95936,-7.942549 -8.803709 15.19154,-7.507446 -7.796694 15.51705,-7.085533 -7.159276 15.84949,-8.421981 -6.469753 14.74009,-8.186699 -4.986976 14.94406,-8.082425 -4.061407 15.18267,-8.008667 -3.230154 15.36211,-8.864464 -6.159885 14.90206,-8.663555 -4.421953 15.03557,-8.554331 -3.315258 15.33999,-8.472576 -2.333448 15.57597,-9.321867 -6.194137 15.13054,-9.163649 -4.578777 15.28111,-9.070977 -3.553661 15.51382,-8.974059 -2.660456 15.70805,-9.826149 -6.515934 15.38893,-9.867406 -5.209775 15.60758,-9.870609 -4.386901 15.77646,-9.837699 -3.612081 15.89547,3.010, 1 0
-1.93167 -9.642553 9.89474,-2.706316 -9.457483 10.0683,-3.372318 -8.717894 10.14627,-3.849733 -7.924087 10.24444,-4.236744 -7.462753 10.35993,-3.092428 -6.726618 9.866748,-3.430983 -5.4768 9.930027,-3.620623 -4.705802 9.99635,-3.747139 -4.011121 10.10117,-2.730912 -6.355829 9.879689,-3.02177 -4.905818 9.944991,-3.02177 -4.905818 9.944991,-3.326113 -3.197405 10.24805,-2.350363 -6.274219 9.953386,-2.553332 -4.89677 10.03283,-2.71866 -4.011472 10.19699,-2.858231 -3.296317 10.35313,-1.938492 -6.463417 10.03685,-1.885067 -5.353981 10.15394,-1.881869 -4.636578 10.32034,-1.889155 -4.008859 10.4546,-9.533796 -10.3667 14.59409,-8.664532 -9.913662 14.87826,-7.947523 -8.891085 15.10626,-7.514716 -7.873369 15.421,-7.0951 -7.227115 15.74558,-8.417373 -6.565002 14.66878,-8.18587 -5.065927 14.87255,-8.082422 -4.140501 15.10715,-8.009658 -3.311973 15.28552,-8.858864 -6.258564 14.82082,-8.657753 -4.51206 14.95422,-8.550814 -3.410463 15.25255,-8.470478 -2.430909 15.48001,-9.314492 -6.289637 15.03793,-9.15585 -4.667995 15.2,-9.066951 -3.644313 15.4442,-8.97253 -2.754755 15.64082,-9.817827 -6.607852 15.28541,-9.853046 -5.296496 15.51417,-9.859659 -4.464947 15.69565,-9.82878 -3.688733 15.82023,3.110, 1 0
-2.084117 -10.51793 9.271959,-2.829064 -10.46027 9.790507,-3.487272 -9.800463 10.06346,-3.955 -9.049967 10.27319,-4.345328 -8.506283 10.46895,-3.213974 -7.756635 9.761328,-3.544751 -6.411376 10.03691,-3.705204 -5.614237 10.24832,-3.825983 -4.927623 10.42941,-2.793032 -7.422048 9.699859,-3.077294 -5.817129 9.925409,-3.077294 -5.817129 9.925409,-3.38924 -4.007919 10.47713,-2.376031 -7.401702 9.71232,-2.560267 -5.884932 9.940645,-2.722945 -4.981025 10.23947,-2.873137 -4.225045 10.50564,-1.951435 -7.648975 9.744558,-1.8909 -6.485367 10.0091,-1.888026 -5.772621 10.26999,-1.915963 -5.128956 10.49273,-9.481183 -11.02869 14.03467,-8.602446 -10.7204 14.42319,-7.849562 -9.742542 14.68198,-7.402844 -8.781801 14.97926,-7.079007 -8.037241 15.18782,-8.411411 -7.378864 14.3487,-8.177946 -5.749689 14.60113,-8.080891 -4.844346 14.77102,-7.984241 -4.081559 14.88129,-8.862861 -7.084548 14.40693,-8.639289 -5.264123 14.64182,-8.537121 -4.220068 14.90697,-8.446929 -3.31321 15.07096,-9.307254 -7.120737 14.52084,-9.139915 -5.435606 14.78072,-9.057514 -4.444807 15.07414,-8.933345 -3.606119 15.30832,-9.780283 -7.465546 14.66019,-9.815153 -6.167753 14.9221,-9.827375 -5.366817 15.17494,-9.760148 -4.643968 15.35849,3.210, 1 0
-2.069312 -11.40566 9.36612,-2.813569 -11.39091 9.891167,-3.521263 -10.75445 10.17696,-4.030676 -10.01908 10.41232,-4.399224 -9.448868 10.61958,-3.184519 -8.614147 9.846683,-3.483437 -7.24346 10.12666,-3.653906 -6.411885 10.34145,-3.754051 -5.703384 10.53166,-2.753776 -8.278532 9.808922,-3.032198 -6.706836 10.02673,-3.032198 -6.706836 10.02673,-3.338707 -4.907865 10.57711,-2.319505 -8.268244 9.842654,-2.531228 -6.76544 10.06107,-2.69512 -5.839071 10.34881,-2.829518 -5.05858 10.60685,-1.864842 -8.561913 9.907991,-1.834853 -7.355924 10.14463,-1.844946 -6.605276 10.35949,-1.870373 -5.928987 10.55222,-9.548225 -11.76916 13.84331,-8.682384 -11.50231 14.16758,-7.949169 -10.50425 14.40966,-7.48754 -9.500229 14.70604,-7.071742 -8.877161 14.977,-8.427693 -8.196526 14.14757,-8.167944 -6.578619 14.3569,-8.039088 -5.641058 14.52441,-7.939066 -4.830203 14.63774,-8.877456 -7.892199 14.243,-8.638892 -6.05936 14.44612,-8.495766 -4.969918 14.70145,-8.382785 -4.017787 14.88956,-9.317114 -7.928113 14.3777,-9.142378 -6.236419 14.61758,-9.014489 -5.175769 14.88665,-8.879723 -4.281805 15.10844,-9.777576 -8.277205 14.52825,-9.821066 -6.941902 14.7836,-9.827523 -6.091634 15.03386,-9.787229 -5.300273 15.22422,3.310, 1 0
-2.055976 -11.77531 9.422279,-2.798615 -11.69249 9.818651,-3.52192 -11.04998 10.06493,-4.06347 -10.33371 10.29689,-4.45174 -9.795931 10.54553,-3.189931 -8.967058 9.707732,-3.518072 -7.592784 9.955674,-3.699532 -6.752319 10.16259,-3.806856 -6.017307 10.35594,-2.777549 -8.625086 9.741943,-3.055059 -7.059305 9.931758,-3.055059 -7.059305 9.931758,-3.358806 -5.236309 10.44135,-2.349471 -8.60058 9.847008,-2.555768 -7.119546 10.0169,-2.720339 -6.205354 10.26101,-2.852238 -5.423646 10.48524,-1.88958 -8.869408 9.983296,-1.863472 -7.65006 10.18745,-1.881732 -6.903489 10.38826,-1.912497 -6.228609 10.57345,-9.558347 -12.05189 14.06507,-8.687029 -11.68686 14.31823,-7.9567 -10.70084 14.54949,-7.488887 -9.739296 14.86768,-7.075788 -9.127369 15.19391,-8.428742 -8.381411 14.16045,-8.198442 -6.855283 14.32447,-8.072073 -5.933097 14.50543,-7.966813 -5.125564 14.64031,-8.886973 -8.096891 14.296,-8.682046 -6.333826 14.42835,-8.548937 -5.254316 14.67804,-8.438194 -4.309541 14.86202,-9.336679 -8.152557 14.4798,-9.197896 -6.510306 14.64282,-9.070676 -5.471213 14.88009,-8.937332 -4.599721 15.0766,-9.810362 -8.511688 14.67985,-9.859613 -7.206874 14.89758,-9.843608 -6.364931 15.11298,-9.788261 -5.599508 15.2689,3.410, 1 0
-2.211811 -12.23773 9.965901,-3.015295 -12.09076 10.3988,-3.751082 -11.40054 10.6273,-4.260376 -10.62948 10.84791,-4.654219 -10.04677 11.06464,-3.415583 -9.289583 10.24304,-3.749548 -7.953482 10.48333,-3.913767 -7.109746 10.667,-3.992025 -6.371425 10.84903,-2.987331 -8.936522 10.24829,-3.271737 -7.402595 10.44287,-3.271737 -7.402595 10.44287,-3.561352 -5.598581 10.88726,-2.538646 -8.872921 10.35137,-2.736254 -7.420003 10.54438,-2.904419 -6.498174 10.75562,-3.035728 -5.705499 10.93959,-2.053969 -9.08993 10.49177,-2.031314 -7.910064 10.67882,-2.064422 -7.184803 10.86093,-2.099442 -6.525351 11.02802,-9.546477 -12.28292 14.20198,-8.67625 -11.90432 14.45049,-7.972795 -10.9169 14.68043,-7.548457 -9.950853 14.99131,-7.16347 -9.297102 15.31899,-8.422802 -8.5583 14.31705,-8.211055 -7.04541 14.51796,-8.10416 -6.112676 14.73221,-8.019456 -5.281538 14.89657,-8.881773 -8.289471 14.47181,-8.707747 -6.574638 14.62577,-8.587049 -5.499267 14.89538,-8.497544 -4.538717 15.10936,-9.349687 -8.372478 14.68122,-9.227848 -6.770988 14.86909,-9.109618 -5.782174 15.11413,-8.998404 -4.938579 15.31049,-9.85062 -8.747835 14.91482,-9.884227 -7.447932 15.15401,-9.872152 -6.609004 15.35665,-9.829215 -5.818088 15.50375,3.510, 1 0
-2.466852 -12.52724 10.61351,-3.309333 -12.22054 11.00716,-4.040059 -11.32703 11.21177,-4.527485 -10.41053 11.45914,-4.960106 -9.684093 11.73649,-3.651999 -9.314098 10.66547,-3.951509 -7.96628 10.8567,-4.12269 -7.132135 10.99614,-4.248608 -6.394346 11.12282,-3.203541 -9.01664 10.68354,-3.430327 -7.489227 10.79604,-3.430327 -7.489227 10.79604,-3.737562 -5.653404 11.13364,-2.74898 -9.002863 10.80398,-2.866251 -7.567955 10.92885,-3.026028 -6.646693 11.10456,-3.162439 -5.841644 11.25329,-2.280944 -9.264088 10.98132,-2.235862 -8.129816 11.11575,-2.279678 -7.414815 11.28028,-2.332094 -6.767344 11.41061,-9.511857 -12.39989 14.27316,-8.636391 -12.02498 14.51464,-7.934836 -11.00474 14.72628,-7.517931 -10.00699 15.01413,-7.131354 -9.379942 15.31743,-8.373874 -8.65773 14.33977,-8.161325 -7.167876 14.49462,-8.054165 -6.259462 14.68035,-7.968637 -5.449956 14.82154,-8.842302 -8.381838 14.45965,-8.653295 -6.66813 14.55765,-8.536314 -5.626243 14.79186,-8.440405 -4.691511 14.97871,-9.304981 -8.456835 14.63054,-9.172784 -6.83523 14.78376,-9.079011 -5.848601 15.01157,-8.981193 -5.002254 15.18087,-9.79055 -8.83252 14.82271,-9.825001 -7.560642 15.02404,-9.834092 -6.745343 15.20735,-9.80595 -5.975453 15.34183,3.610, 1 0
-2.664848 -12.69564 10.80725,-3.495417 -12.3761 11.07911,-4.190437 -11.50263 11.22623,-4.653004 -10.66555 11.44277,-5.032732 -10.04149 11.7019,-3.790005 -9.406971 10.65796,-4.052029 -8.074459 10.83429,-4.211077 -7.273149 10.96011,-4.330288 -6.578544 11.06839,-3.366355 -9.121098 10.75908,-3.558817 -7.594175 10.86428,-3.558817 -7.594175 10.86428,-3.878357 -5.773695 11.21466,-2.935703 -9.140863 10.96762,-3.038671 -7.695138 11.11039,-3.195004 -6.799089 11.29038,-3.32173 -6.016313 11.42012,-2.48191 -9.45174 11.2259,-2.446041 -8.318207 11.3821,-2.514376 -7.589651 11.56937,-2.587259 -6.913854 11.7024,-9.460285 -12.4412 14.18906,-8.576017 -11.99837 14.37172,-7.888572 -10.98957 14.56641,-7.468794 -10.02549 14.84311,-7.071918 -9.395227 15.14226,-8.319616 -8.711977 14.2306,-8.086106 -7.2492 14.40676,-7.954543 -6.392993 14.60563,-7.847092 -5.620838 14.74276,-8.785569 -8.449104 14.39132,-8.600494 -6.733345 14.5112,-8.48087 -5.712899 14.77618,-8.380191 -4.782539 14.97763,-9.244969 -8.541719 14.59468,-9.122099 -6.918867 14.77852,-9.031329 -5.932827 15.04811,-8.922933 -5.067541 15.24655,-9.725659 -8.92725 14.81437,-9.759097 -7.667852 15.0474,-9.755195 -6.860475 15.25883,-9.705937 -6.093189 15.41036,3.710, 1 0
-2.749324 -12.84086 11.03974,-3.577542 -12.49103 11.22239,-4.288271 -11.50004 11.30346,-4.773485 -10.61547 11.46902,-5.238145 -10.05226 11.67072,-3.877465 -9.466002 10.85704,-4.159462 -8.135473 10.9895,-4.332301 -7.346001 11.08237,-4.463511 -6.621698 11.17193,-3.464006 -9.201258 10.98802,-3.685997 -7.71041 11.09695,-3.685997 -7.71041 11.09695,-4.009247 -5.948085 11.40081,-3.037019 -9.216316 11.21161,-3.160151 -7.778111 11.37442,-3.318424 -6.864742 11.51849,-3.46158 -6.066322 11.64997,-2.582539 -9.498821 11.48988,-2.521636 -8.361753 11.64801,-2.549803 -7.61173 11.80931,-2.59346 -6.915561 11.92415,-9.334079 -12.20143 13.81227,-8.490946 -11.77068 13.99879,-7.765329 -10.81756 14.1833,-7.294227 -9.908924 14.46033,-6.881046 -9.31949 14.76777,-8.179705 -8.616783 13.79174,-7.941413 -7.203348 13.94326,-7.80823 -6.39356 14.14657,-7.690555 -5.678443 14.29588,-8.620775 -8.323267 13.96366,-8.420395 -6.627016 14.0587,-8.294487 -5.619133 14.3226,-8.166328 -4.727924 14.53792,-9.063009 -8.357159 14.18456,-8.922132 -6.765756 14.33399,-8.817717 -5.780624 14.58911,-8.676805 -4.935311 14.80052,-9.532302 -8.676973 14.43644,-9.590608 -7.462965 14.62771,-9.608946 -6.70078 14.81009,-9.569966 -5.986328 14.94538,3.810, 1 0
-3.075911 -13.56307 11.15313,-3.949301 -13.24549 11.07942,-4.517614 -12.38906 11.07662,-4.928493 -11.68521 11.22756,-5.353998 -11.14964 11.38014,-4.046353 -10.12433 10.39998,-4.250974 -8.783291 10.42854,-4.414165 -8.017639 10.47884,-4.544167 -7.428341 10.53333,-3.673867 -9.896814 10.70123,-3.809526 -8.370041 10.72064,-3.809526 -8.370041 10.72064,-4.109131 -6.576847 11.03946,-3.301096 -9.929363 11.07725,-3.37996 -8.454813 11.13113,-3.50997 -7.497701 11.25631,-3.604834 -6.683641 11.36087,-2.939306 -10.24615 11.47509,-2.902159 -9.027407 11.5657,-2.973672 -8.234827 11.64219,-3.054203 -7.541565 11.71376,-9.07121 -12.68979 13.50676,-8.297359 -12.33998 13.59147,-7.60586 -11.45197 13.69832,-7.119855 -10.72553 13.92735,-6.672589 -10.34196 14.16002,-7.983025 -9.177946 13.30783,-7.706018 -7.828636 13.469,-7.552948 -7.096183 13.66208,-7.404117 -6.469516 13.80499,-8.395864 -8.890598 13.52907,-8.147015 -7.330772 13.69291,-7.961621 -6.470482 14.01836,-7.754026 -5.750522 14.23937,-8.817676 -8.938692 13.78437,-8.69935 -7.460985 13.96651,-8.554143 -6.730334 14.25895,-8.342703 -6.177574 14.46171,-9.254387 -9.296295 14.06393,-9.338541 -8.113846 14.32906,-9.300019 -7.411283 14.5441,-9.171658 -6.813976 14.67549,3.910, 1 0
-3.186306 -14.1545 9.243713,-4.021606 -13.96827 9.330173,-4.549746 -13.14676 9.447029,-4.906342 -12.60253 9.671999,-5.29339 -12.17248 9.908875,-4.210054 -11.0989 9.117192,-4.359573 -9.896488 9.289986,-4.538092 -9.174484 9.449613,-4.703541 -8.594362 9.580012,-3.810019 -11.02123 9.35113,-3.831412 -9.661196 9.510346,-3.831412 -9.661196 9.510346,-3.981457 -8.084387 9.916207,-3.424677 -11.26294 9.64988,-3.367012 -10.11022 9.870588,-3.415319 -9.353456 10.0517,-3.442587 -8.765484 10.21683,-3.062473 -11.78472 9.977257,-2.986692 -11.03621 10.27787,-3.019372 -10.54707 10.51146,-3.041985 -10.19562 10.72219,-9.040223 -13.03393 13.17141,-8.227422 -12.77378 13.26733,-7.518222 -11.9481 13.40011,-7.024701 -11.31708 13.65649,-6.583868 -10.97118 13.90183,-7.773936 -9.638691 13.04735,-7.570037 -8.276352 13.2436,-7.400729 -7.543586 13.46439,-7.180765 -6.963594 13.62781,-8.176698 -9.37291 13.28157,-8.002331 -7.861441 13.49923,-7.807372 -7.090206 13.82378,-7.553159 -6.580151 14.0413,-8.602365 -9.408432 13.54042,-8.536498 -7.946025 13.73391,-8.345639 -7.2519 14.03656,-8.05822 -6.848356 14.2266,-9.079101 -9.746895 13.84047,-9.105587 -8.604807 14.08377,-8.970674 -8.000347 14.24272,-8.735518 -7.645746 14.33075,4.010, 1 0
-3.186306 -14.1545 9.243713,-4.021606 -13.96827 9.330173,-4.549746 -13.14676 9.447029,-4.906342 -12.60253 9.671999,-5.29339 -12.17248 9.908875,-4.210054 -11.0989 9.117192,-4.359573 -9.896488 9.289986,-4.538092 -9.174484 9.449613,-4.703541 -8.594362 9.580012,-3.810019 -11.02123 9.35113,-3.831412 -9.661196 9.510346,-3.831412 -9.661196 9.510346,-3.981457 -8.084387 9.916207,-3.424677 -11.26294 9.64988,-3.367012 -10.11022 9.870588,-3.415319 -9.353456 10.0517,-3.442587 -8.765484 10.21683,-3.062473 -11.78472 9.977257,-2.986692 -11.03621 10.27787,-3.019372 -10.54707 10.51146,-3.041985 -10.19562 10.72219,-8.934769 -12.67264 9.314657,-8.052065 -12.20082 9.252191,-7.314427 -11.81574 9.60709,-6.85641 -11.78773 10.02057,-6.615016 -11.96634 10.47723,-7.373841 -10.65997 10.78099,-6.709946 -11.48282 11.58509,-6.601297 -12.48734 11.7643,-6.629299 -13.08424 11.71218,-7.792444 -11.04131 11.07947,-7.092556 -12.35209 11.73643,-6.932858 -13.17981 11.60763,-6.939688 -13.51718 11.502,-8.22905 -11.6961 11.35592,-7.585505 -12.86029 11.94153,-7.454323 -13.55805 11.69233,-7.504959 -13.81297 11.4834,-8.637679 -12.45824 11.62635,-8.092835 -13.27166 11.94384,-7.9333 -13.69956 11.80464,-7.950414 -13.87233 11.72445,4.110, 1 0
-3.186306 -14.1545 9.243713,-4.021606 -13.96827 9.330173,-4.549746 -13.14676 9.447029,-4.906342 -12.60253 9.671999,-5.29339 -12.17248 9.908875,-4.210054 -11.0989 9.117192,-4.359573 -9.896488 9.289986,-4.538092 -9.174484 9.449613,-4.703541 -8.594362 9.580012,-3.810019 -11.02123 9.35113,-3.831412 -9.661196 9.510346,-3.831412 -9.661196 9.510346,-3.981457 -8.084387 9.916207,-3.424677 -11.26294 9.64988,-3.367012 -10.11022 9.870588,-3.415319 -9.353456 10.0517,-3.442587 -8.765484 10.21683,-3.062473 -11.78472 9.977257,-2.986692 -11.03621 10.27787,-3.019372 -10.54707 10.51146,-3.041985 -10.19562 10.72219,-8.934769 -12.67264 9.314657,-8.052065 -12.20082 9.252191,-7.314427 -11.81574 9.60709,-6.85641 -11.78773 10.02057,-6.615016 -11.96634 10.47723,-7.373841 -10.65997 10.78099,-6.709946 -11.48282 11.58509,-6.601297 -12.48734 11.7643,-6.629299 -13.08424 11.71218,-7.792444 -11.04131 11.07947,-7.092556 -12.35209 11.73643,-6.932858 -13.17981 11.60763,-6.939688 -13.51718 11.502,-8.22905 -11.6961 11.35592,-7.585505 -12.86029 11.94153,-7.454323 -13.55805 11.69233,-7.504959 -13.81297 11.4834,-8.637679 -12.45824 11.62635,-8.092835 -13.27166 11.94384,-7.9333 -13.69956 11.80464,-7.950414 -13.87233 11.72445,4.210, 1 0
-3.186306 -14.1545 9.243713,-4.021606 -13.96827 9.330173,-4.549746 -13.14676 9.447029,-4.906342 -12.60253 9.671999,-5.29339 -12.17248 9.908875,-4.210054 -11.0989 9.117192,-4.359573 -9.896488 9.289986,-4.538092 -9.174484 9.449613,-4.703541 -8.594362 9.580012,-3.810019 -11.02123 9.35113,-3.831412 -9.661196 9.510346,-3.831412 -9.661196 9.510346,-3.981457 -8.084387 9.916207,-3.424677 -11.26294 9.64988,-3.367012 -10.11022 9.870588,-3.415319 -9.353456 10.0517,-3.442587 -8.765484 10.21683,-3.062473 -11.78472 9.977257,-2.986692 -11.03621 10.27787,-3.019372 -10.54707 10.51146,-3.041985 -10.19562 10.72219,-8.934769 -12.67264 9.314657,-8.052065 -12.20082 9.252191,-7.314427 -11.81574 9.60709,-6.85641 -11.78773 10.02057,-6.615016 -11.96634 10.47723,-7.373841 -10.65997 10.78099,-6.709946 -11.48282 11.58509,-6.601297 -12.48734 11.7643,-6.629299 -13.08424 11.71218,-7.792444 -11.04131 11.07947,-7.092556 -12.35209 11.73643,-6.932858 -13.17981 11.60763,-6.939688 -13.51718 11.502,-8.22905 -11.6961 11.35592,-7.585505 -12.86029 11.94153,-7.454323 -13.55805 11.69233,-7.504959 -13.81297 11.4834,-8.637679 -12.45824 11.62635,-8.092835 -13.27166 11.94384,-7.9333 -13.69956 11.80464,-7.950414 -13.87233 11.72445,4.310, 1 0
-3.186306 -14.1545 9.243713,-4.021606 -13.96827 9.330173,-4.549746 -13.14676 9.447029,-4.906342 -12.60253 9.671999,-5.29339 -12.17248 9.908875,-4.210054 -11.0989 9.117192,-4.359573 -9.896488 9.289986,-4.538092 -9.174484 9.449613,-4.703541 -8.594362 9.580012,-3.810019 -11.02123 9.35113,-3.831412 -9.661196 9.510346,-3.831412 -9.661196 9.510346,-3.981457 -8.084387 9.916207,-3.424677 -11.26294 9.64988,-3.367012 -10.11022 9.870588,-3.415319 -9.353456 10.0517,-3.442587 -8.765484 10.21683,-3.062473 -11.78472 9.977257,-2.986692 -11.03621 10.27787,-3.019372 -10.54707 10.51146,-3.041985 -10.19562 10.72219,-8.934769 -12.67264 9.314657,-8.052065 -12.20082 9.252191,-7.314427 -11.81574 9.60709,-6.85641 -11.78773 10.02057,-6.615016 -11.96634 10.47723,-7.373841 -10.65997 10.78099,-6.709946 -11.48282 11.58509,-6.601297 -12.48734 11.7643,-6.629299 -13.08424 11.71218,-7.792444 -11.04131 11.07947,-7.092556 -12.35209 11.73643,-6.932858 -13.17981 11.60763,-6.939688 -13.51718 11.502,-8.22905 -11.6961 11.35592,-7.585505 -12.86029 11.94153,-7.454323 -13.55805 11.69233,-7.504959 -13.81297 11.4834,-8.637679 -12.45824 11.62635,-8.092835 -13.27166 11.94384,-7.9333 -13.69956 11.80464,-7.950414 -13.87233 11.72445,4.410, 1 0
-3.186306 -14.1545 9.243713,-4.021606 -13.96827 9.330173,-4.549746 -13.14676 9.447029,-4.906342 -12.60253 9.671999,-5.29339 -12.17248 9.908875,-4.210054 -11.0989 9.117192,-4.359573 -9.896488 9.289986,-4.538092 -9.174484 9.449613,-4.703541 -8.594362 9.580012,-3.810019 -11.02123 9.35113,-3.831412 -9.661196 9.510346,-3.831412 -9.661196 9.510346,-3.981457 -8.084387 9.916207,-3.424677 -11.26294 9.64988,-3.367012 -10.11022 9.870588,-3.415319 -9.353456 10.0517,-3.442587 -8.765484 10.21683,-3.062473 -11.78472 9.977257,-2.986692 -11.03621 10.27787,-3.019372 -10.54707 10.51146,-3.041985 -10.19562 10.72219,-8.934769 -12.67264 9.314657,-8.052065 -12.20082 9.252191,-7.314427 -11.81574 9.60709,-6.85641 -11.78773 10.02057,-6.615016 -11.96634 10.47723,-7.373841 -10.65997 10.78099,-6.709946 -11.48282 11.58509,-6.601297 -12.48734 11.7643,-6.629299 -13.08424 11.71218,-7.792444 -11.04131 11.07947,-7.092556 -12.35209 11.73643,-6.932858 -13.17981 11.60763,-6.939688 -13.51718 11.502,-8.22905 -11.6961 11.35592,-7.585505 -12.86029 11.94153,-7.454323 -13.55805 11.69233,-7.504959 -13.81297 11.4834,-8.637679 -12.45824 11.62635,-8.092835 -13.27166 11.94384,-7.9333 -13.69956 11.80464,-7.950414 -13.87233 11.72445,4.510, 1 0
-2.517839 -12.95549 12.55888,-3.416228 -12.3307 12.0149,-3.896292 -11.1738 11.76191,-4.124373 -10.20356 11.65831,-4.312618 -9.539415 11.46436,-3.756989 -9.208147 11.80071,-4.090087 -7.58012 11.70371,-4.249474 -6.91785 11.61318,-4.378296 -6.518349 11.54871,-3.370052 -8.921659 12.14482,-3.647799 -6.944835 12.02524,-3.647799 -6.944835 12.02524,-3.985171 -5.910766 11.75599,-2.990731 -8.969231 12.48034,-3.182496 -7.195937 12.30205,-3.358191 -6.559577 12.0384,-3.50489 -6.21772 11.93919,-2.598428 -9.315319 12.78242,-2.638646 -7.920724 12.62507,-2.767247 -7.280266 12.44098,-2.896224 -6.908107 12.3475,-9.419302 -11.00759 12.43799,-8.675127 -11.05356 12.81674,-7.962261 -10.46725 13.08534,-7.476989 -9.885386 13.3479,-7.099828 -9.36289 13.56058,-8.125707 -7.957874 12.80723,-7.651076 -6.436265 13.1294,-7.364478 -5.968844 13.37768,-7.21177 -5.91792 13.54227,-8.492408 -7.604033 12.86713,-8.072563 -5.83802 13.18393,-7.836416 -5.317406 13.43927,-7.720875 -5.269292 13.55109,-8.89884 -7.58185 12.99086,-8.628598 -6.008165 13.24413,-8.479689 -5.415822 13.47341,-8.35183 -5.172101 13.62334,-9.355854 -7.869995 13.11791,-9.364173 -6.609775 13.40717,-9.305806 -6.05983 13.56627,-9.175565 -5.751844 13.60635,4.610, 1 0
-2.369832 -12.62027 12.59266,-3.268286 -11.90088 12.59925,-4.038273 -10.87918 12.67618,-4.524096 -10.00817 12.86284,-4.923662 -9.415289 13.11055,-3.722908 -8.818136 12.24797,-4.041225 -7.489491 12.37319,-4.188025 -6.778707 12.45701,-4.31995 -6.151617 12.52589,-3.325336 -8.579638 12.49411,-3.559841 -6.963701 12.61549,-3.559841 -6.963701 12.61549,-3.836775 -5.24385 12.98314,-2.926282 -8.622316 12.81266,-3.051657 -7.102088 12.99773,-3.182404 -6.295762 13.21366,-3.320371 -5.576928 13.36788,-2.493428 -8.954859 13.17062,-2.448859 -7.842498 13.35249,-2.477746 -7.155687 13.52308,-2.549338 -6.451208 13.64084,-9.575041 -11.02673 13.18758,-8.750783 -10.75544 13.39104,-7.972583 -9.984604 13.60201,-7.435695 -9.270237 13.89883,-7.017443 -8.765825 14.19424,-8.25342 -7.752317 13.18584,-7.92212 -6.466722 13.33515,-7.737297 -5.700472 13.50948,-7.575493 -5.001383 13.64444,-8.637089 -7.380971 13.34079,-8.30657 -5.833591 13.44024,-8.09218 -4.884076 13.67697,-7.918489 -4.052564 13.87756,-9.050282 -7.333413 13.54528,-8.801762 -5.850549 13.66904,-8.587969 -4.929806 13.8937,-8.371359 -4.144733 14.06923,-9.507415 -7.568384 13.76871,-9.458997 -6.377677 13.96052,-9.366178 -5.617295 14.1512,-9.240446 -4.935169 14.28901,4.710, 1 0
-2.298818 -12.82896 9.749754,-3.139233 -12.5063 9.428611,-3.737817 -11.6304 9.330843,-4.116701 -10.8864 9.211008,-4.344469 -10.21684 8.977854,-3.576807 -9.800657 9.589822,-3.895782 -8.113842 9.40427,-4.018026 -7.461953 9.109336,-4.106844 -7.170664 8.870584,-3.09972 -9.588438 9.607522,-3.42041 -7.729088 9.406028,-3.42041 -7.729088 9.406028,-3.685104 -6.555034 8.759842,-2.642647 -9.682156 9.592766,-2.923237 -8.007404 9.356269,-3.103178 -7.310098 8.98168,-3.249706 -6.992439 8.711418,-2.222404 -9.987358 9.527713,-2.376587 -8.750546 9.234881,-2.532987 -8.296576 8.937247,-2.677376 -8.126806 8.714827,-9.506269 -11.74723 12.0419,-8.690467 -11.79938 12.24165,-7.957018 -11.05274 12.36966,-7.468036 -10.2887 12.55042,-7.064906 -9.779905 12.6219,-8.330446 -8.786507 12.00057,-7.896965 -7.392387 12.05445,-7.654132 -6.64541 12.09976,-7.439404 -6.034122 12.15754,-8.687788 -8.405766 12.06136,-8.260793 -6.773611 12.14116,-8.037888 -5.942382 12.29028,-7.83994 -5.190097 12.37927,-9.055063 -8.329601 12.17668,-8.738484 -6.803628 12.26733,-8.539949 -5.968462 12.42784,-8.304628 -5.229621 12.5665,-9.45856 -8.545057 12.2957,-9.373806 -7.339872 12.45201,-9.293902 -6.634643 12.62703,-9.143547 -5.983199 12.72389,4.810, 1 0
-2.298818 -12.82896 9.749754,-3.139233 -12.5063 9.428611,-3.737817 -11.6304 9.330843,-4.116701 -10.8864 9.211008,-4.344469 -10.21684 8.977854,-3.576807 -9.800657 9.589822,-3.895782 -8.113842 9.40427,-4.018026 -7.461953 9.109336,-4.106844 -7.170664 8.870584,-3.09972 -9.588438 9.607522,-3.42041 -7.729088 9.406028,-3.42041 -7.729088 9.406028,-3.685104 -6.555034 8.759842,-2.642647 -9.682156 9.592766,-2.923237 -8.007404 9.356269,-3.103178 -7.310098 8.98168,-3.249706 -6.992439 8.711418,-2.222404 -9.987358 9.527713,-2.376587 -8.750546 9.234881,-2.532987 -8.296576 8.937247,-2.677376 -8.126806 8.714827,-9.506269 -11.74723 12.0419,-8.690467 -11.79938 12.24165,-7.957018 -11.05274 12.36966,-7.468036 -10.2887 12.55042,-7.064906 -9.779905 12.6219,-8.330446 -8.786507 12.00057,-7.896965 -7.392387 12.05445,-7.654132 -6.64541 12.09976,-7.439404 -6.034122 12.15754,-8.687788 -8.405766 12.06136,-8.260793 -6.773611 12.14116,-8.037888 -5.942382 12.29028,-7.83994 -5.190097 12.37927,-9.055063 -8.329601 12.17668,-8.738484 -6.803628 12.26733,-8.539949 -5.968462 12.42784,-8.304628 -5.229621 12.5665,-9.45856 -8.545057 12.2957,-9.373806 -7.339872 12.45201,-9.293902 -6.634643 12.62703,-9.143547 -5.983199 12.72389,4.910, 1 0
-2.298818 -12.82896 9.749754,-3.139233 -12.5063 9.428611,-3.737817 -11.6304 9.330843,-4.116701 -10.8864 9.211008,-4.344469 -10.21684 8.977854,-3.576807 -9.800657 9.589822,-3.895782 -8.113842 9.40427,-4.018026 -7.461953 9.109336,-4.106844 -7.170664 8.870584,-3.09972 -9.588438 9.607522,-3.42041 -7.729088 9.406028,-3.42041 -7.729088 9.406028,-3.685104 -6.555034 8.759842,-2.642647 -9.682156 9.592766,-2.923237 -8.007404 9.356269,-3.103178 -7.310098 8.98168,-3.249706 -6.992439 8.711418,-2.222404 -9.987358 9.527713,-2.376587 -8.750546 9.234881,-2.532987 -8.296576 8.937247,-2.677376 -8.126806 8.714827,-9.506269 -11.74723 12.0419,-8.690467 -11.79938 12.24165,-7.957018 -11.05274 12.36966,-7.468036 -10.2887 12.55042,-7.064906 -9.779905 12.6219,-8.330446 -8.786507 12.00057,-7.896965 -7.392387 12.05445,-7.654132 -6.64541 12.09976,-7.439404 -6.034122 12.15754,-8.687788 -8.405766 12.06136,-8.260793 -6.773611 12.14116,-8.037888 -5.942382 12.29028,-7.83994 -5.190097 12.37927,-9.055063 -8.329601 12.17668,-8.738484 -6.803628 12.26733,-8.539949 -5.968462 12.42784,-8.304628 -5.229621 12.5665,-9.45856 -8.545057 12.2957,-9.373806 -7.339872 12.45201,-9.293902 -6.634643 12.62703,-9.143547 -5.983199 12.72389,5.010, 1 0
-2.298818 -12.82896 9.749754,-3.139233 -12.5063 9.428611,-3.737817 -11.6304 9.330843,-4.116701 -10.8864 9.211008,-4.344469 -10.21684 8.977854,-3.576807 -9.800657 9.589822,-3.895782 -8.113842 9.40427,-4.018026 -7.461953 9.109336,-4.106844 -7.170664 8.870584,-3.09972 -9.588438 9.607522,-3.42041 -7.729088 9.406028,-3.42041 -7.729088 9.406028,-3.685104 -6.555034 8.759842,-2.642647 -9.682156 9.592766,-2.923237 -8.007404 9.356269,-3.103178 -7.310098 8.98168,-3.249706 -6.992439 8.711418,-2.222404 -9.987358 9.527713,-2.376587 -8.750546 9.234881,-2.532987 -8.296576 8.937247,-2.677376 -8.126806 8.714827,-9.506269 -11.74723 12.0419,-8.690467 -11.79938 12.24165,-7.957018 -11.05274 12.36966,-7.468036 -10.2887 12.55042,-7.064906 -9.779905 12.6219,-8.330446 -8.786507 12.00057,-7.896965 -7.392387 12.05445,-7.654132 -6.64541 12.09976,-7.439404 -6.034122 12.15754,-8.687788 -8.405766 12.06136,-8.260793 -6.773611 12.14116,-8.037888 -5.942382 12.29028,-7.83994 -5.190097 12.37927,-9.055063 -8.329601 12.17668,-8.738484 -6.803628 12.26733,-8.539949 -5.968462 12.42784,-8.304628 -5.229621 12.5665,-9.45856 -8.545057 12.2957,-9.373806 -7.339872 12.45201,-9.293902 -6.634643 12.62703,-9.143547 -5.983199 12.72389,5.110, 1 0
-2.298818 -12.82896 9.749754,-3.139233 -12.5063 9.428611,-3.737817 -11.6304 9.330843,-4.116701 -10.8864 9.211008,-4.344469 -10.21684 8.977854,-3.576807 -9.800657 9.589822,-3.895782 -8.113842 9.40427,-4.018026 -7.461953 9.109336,-4.106844 -7.170664 8.870584,-3.09972 -9.588438 9.607522,-3.42041 -7.729088 9.406028,-3.42041 -7.729088 9.406028,-3.685104 -6.555034 8.759842,-2.642647 -9.682156 9.592766,-2.923237 -8.007404 9.356269,-3.103178 -7.310098 8.98168,-3.249706 -6.992439 8.711418,-2.222404 -9.987358 9.527713,-2.376587 -8.750546 9.234881,-2.532987 -8.296576 8.937247,-2.677376 -8.126806 8.714827,-9.506269 -11.74723 12.0419,-8.690467 -11.79938 12.24165,-7.957018 -11.05274 12.36966,-7.468036 -10.2887 12.55042,-7.064906 -9.779905 12.6219,-8.330446 -8.786507 12.00057,-7.896965 -7.392387 12.05445,-7.654132 -6.64541 12.09976,-7.439404 -6.034122 12.15754,-8.687788 -8.405766 12.06136,-8.260793 -6.773611 12.14116,-8.037888 -5.942382 12.29028,-7.83994 -5.190097 12.37927,-9.055063 -8.329601 12.17668,-8.738484 -6.803628 12.26733,-8.539949 -5.968462 12.42784,-8.304628 -5.229621 12.5665,-9.45856 -8.545057 12.2957,-9.373806 -7.339872 12.45201,-9.293902 -6.634643 12.62703,-9.143547 -5.983199 12.72389,5.210, 1 0
-2.298818 -12.82896 9.749754,-3.139233 -12.5063 9.428611,-3.737817 -11.6304 9.330843,-4.116701 -10.8864 9.211008,-4.344469 -10.21684 8.977854,-3.576807 -9.800657 9.589822,-3.895782 -8.113842 9.40427,-4.018026 -7.461953 9.109336,-4.106844 -7.170664 8.870584,-3.09972 -9.588438 9.607522,-3.42041 -7.729088 9.406028,-3.42041 -7.729088 9.406028,-3.685104 -6.555034 8.759842,-2.642647 -9.682156 9.592766,-2.923237 -8.007404 9.356269,-3.103178 -7.310098 8.98168,-3.249706 -6.992439 8.711418,-2.222404 -9.987358 9.527713,-2.376587 -8.750546 9.234881,-2.532987 -8.296576 8.937247,-2.677376 -8.126806 8.714827,-9.506269 -11.74723 12.0419,-8.690467 -11.79938 12.24165,-7.957018 -11.05274 12.36966,-7.468036 -10.2887 12.55042,-7.064906 -9.779905 12.6219,-8.330446 -8.786507 12.00057,-7.896965 -7.392387 12.05445,-7.654132 -6.64541 12.09976,-7.439404 -6.034122 12.15754,-8.687788 -8.405766 12.06136,-8.260793 -6.773611 12.14116,-8.037888 -5.942382 12.29028,-7.83994 -5.190097 12.37927,-9.055063 -8.329601 12.17668,-8.738484 -6.803628 12.26733,-8.539949 -5.968462 12.42784,-8.304628 -5.229621 12.5665,-9.45856 -8.545057 12.2957,-9.373806 -7.339872 12.45201,-9.293902 -6.634643 12.62703,-9.143547 -5.983199 12.72389,5.310, 1 0
-2.298818 -12.82896 9.749754,-3.139233 -12.5063 9.428611,-3.737817 -11.6304 9.330843,-4.116701 -10.8864 9.211008,-4.344469 -10.21684 8.977854,-3.576807 -9.800657 9.589822,-3.895782 -8.113842 9.40427,-4.018026 -7.461953 9.109336,-4.106844 -7.170664 8.870584,-3.09972 -9.588438 9.607522,-3.42041 -7.729088 9.406028,-3.42041 -7.729088 9.406028,-3.685104 -6.555034 8.759842,-2.642647 -9.682156 9.592766,-2.923237 -8.007404 9.356269,-3.103178 -7.310098 8.98168,-3.249706 -6.992439 8.711418,-2.222404 -9.987358 9.527713,-2.376587 -8.750546 9.234881,-2.532987 -8.296576 8.937247,-2.677376 -8.126806 8.714827,-9.506269 -11.74723 12.0419,-8.690467 -11.79938 12.24165,-7.957018 -11.05274 12.36966,-7.468036 -10.2887 12.55042,-7.064906 -9.779905 12.6219,-8.330446 -8.786507 12.00057,-7.896965 -7.392387 12.05445,-7.654132 -6.64541 12.09976,-7.439404 -6.034122 12.15754,-8.687788 -8.405766 12.06136,-8.260793 -6.773611 12.14116,-8.037888 -5.942382 12.29028,-7.83994 -5.190097 12.37927,-9.055063 -8.329601 12.17668,-8.738484 -6.803628 12.26733,-8.539949 -5.968462 12.42784,-8.304628 -5.229621 12.5665,-9.45856 -8.545057 12.2957,-9.373806 -7.339872 12.45201,-9.293902 -6.634643 12.62703,-9.143547 -5.983199 12.72389,5.410, 1 0
-2.298818 -12.82896 9.749754,-3.139233 -12.5063 9.428611,-3.737817 -11.6304 9.330843,-4.116701 -10.8864 9.211008,-4.344469 -10.21684 8.977854,-3.576807 -9.800657 9.589822,-3.895782 -8.113842 9.40427,-4.018026 -7.461953 9.109336,-4.106844 -7.170664 8.870584,-3.09972 -9.588438 9.607522,-3.42041 -7.729088 9.406028,-3.42041 -7.729088 9.406028,-3.685104 -6.555034 8.759842,-2.642647 -9.682156 9.592766,-2.923237 -8.007404 9.356269,-3.103178 -7.310098 8.98168,-3.249706 -6.992439 8.711418,-2.222404 -9.987358 9.527713,-2.376587 -8.750546 9.234881,-2.532987 -8.296576 8.937247,-2.677376 -8.126806 8.714827,-9.506269 -11.74723 12.0419,-8.690467 -11.79938 12.24165,-7.957018 -11.05274 12.36966,-7.468036 -10.2887 12.55042,-7.064906 -9.779905 12.6219,-8.330446 -8.786507 12.00057,-7.896965 -7.392387 12.05445,-7.654132 -6.64541 12.09976,-7.439404 -6.034122 12.15754,-8.687788 -8.405766 12.06136,-8.260793 -6.773611 12.14116,-8.037888 -5.942382 12.29028,-7.83994 -5.190097 12.37927,-9.055063 -8.329601 12.17668,-8.738484 -6.803628 12.26733,-8.539949 -5.968462 12.42784,-8.304628 -5.229621 12.5665,-9.45856 -8.545057 12.2957,-9.373806 -7.339872 12.45201,-9.293902 -6.634643 12.62703,-9.143547 -5.983199 12.72389,5.510, 1 0
-2.298818 -12.82896 9.749754,-3.139233 -12.5063 9.428611,-3.737817 -11.6304 9.330843,-4.116701 -10.8864 9.211008,-4.344469 -10.21684 8.977854,-3.576807 -9.800657 9.589822,-3.895782 -8.113842 9.40427,-4.018026 -7.461953 9.109336,-4.106844 -7.170664 8.870584,-3.09972 -9.588438 9.607522,-3.42041 -7.729088 9.406028,-3.42041 -7.729088 9.406028,-3.685104 -6.555034 8.759842,-2.642647 -9.682156 9.592766,-2.923237 -8.007404 9.356269,-3.103178 -7.310098 8.98168,-3.249706 -6.992439 8.711418,-2.222404 -9.987358 9.527713,-2.376587 -8.750546 9.234881,-2.532987 -8.296576 8.937247,-2.677376 -8.126806 8.714827,-9.506269 -11.74723 12.0419,-8.690467 -11.79938 12.24165,-7.957018 -11.05274 12.36966,-7.468036 -10.2887 12.55042,-7.064906 -9.779905 12.6219,-8.330446 -8.786507 12.00057,-7.896965 -7.392387 12.05445,-7.654132 -6.64541 12.09976,-7.439404 -6.034122 12.15754,-8.687788 -8.405766 12.06136,-8.260793 -6.773611 12.14116,-8.037888 -5.942382 12.29028,-7.83994 -5.190097 12.37927,-9.055063 -8.329601 12.17668,-8.738484 -6.803628 12.26733,-8.539949 -5.968462 12.42784,-8.304628 -5.229621 12.5665,-9.45856 -8.545057 12.2957,-9.373806 -7.339872 12.45201,-9.293902 -6.634643 12.62703,-9.143547 -5.983199 12.72389,5.610, 1 0
-2.298818 -12.82896 9.749754,-3.139233 -12.5063 9.428611,-3.737817 -11.6304 9.330843,-4.116701 -10.8864 9.211008,-4.344469 -10.21684 8.977854,-3.576807 -9.800657 9.589822,-3.895782 -8.113842 9.40427,-4.018026 -7.461953 9.109336,-4.106844 -7.170664 8.870584,-3.09972 -9.588438 9.607522,-3.42041 -7.729088 9.406028,-3.42041 -7.729088 9.406028,-3.685104 -6.555034 8.759842,-2.642647 -9.682156 9.592766,-2.923237 -8.007404 9.356269,-3.103178 -7.310098 8.98168,-3.249706 -6.992439 8.711418,-2.222404 -9.987358 9.527713,-2.376587 -8.750546 9.234881,-2.532987 -8.296576 8.937247,-2.677376 -8.126806 8.714827,-9.506269 -11.74723 12.0419,-8.690467 -11.79938 12.24165,-7.957018 -11.05274 12.36966,-7.468036 -10.2887 12.55042,-7.064906 -9.779905 12.6219,-8.330446 -8.786507 12.00057,-7.896965 -7.392387 12.05445,-7.654132 -6.64541 12.09976,-7.439404 -6.034122 12.15754,-8.687788 -8.405766 12.06136,-8.260793 -6.773611 12.14116,-8.037888 -5.942382 12.29028,-7.83994 -5.190097 12.37927,-9.055063 -8.329601 12.17668,-8.738484 -6.803628 12.26733,-8.539949 -5.968462 12.42784,-8.304628 -5.229621 12.5665,-9.45856 -8.545057 12.2957,-9.373806 -7.339872 12.45201,-9.293902 -6.634643 12.62703,-9.143547 -5.983199 12.72389,5.710, 1 0
-2.298818 -12.82896 9.749754,-3.139233 -12.5063 9.428611,-3.737817 -11.6304 9.330843,-4.116701 -10.8864 9.211008,-4.344469 -10.21684 8.977854,-3.576807 -9.800657 9.589822,-3.895782 -8.113842 9.40427,-4.018026 -7.461953 9.109336,-4.106844 -7.170664 8.870584,-3.09972 -9.588438 9.607522,-3.42041 -7.729088 9.406028,-3.42041 -7.729088 9.406028,-3.685104 -6.555034 8.759842,-2.642647 -9.682156 9.592766,-2.923237 -8.007404 9.356269,-3.103178 -7.310098 8.98168,-3.249706 -6.992439 8.711418,-2.222404 -9.987358 9.527713,-2.376587 -8.750546 9.234881,-2.532987 -8.296576 8.937247,-2.677376 -8.126806 8.714827,-9.506269 -11.74723 12.0419,-8.690467 -11.79938 12.24165,-7.957018 -11.05274 12.36966,-7.468036 -10.2887 12.55042,-7.064906 -9.779905 12.6219,-8.330446 -8.786507 12.00057,-7.896965 -7.392387 12.05445,-7.654132 -6.64541 12.09976,-7.439404 -6.034122 12.15754,-8.687788 -8.405766 12.06136,-8.260793 -6.773611 12.14116,-8.037888 -5.942382 12.29028,-7.83994 -5.190097 12.37927,-9.055063 -8.329601 12.17668,-8.738484 -6.803628 12.26733,-8.539949 -5.968462 12.42784,-8.304628 -5.229621 12.5665,-9.45856 -8.545057 12.2957,-9.373806 -7.339872 12.45201,-9.293902 -6.634643 12.62703,-9.143547 -5.983199 12.72389,5.810, 1 0
-2.298818 -12.82896 9.749754,-3.139233 -12.5063 9.428611,-3.737817 -11.6304 9.330843,-4.116701 -10.8864 9.211008,-4.344469 -10.21684 8.977854,-3.576807 -9.800657 9.589822,-3.895782 -8.113842 9.40427,-4.018026 -7.461953 9.109336,-4.106844 -7.170664 8.870584,-3.09972 -9.588438 9.607522,-3.42041 -7.729088 9.406028,-3.42041 -7.729088 9.406028,-3.685104 -6.555034 8.759842,-2.642647 -9.682156 9.592766,-2.923237 -8.007404 9.356269,-3.103178 -7.310098 8.98168,-3.249706 -6.992439 8.711418,-2.222404 -9.987358 9.527713,-2.376587 -8.750546 9.234881,-2.532987 -8.296576 8.937247,-2.677376 -8.126806 8.714827,-9.506269 -11.74723 12.0419,-8.690467 -11.79938 12.24165,-7.957018 -11.05274 12.36966,-7.468036 -10.2887 12.55042,-7.064906 -9.779905 12.6219,-8.330446 -8.786507 12.00057,-7.896965 -7.392387 12.05445,-7.654132 -6.64541 12.09976,-7.439404 -6.034122 12.15754,-8.687788 -8.405766 12.06136,-8.260793 -6.773611 12.14116,-8.037888 -5.942382 12.29028,-7.83994 -5.190097 12.37927,-9.055063 -8.329601 12.17668,-8.738484 -6.803628 12.26733,-8.539949 -5.968462 12.42784,-8.304628 -5.229621 12.5665,-9.45856 -8.545057 12.2957,-9.373806 -7.339872 12.45201,-9.293902 -6.634643 12.62703,-9.143547 -5.983199 12.72389,5.910, 1 0
-2.298818 -12.82896 9.749754,-3.139233 -12.5063 9.428611,-3.737817 -11.6304 9.330843,-4.116701 -10.8864 9.211008,-4.344469 -10.21684 8.977854,-3.576807 -9.800657 9.589822,-3.895782 -8.113842 9.40427,-4.018026 -7.461953 9.109336,-4.106844 -7.170664 8.870584,-3.09972 -9.588438 9.607522,-3.42041 -7.729088 9.406028,-3.42041 -7.729088 9.406028,-3.685104 -6.555034 8.759842,-2.642647 -9.682156 9.592766,-2.923237 -8.007404 9.356269,-3.103178 -7.310098 8.98168,-3.249706 -6.992439 8.711418,-2.222404 -9.987358 9.527713,-2.376587 -8.750546 9.234881,-2.532987 -8.296576 8.937247,-2.677376 -8.126806 8.714827,-9.506269 -11.74723 12.0419,-8.690467 -11.79938 12.24165,-7.957018 -11.05274 12.36966,-7.468036 -10.2887 12.55042,-7.064906 -9.779905 12.6219,-8.330446 -8.786507 12.00057,-7.896965 -7.392387 12.05445,-7.654132 -6.64541 12.09976,-7.439404 -6.034122 12.15754,-8.687788 -8.405766 12.06136,-8.260793 -6.773611 12.14116,-8.037888 -5.942382 12.29028,-7.83994 -5.190097 12.37927,-9.055063 -8.329601 12.17668,-8.738484 -6.803628 12.26733,-8.539949 -5.968462 12.42784,-8.304628 -5.229621 12.5665,-9.45856 -8.545057 12.2957,-9.373806 -7.339872 12.45201,-9.293902 -6.634643 12.62703,-9.143547 -5.983199 12.72389,6.010, 1 0
-2.298818 -12.82896 9.749754,-3.139233 -12.5063 9.428611,-3.737817 -11.6304 9.330843,-4.116701 -10.8864 9.211008,-4.344469 -10.21684 8.977854,-3.576807 -9.800657 9.589822,-3.895782 -8.113842 9.40427,-4.018026 -7.461953 9.109336,-4.106844 -7.170664 8.870584,-3.09972 -9.588438 9.607522,-3.42041 -7.729088 9.406028,-3.42041 -7.729088 9.406028,-3.685104 -6.555034 8.759842,-2.642647 -9.682156 9.592766,-2.923237 -8.007404 9.356269,-3.103178 -7.310098 8.98168,-3.249706 -6.992439 8.711418,-2.222404 -9.987358 9.527713,-2.376587 -8.750546 9.234881,-2.532987 -8.296576 8.937247,-2.677376 -8.126806 8.714827,-9.506269 -11.74723 12.0419,-8.690467 -11.79938 12.24165,-7.957018 -11.05274 12.36966,-7.468036 -10.2887 12.55042,-7.064906 -9.779905 12.6219,-8.330446 -8.786507 12.00057,-7.896965 -7.392387 12.05445,-7.654132 -6.64541 12.09976,-7.439404 -6.034122 12.15754,-8.687788 -8.405766 12.06136,-8.260793 -6.773611 12.14116,-8.037888 -5.942382 12.29028,-7.83994 -5.190097 12.37927,-9.055063 -8.329601 12.17668,-8.738484 -6.803628 12.26733,-8.539949 -5.968462 12.42784,-8.304628 -5.229621 12.5665,-9.45856 -8.545057 12.2957,-9.373806 -7.339872 12.45201,-9.293902 -6.634643 12.62703,-9.143547 -5.983199 12.72389,6.110, 1 0
-2.298818 -12.82896 9.749754,-3.139233 -12.5063 9.428611,-3.737817 -11.6304 9.330843,-4.116701 -10.8864 9.211008,-4.344469 -10.21684 8.977854,-3.576807 -9.800657 9.589822,-3.895782 -8.113842 9.40427,-4.018026 -7.461953 9.109336,-4.106844 -7.170664 8.870584,-3.09972 -9.588438 9.607522,-3.42041 -7.729088 9.406028,-3.42041 -7.729088 9.406028,-3.685104 -6.555034 8.759842,-2.642647 -9.682156 9.592766,-2.923237 -8.007404 9.356269,-3.103178 -7.310098 8.98168,-3.249706 -6.992439 8.711418,-2.222404 -9.987358 9.527713,-2.376587 -8.750546 9.234881,-2.532987 -8.296576 8.937247,-2.677376 -8.126806 8.714827,-9.506269 -11.74723 12.0419,-8.690467 -11.79938 12.24165,-7.957018 -11.05274 12.36966,-7.468036 -10.2887 12.55042,-7.064906 -9.779905 12.6219,-8.330446 -8.786507 12.00057,-7.896965 -7.392387 12.05445,-7.654132 -6.64541 12.09976,-7.439404 -6.034122 12.15754,-8.687788 -8.405766 12.06136,-8.260793 -6.773611 12.14116,-8.037888 -5.942382 12.29028,-7.83994 -5.190097 12.37927,-9.055063 -8.329601 12.17668,-8.738484 -6.803628 12.26733,-8.539949 -5.968462 12.42784,-8.304628 -5.229621 12.5665,-9.45856 -8.545057 12.2957,-9.373806 -7.339872 12.45201,-9.293902 -6.634643 12.62703,-9.143547 -5.983199 12.72389,6.210, 1 0
-2.298818 -12.82896 9.749754,-3.139233 -12.5063 9.428611,-3.737817 -11.6304 9.330843,-4.116701 -10.8864 9.211008,-4.344469 -10.21684 8.977854,-3.576807 -9.800657 9.589822,-3.895782 -8.113842 9.40427,-4.018026 -7.461953 9.109336,-4.106844 -7.170664 8.870584,-3.09972 -9.588438 9.607522,-3.42041 -7.729088 9.406028,-3.42041 -7.729088 9.406028,-3.685104 -6.555034 8.759842,-2.642647 -9.682156 9.592766,-2.923237 -8.007404 9.356269,-3.103178 -7.310098 8.98168,-3.249706 -6.992439 8.711418,-2.222404 -9.987358 9.527713,-2.376587 -8.750546 9.234881,-2.532987 -8.296576 8.937247,-2.677376 -8.126806 8.714827,-9.506269 -11.74723 12.0419,-8.690467 -11.79938 12.24165,-7.957018 -11.05274 12.36966,-7.468036 -10.2887 12.55042,-7.064906 -9.779905 12.6219,-8.330446 -8.786507 12.00057,-7.896965 -7.392387 12.05445,-7.654132 -6.64541 12.09976,-7.439404 -6.034122 12.15754,-8.687788 -8.405766 12.06136,-8.260793 -6.773611 12.14116,-8.037888 -5.942382 12.29028,-7.83994 -5.190097 12.37927,-9.055063 -8.329601 12.17668,-8.738484 -6.803628 12.26733,-8.539949 -5.968462 12.42784,-8.304628 -5.229621 12.5665,-9.45856 -8.545057 12.2957,-9.373806 -7.339872 12.45201,-9.293902 -6.634643 12.62703,-9.143547 -5.983199 12.72389,6.310, 1 0
