TiagoOliveira98/Thesis-Project/Difficulty_0/Dual_Task/Unity_Project/DataLogging/JointData/Logs(1647311084)_Tiago_Dual.csv
WRIST,THUMB_CMC,THUMB_MCP,THUMB_IP,THUMB_TIP,INDEX_FINGER_MCP,INDEX_FINGER_PIP,INDEX_FINGER_DIP,INDEX_FINGER_TIP,MIDDLE_FINGER_MCP,MIDDLE_FINGER_PIP,MIDDLE_FINGER_DIP,MIDDLE_FINGER_TIP,RING_FINGER_MCP,RING_FINGER_PIP,RING_FINGER_DIP,RING_FINGER_TIP,PINKY_MCP,PINKY_PIP,PINKY_DIP,PINKY_TIP,WRIST2,THUMB_CMC2,THUMB_MCP2,THUMB_IP2,THUMB_TIP2,INDEX_FINGER_MCP2,INDEX_FINGER_PIP2,INDEX_FINGER_DIP2,INDEX_FINGER_TIP2,MIDDLE_FINGER_MCP2,MIDDLE_FINGER_PIP2,MIDDLE_FINGER_DIP2,MIDDLE_FINGER_TIP2,RING_FINGER_MCP2,RING_FINGER_PIP2,RING_FINGER_DIP2,RING_FINGER_TIP2,PINKY_MCP2,PINKY_PIP2,PINKY_DIP2,PINKY_TIP2,Timestamp,Event
-1.887954 -6.679531 0.0004469091,-2.441795 -6.488887 0.2222031,-2.91859 -5.967039 0.3715915,-3.250299 -5.448381 0.5486988,-3.569341 -5.19953 0.7576173,-2.668067 -4.325027 0.06590795,-2.893002 -3.382709 0.203207,-3.005027 -2.832869 0.3301198,-3.079271 -2.303088 0.4438072,-2.380805 -4.104572 0.1432188,-2.538684 -2.988543 0.2798898,-2.538684 -2.988543 0.2798898,-2.658516 -1.715632 0.5939738,-2.090418 -4.105121 0.2786432,-2.170852 -3.042213 0.4231145,-2.242321 -2.400896 0.5821189,-2.302585 -1.836306 0.7142109,-1.777233 -4.324604 0.4521471,-1.698343 -3.528572 0.6027232,-1.661692 -3.029765 0.7277554,-1.639686 -2.550724 0.8374059,-8.357867 -6.360631 0.03322875,-7.824059 -6.242197 0.3507309,-7.32689 -5.766272 0.6035092,-6.982223 -5.292758 0.8545432,-6.666574 -5.057498 1.114626,-7.637914 -4.143003 0.4522795,-7.495335 -3.157236 0.6634774,-7.450556 -2.561751 0.8516434,-7.421568 -2.033369 0.9852144,-7.946131 -3.939765 0.4716763,-7.821866 -2.821552 0.6744803,-7.760229 -2.113316 0.8964548,-7.719764 -1.473494 1.096775,-8.259942 -3.979286 0.5092391,-8.164401 -2.944396 0.6852795,-8.095848 -2.268948 0.8604682,-8.03569 -1.687381 1.013316,-8.599782 -4.211931 0.5734692,-8.623853 -3.432008 0.735607,-8.615048 -2.934137 0.8759847,-8.596583 -2.461548 0.9970403,0.010,1 0
-1.889907 -6.682628 0.02358128,-2.447613 -6.476691 0.2185854,-2.922913 -5.94904 0.3651477,-3.257591 -5.447242 0.5473365,-3.576423 -5.19256 0.7629313,-2.672249 -4.319396 0.07715057,-2.897821 -3.393072 0.2184605,-3.013644 -2.848543 0.3442036,-3.091386 -2.318308 0.4560806,-2.38722 -4.102463 0.1776183,-2.539686 -2.988807 0.3181087,-2.539686 -2.988807 0.3181087,-2.660343 -1.716884 0.6283491,-2.095495 -4.113676 0.3371401,-2.166961 -3.045564 0.4844951,-2.23948 -2.395637 0.6422129,-2.302399 -1.832263 0.7716822,-1.778793 -4.349672 0.5284054,-1.690497 -3.541909 0.6800576,-1.657036 -3.033537 0.8030144,-1.63915 -2.558427 0.9108821,-8.366165 -6.370594 0.0341761,-7.832687 -6.258086 0.3585917,-7.337721 -5.778478 0.614327,-6.992874 -5.31063 0.8672444,-6.672175 -5.083957 1.126759,-7.637529 -4.162458 0.4756861,-7.490835 -3.175121 0.6875179,-7.441887 -2.575789 0.8777828,-7.408307 -2.040573 1.015626,-7.947693 -3.954631 0.494331,-7.81694 -2.833026 0.70083,-7.750387 -2.118712 0.9270071,-7.706028 -1.475708 1.134197,-8.262334 -3.988263 0.5297902,-8.163961 -2.946708 0.7145569,-8.093333 -2.26016 0.8976383,-8.032023 -1.669023 1.057292,-8.601321 -4.215766 0.5913998,-8.62198 -3.425349 0.7648809,-8.613437 -2.916875 0.9118212,-8.597219 -2.433464 1.037859,0.110,1 0
-1.892992 -6.686523 0.04181181,-2.444818 -6.489748 0.2410754,-2.924546 -5.955469 0.3778887,-3.259359 -5.437093 0.5494591,-3.574986 -5.179657 0.7506197,-2.674852 -4.317962 0.05763865,-2.895127 -3.386326 0.1848476,-3.008709 -2.838233 0.3027909,-3.088602 -2.31529 0.4088088,-2.390671 -4.09857 0.1460761,-2.536188 -2.982483 0.2633446,-2.536188 -2.982483 0.2633446,-2.661896 -1.714018 0.5566946,-2.102889 -4.097381 0.2911514,-2.170296 -3.03734 0.4186162,-2.242229 -2.396549 0.5661243,-2.305028 -1.839593 0.6867818,-1.790911 -4.316352 0.4737092,-1.700953 -3.523183 0.6102471,-1.665612 -3.028617 0.7239183,-1.646316 -2.563264 0.8246956,-8.368151 -6.371517 0.06212578,-7.831429 -6.25143 0.3777274,-7.335978 -5.773774 0.6224962,-6.9928 -5.299583 0.867727,-6.671933 -5.077355 1.124336,-7.638232 -4.146707 0.4692419,-7.490084 -3.169668 0.6706436,-7.444464 -2.571611 0.8597233,-7.413359 -2.03931 0.9958319,-7.947344 -3.941247 0.4869061,-7.819113 -2.831897 0.6807676,-7.756981 -2.120669 0.9039584,-7.713894 -1.48575 1.106491,-8.261011 -3.977503 0.5208857,-8.165718 -2.955062 0.6916794,-8.099451 -2.27696 0.8701301,-8.038558 -1.698877 1.02404,-8.599903 -4.207222 0.5835691,-8.624603 -3.437179 0.7453435,-8.619343 -2.937178 0.8852538,-8.602744 -2.464938 1.006187,0.210,1 0
-1.901625 -6.652519 -0.02207395,-2.454637 -6.466904 0.2063213,-2.936875 -5.94576 0.3524587,-3.271132 -5.432996 0.5228764,-3.588373 -5.188238 0.7198975,-2.673039 -4.305481 0.03857628,-2.893476 -3.378865 0.170573,-3.004205 -2.843219 0.2934054,-3.083471 -2.322357 0.3997355,-2.384441 -4.081304 0.1029449,-2.531055 -2.972143 0.242555,-2.531055 -2.972143 0.242555,-2.641184 -1.722135 0.5521262,-2.097337 -4.078166 0.2254467,-2.164845 -3.031579 0.3614404,-2.231998 -2.409397 0.5172729,-2.292387 -1.856909 0.6386917,-1.786797 -4.29235 0.3846439,-1.695458 -3.513856 0.5227234,-1.656131 -3.02922 0.6423181,-1.634439 -2.562175 0.747574,-8.368285 -6.376853 0.0568364,-7.830176 -6.269159 0.3685789,-7.328539 -5.780191 0.611864,-6.983372 -5.299009 0.8603003,-6.669227 -5.057788 1.118042,-7.63801 -4.150678 0.4516385,-7.492252 -3.175342 0.6593474,-7.445002 -2.579845 0.8506813,-7.409334 -2.041166 0.9862911,-7.945195 -3.948143 0.4794397,-7.819388 -2.841169 0.6739747,-7.753855 -2.128623 0.9003568,-7.707821 -1.487145 1.104417,-8.256598 -3.985215 0.5287793,-8.16662 -2.96742 0.7047375,-8.098575 -2.290905 0.8810892,-8.033076 -1.708785 1.034806,-8.591025 -4.215917 0.6050706,-8.62311 -3.434584 0.7733123,-8.622756 -2.929498 0.9140834,-8.607593 -2.450716 1.029996,0.310,1 0
-1.912147 -6.638523 -0.06659035,-2.459759 -6.450248 0.1485634,-2.935352 -5.917905 0.2898532,-3.271299 -5.423449 0.4580951,-3.581445 -5.193764 0.6545628,-2.673658 -4.300418 0.01204756,-2.904163 -3.387047 0.1556187,-3.020394 -2.845882 0.2832866,-3.099923 -2.320392 0.3922607,-2.391282 -4.081331 0.09011005,-2.539523 -2.976642 0.2376273,-2.539523 -2.976642 0.2376273,-2.654418 -1.723616 0.5442638,-2.103635 -4.091732 0.2279256,-2.167676 -3.040051 0.3819126,-2.237894 -2.404652 0.5457188,-2.299655 -1.847751 0.6736087,-1.79145 -4.324545 0.3965735,-1.708269 -3.535893 0.5510652,-1.675483 -3.039228 0.6773413,-1.657139 -2.565326 0.7830097,-8.369313 -6.375616 0.01551861,-7.830507 -6.25752 0.3218828,-7.335192 -5.778231 0.5656445,-6.997129 -5.303452 0.8176655,-6.683522 -5.057598 1.074269,-7.646783 -4.154773 0.4008629,-7.501945 -3.177682 0.6086516,-7.45063 -2.585352 0.8015785,-7.412221 -2.055053 0.9410648,-7.953405 -3.957738 0.4376585,-7.825263 -2.837812 0.6359529,-7.760001 -2.124662 0.8690503,-7.714202 -1.482008 1.075323,-8.26178 -3.994459 0.494664,-8.169343 -2.963877 0.6737592,-8.100068 -2.284321 0.8583047,-8.031011 -1.696589 1.021487,-8.591927 -4.22443 0.5789364,-8.622946 -3.437492 0.7465859,-8.618838 -2.929808 0.8914772,-8.599894 -2.447763 1.013454,0.410,1 0
-1.887532 -6.623619 -0.09659423,-2.438121 -6.454711 0.1276091,-2.925076 -5.934251 0.2691458,-3.271387 -5.438121 0.4342538,-3.584392 -5.202427 0.6253158,-2.671165 -4.305551 -0.03809682,-2.895926 -3.383523 0.08759066,-3.015713 -2.843639 0.2090507,-3.0994 -2.326581 0.3170899,-2.389547 -4.077785 0.02789371,-2.536048 -2.966332 0.1516582,-2.536048 -2.966332 0.1516582,-2.656537 -1.708422 0.449142,-2.102725 -4.07773 0.1546098,-2.169986 -3.031739 0.2879837,-2.241479 -2.398622 0.4419553,-2.30649 -1.846538 0.5662939,-1.792295 -4.299995 0.3165417,-1.706488 -3.521766 0.4546641,-1.670151 -3.03715 0.5755316,-1.649199 -2.578806 0.6802012,-8.361572 -6.379413 0.03658849,-7.825809 -6.254411 0.3263365,-7.335776 -5.779286 0.5623313,-6.998761 -5.301401 0.8051741,-6.681068 -5.067214 1.055973,-7.643703 -4.156783 0.4062181,-7.500343 -3.178357 0.6015384,-7.452206 -2.579454 0.7901026,-7.416559 -2.046314 0.9293665,-7.954726 -3.950437 0.4388447,-7.829004 -2.837749 0.6283011,-7.765404 -2.11574 0.8564559,-7.722796 -1.478266 1.065828,-8.267443 -3.984853 0.4879686,-8.172916 -2.960521 0.6510428,-8.102695 -2.278045 0.8269135,-8.036222 -1.69963 0.9830415,-8.602236 -4.214017 0.5653634,-8.624771 -3.431692 0.7228912,-8.616627 -2.926369 0.863461,-8.595637 -2.450406 0.9848491,0.510,1 0
-1.858019 -6.637046 -0.07339118,-2.411571 -6.458445 0.1587787,-2.902688 -5.929558 0.2943569,-3.241215 -5.415475 0.4532424,-3.552835 -5.165997 0.6353298,-2.648629 -4.310598 -0.01805334,-2.867551 -3.388072 0.1084315,-2.981709 -2.845165 0.2341129,-3.065165 -2.328468 0.3456277,-2.362935 -4.084428 0.03826311,-2.508704 -2.981608 0.1609602,-2.508704 -2.981608 0.1609602,-2.625861 -1.730581 0.461837,-2.074537 -4.084139 0.1520527,-2.148626 -3.049356 0.2871218,-2.22147 -2.42222 0.438359,-2.283568 -1.872502 0.5592963,-1.763561 -4.300003 0.3043873,-1.68417 -3.530777 0.4373189,-1.654828 -3.049566 0.5514308,-1.63681 -2.592279 0.6456828,-8.379457 -6.385501 0.06963572,-7.845905 -6.25431 0.3828405,-7.355689 -5.771684 0.6282282,-7.017003 -5.299522 0.8758275,-6.694376 -5.068979 1.136003,-7.671321 -4.143569 0.4573078,-7.529479 -3.162324 0.6582862,-7.480672 -2.559431 0.8447763,-7.445723 -2.02626 0.9808916,-7.981639 -3.946269 0.4774926,-7.859434 -2.82999 0.6751497,-7.793837 -2.109688 0.9044377,-7.749701 -1.46593 1.108465,-8.291294 -3.986593 0.5162397,-8.200824 -2.959454 0.6812949,-8.129005 -2.28148 0.8579451,-8.058884 -1.702359 1.01221,-8.620943 -4.21651 0.5833216,-8.648304 -3.434783 0.7426698,-8.639075 -2.936887 0.8864908,-8.61692 -2.469207 1.006356,0.610,1 0
-1.839586 -6.671395 -0.04442044,-2.38499 -6.472589 0.195256,-2.874017 -5.949127 0.3525153,-3.211533 -5.43298 0.5331538,-3.524979 -5.167144 0.7420504,-2.619958 -4.337659 0.05335289,-2.845218 -3.423941 0.1967783,-2.958034 -2.893302 0.3263547,-3.041954 -2.378933 0.4412146,-2.333461 -4.111028 0.1201706,-2.484745 -3.012274 0.2705866,-2.484745 -3.012274 0.2705866,-2.597783 -1.758576 0.6086323,-2.041736 -4.109499 0.2423108,-2.126771 -3.070148 0.3964376,-2.200478 -2.440833 0.5668097,-2.265771 -1.890103 0.7065588,-1.728765 -4.327747 0.4003381,-1.647916 -3.542522 0.5535379,-1.616035 -3.048584 0.6843261,-1.601289 -2.586841 0.7954826,-8.405166 -6.381087 0.03712653,-7.871769 -6.245391 0.3499672,-7.375583 -5.761106 0.6007413,-7.033157 -5.289933 0.8486714,-6.706409 -5.060241 1.104359,-7.68187 -4.160032 0.4649804,-7.539051 -3.173733 0.6739818,-7.49113 -2.568896 0.8613221,-7.455769 -2.033238 0.9969972,-7.992926 -3.96105 0.4859377,-7.868147 -2.831685 0.7026825,-7.804127 -2.108933 0.9360719,-7.761409 -1.46392 1.146218,-8.303667 -4.000068 0.520075,-8.209401 -2.951797 0.706892,-8.140407 -2.264185 0.8900251,-8.072467 -1.673601 1.050131,-8.634962 -4.230333 0.5813671,-8.65764 -3.440732 0.7544307,-8.648798 -2.945978 0.8985976,-8.628426 -2.475701 1.021788,0.710,1 0
-1.779534 -6.679658 -0.02809102,-2.324097 -6.491222 0.2353089,-2.818612 -5.967988 0.3965532,-3.160721 -5.436223 0.5771581,-3.481318 -5.168907 0.7876496,-2.568769 -4.345356 0.06273079,-2.78333 -3.420973 0.1900704,-2.890841 -2.88369 0.3095003,-2.968635 -2.365819 0.4264584,-2.274095 -4.113132 0.1110573,-2.41752 -3.005178 0.2337347,-2.41752 -3.005178 0.2337347,-2.518702 -1.756372 0.5464535,-1.979264 -4.111131 0.2157407,-2.054588 -3.075849 0.3491338,-2.123895 -2.442037 0.5141163,-2.186805 -1.889851 0.6534378,-1.667444 -4.328592 0.361589,-1.582482 -3.555088 0.5055906,-1.548801 -3.069955 0.6322914,-1.532961 -2.615417 0.7438207,-8.424056 -6.390468 0.08106113,-7.890571 -6.242099 0.4037567,-7.39797 -5.753753 0.6557727,-7.056728 -5.277435 0.9050222,-6.724023 -5.044557 1.15905,-7.711385 -4.153017 0.5076039,-7.580978 -3.162994 0.7244211,-7.532582 -2.556867 0.9193839,-7.493762 -2.020955 1.06308,-8.018088 -3.956856 0.5320021,-7.903395 -2.830522 0.7576198,-7.84105 -2.110689 1.001687,-7.794968 -1.462602 1.217718,-8.325839 -3.995954 0.5721263,-8.23408 -2.954052 0.7658254,-8.166092 -2.271974 0.9562163,-8.096992 -1.681478 1.121631,-8.6546 -4.225383 0.6399205,-8.683139 -3.445951 0.8099926,-8.679205 -2.958674 0.9548844,-8.662184 -2.49635 1.079104,0.810,1 0
-1.736523 -6.726821 0.01345288,-2.265177 -6.509962 0.2876747,-2.752094 -5.981566 0.4491258,-3.087721 -5.459753 0.6255512,-3.404444 -5.202663 0.8338091,-2.493737 -4.375583 0.1794368,-2.699138 -3.45791 0.3316617,-2.804542 -2.911542 0.4687479,-2.882495 -2.376407 0.5969693,-2.194517 -4.146764 0.2297344,-2.33506 -3.046938 0.3858185,-2.33506 -3.046938 0.3858185,-2.440224 -1.781045 0.7375821,-1.895216 -4.154178 0.3263963,-1.956245 -3.119749 0.4923368,-2.011268 -2.490691 0.6793804,-2.061191 -1.948768 0.8366367,-1.583942 -4.376005 0.4597274,-1.490239 -3.601116 0.636823,-1.444825 -3.1094 0.7850767,-1.419211 -2.650468 0.9186114,-8.48617 -6.408306 -0.01249061,-7.953465 -6.256715 0.3035851,-7.467499 -5.769454 0.5506293,-7.126554 -5.284427 0.7885841,-6.799554 -5.053086 1.045036,-7.764076 -4.200967 0.3900393,-7.622245 -3.202346 0.5940039,-7.577539 -2.608866 0.7651228,-7.54901 -2.084227 0.885107,-8.07055 -3.997591 0.4034427,-7.951534 -2.857797 0.6071874,-7.893331 -2.14739 0.8239001,-7.852793 -1.504841 1.013617,-8.380703 -4.027641 0.4354609,-8.292211 -2.975466 0.6015469,-8.229221 -2.316867 0.7775289,-8.16838 -1.746219 0.9329533,-8.713444 -4.240055 0.48994,-8.749833 -3.453986 0.6502364,-8.741994 -2.957655 0.7998454,-8.722765 -2.490625 0.9255762,0.910,1 0
-1.650075 -6.775125 -0.08214451,-2.176208 -6.551667 0.2097067,-2.650916 -6.014438 0.3923772,-2.976445 -5.490602 0.5890543,-3.295379 -5.220075 0.8238037,-2.394147 -4.435182 0.07684916,-2.596682 -3.507607 0.2384543,-2.696443 -2.963069 0.3869639,-2.766489 -2.433163 0.5237132,-2.093563 -4.219027 0.1173288,-2.22482 -3.118551 0.2852844,-2.22482 -3.118551 0.2852844,-2.304462 -1.856996 0.6477138,-1.793849 -4.226224 0.2170534,-1.858734 -3.198514 0.3867696,-1.911634 -2.573506 0.5835901,-1.957526 -2.022955 0.7440932,-1.480825 -4.442411 0.3529901,-1.390837 -3.67056 0.5247405,-1.345213 -3.188438 0.6733234,-1.316023 -2.731719 0.8025827,-8.532481 -6.453986 0.0307502,-8.006076 -6.294149 0.3389171,-7.523369 -5.803997 0.5947652,-7.182166 -5.330196 0.8446249,-6.84737 -5.113134 1.11437,-7.840139 -4.222924 0.4606525,-7.707817 -3.230431 0.6778361,-7.666768 -2.637245 0.8592742,-7.635036 -2.108154 0.9872767,-8.146869 -4.033166 0.4885592,-8.037547 -2.89306 0.7040412,-7.986159 -2.175111 0.9279494,-7.947493 -1.528062 1.125784,-8.457324 -4.078611 0.5309616,-8.375091 -3.030969 0.7122426,-8.32035 -2.364303 0.8922251,-8.26324 -1.784572 1.052312,-8.786749 -4.312654 0.595992,-8.825257 -3.520076 0.7659254,-8.828043 -3.018695 0.9133345,-8.818657 -2.545773 1.039628,1.010,1 0
-1.619792 -6.797889 -0.05742086,-2.143513 -6.561692 0.2312907,-2.609282 -6.021923 0.4160154,-2.93181 -5.497226 0.6165749,-3.248595 -5.227893 0.8554782,-2.352465 -4.442136 0.1104081,-2.548965 -3.508614 0.2701113,-2.644574 -2.963212 0.4190505,-2.709062 -2.431491 0.5578377,-2.049828 -4.233395 0.1558308,-2.173745 -3.129304 0.316848,-2.173745 -3.129304 0.316848,-2.248863 -1.86388 0.6759522,-1.750325 -4.25406 0.2601099,-1.805563 -3.223802 0.4267009,-1.854275 -2.588593 0.6257154,-1.89962 -2.032396 0.7917694,-1.437614 -4.486819 0.3998007,-1.346906 -3.713572 0.5717303,-1.300666 -3.227416 0.7233348,-1.27389 -2.764186 0.8570822,-8.56988 -6.468044 0.03956082,-8.04047 -6.308344 0.3468388,-7.559117 -5.808717 0.6017864,-7.218946 -5.328638 0.8505241,-6.884474 -5.111411 1.118416,-7.869075 -4.234899 0.4744019,-7.741803 -3.248327 0.6988486,-7.709189 -2.652415 0.8805158,-7.686472 -2.121428 1.005034,-8.17842 -4.046752 0.503546,-8.077083 -2.910159 0.7265583,-8.032337 -2.192238 0.9486672,-8.002536 -1.550412 1.141097,-8.490504 -4.094951 0.5474624,-8.415059 -3.048894 0.7389507,-8.364147 -2.387568 0.922721,-8.311829 -1.813302 1.082963,-8.818538 -4.329965 0.6142935,-8.862346 -3.54235 0.7906048,-8.868117 -3.046524 0.9396996,-8.86165 -2.576215 1.066474,1.110,1 0
-1.576978 -6.827882 -0.04269323,-2.098155 -6.587824 0.2395456,-2.554296 -6.033895 0.4367477,-2.871335 -5.517949 0.6549863,-3.195499 -5.264419 0.913744,-2.310696 -4.45684 0.1318028,-2.50097 -3.504585 0.292025,-2.596719 -2.946438 0.4397746,-2.6599 -2.413264 0.5818202,-2.004932 -4.260092 0.1859397,-2.1217 -3.141046 0.3471529,-2.1217 -3.141046 0.3471529,-2.195765 -1.862801 0.7010137,-1.704987 -4.294653 0.3020484,-1.755197 -3.250659 0.473314,-1.806782 -2.600339 0.6669166,-1.852503 -2.02242 0.831038,-1.391855 -4.546737 0.4491188,-1.299792 -3.762352 0.6190586,-1.251021 -3.261234 0.7666483,-1.215969 -2.775521 0.8962827,-8.602268 -6.530202 0.1321556,-8.06542 -6.34124 0.404808,-7.582432 -5.82043 0.6409624,-7.24473 -5.335784 0.884223,-6.913723 -5.120316 1.137344,-7.914804 -4.248754 0.5059047,-7.802694 -3.262559 0.7081165,-7.768282 -2.653044 0.8897503,-7.738672 -2.121629 1.02024,-8.224659 -4.069422 0.5394047,-8.132582 -2.942733 0.7518654,-8.08683 -2.220846 0.976988,-8.057439 -1.584754 1.176454,-8.530828 -4.119495 0.5848762,-8.464137 -3.090364 0.7589201,-8.413646 -2.424177 0.9226381,-8.362904 -1.855062 1.067118,-8.846693 -4.359275 0.6534529,-8.892109 -3.580719 0.810869,-8.900497 -3.092754 0.9407645,-8.900253 -2.626861 1.050399,1.210,1 0
-1.579212 -6.835947 -0.06578755,-2.099501 -6.5969 0.2004316,-2.553387 -6.035789 0.3875276,-2.869644 -5.509181 0.5991188,-3.186562 -5.239559 0.8474104,-2.29398 -4.461717 0.08345014,-2.491278 -3.50415 0.2376902,-2.583458 -2.945743 0.3807172,-2.634568 -2.410541 0.5167087,-1.987035 -4.270209 0.1467847,-2.10866 -3.149276 0.2989132,-2.10866 -3.149276 0.2989132,-2.175242 -1.862769 0.6486223,-1.684903 -4.297489 0.2718918,-1.740052 -3.248853 0.4290462,-1.792397 -2.595272 0.6125007,-1.835228 -2.018109 0.7702917,-1.367242 -4.534721 0.4273488,-1.275015 -3.732495 0.5783157,-1.224759 -3.225926 0.71308,-1.187633 -2.736228 0.8371988,-8.610491 -6.544141 0.1142991,-8.080714 -6.356206 0.3965449,-7.599277 -5.831411 0.6299949,-7.265492 -5.338508 0.8652697,-6.935392 -5.132932 1.11732,-7.9327 -4.269989 0.4915852,-7.811345 -3.277326 0.6961572,-7.776401 -2.67803 0.8803852,-7.749087 -2.154318 1.01274,-8.2433 -4.086414 0.518014,-8.144539 -2.945107 0.7237614,-8.097079 -2.226111 0.9461095,-8.065941 -1.590849 1.139619,-8.550407 -4.135026 0.5595272,-8.474298 -3.091663 0.7309151,-8.420596 -2.428302 0.9021869,-8.367588 -1.859808 1.056639,-8.867002 -4.371599 0.6230232,-8.908835 -3.598373 0.775211,-8.917821 -3.110098 0.9128816,-8.917186 -2.644691 1.030611,1.310,1 0
-1.529617 -6.879554 -0.08282661,-2.052142 -6.632973 0.179851,-2.501625 -6.07125 0.3645874,-2.820096 -5.537935 0.5671581,-3.144785 -5.270948 0.8067295,-2.24261 -4.512573 0.06516871,-2.433421 -3.541542 0.2135569,-2.524806 -2.975379 0.3517912,-2.576166 -2.437388 0.4892382,-1.9384 -4.318117 0.1195688,-2.050855 -3.184581 0.276423,-2.050855 -3.184581 0.276423,-2.11237 -1.885062 0.6287043,-1.641449 -4.342968 0.2348967,-1.689714 -3.281095 0.3983426,-1.73694 -2.623796 0.5866044,-1.776226 -2.03825 0.7472905,-1.331128 -4.581413 0.379294,-1.236271 -3.778209 0.5370837,-1.184047 -3.274078 0.6786759,-1.143579 -2.7844 0.8043727,-8.643436 -6.641252 0.2032559,-8.112181 -6.450228 0.4931501,-7.625696 -5.910001 0.7290764,-7.287575 -5.406295 0.9696644,-6.949015 -5.18025 1.229864,-7.960647 -4.34007 0.5861337,-7.846838 -3.325492 0.7932461,-7.811481 -2.706522 0.9777366,-7.783505 -2.165541 1.107449,-8.275853 -4.158069 0.6101162,-8.177422 -3.011629 0.8232149,-8.127679 -2.27588 1.051984,-8.095796 -1.628789 1.254792,-8.586248 -4.206834 0.6486681,-8.512236 -3.164601 0.8239576,-8.460049 -2.486148 0.9944524,-8.407234 -1.911262 1.152723,-8.905247 -4.444 0.7103397,-8.947206 -3.65612 0.8718998,-8.956588 -3.163362 1.011869,-8.956577 -2.699294 1.13004,1.410,1 0
-1.527246 -6.885866 -0.03948237,-2.047153 -6.650173 0.2201784,-2.49852 -6.078126 0.4048618,-2.818806 -5.550349 0.6133832,-3.139445 -5.27602 0.8635994,-2.235724 -4.503177 0.1026708,-2.428489 -3.539892 0.2482467,-2.517469 -2.981786 0.3814468,-2.564834 -2.446546 0.5123327,-1.932428 -4.311693 0.1681737,-2.041971 -3.184778 0.3201979,-2.041971 -3.184778 0.3201979,-2.101479 -1.890006 0.6636786,-1.634305 -4.334752 0.2941516,-1.677912 -3.271772 0.4474087,-1.728174 -2.615671 0.6275555,-1.765779 -2.031285 0.7832099,-1.32138 -4.565121 0.4511809,-1.224262 -3.749369 0.6012431,-1.168831 -3.237066 0.7361657,-1.12324 -2.7392 0.8616393,-8.654285 -6.660816 0.1917039,-8.11439 -6.471229 0.4749244,-7.622929 -5.936398 0.7152479,-7.281973 -5.434712 0.9563861,-6.949114 -5.210413 1.211761,-7.963761 -4.365011 0.5962373,-7.85111 -3.352397 0.8206162,-7.813389 -2.734979 1.011376,-7.780443 -2.196788 1.144043,-8.277145 -4.188195 0.6323706,-8.183686 -3.038421 0.8667378,-8.135436 -2.311444 1.09829,-8.100965 -1.662662 1.302012,-8.585528 -4.239496 0.6816329,-8.513817 -3.192646 0.8809798,-8.463456 -2.518674 1.05782,-8.411087 -1.936119 1.215664,-8.902577 -4.479616 0.7530546,-8.947341 -3.694215 0.9289232,-8.957515 -3.199213 1.071584,-8.957054 -2.722696 1.194648,1.510,1 0
-1.540088 -6.929082 -0.03169554,-2.062092 -6.672761 0.2396925,-2.499775 -6.090621 0.437712,-2.801205 -5.527771 0.6645594,-3.118889 -5.205261 0.9385776,-2.233113 -4.529693 0.1196364,-2.421906 -3.556414 0.266037,-2.510772 -2.988912 0.3884239,-2.555431 -2.446281 0.5097361,-1.929381 -4.350973 0.1855567,-2.032312 -3.215437 0.3347825,-2.032312 -3.215437 0.3347825,-2.092136 -1.911892 0.6726984,-1.631154 -4.384733 0.3144882,-1.66283 -3.311718 0.4607448,-1.710118 -2.652131 0.6447907,-1.74227 -2.063868 0.8066415,-1.322659 -4.62206 0.4739614,-1.228068 -3.785865 0.6222169,-1.177783 -3.260149 0.7685913,-1.134429 -2.748901 0.9022279,-8.656631 -6.684173 0.2574883,-8.113961 -6.494609 0.5401467,-7.623587 -5.956836 0.7844764,-7.282246 -5.451658 1.0294,-6.944373 -5.230288 1.292744,-7.954229 -4.374595 0.6701636,-7.840786 -3.369195 0.8868539,-7.804265 -2.759868 1.069201,-7.773251 -2.221998 1.196699,-8.271624 -4.196477 0.7149296,-8.177989 -3.04585 0.9403682,-8.127399 -2.313992 1.167329,-8.088833 -1.666647 1.372024,-8.584475 -4.254896 0.7714866,-8.513717 -3.201968 0.9675208,-8.46096 -2.522542 1.147146,-8.405411 -1.936097 1.30471,-8.90745 -4.50539 0.852276,-8.943615 -3.712235 1.039354,-8.950159 -3.203236 1.189864,-8.945406 -2.719741 1.315706,1.610,1 0
-1.5488 -6.941998 -0.03084803,-2.0739 -6.669311 0.2305311,-2.507938 -6.040163 0.4153102,-2.798832 -5.426164 0.632236,-3.119059 -5.081701 0.8985749,-2.244408 -4.531734 0.09027739,-2.425883 -3.560123 0.2318092,-2.506909 -2.98929 0.3489455,-2.544245 -2.44214 0.4636944,-1.936574 -4.360768 0.1517757,-2.02439 -3.222755 0.2984404,-2.02439 -3.222755 0.2984404,-2.059527 -1.927537 0.6168979,-1.638489 -4.398691 0.2782909,-1.65677 -3.32621 0.4159325,-1.696904 -2.673517 0.59117,-1.722295 -2.093509 0.7479467,-1.329636 -4.639337 0.4358292,-1.23366 -3.806408 0.5805975,-1.18339 -3.287785 0.7294517,-1.140523 -2.785882 0.8613938,-8.635366 -6.703907 0.2809415,-8.093925 -6.516897 0.5504714,-7.605429 -5.974308 0.785598,-7.269569 -5.460714 1.022482,-6.936708 -5.238172 1.275987,-7.941323 -4.383928 0.675666,-7.828217 -3.382927 0.8925132,-7.790959 -2.770615 1.080545,-7.758785 -2.233465 1.214088,-8.255534 -4.205583 0.722155,-8.162045 -3.058297 0.9456847,-8.116934 -2.329598 1.169874,-8.082464 -1.681151 1.370732,-8.56543 -4.263366 0.778505,-8.493031 -3.211282 0.9697485,-8.443659 -2.52787 1.143893,-8.391214 -1.937461 1.30191,-8.884568 -4.51601 0.8588066,-8.928877 -3.729379 1.02796,-8.94161 -3.223259 1.167911,-8.94167 -2.742506 1.292092,1.710,1 0
-1.547503 -6.955789 0.0003194536,-2.081288 -6.664201 0.2992901,-2.492701 -5.987009 0.4657957,-2.71768 -5.296339 0.6628081,-3.01478 -4.855765 0.908646,-2.254388 -4.548702 0.1209578,-2.449898 -3.597044 0.2733733,-2.532303 -3.025426 0.4038618,-2.565438 -2.473088 0.535332,-1.941725 -4.364059 0.1437933,-2.03236 -3.242076 0.2814071,-2.03236 -3.242076 0.2814071,-2.054154 -1.979892 0.6000282,-1.641741 -4.401554 0.2397749,-1.652949 -3.375094 0.3673954,-1.676193 -2.757307 0.5543591,-1.684655 -2.202083 0.7260104,-1.328396 -4.637873 0.3662827,-1.236219 -3.857496 0.5048754,-1.190572 -3.381306 0.6638618,-1.154174 -2.926037 0.8003255,-8.626798 -6.721626 0.3015056,-8.087499 -6.503934 0.5600032,-7.599893 -5.960903 0.7903647,-7.26226 -5.443737 1.025354,-6.930925 -5.231254 1.273608,-7.939604 -4.389275 0.6965733,-7.823964 -3.374393 0.9089046,-7.78979 -2.755283 1.08595,-7.758466 -2.215262 1.21205,-8.257288 -4.215435 0.7409588,-8.158463 -3.050053 0.9656299,-8.109319 -2.318492 1.188071,-8.07145 -1.66854 1.390348,-8.569083 -4.266874 0.7935501,-8.496028 -3.201752 0.9868779,-8.446757 -2.524765 1.15749,-8.392592 -1.93789 1.308456,-8.887638 -4.507013 0.8669274,-8.928779 -3.708268 1.04177,-8.941383 -3.202636 1.182958,-8.941202 -2.72094 1.305794,1.810,1 0
-1.562534 -6.986442 -0.02196885,-2.088884 -6.667535 0.3142986,-2.484432 -5.971313 0.4841986,-2.682806 -5.254611 0.677522,-2.961375 -4.760822 0.9179616,-2.264561 -4.580337 0.1399541,-2.465008 -3.634136 0.3102328,-2.547019 -3.05507 0.451886,-2.58245 -2.494112 0.5877735,-1.946903 -4.400954 0.1429901,-2.039489 -3.294333 0.2861245,-2.039489 -3.294333 0.2861245,-2.055712 -2.039293 0.6188715,-1.645261 -4.443594 0.2225532,-1.657197 -3.435055 0.3589326,-1.673664 -2.841597 0.5723689,-1.671495 -2.28623 0.7582984,-1.337804 -4.681159 0.3325675,-1.259609 -3.911931 0.4946416,-1.229072 -3.447576 0.6769493,-1.204378 -2.991124 0.8255959,-8.642311 -6.71808 0.3534192,-8.10807 -6.515121 0.6284091,-7.615564 -5.958713 0.8671314,-7.272275 -5.441276 1.107423,-6.934771 -5.21436 1.363502,-7.943308 -4.376855 0.7626951,-7.826589 -3.373279 0.9807529,-7.791824 -2.759078 1.165591,-7.763411 -2.217597 1.301452,-8.258845 -4.201681 0.8092303,-8.162448 -3.050437 1.039505,-8.115733 -2.324692 1.26821,-8.082726 -1.677668 1.467381,-8.567751 -4.254121 0.8666251,-8.498754 -3.198928 1.066159,-8.44947 -2.526924 1.240811,-8.398244 -1.946113 1.393667,-8.88529 -4.496574 0.9464899,-8.926326 -3.707247 1.124551,-8.939769 -3.212451 1.264493,-8.943551 -2.736396 1.384023,1.910,1 0
-1.538609 -7.054929 -0.05782924,-2.073853 -6.715785 0.3334337,-2.447106 -5.953619 0.4984483,-2.597213 -5.199108 0.6915874,-2.847344 -4.628441 0.9281301,-2.26731 -4.608249 0.01947503,-2.464219 -3.670718 0.1603329,-2.540437 -3.123456 0.2876471,-2.572641 -2.587984 0.4141148,-1.914693 -4.473878 0.001992125,-1.974525 -3.524594 0.1809178,-1.974525 -3.524594 0.1809178,-1.924932 -2.781295 0.569191,-1.603123 -4.550123 0.06720544,-1.580215 -3.695089 0.2564005,-1.544863 -3.338884 0.5900628,-1.514691 -3.215568 0.8356447,-1.290876 -4.800786 0.1726241,-1.22999 -4.124903 0.3786166,-1.219934 -3.863972 0.6339587,-1.232066 -3.779114 0.8426834,-8.632854 -6.739227 0.3415031,-8.096518 -6.535888 0.6012628,-7.607903 -5.97128 0.8286783,-7.268215 -5.448806 1.064358,-6.934788 -5.226646 1.315232,-7.950131 -4.392107 0.7147989,-7.829285 -3.384132 0.9211925,-7.790992 -2.760899 1.098491,-7.759498 -2.21326 1.229145,-8.264178 -4.21805 0.7625638,-8.163878 -3.062346 0.977401,-8.114551 -2.327541 1.199124,-8.080938 -1.677322 1.395665,-8.570832 -4.27251 0.8208638,-8.495974 -3.218704 1.005363,-8.444949 -2.537795 1.175367,-8.394571 -1.952172 1.3277,-8.884418 -4.519359 0.9016795,-8.925367 -3.723206 1.07189,-8.937841 -3.219272 1.212781,-8.94185 -2.737145 1.333717,2.010,1 0
-1.503301 -6.881214 -0.5860124,-2.007727 -6.591489 -0.1094368,-2.320572 -5.891077 0.1571507,-2.43721 -5.143943 0.3695983,-2.639163 -4.605127 0.6226,-2.191002 -4.579463 -0.1427366,-2.379426 -3.737299 0.0819295,-2.438646 -3.199043 0.3368974,-2.452446 -2.707509 0.5755388,-1.815123 -4.474273 -0.1972272,-1.814633 -3.536511 0.2847564,-1.814633 -3.536511 0.2847564,-1.720554 -4.463051 0.8322697,-1.477112 -4.582663 -0.1939099,-1.379604 -3.79809 0.2103131,-1.383308 -4.283256 0.4770926,-1.409463 -4.788988 0.5770593,-1.150856 -4.862249 -0.1615679,-1.00148 -4.266933 0.1901472,-1.011253 -4.463867 0.3943593,-1.050781 -4.758667 0.4991882,-8.619003 -6.759198 0.3716294,-8.087262 -6.537586 0.6272885,-7.603611 -5.98245 0.854844,-7.265402 -5.463319 1.09254,-6.929833 -5.239523 1.346065,-7.944952 -4.393596 0.740595,-7.829609 -3.384121 0.9455187,-7.794976 -2.771717 1.119234,-7.767834 -2.230464 1.245605,-8.26345 -4.228016 0.7968047,-8.164506 -3.067392 1.012227,-8.114456 -2.344562 1.23521,-8.078604 -1.698134 1.428087,-8.574627 -4.295986 0.8654686,-8.50356 -3.231989 1.056491,-8.452962 -2.560211 1.234382,-8.402664 -1.974379 1.386936,-8.893206 -4.556717 0.9538125,-8.932216 -3.755984 1.135826,-8.93916 -3.249399 1.283887,-8.937539 -2.763422 1.407651,2.110,1 0
-1.410083 -6.94203 -0.6523425,-1.890387 -6.593931 -0.1417552,-2.205407 -5.934744 0.1425118,-2.350406 -5.192596 0.3790281,-2.588812 -4.614139 0.6605835,-2.105546 -4.670626 -0.1463994,-2.288353 -3.890068 0.1433486,-2.359067 -3.339826 0.4452838,-2.391509 -2.829065 0.7094908,-1.746864 -4.567337 -0.2094018,-1.728982 -3.704797 0.3395409,-1.728982 -3.704797 0.3395409,-1.596113 -4.830672 0.8281111,-1.419512 -4.671997 -0.2124212,-1.327765 -4.013713 0.2876251,-1.316637 -4.680349 0.4968793,-1.322343 -5.187726 0.5345896,-1.101717 -4.94149 -0.2012195,-0.9782114 -4.408838 0.2083175,-1.024065 -4.821124 0.3486443,-1.078413 -5.193827 0.3895701,-8.636037 -6.750429 0.3716044,-8.101377 -6.527535 0.6345098,-7.612959 -5.979839 0.8692422,-7.26854 -5.472181 1.113404,-6.930236 -5.253084 1.371954,-7.94821 -4.387825 0.7464601,-7.835536 -3.381679 0.9509708,-7.802107 -2.765142 1.125055,-7.77336 -2.228861 1.254083,-8.262466 -4.221817 0.7966317,-8.16777 -3.061315 1.011728,-8.116963 -2.334815 1.232675,-8.077665 -1.686445 1.427529,-8.571595 -4.280728 0.8581549,-8.503406 -3.216793 1.044019,-8.453782 -2.54873 1.212779,-8.401043 -1.968359 1.357798,-8.888546 -4.528224 0.9428073,-8.931061 -3.73035 1.114159,-8.942086 -3.228488 1.250063,-8.943058 -2.750089 1.364606,2.210,1 0
-1.336791 -6.910444 -0.5310957,-1.788859 -6.667354 0.05152917,-2.136131 -6.004928 0.3823535,-2.284584 -5.284318 0.655669,-2.542109 -4.732078 0.9984832,-2.042335 -4.720193 0.2664088,-2.218565 -4.040388 0.7062086,-2.303818 -3.532673 1.046036,-2.347539 -3.076431 1.328063,-1.672512 -4.567627 0.1887255,-1.663286 -4.023407 0.8607926,-1.663286 -4.023407 0.8607926,-1.530339 -5.319839 1.334278,-1.319271 -4.636713 0.1624376,-1.252594 -4.299581 0.7719728,-1.256055 -5.074771 0.909059,-1.25913 -5.618078 0.9009675,-0.9807959 -4.859943 0.1572891,-0.8522973 -4.465198 0.6464081,-0.9186759 -4.993598 0.7552637,-0.9888906 -5.404359 0.7652241,-8.640584 -6.772142 0.3645681,-8.106851 -6.559757 0.6272037,-7.617824 -6.007899 0.8606424,-7.275507 -5.49628 1.101795,-6.937069 -5.264915 1.362664,-7.953805 -4.416284 0.7489557,-7.841545 -3.398354 0.9589042,-7.806848 -2.776473 1.134869,-7.779584 -2.235986 1.26178,-8.268075 -4.247453 0.8013914,-8.17178 -3.085783 1.022791,-8.119356 -2.3637 1.241632,-8.08194 -1.719919 1.432959,-8.575883 -4.305861 0.8661719,-8.50371 -3.242437 1.055222,-8.450592 -2.57191 1.230793,-8.397142 -1.989009 1.385028,-8.892794 -4.556161 0.9518304,-8.932262 -3.764431 1.130342,-8.938439 -3.262158 1.278718,-8.935411 -2.788869 1.405413,2.310,1 0
-1.319079 -6.914995 -0.6893834,-1.784361 -6.674068 -0.1153656,-2.152332 -5.988745 0.168218,-2.308423 -5.30129 0.3937285,-2.551517 -4.805245 0.6760663,-1.997425 -4.798662 0.1711121,-2.199524 -4.189556 0.6524107,-2.28791 -3.729507 1.009033,-2.326134 -3.31855 1.302604,-1.637175 -4.636184 0.08764654,-1.616772 -4.157806 0.7684518,-1.616772 -4.157806 0.7684518,-1.483737 -5.571165 1.203763,-1.288355 -4.70928 0.05604887,-1.222532 -4.431846 0.7227899,-1.220341 -5.226205 0.8677537,-1.210261 -5.832084 0.8581493,-0.9548521 -4.945355 0.04300231,-0.8220677 -4.568912 0.5827445,-0.8830953 -5.111694 0.7278696,-0.9543371 -5.554508 0.7525859,-8.639998 -6.793302 0.4149265,-8.1084 -6.573339 0.690202,-7.616931 -6.002217 0.9268652,-7.273375 -5.485511 1.171218,-6.931211 -5.258812 1.430066,-7.961092 -4.421817 0.8040383,-7.846401 -3.413105 1.023058,-7.811543 -2.792984 1.207036,-7.783742 -2.256347 1.339223,-8.273995 -4.25242 0.8488281,-8.175909 -3.093582 1.076466,-8.128882 -2.365489 1.300793,-8.097086 -1.716445 1.495672,-8.580596 -4.308315 0.9081149,-8.504316 -3.251426 1.09948,-8.455868 -2.578003 1.264986,-8.406838 -1.99408 1.411436,-8.897941 -4.552691 0.9902014,-8.9323 -3.758125 1.160357,-8.941904 -3.26057 1.295863,-8.942517 -2.79383 1.413436,2.410,1 0
-1.390411 -6.899089 -0.9205227,-1.830325 -6.797637 -0.1277289,-2.169555 -6.19009 0.2896587,-2.305801 -5.550969 0.5962573,-2.593496 -5.104295 0.9713686,-2.013105 -4.954128 0.2610162,-2.201199 -4.483688 0.8682718,-2.273709 -4.103393 1.270694,-2.316988 -3.736333 1.579263,-1.627862 -4.787986 0.1130861,-1.604168 -4.386117 0.9578149,-1.604168 -4.386117 0.9578149,-1.473902 -5.991027 1.244925,-1.261982 -4.84706 0.04527891,-1.149188 -4.670562 0.8838464,-1.150785 -5.576087 1.02244,-1.165599 -6.206358 0.9518214,-0.9185557 -5.041946 -0.01294798,-0.7569427 -4.768751 0.6727509,-0.8100915 -5.411541 0.837827,-0.8928571 -5.855116 0.8543963,-8.667424 -6.799963 0.3547297,-8.132173 -6.575468 0.6134083,-7.642398 -6.010866 0.8463874,-7.29774 -5.497775 1.089279,-6.954801 -5.265028 1.35109,-7.981837 -4.442166 0.7205718,-7.865513 -3.428896 0.93477,-7.832072 -2.805459 1.114044,-7.808963 -2.26137 1.238234,-8.297974 -4.273803 0.7683386,-8.203032 -3.10682 0.9879988,-8.157453 -2.37763 1.210134,-8.130016 -1.727046 1.397204,-8.605362 -4.32904 0.8291869,-8.538487 -3.262787 1.015838,-8.493839 -2.590778 1.186648,-8.450176 -2.006211 1.33457,-8.918916 -4.573713 0.9082865,-8.966058 -3.773502 1.07947,-8.973632 -3.272658 1.221467,-8.971952 -2.796248 1.339216,2.510,1 0
-1.370357 -6.930591 -0.9108408,-1.829127 -6.869482 -0.10806,-2.180604 -6.279804 0.3147571,-2.324551 -5.648693 0.62433,-2.610661 -5.203996 1.002623,-2.012125 -5.029274 0.3321882,-2.209028 -4.564214 0.9831681,-2.294689 -4.193969 1.397758,-2.35313 -3.845403 1.699959,-1.626778 -4.850953 0.1864561,-1.605693 -4.451919 1.094402,-1.605693 -4.451919 1.094402,-1.497034 -6.096294 1.410597,-1.255755 -4.905192 0.1207443,-1.15316 -4.741758 1.016619,-1.165238 -5.66945 1.166379,-1.189827 -6.335398 1.091449,-0.9098988 -5.104961 0.06466359,-0.7557878 -4.864632 0.7996244,-0.8158746 -5.530548 0.9814376,-0.9113932 -6.00493 1.009794,-8.671699 -6.806615 0.3703436,-8.139755 -6.594363 0.6375605,-7.649167 -6.016901 0.8651109,-7.306458 -5.49597 1.101489,-6.963034 -5.269199 1.351844,-7.988996 -4.444662 0.7435423,-7.875428 -3.439242 0.960789,-7.845417 -2.825441 1.142504,-7.826194 -2.290562 1.271196,-8.302529 -4.277198 0.7921833,-8.209941 -3.114924 1.015345,-8.168161 -2.389834 1.239089,-8.143349 -1.740828 1.428468,-8.6078 -4.336465 0.8570673,-8.54173 -3.275063 1.048284,-8.497971 -2.605861 1.221709,-8.455922 -2.021196 1.37277,-8.921371 -4.585506 0.9412542,-8.965092 -3.792871 1.113518,-8.976306 -3.295021 1.254051,-8.980146 -2.817768 1.37387,2.610,1 0
-1.336134 -7.002908 -1.084109,-1.829927 -6.950229 -0.289903,-2.215469 -6.374468 0.1331525,-2.373892 -5.764654 0.4360145,-2.655697 -5.367511 0.8112078,-2.061509 -5.21014 0.1642766,-2.269835 -4.747106 0.8664322,-2.352275 -4.386096 1.353741,-2.399288 -4.063321 1.702029,-1.664928 -5.000688 0.03211689,-1.673265 -4.528385 0.9616516,-1.673265 -4.528385 0.9616516,-1.527051 -6.2528 1.269458,-1.268192 -5.025561 -0.01421809,-1.184424 -4.772733 0.9111985,-1.183936 -5.740404 1.063099,-1.204391 -6.440607 0.9939716,-0.8915501 -5.201939 -0.04368103,-0.7417126 -4.896125 0.710147,-0.8053446 -5.61276 0.8937536,-0.9161139 -6.112999 0.9346628,-8.660099 -6.822252 0.4149025,-8.128687 -6.58561 0.6813504,-7.642022 -6.009367 0.916151,-7.301279 -5.488472 1.15858,-6.962712 -5.249444 1.414744,-7.998081 -4.444448 0.813172,-7.883521 -3.436632 1.035677,-7.851168 -2.820837 1.218656,-7.829841 -2.277165 1.349636,-8.310124 -4.28202 0.8656043,-8.217422 -3.121112 1.097494,-8.178748 -2.395235 1.327433,-8.15663 -1.743198 1.524327,-8.613135 -4.344228 0.9313489,-8.548628 -3.281455 1.127978,-8.508002 -2.613047 1.302763,-8.468698 -2.028974 1.457699,-8.924075 -4.596735 1.016518,-8.972603 -3.799928 1.193131,-8.985536 -3.299474 1.336105,-8.990707 -2.819219 1.461105,2.710,1 0
-1.315588 -6.995958 -1.03945,-1.828038 -6.937225 -0.2629054,-2.233855 -6.383022 0.1945817,-2.40517 -5.810133 0.5364908,-2.678527 -5.404039 0.9445356,-2.053761 -5.24163 0.300862,-2.250958 -4.783802 1.059483,-2.340373 -4.449879 1.564642,-2.382502 -4.155059 1.914335,-1.65413 -5.048465 0.191462,-1.647132 -4.622959 1.120478,-1.647132 -4.622959 1.120478,-1.52639 -6.334608 1.333435,-1.244484 -5.091064 0.1593934,-1.147417 -4.872879 1.068063,-1.169698 -5.829521 1.158561,-1.204618 -6.475118 1.064246,-0.8630552 -5.276041 0.1502033,-0.705606 -4.969022 0.8660184,-0.7751589 -5.683038 1.011823,-0.8937578 -6.163822 1.030762,-8.665266 -6.807051 0.3724928,-8.126165 -6.584096 0.6208162,-7.637748 -6.018353 0.8498304,-7.297712 -5.500595 1.089099,-6.959574 -5.273585 1.345567,-7.991404 -4.441837 0.7409865,-7.878977 -3.434983 0.9500551,-7.846139 -2.821434 1.126193,-7.820601 -2.284043 1.252539,-8.307333 -4.276098 0.7986126,-8.216893 -3.112133 1.01614,-8.173254 -2.387719 1.236339,-8.144194 -1.744788 1.425593,-8.614218 -4.339227 0.8668212,-8.55197 -3.27465 1.053011,-8.508592 -2.607643 1.227712,-8.465143 -2.027244 1.379672,-8.926671 -4.593525 0.9553152,-8.977485 -3.801696 1.129672,-8.990629 -3.300045 1.274071,-8.992889 -2.820965 1.400312,2.810,1 0
-1.268072 -7.02279 -0.9274083,-1.800591 -6.946821 -0.1761917,-2.218621 -6.399183 0.2967899,-2.390929 -5.842947 0.6861056,-2.694103 -5.432166 1.169615,-2.049846 -5.250757 0.409505,-2.217361 -4.802339 1.212541,-2.301417 -4.501088 1.727158,-2.346153 -4.272614 2.061457,-1.639232 -5.056279 0.3247648,-1.621504 -4.702951 1.294048,-1.621504 -4.702951 1.294048,-1.535328 -6.421199 1.460133,-1.216719 -5.111085 0.3081317,-1.112792 -4.934309 1.235726,-1.155458 -5.918858 1.284586,-1.203963 -6.53508 1.162475,-0.8306665 -5.307969 0.3211325,-0.6704335 -5.043399 1.045531,-0.7564335 -5.76972 1.168669,-0.8841991 -6.213251 1.176447,-8.66414 -6.820479 0.4067738,-8.127613 -6.603487 0.6781699,-7.638331 -6.030012 0.9117482,-7.297201 -5.497513 1.151101,-6.958141 -5.263259 1.405374,-7.984226 -4.453657 0.7939135,-7.869306 -3.449724 1.016136,-7.840341 -2.831842 1.201186,-7.81999 -2.290799 1.330351,-8.299443 -4.280715 0.834329,-8.204905 -3.122911 1.055157,-8.165074 -2.396437 1.272325,-8.141109 -1.740168 1.460873,-8.607068 -4.33716 0.8899058,-8.539554 -3.281416 1.074026,-8.496573 -2.614422 1.236852,-8.456299 -2.032597 1.381581,-8.922864 -4.584846 0.9658077,-8.966142 -3.795169 1.129134,-8.977519 -3.296093 1.264802,-8.980866 -2.818181 1.383727,2.910,1 0
-1.248787 -7.076671 -0.8218147,-1.794112 -6.992844 -0.09696728,-2.217682 -6.418653 0.3626227,-2.385639 -5.839469 0.7467767,-2.672019 -5.395145 1.224258,-2.05127 -5.254327 0.493052,-2.215448 -4.793788 1.285483,-2.283911 -4.494574 1.800623,-2.305485 -4.292749 2.137178,-1.635733 -5.066968 0.4140127,-1.610731 -4.702838 1.35588,-1.610731 -4.702838 1.35588,-1.510869 -6.410089 1.530779,-1.210977 -5.137949 0.4003263,-1.102063 -4.937559 1.308603,-1.139317 -5.91207 1.356943,-1.185608 -6.532131 1.244567,-0.8235087 -5.352796 0.4161857,-0.6487484 -5.053354 1.139442,-0.722558 -5.767206 1.272816,-0.8449907 -6.209486 1.292343,-8.657339 -6.820161 0.4317614,-8.119294 -6.59959 0.7000222,-7.629566 -6.019035 0.9249657,-7.286879 -5.484281 1.157948,-6.949965 -5.251476 1.398982,-7.98391 -4.43943 0.7925184,-7.867442 -3.444751 1.000232,-7.836276 -2.832587 1.179229,-7.814724 -2.301151 1.30992,-8.298654 -4.267965 0.8331578,-8.204881 -3.109984 1.042891,-8.165613 -2.382104 1.259911,-8.143225 -1.732061 1.448512,-8.604518 -4.324024 0.8890542,-8.536527 -3.263942 1.064954,-8.493982 -2.596515 1.220736,-8.454629 -2.016551 1.359348,-8.918335 -4.568847 0.9684131,-8.961505 -3.775043 1.12578,-8.974212 -3.277679 1.255233,-8.979351 -2.803571 1.369523,3.010,1 0
-1.2012 -6.968547 -0.5928139,-1.758889 -6.896045 0.1854179,-2.1724 -6.321192 0.6482853,-2.324994 -5.739363 1.029984,-2.614685 -5.297224 1.53655,-2.013979 -5.105068 0.7863301,-2.151367 -4.692892 1.582289,-2.177421 -4.405593 2.095835,-2.150348 -4.242595 2.427459,-1.594893 -4.899992 0.6716588,-1.509563 -4.60412 1.616673,-1.509563 -4.60412 1.616673,-1.414411 -6.326377 1.902823,-1.160729 -4.964674 0.6232275,-1.009648 -4.854808 1.553279,-1.047932 -5.834018 1.668644,-1.097574 -6.491136 1.588841,-0.7711425 -5.19067 0.6031376,-0.5723925 -5.040826 1.368966,-0.6539779 -5.785556 1.560075,-0.7959294 -6.25263 1.616357,-8.655589 -6.830672 0.429989,-8.116056 -6.603454 0.6866201,-7.626588 -6.024652 0.913982,-7.283548 -5.493234 1.149383,-6.945628 -5.260147 1.396246,-7.984393 -4.451057 0.809502,-7.865719 -3.441758 1.026937,-7.837115 -2.823395 1.208691,-7.819592 -2.279839 1.340386,-8.30181 -4.282295 0.8558139,-8.209432 -3.112628 1.075553,-8.172605 -2.378018 1.300238,-8.154436 -1.721704 1.496801,-8.610505 -4.34283 0.9137103,-8.548268 -3.276416 1.099349,-8.509331 -2.602203 1.270826,-8.472972 -2.017585 1.422666,-8.926137 -4.59347 0.9906274,-8.976135 -3.797885 1.159375,-8.99072 -3.297039 1.302152,-8.99411 -2.817625 1.428522,3.110,1 0
-1.193407 -6.93662 -0.4444748,-1.744408 -6.88389 0.357884,-2.159682 -6.323166 0.8317935,-2.313757 -5.729703 1.213009,-2.591679 -5.276779 1.708274,-2.011221 -5.077121 1.000574,-2.139969 -4.674747 1.80412,-2.164187 -4.390267 2.335095,-2.140995 -4.222545 2.674046,-1.582664 -4.851383 0.8757547,-1.487744 -4.568353 1.814441,-1.487744 -4.568353 1.814441,-1.410721 -6.283612 2.143297,-1.140592 -4.90336 0.8154975,-0.9819527 -4.812673 1.741413,-1.022304 -5.781991 1.873518,-1.078009 -6.440034 1.8091,-0.74685 -5.118516 0.7851751,-0.535078 -4.966032 1.553551,-0.6093712 -5.710302 1.75198,-0.7487135 -6.190469 1.820188,-8.66025 -6.835562 0.4330058,-8.119901 -6.591402 0.6942793,-7.6331 -6.018258 0.9250813,-7.289937 -5.498315 1.165239,-6.949912 -5.275344 1.418357,-7.987921 -4.45158 0.8109727,-7.878136 -3.438089 1.026506,-7.848585 -2.817214 1.206499,-7.826633 -2.27793 1.333949,-8.305789 -4.285899 0.8559636,-8.214747 -3.116609 1.081046,-8.175435 -2.383693 1.303553,-8.15081 -1.732475 1.495566,-8.614418 -4.345538 0.9130822,-8.550941 -3.277254 1.102252,-8.508382 -2.605958 1.271141,-8.465174 -2.022511 1.417574,-8.929114 -4.594728 0.991623,-8.974569 -3.798879 1.161934,-8.985935 -3.298805 1.303883,-8.988203 -2.821315 1.426247,3.210,1 0
-1.197714 -6.913008 0.2661587,-1.745418 -6.852783 1.131056,-2.144706 -6.28861 1.681195,-2.281638 -5.729233 2.141878,-2.554359 -5.281954 2.741424,-2.020519 -4.85145 1.790534,-2.117084 -4.484752 2.652762,-2.112236 -4.253286 3.213351,-2.050286 -4.191463 3.560391,-1.56706 -4.620254 1.646618,-1.41238 -4.566967 2.625259,-1.41238 -4.566967 2.625259,-1.378779 -6.342506 2.925413,-1.102941 -4.708119 1.585408,-0.9021931 -4.800806 2.542693,-0.9665856 -5.818353 2.645904,-1.047942 -6.466039 2.559776,-0.6969252 -4.9707 1.560254,-0.4698524 -4.940681 2.338911,-0.5608854 -5.734641 2.510735,-0.7174706 -6.207637 2.553594,-8.670116 -6.844284 0.4623156,-8.131248 -6.609703 0.7235959,-7.641432 -6.031342 0.9571956,-7.299106 -5.505143 1.198985,-6.959194 -5.272697 1.455011,-8.000736 -4.452747 0.8433647,-7.886876 -3.441013 1.059249,-7.857929 -2.824474 1.238618,-7.836304 -2.285816 1.367843,-8.318675 -4.286195 0.8886852,-8.227698 -3.116924 1.10988,-8.189463 -2.38473 1.331041,-8.167032 -1.730206 1.52273,-8.627672 -4.345624 0.9470944,-8.562943 -3.275327 1.132114,-8.52441 -2.603025 1.295206,-8.487074 -2.016937 1.440739,-8.942709 -4.596036 1.026338,-8.988133 -3.79349 1.188871,-9.001353 -3.296595 1.324406,-9.005492 -2.824947 1.444626,3.310,1 0
-1.206316 -6.91044 0.5447327,-1.740968 -6.840374 1.440463,-2.133533 -6.280803 2.010548,-2.260082 -5.744375 2.489182,-2.54441 -5.301637 3.102839,-2.011693 -4.775292 2.122189,-2.123982 -4.396543 3.022831,-2.096263 -4.209321 3.595106,-1.992577 -4.229912 3.93258,-1.538571 -4.5378 1.957329,-1.361274 -4.61539 2.939879,-1.361274 -4.61539 2.939879,-1.366084 -6.356167 3.166405,-1.058798 -4.656213 1.883355,-0.8466768 -4.843431 2.828765,-0.9356918 -5.877498 2.909588,-1.03794 -6.475206 2.81905,-0.6445093 -4.928854 1.846008,-0.4181814 -4.93235 2.600252,-0.5197935 -5.745567 2.752327,-0.6775331 -6.191034 2.786021,-8.687805 -6.843336 0.4458962,-8.144423 -6.612871 0.716374,-7.652295 -6.028417 0.9494438,-7.305527 -5.50665 1.189949,-6.955806 -5.2751 1.445211,-8.008193 -4.455719 0.8326967,-7.891464 -3.435261 1.045313,-7.85781 -2.814254 1.218444,-7.834643 -2.273495 1.340496,-8.325968 -4.291757 0.8736734,-8.234504 -3.117339 1.092704,-8.192432 -2.385981 1.310457,-8.167046 -1.731702 1.496229,-8.633615 -4.349489 0.9285725,-8.572161 -3.277009 1.11587,-8.532187 -2.606004 1.279574,-8.492054 -2.019201 1.422458,-8.946199 -4.596351 1.004166,-8.995289 -3.794749 1.167765,-9.008342 -3.299717 1.303215,-9.011955 -2.825563 1.419869,3.410,0 1
-1.211915 -6.902719 0.05710375,-1.739112 -6.853822 0.9209569,-2.126541 -6.281133 1.481642,-2.248505 -5.720333 1.962772,-2.537443 -5.243816 2.583138,-1.973023 -4.845752 1.564379,-2.094196 -4.320898 2.470849,-2.06457 -4.092227 3.068924,-1.955867 -4.142814 3.426254,-1.504355 -4.659465 1.421723,-1.309859 -4.558408 2.457903,-1.309859 -4.558408 2.457903,-1.316743 -6.346103 2.71249,-1.039911 -4.778465 1.361472,-0.8033915 -4.817054 2.340345,-0.8774481 -5.831558 2.446724,-0.9763775 -6.45276 2.351649,-0.6313534 -4.997867 1.335111,-0.3797216 -4.853794 2.113895,-0.480216 -5.646572 2.276138,-0.6398492 -6.106016 2.302134,-8.673622 -6.840356 0.4631551,-8.143944 -6.617995 0.7481111,-7.65451 -6.031326 0.985033,-7.30884 -5.504303 1.227296,-6.962032 -5.269772 1.483071,-8.005693 -4.450998 0.8685322,-7.892647 -3.434243 1.093397,-7.861484 -2.815506 1.280386,-7.840186 -2.27067 1.414831,-8.320117 -4.285896 0.9104894,-8.228378 -3.117303 1.139915,-8.187632 -2.386188 1.369584,-8.164712 -1.726384 1.563895,-8.626909 -4.346689 0.9702003,-8.563808 -3.278663 1.16569,-8.524682 -2.607536 1.338767,-8.485813 -2.018258 1.49199,-8.941473 -4.597526 1.050069,-8.991041 -3.800581 1.22454,-9.006372 -3.305585 1.362023,-9.012288 -2.829857 1.48073,3.510,0 1
-1.159064 -6.932718 0.7865576,-1.692128 -6.864994 1.74512,-2.099806 -6.335958 2.37864,-2.21972 -5.806003 2.902479,-2.46726 -5.302316 3.57641,-1.957623 -4.762798 2.508387,-2.041655 -4.346506 3.474499,-2.00594 -4.152652 4.114597,-1.916204 -4.244885 4.493343,-1.458028 -4.553735 2.327734,-1.248931 -4.539999 3.411535,-1.248931 -4.539999 3.411535,-1.263668 -6.386204 3.680614,-0.9642029 -4.688909 2.237308,-0.7208796 -4.841269 3.258713,-0.8165927 -5.896127 3.353128,-0.9281979 -6.541742 3.248997,-0.5317554 -4.94585 2.191738,-0.2820468 -4.876251 2.998759,-0.4082127 -5.703155 3.166311,-0.5793762 -6.203916 3.211936,-8.689419 -6.837003 0.4315632,-8.147083 -6.610837 0.7097566,-7.657928 -6.037172 0.9486299,-7.312675 -5.517251 1.193117,-6.967138 -5.27991 1.454595,-8.014621 -4.453146 0.8267511,-7.893993 -3.437085 1.044901,-7.860606 -2.818835 1.22527,-7.839368 -2.277054 1.355491,-8.330544 -4.290644 0.8679669,-8.236224 -3.117762 1.090154,-8.195591 -2.386298 1.31427,-8.173519 -1.727205 1.5053,-8.637528 -4.353109 0.9243263,-8.572338 -3.285985 1.116137,-8.532314 -2.614498 1.29182,-8.49439 -2.023513 1.445482,-8.949786 -4.604331 1.000882,-8.997359 -3.805586 1.173455,-9.009485 -3.30762 1.317681,-9.013731 -2.827413 1.443111,3.610,0 1
-1.141643 -6.968788 0.7408237,-1.6733 -6.900373 1.667852,-2.076345 -6.345975 2.284817,-2.197554 -5.799587 2.81567,-2.444605 -5.273899 3.484221,-1.905812 -4.785774 2.408113,-2.026367 -4.305538 3.384913,-1.993461 -4.124602 4.02386,-1.888512 -4.227262 4.399499,-1.411513 -4.579946 2.247559,-1.178995 -4.592784 3.317945,-1.178995 -4.592784 3.317945,-1.243219 -6.446161 3.537236,-0.9261456 -4.736362 2.17559,-0.6631451 -4.872466 3.179947,-0.7826376 -5.952899 3.24868,-0.9221439 -6.58217 3.140958,-0.5041304 -5.006222 2.15029,-0.232861 -4.888099 2.942231,-0.3632841 -5.719837 3.092964,-0.5461602 -6.205904 3.119613,-8.684775 -6.848255 0.4909697,-8.15045 -6.616989 0.7734652,-7.662291 -6.034445 1.011093,-7.317484 -5.517776 1.255676,-6.974126 -5.288884 1.516095,-8.015905 -4.446659 0.8671207,-7.901381 -3.441587 1.079621,-7.872109 -2.826119 1.262361,-7.852684 -2.288243 1.397252,-8.329653 -4.280655 0.9071823,-8.241526 -3.123939 1.120757,-8.20087 -2.394024 1.344352,-8.176135 -1.74224 1.537294,-8.634618 -4.340599 0.9651107,-8.576609 -3.28064 1.147784,-8.537016 -2.606636 1.320487,-8.497248 -2.018116 1.471692,-8.94642 -4.592048 1.044705,-9.00046 -3.798096 1.209608,-9.016006 -3.299574 1.34956,-9.021688 -2.822027 1.467732,3.710,0 1
-1.127822 -6.975078 0.08412603,-1.656292 -6.895474 0.9289141,-2.047257 -6.2656 1.480852,-2.177058 -5.696737 1.953641,-2.433618 -5.215254 2.565988,-1.861958 -4.893479 1.65913,-2.020866 -4.220092 2.544385,-1.967088 -3.947197 3.143736,-1.818505 -4.03606 3.518111,-1.380627 -4.766494 1.525886,-1.141894 -4.47134 2.566117,-1.141894 -4.47134 2.566117,-1.17387 -6.251606 2.915869,-0.9150753 -4.933446 1.461474,-0.6392283 -4.818123 2.436724,-0.7285404 -5.816528 2.571651,-0.8465481 -6.453157 2.521364,-0.5030808 -5.205287 1.434963,-0.1879692 -4.903202 2.231852,-0.2943616 -5.665031 2.44776,-0.4713955 -6.133352 2.520979,-8.702606 -6.875793 0.5161787,-8.170651 -6.62619 0.7991029,-7.683049 -6.043782 1.042506,-7.337078 -5.530057 1.292626,-6.991006 -5.286262 1.557948,-8.045372 -4.462109 0.9108697,-7.930459 -3.441447 1.137623,-7.898366 -2.813837 1.324726,-7.878551 -2.261614 1.459637,-8.357264 -4.302434 0.9502566,-8.267329 -3.144174 1.176753,-8.228361 -2.415051 1.405245,-8.208088 -1.756337 1.602086,-8.661724 -4.366212 1.00714,-8.59994 -3.306908 1.198909,-8.563194 -2.639291 1.373833,-8.528488 -2.050691 1.525841,-8.974976 -4.620374 1.084673,-9.023005 -3.829138 1.252608,-9.035488 -3.337221 1.394409,-9.041624 -2.859693 1.518701,3.810,0 1
-1.171357 -7.001902 0.2672065,-1.681906 -6.82793 1.06469,-2.048106 -6.133346 1.567762,-2.168491 -5.525977 1.999409,-2.446023 -5.072796 2.572086,-1.843202 -4.750198 1.681111,-1.960991 -4.099985 2.478799,-1.90853 -3.787181 3.022687,-1.796831 -3.801935 3.378348,-1.37501 -4.639773 1.563076,-1.147395 -4.288282 2.544692,-1.147395 -4.288282 2.544692,-1.171758 -6.065856 2.934801,-0.925509 -4.829909 1.510153,-0.6698599 -4.723798 2.435559,-0.7572579 -5.679813 2.567895,-0.8934369 -6.332181 2.517397,-0.5274057 -5.152794 1.485097,-0.2188544 -4.845254 2.265326,-0.3344765 -5.575061 2.43846,-0.5324059 -6.048542 2.483487,-8.720318 -6.875133 0.4757775,-8.177764 -6.634077 0.7527608,-7.685863 -6.047859 0.9859013,-7.339765 -5.52256 1.223185,-6.99636 -5.281511 1.471968,-8.050458 -4.476921 0.8691188,-7.93878 -3.463359 1.0963,-7.909674 -2.840869 1.285569,-7.890525 -2.294127 1.424629,-8.364748 -4.314699 0.9081147,-8.276742 -3.148504 1.133279,-8.236538 -2.421005 1.362703,-8.213415 -1.762866 1.558895,-8.670683 -4.371408 0.9625296,-8.610088 -3.304172 1.152061,-8.573905 -2.639404 1.32659,-8.537905 -2.049869 1.479391,-8.983359 -4.617063 1.037206,-9.036219 -3.832288 1.201426,-9.05367 -3.344182 1.341596,-9.063019 -2.868324 1.466332,3.910,0 1
-1.202581 -6.859349 0.1326902,-1.731872 -6.584581 0.7837769,-2.106479 -5.845581 1.182985,-2.294487 -5.127462 1.503342,-2.60853 -4.690498 1.893057,-1.872154 -4.462502 1.078094,-1.991324 -3.776966 1.557081,-1.973068 -3.31002 1.936532,-1.933541 -2.900202 2.204229,-1.438007 -4.339163 0.9616322,-1.342942 -3.656669 1.640924,-1.342942 -3.656669 1.640924,-1.238623 -5.01464 2.21554,-1.036896 -4.463703 0.8983109,-0.8824921 -4.019006 1.499695,-0.9022093 -4.824613 1.709085,-0.9500885 -5.376964 1.749875,-0.6695323 -4.77015 0.8572131,-0.4530678 -4.334045 1.358263,-0.514255 -4.851537 1.499874,-0.6192074 -5.253635 1.530978,-8.715702 -6.896228 0.4872791,-8.170588 -6.673063 0.7428185,-7.680277 -6.07922 0.9657694,-7.338178 -5.544305 1.198467,-6.996342 -5.305723 1.444639,-8.044232 -4.492283 0.8366935,-7.938724 -3.474564 1.049516,-7.913755 -2.850944 1.22875,-7.897796 -2.308552 1.353071,-8.361451 -4.326307 0.8827379,-8.280333 -3.160079 1.092073,-8.246656 -2.427637 1.30929,-8.228708 -1.776618 1.494413,-8.669631 -4.391298 0.9461487,-8.615993 -3.323303 1.12482,-8.584018 -2.647916 1.294568,-8.555237 -2.058194 1.445225,-8.983557 -4.650281 1.028759,-9.042418 -3.862956 1.18789,-9.060577 -3.362298 1.328283,-9.069789 -2.880164 1.449258,4.010,0 1
-1.253352 -6.801523 -0.3386599,-1.79019 -6.574264 0.3434978,-2.146635 -5.861548 0.7220938,-2.307633 -5.09817 1.022114,-2.621351 -4.568428 1.390553,-1.913599 -4.457559 0.3574003,-2.034824 -3.668972 0.7491164,-2.025505 -3.141317 1.105701,-1.993683 -2.677846 1.376285,-1.496756 -4.348728 0.2261066,-1.44453 -3.405258 0.8775861,-1.44453 -3.405258 0.8775861,-1.24212 -4.584173 1.454551,-1.126781 -4.453741 0.168862,-0.9920034 -3.731295 0.7875787,-0.9538374 -4.442749 1.118975,-0.9510155 -5.075508 1.196267,-0.7734528 -4.722425 0.1282738,-0.5647349 -4.147527 0.6281632,-0.589149 -4.568003 0.8475987,-0.6537361 -5.021245 0.9343737,-8.707983 -6.891205 0.4466327,-8.161896 -6.677827 0.7260559,-7.667206 -6.091476 0.9557875,-7.321017 -5.558811 1.190928,-6.979363 -5.314668 1.434616,-8.022441 -4.506288 0.8427081,-7.915175 -3.478306 1.080953,-7.888404 -2.85003 1.274978,-7.872751 -2.294719 1.40638,-8.340841 -4.342464 0.8879325,-8.256186 -3.170006 1.122707,-8.221125 -2.44135 1.353591,-8.202963 -1.784422 1.546295,-8.650353 -4.410909 0.9530898,-8.599926 -3.340041 1.156034,-8.569876 -2.667503 1.337547,-8.541745 -2.072235 1.493949,-8.967555 -4.674917 1.036425,-9.031372 -3.888909 1.219006,-9.051326 -3.385298 1.367834,-9.059464 -2.894722 1.493842,4.110,0 1
-1.280323 -6.885593 -0.4942522,-1.840047 -6.6476 0.03413844,-2.219914 -5.910648 0.3425363,-2.379601 -5.137145 0.6009542,-2.644982 -4.57982 0.9081638,-1.974285 -4.523315 -0.0209479,-2.124321 -3.643543 0.2150754,-2.177666 -3.04315 0.4903545,-2.187799 -2.514168 0.7485197,-1.584627 -4.45132 -0.1030138,-1.597376 -3.450929 0.3451767,-1.597376 -3.450929 0.3451767,-1.50851 -3.930614 0.9856412,-1.228232 -4.567109 -0.1253449,-1.186588 -3.686143 0.2305108,-1.195888 -3.911298 0.5856758,-1.1975 -4.339006 0.7722458,-0.8665142 -4.848324 -0.1145926,-0.7700801 -4.167192 0.2159042,-0.7993159 -4.262264 0.4943547,-0.8277779 -4.579587 0.682633,-8.674564 -6.899702 0.4919904,-8.13607 -6.679586 0.7631307,-7.646149 -6.092812 0.9906291,-7.302438 -5.560491 1.226231,-6.960814 -5.321271 1.471857,-8.008194 -4.496858 0.8593361,-7.894554 -3.473625 1.072241,-7.863258 -2.852702 1.253172,-7.841181 -2.308527 1.385031,-8.325394 -4.32961 0.8996643,-8.234988 -3.167056 1.110599,-8.196794 -2.436065 1.32868,-8.175363 -1.783505 1.519127,-8.634659 -4.3898 0.9591215,-8.572922 -3.329495 1.141279,-8.53817 -2.65538 1.308394,-8.504467 -2.066804 1.455646,-8.950502 -4.641685 1.039304,-9.004097 -3.850704 1.203653,-9.020805 -3.353343 1.34093,-9.025864 -2.875529 1.461532,4.210,0 1
-1.326042 -6.910034 -0.4899717,-1.865589 -6.679443 -0.009462386,-2.257763 -5.924985 0.248883,-2.421353 -5.181664 0.4860689,-2.681855 -4.627714 0.7733852,-1.989639 -4.536229 -0.1782322,-2.170386 -3.624999 0.04401207,-2.23561 -3.024044 0.3052132,-2.251448 -2.508633 0.5482028,-1.6125 -4.455438 -0.2241859,-1.649219 -3.512764 0.1186928,-1.649219 -3.512764 0.1186928,-1.599414 -3.278843 0.7707597,-1.270202 -4.579473 -0.1929381,-1.255283 -3.696527 0.1136234,-1.263371 -3.529296 0.5466835,-1.265998 -3.710627 0.8386902,-0.9223318 -4.860202 -0.1305513,-0.8613319 -4.136859 0.1487563,-0.8974104 -3.979634 0.4724658,-0.9349408 -4.10461 0.7390983,-8.668202 -6.881864 0.4365637,-8.127514 -6.66978 0.6972578,-7.637815 -6.095768 0.926656,-7.296052 -5.570073 1.162952,-6.960422 -5.331617 1.408426,-7.994586 -4.500757 0.8185654,-7.881563 -3.471649 1.044015,-7.852131 -2.843131 1.231827,-7.830128 -2.288543 1.364128,-8.314004 -4.332468 0.8675735,-8.225879 -3.151053 1.093379,-8.186308 -2.410873 1.320274,-8.163076 -1.744217 1.513067,-8.624665 -4.397687 0.9306203,-8.568095 -3.32045 1.123921,-8.531667 -2.639935 1.30162,-8.495769 -2.041643 1.45442,-8.940712 -4.65744 1.01143,-8.998281 -3.859648 1.188468,-9.014599 -3.356245 1.333696,-9.018774 -2.869812 1.458402,4.310,0 1
-1.36958 -7.101373 -0.1924161,-1.926358 -6.830303 0.2572929,-2.347315 -6.069326 0.4530847,-2.53251 -5.323391 0.6365217,-2.806926 -4.792973 0.8661264,-2.063512 -4.663916 0.06949481,-2.227429 -3.706933 0.2405944,-2.294335 -3.099746 0.4504139,-2.322878 -2.502367 0.6585081,-1.690789 -4.55787 -0.005940616,-1.750849 -3.588418 0.1291351,-1.750849 -3.588418 0.1291351,-1.735143 -2.472707 0.5778648,-1.343434 -4.657663 -0.009252787,-1.318491 -3.771827 0.1091327,-1.311927 -3.243551 0.3739728,-1.297624 -2.803799 0.5977716,-1.008442 -4.919184 0.03311361,-0.9486179 -4.216316 0.1662182,-0.9323058 -3.808271 0.3479283,-0.9178095 -3.425784 0.5215409,-8.66061 -6.889143 0.4487224,-8.124657 -6.664508 0.732141,-7.635729 -6.088279 0.9774894,-7.291018 -5.568651 1.228702,-6.948591 -5.331811 1.492422,-7.992912 -4.502964 0.8625187,-7.878776 -3.485654 1.092273,-7.847308 -2.862934 1.280891,-7.826351 -2.316642 1.415347,-8.311172 -4.340084 0.9058895,-8.221801 -3.168798 1.136707,-8.1846 -2.43529 1.36208,-8.165498 -1.776994 1.553939,-8.621733 -4.400781 0.9657005,-8.556826 -3.335542 1.162432,-8.519761 -2.659571 1.33355,-8.486384 -2.068635 1.480923,-8.940089 -4.651046 1.046094,-8.987608 -3.849676 1.219617,-9.003047 -3.350389 1.357649,-9.010859 -2.869723 1.475911,4.410,0 1
-1.394388 -7.166694 -0.09075718,-1.964795 -6.896781 0.2994282,-2.391568 -6.14107 0.4637685,-2.590277 -5.38827 0.6111929,-2.883258 -4.888903 0.7947587,-2.091953 -4.740042 0.1525509,-2.27709 -3.774517 0.3131936,-2.354309 -3.152894 0.4779506,-2.386587 -2.557344 0.6480643,-1.731771 -4.595752 0.09340844,-1.81351 -3.561971 0.2183996,-1.81351 -3.561971 0.2183996,-1.820674 -2.327487 0.5547673,-1.391951 -4.666182 0.1063267,-1.396885 -3.720863 0.2085627,-1.40731 -3.14014 0.4163126,-1.399732 -2.617441 0.6034457,-1.055641 -4.915382 0.1512107,-0.9904823 -4.169075 0.2743723,-0.9657574 -3.716281 0.4384881,-0.9411364 -3.269246 0.5927407,-8.673895 -6.890546 0.4210658,-8.134663 -6.670393 0.7138513,-7.648235 -6.097551 0.9627305,-7.303065 -5.584407 1.21473,-6.961761 -5.344434 1.482119,-8.006823 -4.512527 0.837314,-7.885804 -3.495174 1.067645,-7.852249 -2.871925 1.255426,-7.830832 -2.3191 1.391037,-8.323287 -4.349847 0.8788671,-8.233499 -3.171037 1.107507,-8.190774 -2.431938 1.337476,-8.167101 -1.763362 1.529783,-8.632135 -4.412284 0.9380764,-8.569434 -3.335964 1.139076,-8.527481 -2.656015 1.327223,-8.4888 -2.056724 1.485662,-8.947662 -4.664897 1.016911,-9.000483 -3.858989 1.200368,-9.015069 -3.354063 1.354349,-9.02159 -2.866683 1.481985,4.510,0 1
-1.405662 -7.220055 -0.07740256,-1.970886 -6.957859 0.268261,-2.406001 -6.202028 0.4047819,-2.625141 -5.434759 0.535205,-2.909645 -4.930469 0.7034041,-2.09961 -4.806536 0.1019797,-2.299603 -3.811903 0.2279246,-2.391739 -3.192256 0.3480681,-2.437237 -2.611307 0.4711697,-1.744596 -4.641653 0.04144765,-1.820285 -3.564283 0.1230447,-1.820285 -3.564283 0.1230447,-1.827026 -2.301782 0.3715204,-1.414135 -4.690979 0.05034843,-1.412683 -3.713827 0.1148338,-1.426853 -3.127281 0.2830592,-1.422571 -2.613379 0.431681,-1.086756 -4.911363 0.09057105,-1.012088 -4.154068 0.1708199,-0.9758382 -3.699655 0.3070529,-0.9414959 -3.249051 0.4322467,-8.68017 -6.915756 0.4603379,-8.148176 -6.694311 0.744333,-7.660254 -6.111675 0.980437,-7.316434 -5.59072 1.219834,-6.974051 -5.359789 1.47243,-8.015522 -4.524705 0.8449449,-7.902509 -3.513387 1.060909,-7.870732 -2.895475 1.246718,-7.848319 -2.352143 1.384283,-8.332199 -4.35699 0.8820624,-8.243322 -3.192673 1.099941,-8.19944 -2.45847 1.326024,-8.174068 -1.803371 1.519811,-8.641099 -4.414806 0.938544,-8.577009 -3.355184 1.126023,-8.534324 -2.679121 1.298795,-8.49333 -2.089381 1.449769,-8.956446 -4.663209 1.014551,-9.00631 -3.872026 1.18292,-9.020866 -3.374769 1.320727,-9.026778 -2.89459 1.437121,4.610,0 1
-1.390993 -7.244741 -0.06945936,-1.962449 -6.980543 0.2919645,-2.401245 -6.233585 0.4361673,-2.626157 -5.464279 0.570501,-2.920667 -4.959291 0.7415657,-2.09843 -4.835593 0.1250289,-2.306487 -3.846996 0.2476814,-2.399727 -3.232395 0.3649092,-2.445906 -2.655756 0.4911435,-1.742698 -4.666048 0.05537584,-1.826772 -3.583942 0.1426098,-1.826772 -3.583942 0.1426098,-1.834511 -2.312248 0.4069955,-1.412224 -4.708215 0.05733581,-1.419082 -3.718622 0.1243392,-1.439192 -3.125012 0.2982234,-1.435309 -2.591118 0.4525532,-1.083367 -4.920573 0.08894859,-1.013407 -4.149425 0.1700909,-0.9800777 -3.686927 0.3139105,-0.9449768 -3.225805 0.4423441,-8.690422 -6.919227 0.4360732,-8.152788 -6.694161 0.7174262,-7.657784 -6.122918 0.9586303,-7.308137 -5.611066 1.205419,-6.966766 -5.371114 1.461657,-8.016748 -4.534227 0.8219348,-7.910471 -3.509052 1.050635,-7.884711 -2.876842 1.241524,-7.867009 -2.322399 1.376637,-8.332699 -4.369174 0.8593891,-8.248388 -3.200059 1.08434,-8.207616 -2.460455 1.311703,-8.18459 -1.793232 1.50593,-8.641813 -4.427786 0.9158565,-8.585616 -3.366319 1.110137,-8.547881 -2.69231 1.283064,-8.510712 -2.100818 1.430031,-8.957536 -4.67681 0.9922721,-9.013344 -3.886416 1.161671,-9.030537 -3.39076 1.30101,-9.037815 -2.908485 1.419039,4.710,0 1
-1.397612 -7.257131 -0.07696829,-1.958513 -6.992832 0.2967851,-2.400308 -6.243879 0.4484761,-2.627986 -5.480266 0.5852833,-2.922529 -4.994714 0.7539171,-2.097482 -4.853885 0.1601093,-2.30873 -3.855701 0.2963158,-2.401915 -3.238403 0.4244891,-2.447272 -2.654754 0.5571805,-1.742485 -4.681775 0.08494242,-1.823683 -3.588937 0.1980813,-1.823683 -3.588937 0.1980813,-1.819112 -2.298206 0.4911438,-1.413688 -4.724557 0.07983378,-1.416156 -3.736597 0.1738477,-1.42886 -3.135334 0.3673772,-1.422251 -2.591952 0.5394422,-1.089369 -4.941205 0.1030708,-1.01798 -4.176965 0.2081318,-0.9802761 -3.714041 0.3684714,-0.9445467 -3.2461 0.5130493,-8.692195 -6.927791 0.4833967,-8.158629 -6.705322 0.7724312,-7.665026 -6.117452 1.016079,-7.314997 -5.60192 1.262996,-6.969976 -5.370538 1.522878,-8.020254 -4.533168 0.8784661,-7.911203 -3.522262 1.102565,-7.884748 -2.904016 1.290925,-7.867455 -2.356847 1.429877,-8.336613 -4.365757 0.9196413,-8.247443 -3.20452 1.144322,-8.206285 -2.47116 1.373446,-8.183043 -1.811066 1.568698,-8.647765 -4.423926 0.9809167,-8.583103 -3.360123 1.173134,-8.541452 -2.679376 1.347956,-8.502398 -2.082199 1.501532,-8.967471 -4.672547 1.062143,-9.019588 -3.87842 1.232396,-9.036341 -3.380641 1.370384,-9.044453 -2.898472 1.490462,4.810,0 1
-1.394196 -7.22953 -0.08242244,-1.953005 -6.967964 0.2510912,-2.393044 -6.224132 0.3949255,-2.62304 -5.467376 0.5369712,-2.91835 -4.981443 0.7163817,-2.092232 -4.826793 0.1196811,-2.305757 -3.833627 0.2512964,-2.398289 -3.226986 0.3694785,-2.440869 -2.649395 0.4930015,-1.741526 -4.655851 0.07589883,-1.824615 -3.554807 0.1962596,-1.824615 -3.554807 0.1962596,-1.81477 -2.268013 0.4766372,-1.413517 -4.700193 0.1013178,-1.419405 -3.699475 0.2060929,-1.431937 -3.094694 0.3916307,-1.42581 -2.54771 0.5532408,-1.084743 -4.919588 0.1518936,-1.011833 -4.143009 0.2675964,-0.9716549 -3.673657 0.4289665,-0.934535 -3.201326 0.5688777,-8.703394 -6.907934 0.3971732,-8.159487 -6.697343 0.6756134,-7.659938 -6.135768 0.9126517,-7.309555 -5.616675 1.154904,-6.968708 -5.378707 1.405564,-8.013637 -4.539634 0.7784662,-7.897641 -3.510008 1.005126,-7.869748 -2.882379 1.191674,-7.851859 -2.334251 1.319815,-8.331822 -4.370408 0.8153473,-8.24069 -3.195667 1.035362,-8.204064 -2.459293 1.257758,-8.185464 -1.79469 1.448878,-8.642225 -4.429278 0.8716658,-8.580332 -3.365393 1.063246,-8.546213 -2.693414 1.235034,-8.51339 -2.101938 1.382603,-8.960761 -4.67978 0.947585,-9.013307 -3.885149 1.119055,-9.029749 -3.389716 1.261072,-9.035378 -2.908098 1.382194,4.910,0 1
-1.390007 -7.206769 -0.07393614,-1.949718 -6.938999 0.2503195,-2.385507 -6.195857 0.388276,-2.618746 -5.443778 0.5255555,-2.918406 -4.954469 0.6993269,-2.08552 -4.798809 0.1073131,-2.296371 -3.81363 0.2342601,-2.394212 -3.214872 0.3468704,-2.442529 -2.640129 0.4665656,-1.738955 -4.630174 0.07272325,-1.820507 -3.534994 0.1955278,-1.820507 -3.534994 0.1955278,-1.812462 -2.247438 0.4799436,-1.413209 -4.675344 0.1053535,-1.411377 -3.673011 0.2100541,-1.417181 -3.068237 0.3975661,-1.404632 -2.5136 0.5635453,-1.087573 -4.894881 0.1646333,-1.011406 -4.116621 0.2822305,-0.9679599 -3.641445 0.4474398,-0.9252315 -3.161652 0.5917118,-8.684912 -6.904136 0.4536128,-8.137058 -6.703717 0.7326232,-7.640371 -6.119795 0.9632111,-7.292327 -5.58826 1.203736,-6.948799 -5.342325 1.456072,-7.995555 -4.516185 0.8199908,-7.878595 -3.503543 1.034817,-7.844956 -2.883387 1.219889,-7.822868 -2.340392 1.350513,-8.31523 -4.348089 0.8611979,-8.225798 -3.18523 1.065496,-8.188114 -2.451925 1.28453,-8.168961 -1.794534 1.473312,-8.627294 -4.409782 0.923352,-8.567711 -3.347013 1.103122,-8.529431 -2.672066 1.27167,-8.494028 -2.080733 1.415608,-8.948228 -4.6607 1.006751,-9.00065 -3.860208 1.171176,-9.014844 -3.355154 1.30325,-9.018008 -2.8664 1.414665,5.010,0 1
-1.378973 -7.255512 -0.02406939,-1.942341 -6.98159 0.3162514,-2.38383 -6.226853 0.4560546,-2.609391 -5.463706 0.5914178,-2.908481 -4.975854 0.7592667,-2.074228 -4.83741 0.1813504,-2.28299 -3.848236 0.3222232,-2.377091 -3.242717 0.4426458,-2.421689 -2.664484 0.5650581,-1.720257 -4.664155 0.1339629,-1.802577 -3.56546 0.2534214,-1.802577 -3.56546 0.2534214,-1.794344 -2.267763 0.5513145,-1.391322 -4.712324 0.1529891,-1.399519 -3.708973 0.2590076,-1.41286 -3.093819 0.4540174,-1.406526 -2.539659 0.6254656,-1.063607 -4.939052 0.1993418,-0.988884 -4.169271 0.3152012,-0.9512787 -3.70411 0.4779814,-0.9155354 -3.241054 0.6216526,-8.673512 -6.926235 0.4578763,-8.135415 -6.716466 0.744388,-7.643819 -6.139019 0.9843211,-7.298357 -5.614406 1.227829,-6.960344 -5.375374 1.480393,-7.998469 -4.543302 0.847499,-7.880099 -3.531541 1.068936,-7.848067 -2.90888 1.2573,-7.825172 -2.36264 1.394416,-8.315231 -4.370368 0.8841448,-8.224865 -3.202364 1.102321,-8.183374 -2.468473 1.326334,-8.15777 -1.808332 1.519105,-8.624125 -4.425657 0.9416887,-8.560078 -3.361631 1.12872,-8.519798 -2.682729 1.297071,-8.48125 -2.089387 1.444523,-8.939569 -4.672199 1.018698,-8.991476 -3.871788 1.186506,-9.006962 -3.367302 1.321391,-9.01351 -2.881698 1.434047,5.110,0 1
-1.378093 -7.267475 0.03227979,-1.93659 -7.001929 0.3977647,-2.37921 -6.25945 0.5533255,-2.605657 -5.502168 0.6994191,-2.904987 -5.009458 0.8794042,-2.072275 -4.830606 0.2480672,-2.276707 -3.850162 0.3844324,-2.368748 -3.250749 0.5081006,-2.415148 -2.680115 0.6327047,-1.71633 -4.659388 0.1889539,-1.795344 -3.570222 0.3080935,-1.795344 -3.570222 0.3080935,-1.792588 -2.281063 0.6059136,-1.386615 -4.708664 0.1993281,-1.389253 -3.718826 0.3037813,-1.403915 -3.117956 0.4948707,-1.399502 -2.571711 0.6636007,-1.057902 -4.933556 0.2405059,-0.9809999 -4.172937 0.3564327,-0.941247 -3.706718 0.5188862,-0.9031677 -3.237457 0.662774,-8.671732 -6.945186 0.4573683,-8.134551 -6.719354 0.7480921,-7.644543 -6.149642 0.9957342,-7.296032 -5.637565 1.24729,-6.958519 -5.397169 1.505746,-7.998843 -4.560695 0.8675119,-7.881188 -3.542178 1.101,-7.850559 -2.913261 1.294146,-7.827393 -2.362559 1.429415,-8.317691 -4.392245 0.9032936,-8.226149 -3.219326 1.135931,-8.188148 -2.476964 1.364868,-8.166142 -1.810588 1.559744,-8.628628 -4.448895 0.9578485,-8.56415 -3.381811 1.156161,-8.526505 -2.698012 1.325853,-8.488627 -2.102984 1.472547,-8.946608 -4.696201 1.03224,-8.997155 -3.889427 1.206146,-9.013401 -3.383701 1.342776,-9.020267 -2.89741 1.458121,5.210,0 1
-1.370158 -7.276426 0.004564541,-1.93361 -6.998903 0.3691901,-2.379693 -6.2542 0.5265933,-2.61318 -5.491731 0.6747823,-2.913065 -4.994491 0.8535219,-2.068724 -4.846202 0.238978,-2.275751 -3.850984 0.3815832,-2.365108 -3.245595 0.5117361,-2.403382 -2.668013 0.6418916,-1.710452 -4.6777 0.178432,-1.789335 -3.573032 0.3005277,-1.789335 -3.573032 0.3005277,-1.777006 -2.277225 0.5962423,-1.378485 -4.729751 0.1862767,-1.377449 -3.73089 0.2924317,-1.38744 -3.128416 0.4886934,-1.379193 -2.589717 0.6590614,-1.049618 -4.957275 0.2244834,-0.9705696 -4.196973 0.3400032,-0.929203 -3.732969 0.5057632,-0.893569 -3.270582 0.650129,-8.655125 -6.925841 0.4478025,-8.115521 -6.724683 0.7221856,-7.626623 -6.148927 0.9660985,-7.282193 -5.625903 1.215253,-6.946805 -5.385767 1.475894,-7.983657 -4.547042 0.8520241,-7.870596 -3.530903 1.079364,-7.842003 -2.908161 1.265858,-7.818893 -2.356124 1.398106,-8.307038 -4.376214 0.901212,-8.218377 -3.203237 1.123993,-8.176913 -2.460403 1.347355,-8.148543 -1.790516 1.540155,-8.623787 -4.435773 0.9671751,-8.560936 -3.364759 1.160988,-8.51948 -2.678541 1.331801,-8.476758 -2.078063 1.48121,-8.948809 -4.687809 1.051824,-8.998267 -3.878976 1.229794,-9.013647 -3.364176 1.36648,-9.016759 -2.869271 1.480807,5.310,0 1
-1.377346 -7.283778 0.02376158,-1.944885 -7.002061 0.3678144,-2.390911 -6.256225 0.5226479,-2.62542 -5.495655 0.6752679,-2.924365 -4.997076 0.8702264,-2.076418 -4.844175 0.2131762,-2.279653 -3.851875 0.3513368,-2.37093 -3.245027 0.4810987,-2.414829 -2.669162 0.609031,-1.719037 -4.677816 0.166832,-1.796553 -3.573336 0.2807451,-1.796553 -3.573336 0.2807451,-1.789329 -2.273017 0.5671929,-1.387299 -4.732799 0.1906693,-1.388738 -3.728089 0.2920414,-1.406172 -3.122079 0.4795542,-1.406498 -2.579998 0.6439068,-1.057521 -4.966355 0.2448158,-0.9804358 -4.202733 0.3585714,-0.9478912 -3.736077 0.5196524,-0.9221463 -3.270754 0.6586508,-8.652426 -6.901892 0.4371442,-8.099024 -6.707883 0.736115,-7.601584 -6.150981 0.9958578,-7.253437 -5.629272 1.254104,-6.919378 -5.375734 1.520318,-7.960312 -4.538764 0.882084,-7.850883 -3.520508 1.128918,-7.824043 -2.898869 1.331377,-7.801421 -2.346168 1.469186,-8.284427 -4.365638 0.9306136,-8.199341 -3.188178 1.170453,-8.160115 -2.439851 1.406727,-8.133093 -1.763124 1.614239,-8.602491 -4.435952 0.9944398,-8.544054 -3.357071 1.206036,-8.50369 -2.659902 1.392496,-8.462188 -2.04699 1.554375,-8.930422 -4.704095 1.079555,-8.983325 -3.893984 1.271839,-9.000373 -3.372002 1.420524,-9.002179 -2.872806 1.54787,5.410,0 1
-1.380496 -7.30166 0.03436596,-1.936055 -7.031169 0.3949298,-2.381632 -6.28379 0.5545246,-2.614491 -5.52582 0.708531,-2.92068 -5.036065 0.8995689,-2.072105 -4.863902 0.2631803,-2.275061 -3.88131 0.4173313,-2.363962 -3.282552 0.5535777,-2.405159 -2.703901 0.6834785,-1.714092 -4.693918 0.2151262,-1.791097 -3.59886 0.3556604,-1.791097 -3.59886 0.3556604,-1.781603 -2.297294 0.6787354,-1.383045 -4.751548 0.2352421,-1.381957 -3.758548 0.3623537,-1.396519 -3.151844 0.5688461,-1.394316 -2.600846 0.7473275,-1.055031 -4.989625 0.2862714,-0.9745607 -4.240917 0.4212168,-0.9367361 -3.781587 0.5939388,-0.9062648 -3.323505 0.7438404,-8.638399 -6.93233 0.4224497,-8.089176 -6.747922 0.7235059,-7.593023 -6.18045 0.9743982,-7.248496 -5.660388 1.22443,-6.917609 -5.417584 1.482772,-7.955555 -4.565027 0.8316777,-7.833468 -3.551726 1.058139,-7.800236 -2.929473 1.250513,-7.774315 -2.381731 1.388615,-8.275726 -4.390213 0.8649253,-8.187634 -3.210611 1.084097,-8.147598 -2.463848 1.312826,-8.123928 -1.791934 1.513288,-8.5889 -4.4486 0.9180687,-8.522832 -3.379465 1.112255,-8.481027 -2.687548 1.292328,-8.442079 -2.084346 1.450063,-8.909583 -4.699583 0.9923083,-8.963047 -3.893721 1.1693,-8.983415 -3.384471 1.313656,-8.992804 -2.900737 1.438499,5.510,0 1
-1.379777 -7.291633 0.008804031,-1.94017 -7.012257 0.3643404,-2.382985 -6.268972 0.5229209,-2.613356 -5.515712 0.6754686,-2.917465 -5.026495 0.8653259,-2.071615 -4.862245 0.2412074,-2.274382 -3.88639 0.3891887,-2.358791 -3.293134 0.5175884,-2.396146 -2.716268 0.6440599,-1.714286 -4.6915 0.190984,-1.790795 -3.594474 0.330658,-1.790795 -3.594474 0.330658,-1.774804 -2.303605 0.6431692,-1.385233 -4.74669 0.208716,-1.385686 -3.748953 0.3324735,-1.397093 -3.149431 0.5338556,-1.39104 -2.599164 0.7079309,-1.05737 -4.981651 0.2558179,-0.9783163 -4.227617 0.3849631,-0.9376383 -3.764663 0.5589192,-0.9037523 -3.297445 0.70648,-8.632141 -6.936036 0.4102092,-8.085294 -6.736861 0.7141706,-7.590914 -6.17409 0.9678538,-7.246689 -5.660387 1.221039,-6.913 -5.427139 1.482454,-7.95088 -4.575586 0.840986,-7.833257 -3.557799 1.077321,-7.800667 -2.930315 1.271218,-7.77582 -2.375841 1.410151,-8.272362 -4.401594 0.8778043,-8.184605 -3.219061 1.110571,-8.144224 -2.465089 1.346672,-8.118029 -1.784225 1.551711,-8.586738 -4.456878 0.9326617,-8.523936 -3.383338 1.138814,-8.483135 -2.689991 1.319535,-8.44173 -2.083456 1.47529,-8.909281 -4.70162 1.008886,-8.962973 -3.893301 1.196138,-8.98434 -3.379127 1.340613,-8.992579 -2.889094 1.461548,5.610,0 1
-1.376975 -7.283891 -0.01289694,-1.937864 -7.003511 0.3441254,-2.380587 -6.260853 0.4983443,-2.612581 -5.503055 0.6468264,-2.913393 -5.011299 0.8334584,-2.067323 -4.860122 0.2179654,-2.277009 -3.876411 0.3646916,-2.363765 -3.278906 0.4958533,-2.400552 -2.702063 0.6227247,-1.712311 -4.689832 0.1648974,-1.793695 -3.588212 0.2989041,-1.793695 -3.588212 0.2989041,-1.774724 -2.290755 0.6068475,-1.384338 -4.743745 0.1791298,-1.386847 -3.744941 0.299345,-1.398195 -3.142738 0.4999959,-1.389221 -2.591558 0.6739408,-1.058474 -4.976493 0.2229412,-0.9811134 -4.222925 0.3510441,-0.9400406 -3.761394 0.522476,-0.9044342 -3.294844 0.6687478,-8.629834 -6.931795 0.4293254,-8.083334 -6.726522 0.7195278,-7.590604 -6.165918 0.9668401,-7.24671 -5.650712 1.215345,-6.913596 -5.407301 1.473652,-7.952822 -4.559396 0.8315859,-7.833667 -3.544712 1.055051,-7.802307 -2.919849 1.241863,-7.778174 -2.367898 1.374472,-8.276338 -4.386034 0.8698844,-8.190232 -3.206644 1.087945,-8.149685 -2.455419 1.315643,-8.122742 -1.779661 1.51388,-8.592527 -4.44672 0.9263363,-8.52786 -3.375719 1.116769,-8.485461 -2.683379 1.300408,-8.44339 -2.076558 1.460188,-8.914969 -4.701532 1.003638,-8.967199 -3.899406 1.182126,-8.985605 -3.389184 1.331053,-8.991631 -2.902463 1.458068,5.710,0 1
-1.416597 -7.25678 -0.02448262,-1.981483 -6.966245 0.2995315,-2.416224 -6.220096 0.4483426,-2.64762 -5.468635 0.6025451,-2.947176 -4.995492 0.7986003,-2.093287 -4.824569 0.1612271,-2.296059 -3.830205 0.3099224,-2.38176 -3.221448 0.4468038,-2.419109 -2.642332 0.5749483,-1.737728 -4.662502 0.1249349,-1.812649 -3.549425 0.2604407,-1.812649 -3.549425 0.2604407,-1.812563 -2.238647 0.560401,-1.410595 -4.724769 0.1588748,-1.402617 -3.718572 0.2764807,-1.417138 -3.115112 0.4675503,-1.416733 -2.574811 0.6318346,-1.089559 -4.968725 0.2187037,-1.002219 -4.215735 0.3439905,-0.9685216 -3.752367 0.5082475,-0.9451389 -3.292101 0.6473672,-8.633957 -6.950038 0.4333497,-8.08393 -6.755196 0.7222537,-7.588654 -6.185661 0.9656798,-7.241372 -5.666193 1.210489,-6.908771 -5.422086 1.463951,-7.954213 -4.577859 0.8251363,-7.83718 -3.556623 1.05132,-7.808728 -2.926731 1.245116,-7.789497 -2.367548 1.381816,-8.276671 -4.401289 0.8600811,-8.187833 -3.227741 1.079654,-8.14861 -2.468256 1.316286,-8.127217 -1.787394 1.523706,-8.593408 -4.460028 0.9143099,-8.53546 -3.393526 1.103452,-8.497129 -2.69805 1.284469,-8.459978 -2.09421 1.443105,-8.91862 -4.710673 0.9877999,-8.974689 -3.902125 1.164257,-8.993858 -3.386528 1.312999,-9.000631 -2.893295 1.436718,5.810,0 1
-1.38736 -7.25558 0.02803695,-1.955054 -6.980447 0.3659569,-2.403195 -6.227058 0.5136425,-2.638652 -5.466365 0.6531039,-2.945318 -4.991094 0.8326394,-2.093557 -4.829519 0.2602709,-2.308186 -3.850145 0.3993721,-2.398301 -3.246734 0.5205296,-2.440204 -2.667552 0.6421251,-1.736949 -4.651917 0.210756,-1.824766 -3.554273 0.343087,-1.824766 -3.554273 0.343087,-1.82276 -2.252521 0.6423514,-1.408015 -4.704781 0.225554,-1.414447 -3.71495 0.3459661,-1.428948 -3.113705 0.5473607,-1.423299 -2.567224 0.7186388,-1.081963 -4.939245 0.2674794,-1.009017 -4.198101 0.3907259,-0.9737501 -3.745635 0.5599979,-0.9441271 -3.290954 0.7043831,-8.634496 -6.956638 0.4427704,-8.08259 -6.750711 0.7227556,-7.587652 -6.178845 0.9645676,-7.244496 -5.656795 1.209774,-6.912846 -5.418058 1.466009,-7.95466 -4.578714 0.8312114,-7.835673 -3.568877 1.056227,-7.805982 -2.9444 1.243398,-7.782805 -2.391511 1.3791,-8.279804 -4.405493 0.8737732,-8.191504 -3.226772 1.091432,-8.154106 -2.474423 1.3207,-8.129934 -1.795651 1.519157,-8.596579 -4.468701 0.9339468,-8.532461 -3.39896 1.126439,-8.494068 -2.70312 1.308161,-8.456203 -2.090663 1.465561,-8.920149 -4.725268 1.013579,-8.973364 -3.916371 1.192111,-8.99359 -3.403572 1.340888,-9.001658 -2.911481 1.464974,5.910,0 1
-1.386742 -7.264953 0.03719107,-1.944283 -7.000232 0.3965181,-2.386245 -6.246593 0.5520886,-2.618799 -5.485953 0.7030618,-2.930792 -5.006731 0.8922929,-2.075181 -4.828331 0.2638017,-2.292105 -3.847736 0.4132058,-2.384345 -3.251455 0.5396805,-2.424798 -2.678624 0.6646863,-1.720612 -4.656345 0.2163782,-1.807412 -3.557727 0.3547097,-1.807412 -3.557727 0.3547097,-1.798966 -2.256925 0.6660322,-1.392406 -4.716333 0.2381143,-1.393624 -3.723459 0.3707772,-1.409322 -3.120256 0.5828605,-1.404274 -2.567039 0.7618271,-1.066399 -4.957323 0.2903698,-0.9925194 -4.215559 0.4280861,-0.9629755 -3.761975 0.6051974,-0.9391503 -3.309989 0.7566782,-8.638034 -6.961624 0.4495112,-8.091969 -6.744333 0.7353561,-7.599049 -6.174318 0.9810196,-7.254464 -5.659564 1.232104,-6.923141 -5.419742 1.491822,-7.962562 -4.578261 0.8548558,-7.847043 -3.556936 1.089592,-7.821039 -2.926313 1.282289,-7.803045 -2.3649 1.420152,-8.285792 -4.411783 0.9016345,-8.200553 -3.228578 1.132228,-8.163551 -2.47208 1.364867,-8.140038 -1.78931 1.564801,-8.600689 -4.474029 0.9655784,-8.543127 -3.398793 1.16976,-8.507258 -2.703161 1.349676,-8.471852 -2.09139 1.504304,-8.922153 -4.727983 1.049828,-8.978383 -3.918579 1.235715,-9.00007 -3.403874 1.378821,-9.010142 -2.908109 1.496068,6.010,0 1
-1.383636 -7.279177 0.03620897,-1.947821 -7.009403 0.3955579,-2.394127 -6.26016 0.549657,-2.627598 -5.501522 0.7004804,-2.937762 -5.026699 0.8917888,-2.086655 -4.840187 0.2317962,-2.289427 -3.845559 0.3673043,-2.377217 -3.239051 0.4969147,-2.415833 -2.669627 0.6247858,-1.728053 -4.669816 0.1761277,-1.806968 -3.564123 0.2849632,-1.806968 -3.564123 0.2849632,-1.793745 -2.253816 0.5803322,-1.397038 -4.727945 0.1908337,-1.397901 -3.734169 0.2888884,-1.414254 -3.132617 0.4775111,-1.411832 -2.594643 0.6440022,-1.069488 -4.965539 0.2388709,-0.9930434 -4.221662 0.3500931,-0.9619446 -3.771356 0.5064563,-0.9358549 -3.326112 0.6452537,-8.620525 -6.960742 0.4777658,-8.078703 -6.754789 0.7686963,-7.587556 -6.184909 1.020608,-7.246044 -5.663923 1.274646,-6.917194 -5.416072 1.532713,-7.951332 -4.575323 0.8968173,-7.839766 -3.561338 1.132794,-7.813681 -2.936324 1.327626,-7.793632 -2.380741 1.466068,-8.276877 -4.403073 0.9387678,-8.194204 -3.223119 1.16945,-8.158998 -2.473866 1.402829,-8.136018 -1.801012 1.603084,-8.595419 -4.465665 0.9979842,-8.539087 -3.389892 1.199968,-8.503748 -2.694108 1.379423,-8.46789 -2.084808 1.534627,-8.92083 -4.723449 1.077121,-8.975757 -3.912221 1.258571,-8.996742 -3.395605 1.40136,-9.004986 -2.899719 1.521139,6.110,0 1
-1.375539 -7.331481 0.04483529,-1.913049 -7.047751 0.4239457,-2.353128 -6.299604 0.5924801,-2.5852 -5.555725 0.7530949,-2.894362 -5.069314 0.9573104,-2.055232 -4.88228 0.2837177,-2.24298 -3.889774 0.4379902,-2.327061 -3.29195 0.580364,-2.368823 -2.712806 0.7199764,-1.701504 -4.7206 0.2371664,-1.769851 -3.617846 0.375311,-1.769851 -3.617846 0.375311,-1.756382 -2.326003 0.7034775,-1.372815 -4.787108 0.2608302,-1.352246 -3.794024 0.3914634,-1.357695 -3.193576 0.6034204,-1.350209 -2.639065 0.7869491,-1.048404 -5.033493 0.3197232,-0.9627724 -4.292392 0.4603394,-0.9193678 -3.838003 0.6319872,-0.8836842 -3.379125 0.7856227,-8.636501 -6.999996 0.5006817,-8.087569 -6.792188 0.8011192,-7.591722 -6.215879 1.047323,-7.246966 -5.693275 1.291029,-6.915306 -5.449953 1.544024,-7.969193 -4.605226 0.8961508,-7.84901 -3.587938 1.11943,-7.816618 -2.963325 1.314462,-7.792459 -2.413944 1.456089,-8.291817 -4.429128 0.9231229,-8.204672 -3.253503 1.137331,-8.167253 -2.500851 1.367713,-8.143793 -1.825754 1.572017,-8.608665 -4.490129 0.9716165,-8.541909 -3.417998 1.153724,-8.499972 -2.720556 1.329153,-8.460073 -2.118114 1.486155,-8.932671 -4.743499 1.040574,-8.987637 -3.941885 1.206178,-9.005282 -3.430246 1.348402,-9.010876 -2.946386 1.472554,6.210,0 1
-1.358722 -7.347286 0.05563238,-1.910543 -7.06221 0.4425532,-2.35161 -6.311456 0.6173568,-2.57939 -5.560185 0.7787354,-2.887671 -5.070859 0.9788608,-2.040339 -4.902231 0.3560144,-2.240355 -3.916495 0.5294216,-2.326229 -3.321514 0.6754258,-2.365951 -2.739887 0.8149303,-1.681373 -4.737379 0.301808,-1.759274 -3.641298 0.4644732,-1.759274 -3.641298 0.4644732,-1.745317 -2.331217 0.8144247,-1.349581 -4.809169 0.3144997,-1.346378 -3.812154 0.4675376,-1.354376 -3.205692 0.6942139,-1.345267 -2.646973 0.8891351,-1.022426 -5.065717 0.3577255,-0.9432101 -4.318738 0.5181247,-0.9081616 -3.857925 0.7104293,-0.881669 -3.39631 0.8755157,-8.632144 -6.998255 0.5156134,-8.085885 -6.789369 0.8172363,-7.592024 -6.210433 1.073705,-7.245578 -5.689636 1.331616,-6.912793 -5.442619 1.59514,-7.962227 -4.605014 0.946734,-7.844988 -3.590316 1.189209,-7.817238 -2.961249 1.388345,-7.797435 -2.404426 1.529618,-8.287217 -4.430992 0.9838676,-8.200949 -3.248583 1.217352,-8.165937 -2.496315 1.451726,-8.145611 -1.816944 1.653711,-8.60585 -4.489875 1.040157,-8.544617 -3.411045 1.244312,-8.508456 -2.715152 1.42432,-8.473276 -2.105258 1.579168,-8.93223 -4.743866 1.116818,-8.987617 -3.934707 1.298298,-9.008907 -3.421113 1.443377,-9.017485 -2.925571 1.567069,6.310,0 1
-1.369069 -7.328346 0.03606789,-1.932528 -7.044683 0.3971989,-2.373403 -6.294713 0.5624079,-2.600954 -5.546834 0.7200726,-2.906465 -5.071015 0.9166638,-2.057529 -4.886845 0.2831185,-2.254642 -3.902976 0.4399053,-2.337718 -3.306226 0.5791161,-2.376568 -2.735122 0.7110955,-1.697228 -4.720681 0.2339489,-1.772135 -3.627591 0.3770661,-1.772135 -3.627591 0.3770661,-1.762384 -2.320077 0.7040659,-1.365576 -4.788627 0.2516676,-1.364558 -3.799534 0.378939,-1.378197 -3.206075 0.5805358,-1.374843 -2.665502 0.7551168,-1.04003 -5.038183 0.2987322,-0.9599829 -4.29989 0.4347283,-0.9264231 -3.845338 0.6060527,-0.9000874 -3.391868 0.7519739,-8.630172 -6.990386 0.5218803,-8.078066 -6.782016 0.8076374,-7.586363 -6.199817 1.053557,-7.242512 -5.667577 1.303214,-6.909056 -5.419903 1.558769,-7.956095 -4.58856 0.9252974,-7.841089 -3.576444 1.147787,-7.811279 -2.954752 1.332307,-7.789794 -2.407281 1.467265,-8.279068 -4.418655 0.9708426,-8.19465 -3.238662 1.186178,-8.156263 -2.488241 1.412889,-8.130041 -1.816005 1.613531,-8.595476 -4.480756 1.0333,-8.537623 -3.405773 1.226306,-8.500867 -2.706933 1.401697,-8.464134 -2.096632 1.557034,-8.91914 -4.735818 1.116415,-8.976661 -3.924049 1.292772,-8.998742 -3.405381 1.434465,-9.009094 -2.912153 1.555592,6.410,0 1
-1.380786 -7.30615 -1.292751E-05,-1.939401 -7.029816 0.3526218,-2.382432 -6.275238 0.5142537,-2.613587 -5.522259 0.6768648,-2.916157 -5.035466 0.8764047,-2.065953 -4.868695 0.2285529,-2.264866 -3.884458 0.3821465,-2.346477 -3.293268 0.5185131,-2.379192 -2.723754 0.6489804,-1.70851 -4.70823 0.1896324,-1.78774 -3.602222 0.3311611,-1.78774 -3.602222 0.3311611,-1.77315 -2.304451 0.6488841,-1.376646 -4.778149 0.2197001,-1.370719 -3.780895 0.3500906,-1.378886 -3.177372 0.558273,-1.370733 -2.631248 0.7353068,-1.047918 -5.029819 0.2766469,-0.9665518 -4.285051 0.4175266,-0.9322457 -3.828651 0.59113,-0.9064336 -3.375568 0.7400379,-8.630372 -6.982878 0.5376731,-8.077785 -6.770821 0.8227192,-7.584633 -6.179462 1.063719,-7.240168 -5.649521 1.309867,-6.908666 -5.405275 1.558312,-7.955649 -4.574371 0.9410968,-7.838727 -3.565042 1.169088,-7.8094 -2.937634 1.358515,-7.789283 -2.384405 1.498497,-8.279129 -4.406118 0.9841106,-8.192883 -3.226759 1.206085,-8.154226 -2.475929 1.439348,-8.128789 -1.802373 1.64223,-8.596138 -4.470403 1.044238,-8.536683 -3.393145 1.241569,-8.499881 -2.696715 1.423211,-8.463561 -2.086656 1.581437,-8.920684 -4.732107 1.123859,-8.976053 -3.923323 1.301357,-8.99671 -3.409647 1.445886,-9.00553 -2.917243 1.569866,6.510,0 1
-1.388748 -7.323893 0.04009946,-1.942451 -7.048205 0.3961811,-2.382869 -6.282545 0.5510644,-2.611717 -5.522841 0.7011781,-2.916974 -5.047493 0.8838471,-2.068105 -4.881818 0.2649046,-2.270739 -3.905887 0.415797,-2.353852 -3.311677 0.5448596,-2.388446 -2.738996 0.6694244,-1.710464 -4.712869 0.2187454,-1.788888 -3.61757 0.3589207,-1.788888 -3.61757 0.3589207,-1.771994 -2.313171 0.6776549,-1.381535 -4.777967 0.2418161,-1.382005 -3.782349 0.3732457,-1.391912 -3.173683 0.5808748,-1.386534 -2.618195 0.7595106,-1.055637 -5.031063 0.2945613,-0.9745612 -4.289099 0.4324023,-0.9374733 -3.834668 0.6067129,-0.9083314 -3.381917 0.7576371,-8.623987 -6.97933 0.5034894,-8.073497 -6.761337 0.7831433,-7.582139 -6.180044 1.024845,-7.238754 -5.650438 1.272579,-6.90524 -5.407766 1.525772,-7.95486 -4.581062 0.9017978,-7.841512 -3.561697 1.132761,-7.815681 -2.933818 1.324304,-7.797514 -2.378191 1.4611,-8.27937 -4.410831 0.9451019,-8.197237 -3.222541 1.169499,-8.162445 -2.468226 1.402079,-8.140605 -1.789285 1.601285,-8.595965 -4.475251 1.004779,-8.539558 -3.393376 1.198637,-8.505364 -2.697328 1.371673,-8.472324 -2.086802 1.524353,-8.918763 -4.735723 1.083459,-8.976615 -3.925552 1.258023,-8.997122 -3.411732 1.398795,-9.007518 -2.91806 1.515196,6.610,0 1
-1.377366 -7.295151 0.03693814,-1.931846 -7.021526 0.3672179,-2.372619 -6.267278 0.5145838,-2.599395 -5.512495 0.6619711,-2.902187 -5.023807 0.8475949,-2.063643 -4.851459 0.2533045,-2.261615 -3.871438 0.3934835,-2.342137 -3.281463 0.520543,-2.372159 -2.710871 0.6456457,-1.708875 -4.686716 0.2223682,-1.786095 -3.579636 0.3587297,-1.786095 -3.579636 0.3587297,-1.763715 -2.284918 0.6605262,-1.379158 -4.751519 0.2567878,-1.371789 -3.749271 0.3887309,-1.376958 -3.144468 0.5889567,-1.365336 -2.593405 0.7590408,-1.049857 -4.995155 0.3190242,-0.9699707 -4.2492 0.4566562,-0.9297152 -3.794199 0.627217,-0.8973665 -3.339193 0.7713076,-8.650901 -6.996446 0.5657989,-8.113741 -6.777147 0.8524755,-7.62618 -6.195909 1.090007,-7.282642 -5.66536 1.332337,-6.940434 -5.42064 1.591088,-7.979128 -4.577472 0.912527,-7.859988 -3.562486 1.111914,-7.832891 -2.948894 1.284449,-7.814845 -2.406187 1.40928,-8.305954 -4.400808 0.9511771,-8.220868 -3.226461 1.132623,-8.186018 -2.489899 1.341573,-8.166532 -1.836732 1.521558,-8.625521 -4.464686 1.014373,-8.562325 -3.382833 1.17698,-8.526382 -2.702299 1.349619,-8.494146 -2.108567 1.499869,-8.953671 -4.724791 1.097462,-9.008212 -3.925203 1.258339,-9.024372 -3.416897 1.402634,-9.032999 -2.931741 1.522905,6.710,0 1
-1.378129 -7.301753 0.0688324,-1.938729 -7.022506 0.4090224,-2.380587 -6.253316 0.5627419,-2.605487 -5.491031 0.7175079,-2.913854 -5.016733 0.9107308,-2.059966 -4.848353 0.2812661,-2.255428 -3.870239 0.4379136,-2.33746 -3.281778 0.5662609,-2.373334 -2.71026 0.686789,-1.702838 -4.68301 0.2504418,-1.785046 -3.587854 0.3954986,-1.785046 -3.587854 0.3954986,-1.774836 -2.283077 0.7153378,-1.371706 -4.753114 0.287747,-1.371264 -3.756301 0.4263935,-1.381627 -3.151083 0.6361974,-1.377065 -2.596216 0.8166549,-1.043217 -5.01217 0.3544969,-0.9609127 -4.262933 0.5023283,-0.9259868 -3.802824 0.6812952,-0.9007487 -3.342409 0.8350376,-8.653634 -7.00513 0.523091,-8.101315 -6.780527 0.8009192,-7.611929 -6.206811 1.045753,-7.271289 -5.678277 1.294612,-6.938171 -5.428403 1.550034,-7.978727 -4.605174 0.9408286,-7.868346 -3.565942 1.179195,-7.838506 -2.919893 1.375457,-7.815456 -2.34527 1.513746,-8.308988 -4.434696 0.9861385,-8.222241 -3.247369 1.220035,-8.184162 -2.481931 1.456683,-8.160908 -1.791172 1.660926,-8.629692 -4.499181 1.046299,-8.575752 -3.416007 1.246025,-8.54128 -2.711427 1.422862,-8.505932 -2.092432 1.576582,-8.957148 -4.758403 1.124353,-9.019594 -3.941471 1.306202,-9.041481 -3.417685 1.451514,-9.050039 -2.908416 1.570418,6.810,0 1
-1.398854 -7.321868 0.08968621,-1.962275 -7.048091 0.454819,-2.405533 -6.295091 0.6192421,-2.63765 -5.537958 0.7790067,-2.948925 -5.070403 0.9823275,-2.088966 -4.871656 0.3002753,-2.274911 -3.885997 0.4508013,-2.351334 -3.283372 0.5879517,-2.385526 -2.712566 0.7151427,-1.732248 -4.696629 0.2472481,-1.80869 -3.591955 0.3672135,-1.80869 -3.591955 0.3672135,-1.804829 -2.283351 0.6633826,-1.402066 -4.757788 0.264421,-1.398077 -3.762316 0.3763714,-1.411023 -3.167843 0.569903,-1.410069 -2.63338 0.7336276,-1.075211 -5.004352 0.3172771,-0.9978447 -4.262844 0.4378773,-0.9668455 -3.816482 0.6006216,-0.9440856 -3.378818 0.7432821,-8.636737 -6.988767 0.5017274,-8.091385 -6.781698 0.8073624,-7.594926 -6.211316 1.060357,-7.250019 -5.685969 1.315096,-6.919696 -5.43629 1.574566,-7.959096 -4.599964 0.9362952,-7.846401 -3.583383 1.181827,-7.822087 -2.959608 1.383887,-7.803819 -2.404142 1.524894,-8.284975 -4.427733 0.9767457,-8.202945 -3.245658 1.212385,-8.173301 -2.495081 1.451955,-8.155235 -1.818592 1.658017,-8.604362 -4.49268 1.037158,-8.548421 -3.415751 1.244599,-8.517428 -2.719073 1.430736,-8.485018 -2.108234 1.591214,-8.933279 -4.754116 1.118105,-8.993258 -3.946926 1.305602,-9.017005 -3.431876 1.454808,-9.026943 -2.936733 1.581037,6.910,0 1
-1.396327 -7.338083 0.08246129,-1.950748 -7.048635 0.4058124,-2.398504 -6.284278 0.5483106,-2.635722 -5.526561 0.6985968,-2.942873 -5.052866 0.8902993,-2.083521 -4.885386 0.2620676,-2.283702 -3.911545 0.4122458,-2.369192 -3.32227 0.5398266,-2.40849 -2.752163 0.6590446,-1.731935 -4.715133 0.238556,-1.812779 -3.622172 0.3729574,-1.812779 -3.622172 0.3729574,-1.802774 -2.31585 0.6821986,-1.404282 -4.77754 0.2823455,-1.406715 -3.782218 0.4122463,-1.419641 -3.182302 0.6121197,-1.416104 -2.636291 0.7816675,-1.07632 -5.023308 0.3557849,-0.995532 -4.283943 0.4918812,-0.9577141 -3.828287 0.6611112,-0.9292622 -3.375835 0.8037043,-8.630754 -6.993594 0.5041997,-8.095986 -6.777226 0.799558,-7.605723 -6.193757 1.046808,-7.261294 -5.669889 1.296615,-6.92772 -5.419305 1.557703,-7.967861 -4.594933 0.9194403,-7.846212 -3.580202 1.155405,-7.818516 -2.954298 1.35016,-7.801517 -2.391166 1.493171,-8.290331 -4.427156 0.9619425,-8.205882 -3.247277 1.194264,-8.172725 -2.492761 1.43949,-8.156935 -1.805363 1.648765,-8.606876 -4.4962 1.025138,-8.550885 -3.423727 1.22856,-8.516967 -2.732444 1.417394,-8.485641 -2.120553 1.582633,-8.931978 -4.7581 1.105824,-8.990356 -3.949672 1.29339,-9.011994 -3.441063 1.443464,-9.022935 -2.948317 1.568175,7.010,0 1
-1.380116 -7.274251 0.05182141,-1.927285 -6.995779 0.3980677,-2.366221 -6.242646 0.5553448,-2.595123 -5.48426 0.7125265,-2.893488 -4.991075 0.9092218,-2.057721 -4.821344 0.2675002,-2.245036 -3.833705 0.4099037,-2.327287 -3.24516 0.5361136,-2.362246 -2.677902 0.6605595,-1.707998 -4.66064 0.2313677,-1.779905 -3.54998 0.3636931,-1.779905 -3.54998 0.3636931,-1.758154 -2.248903 0.6673848,-1.381655 -4.724536 0.2615833,-1.364357 -3.725093 0.3904626,-1.363603 -3.123162 0.5915459,-1.348831 -2.576887 0.7628118,-1.056862 -4.967176 0.3233874,-0.9697685 -4.214797 0.4600009,-0.9191093 -3.75695 0.6267325,-0.8765106 -3.298847 0.772935,-8.621758 -6.990139 0.513688,-8.077746 -6.775365 0.8219947,-7.58701 -6.203642 1.083913,-7.24393 -5.674579 1.346263,-6.910243 -5.413998 1.609987,-7.956942 -4.597231 0.96948,-7.850471 -3.565712 1.220631,-7.826367 -2.931817 1.421579,-7.806917 -2.367362 1.561126,-8.285789 -4.427168 1.00816,-8.202651 -3.243338 1.252564,-8.170944 -2.481729 1.493914,-8.148853 -1.798195 1.700462,-8.60778 -4.49605 1.064075,-8.550631 -3.411504 1.279705,-8.519564 -2.70412 1.465412,-8.484165 -2.08479 1.624751,-8.938533 -4.762363 1.140587,-8.997335 -3.945741 1.329133,-9.021885 -3.42167 1.47802,-9.030393 -2.91579 1.59975,7.110,0 1
-1.391586 -7.270786 0.04961886,-1.953332 -6.982168 0.3715833,-2.39175 -6.227233 0.518868,-2.622818 -5.471143 0.6718112,-2.927754 -4.999082 0.8647966,-2.069909 -4.820129 0.2143948,-2.2601 -3.836137 0.3570771,-2.338726 -3.24466 0.4847918,-2.373177 -2.681913 0.6043697,-1.717982 -4.655176 0.1884129,-1.795813 -3.548351 0.3176798,-1.795813 -3.548351 0.3176798,-1.793505 -2.237223 0.6183927,-1.391673 -4.72096 0.2322602,-1.385484 -3.717716 0.3536884,-1.396025 -3.114158 0.5476154,-1.394559 -2.567812 0.7119331,-1.068225 -4.973409 0.3051832,-0.979763 -4.230742 0.4356716,-0.9427242 -3.772702 0.6016252,-0.9147601 -3.318956 0.7431175,-8.627567 -6.977474 0.4952836,-8.072643 -6.771959 0.8089514,-7.577721 -6.194746 1.073579,-7.231356 -5.6734 1.338283,-6.898495 -5.419649 1.602671,-7.943648 -4.596304 0.965097,-7.835051 -3.565679 1.223452,-7.810022 -2.931741 1.427169,-7.790663 -2.365488 1.566247,-8.269675 -4.426479 1.007974,-8.189734 -3.238793 1.26356,-8.157322 -2.476314 1.507402,-8.134819 -1.79167 1.715791,-8.590706 -4.49035 1.069023,-8.535686 -3.398933 1.295247,-8.503535 -2.690929 1.482095,-8.468096 -2.071741 1.638632,-8.921619 -4.750585 1.149916,-8.980274 -3.928246 1.349954,-9.006378 -3.399927 1.499005,-9.018486 -2.894735 1.619108,7.210,0 1
-1.403629 -7.307107 0.07387815,-1.964425 -7.026161 0.4014279,-2.408383 -6.26317 0.5473965,-2.643693 -5.502437 0.6984151,-2.953165 -5.025751 0.8933907,-2.088607 -4.855154 0.2387099,-2.285396 -3.874408 0.3809812,-2.368715 -3.28281 0.503565,-2.405279 -2.72143 0.6208094,-1.737392 -4.685243 0.2092768,-1.819766 -3.58393 0.3340369,-1.819766 -3.58393 0.3340369,-1.818257 -2.282892 0.6228032,-1.409453 -4.744989 0.2493722,-1.408808 -3.745394 0.3650483,-1.424635 -3.149392 0.5518903,-1.425739 -2.609874 0.7127811,-1.082857 -4.987407 0.3207116,-1.002302 -4.240777 0.4478873,-0.9677086 -3.782712 0.6113353,-0.9412003 -3.328182 0.7493725,-8.607992 -6.979093 0.4789879,-8.065736 -6.765153 0.7886541,-7.575724 -6.192653 1.043508,-7.233158 -5.671535 1.300264,-6.899905 -5.421644 1.5616,-7.939498 -4.591473 0.9140619,-7.825342 -3.572233 1.157203,-7.797816 -2.945983 1.354548,-7.777937 -2.388935 1.497057,-8.26217 -4.423561 0.9521068,-8.181198 -3.243656 1.193145,-8.147288 -2.486859 1.43597,-8.12666 -1.8032 1.645852,-8.578351 -4.491245 1.009855,-8.51909 -3.415484 1.223992,-8.484147 -2.715113 1.413643,-8.448405 -2.098262 1.575164,-8.903281 -4.752366 1.087732,-8.962235 -3.944946 1.279026,-8.985904 -3.433711 1.429975,-8.997458 -2.941658 1.553721,7.310,0 1
-1.384406 -7.299081 0.04275938,-1.938651 -7.008802 0.3778323,-2.379357 -6.270864 0.535095,-2.618431 -5.512807 0.6936181,-2.933314 -5.021125 0.8965076,-2.080958 -4.863616 0.2294799,-2.28355 -3.886592 0.365629,-2.370621 -3.293571 0.487555,-2.410813 -2.721438 0.6085572,-1.7291 -4.688619 0.1966249,-1.815403 -3.585472 0.3185526,-1.815403 -3.585472 0.3185526,-1.814023 -2.286664 0.6105856,-1.401181 -4.744781 0.2307073,-1.401902 -3.741661 0.3478439,-1.417364 -3.140812 0.542253,-1.416982 -2.595502 0.7078632,-1.073853 -4.983045 0.2970438,-0.9992499 -4.23043 0.4237791,-0.9635954 -3.772254 0.5912157,-0.9365587 -3.316933 0.7349412,-8.620064 -6.980451 0.4900344,-8.078503 -6.762056 0.7905341,-7.589348 -6.175638 1.040017,-7.247172 -5.653392 1.288976,-6.912158 -5.408844 1.546147,-7.960845 -4.589683 0.9137414,-7.83958 -3.577473 1.146083,-7.812579 -2.958168 1.336385,-7.795197 -2.404506 1.478114,-8.285091 -4.418155 0.9517224,-8.195727 -3.237307 1.179046,-8.15961 -2.487662 1.415776,-8.137048 -1.810701 1.618659,-8.60289 -4.479478 1.008204,-8.534645 -3.393539 1.202746,-8.495423 -2.70266 1.384894,-8.45906 -2.093332 1.547136,-8.928618 -4.73442 1.086128,-8.981296 -3.92733 1.262255,-9.000656 -3.419115 1.413648,-9.011889 -2.933797 1.544092,7.410,0 1
-1.388638 -7.291189 0.03436399,-1.94606 -7.012905 0.3906747,-2.384477 -6.254373 0.5527181,-2.612788 -5.494823 0.711181,-2.92298 -5.008878 0.9104393,-2.065873 -4.849113 0.2707984,-2.260159 -3.872759 0.4256988,-2.34269 -3.28553 0.5567502,-2.381168 -2.715257 0.6810266,-1.708981 -4.682699 0.2278394,-1.787766 -3.586168 0.3705006,-1.787766 -3.586168 0.3705006,-1.778223 -2.282277 0.6857759,-1.379019 -4.748174 0.2524988,-1.374897 -3.749368 0.386884,-1.383926 -3.150659 0.594735,-1.376521 -2.597535 0.7735731,-1.051891 -4.996193 0.3084297,-0.9728909 -4.249067 0.4485233,-0.933322 -3.792192 0.6259857,-0.901505 -3.331993 0.7781814,-8.634481 -6.991454 0.4861147,-8.082672 -6.770435 0.7826342,-7.590614 -6.195388 1.037123,-7.243407 -5.675649 1.29435,-6.911823 -5.425068 1.555906,-7.96303 -4.601239 0.9206991,-7.849846 -3.570699 1.170584,-7.823456 -2.932124 1.370514,-7.805316 -2.362056 1.512244,-8.289122 -4.435203 0.9668475,-8.203929 -3.251812 1.215903,-8.169495 -2.486438 1.461315,-8.149552 -1.795969 1.673139,-8.609241 -4.501951 1.030933,-8.551489 -3.420084 1.245944,-8.51749 -2.715939 1.431305,-8.485045 -2.0989 1.590567,-8.93949 -4.762081 1.113838,-8.997781 -3.946243 1.305169,-9.01981 -3.424694 1.457029,-9.030578 -2.92346 1.582153,7.510,0 1
-1.410422 -7.295536 0.06301524,-1.979248 -7.012459 0.390297,-2.418384 -6.261892 0.543645,-2.649974 -5.516111 0.7027935,-2.955978 -5.051178 0.9042594,-2.089258 -4.850285 0.2422573,-2.279853 -3.879496 0.398599,-2.357069 -3.288723 0.5355933,-2.393406 -2.718301 0.6617751,-1.735948 -4.676706 0.2150578,-1.813725 -3.584164 0.356022,-1.813725 -3.584164 0.356022,-1.82128 -2.280709 0.6656575,-1.407565 -4.741633 0.2579865,-1.401947 -3.751667 0.38124,-1.415017 -3.164505 0.5730871,-1.413656 -2.634768 0.7370235,-1.082184 -4.997379 0.3287574,-0.9942875 -4.254844 0.4643797,-0.9588776 -3.798956 0.6310408,-0.9344616 -3.349781 0.7732026,-8.62942 -6.987453 0.5005754,-8.079802 -6.77939 0.8070789,-7.583039 -6.208587 1.061218,-7.239606 -5.683412 1.316558,-6.911841 -5.431671 1.570855,-7.954337 -4.605746 0.9568594,-7.839974 -3.589351 1.211926,-7.813072 -2.959932 1.420593,-7.795956 -2.394962 1.566557,-8.281178 -4.430578 0.9982669,-8.197215 -3.251976 1.24982,-8.165754 -2.495265 1.501547,-8.148359 -1.809818 1.713929,-8.601037 -4.495706 1.057851,-8.542886 -3.421893 1.27562,-8.50951 -2.720639 1.464694,-8.476652 -2.100848 1.626141,-8.930688 -4.758575 1.136435,-8.990232 -3.955791 1.328242,-9.012407 -3.446589 1.478036,-9.022134 -2.953972 1.603864,7.610,0 1
-1.420119 -7.317497 0.04352339,-1.988325 -7.038222 0.3744674,-2.433044 -6.298566 0.5318727,-2.670931 -5.548264 0.6922708,-2.97819 -5.082286 0.8948873,-2.107288 -4.884279 0.2235808,-2.302358 -3.908377 0.3801046,-2.383853 -3.308748 0.5153997,-2.422924 -2.739258 0.6374394,-1.754057 -4.70512 0.1922239,-1.836451 -3.606927 0.3234132,-1.836451 -3.606927 0.3234132,-1.848589 -2.294449 0.6206262,-1.424887 -4.765214 0.2291961,-1.423073 -3.770297 0.3469071,-1.440222 -3.177505 0.5355214,-1.442092 -2.645202 0.6966938,-1.098464 -5.014572 0.2974101,-1.019057 -4.264253 0.4200526,-0.9856009 -3.807308 0.5823096,-0.960814 -3.35569 0.7220945,-8.616946 -6.999492 0.4937036,-8.069957 -6.786016 0.8061022,-7.575425 -6.208192 1.063632,-7.231083 -5.685133 1.323468,-6.899853 -5.435077 1.583426,-7.947905 -4.615238 0.9455005,-7.836031 -3.596221 1.195893,-7.80946 -2.964858 1.398568,-7.790498 -2.399973 1.539116,-8.273211 -4.441782 0.9796935,-8.191584 -3.262177 1.225163,-8.156628 -2.505303 1.470687,-8.132938 -1.818215 1.678259,-8.591049 -4.506141 1.032856,-8.537566 -3.429765 1.247548,-8.504084 -2.728569 1.430567,-8.467775 -2.110702 1.584708,-8.917083 -4.764696 1.105218,-8.979356 -3.954991 1.295716,-9.003119 -3.439744 1.441,-9.012459 -2.94258 1.558272,7.710,0 1
-1.400657 -7.285079 0.06325538,-1.942904 -7.003735 0.4189326,-2.38155 -6.245498 0.5745626,-2.616443 -5.486779 0.727416,-2.925237 -5.005006 0.9226332,-2.068161 -4.830558 0.2719733,-2.258111 -3.842432 0.4160112,-2.34172 -3.246263 0.54561,-2.377433 -2.676841 0.6719378,-1.720185 -4.666095 0.2266141,-1.794386 -3.561285 0.3591856,-1.794386 -3.561285 0.3591856,-1.785538 -2.2635 0.6633527,-1.394658 -4.72827 0.250143,-1.380222 -3.733713 0.3736335,-1.39025 -3.130886 0.5760623,-1.38373 -2.583607 0.7448494,-1.071073 -4.970472 0.3069811,-0.9853086 -4.224632 0.4418512,-0.9397492 -3.768517 0.6071758,-0.9004259 -3.31132 0.7529325,-8.631221 -6.986558 0.5208988,-8.080206 -6.77648 0.816928,-7.586317 -6.201335 1.069708,-7.23842 -5.678481 1.325832,-6.905418 -5.425989 1.581504,-7.957782 -4.590904 0.9540431,-7.849123 -3.569239 1.198092,-7.821993 -2.93469 1.39435,-7.799753 -2.371974 1.534055,-8.283111 -4.419807 0.9980459,-8.19937 -3.240964 1.236625,-8.163012 -2.484744 1.47669,-8.136257 -1.798389 1.686197,-8.603543 -4.48651 1.060853,-8.548342 -3.406209 1.269586,-8.515303 -2.706901 1.452756,-8.478246 -2.08843 1.609207,-8.93225 -4.752941 1.140088,-8.996653 -3.939072 1.326165,-9.022056 -3.420225 1.473002,-9.031835 -2.91677 1.594367,7.810,0 1
