TiagoOliveira98/Thesis-Project/Difficulty_2_NEW/Motor_Task/Unity_Project/DataLogging/JointData/Logs(1651334928)_sss_Motor_Difficulty0.csv
WRIST,THUMB_CMC,THUMB_MCP,THUMB_IP,THUMB_TIP,INDEX_FINGER_MCP,INDEX_FINGER_PIP,INDEX_FINGER_DIP,INDEX_FINGER_TIP,MIDDLE_FINGER_MCP,MIDDLE_FINGER_PIP,MIDDLE_FINGER_DIP,MIDDLE_FINGER_TIP,RING_FINGER_MCP,RING_FINGER_PIP,RING_FINGER_DIP,RING_FINGER_TIP,PINKY_MCP,PINKY_PIP,PINKY_DIP,PINKY_TIP,WRIST2,THUMB_CMC2,THUMB_MCP2,THUMB_IP2,THUMB_TIP2,INDEX_FINGER_MCP2,INDEX_FINGER_PIP2,INDEX_FINGER_DIP2,INDEX_FINGER_TIP2,MIDDLE_FINGER_MCP2,MIDDLE_FINGER_PIP2,MIDDLE_FINGER_DIP2,MIDDLE_FINGER_TIP2,RING_FINGER_MCP2,RING_FINGER_PIP2,RING_FINGER_DIP2,RING_FINGER_TIP2,PINKY_MCP2,PINKY_PIP2,PINKY_DIP2,PINKY_TIP2,Timestamp,Event
-2.144987 -7.476705 0.0003495665,-2.715159 -7.234058 0.2608694,-3.252664 -6.582895 0.4131236,-3.646659 -5.981477 0.5663583,-4.006395 -5.665463 0.7609575,-2.8815 -4.966844 0.1176996,-3.068904 -3.934955 0.2664369,-3.159151 -3.305839 0.4030273,-3.226654 -2.70666 0.5269682,-2.529618 -4.750717 0.15834,-2.640846 -3.555024 0.3308656,-2.700415 -2.788043 0.5299753,-2.756763 -2.100661 0.6958296,-2.184029 -4.759805 0.2599952,-2.256579 -3.614724 0.4443016,-2.321891 -2.893644 0.6349989,-2.390758 -2.273128 0.7814495,-1.820476 -4.971707 0.3898017,-1.761836 -4.058755 0.5640512,-1.737578 -3.492353 0.7301952,-1.73634 -2.941455 0.8741604,-7.98113 -7.661273 0.0001480523,-7.390841 -7.333316 0.2493783,-6.86268 -6.651071 0.419286,-6.48411 -6.004811 0.6351649,-6.147296 -5.630958 0.8607676,-7.257483 -4.935174 0.1191384,-7.118315 -3.838909 0.2556668,-7.072845 -3.13912 0.4166606,-7.039454 -2.540668 0.5577893,-7.603339 -4.753885 0.1636439,-7.477153 -3.497337 0.2615001,-7.413504 -2.696012 0.4818644,-7.374136 -2.012449 0.6805233,-7.94626 -4.830568 0.2430568,-7.866339 -3.661955 0.3409794,-7.811699 -2.936497 0.4988126,-7.768637 -2.306555 0.640073,-8.310234 -5.130172 0.3572145,-8.36215 -4.274057 0.4824632,-8.372006 -3.724325 0.6125159,-8.364923 -3.179842 0.7224063,0.01667,0 0 1
-2.156161 -7.474287 -0.01250264,-2.716541 -7.218182 0.2650643,-3.243517 -6.564125 0.4364402,-3.630232 -5.954763 0.6068016,-3.991291 -5.618881 0.8217518,-2.879853 -4.964532 0.1401147,-3.067323 -3.92862 0.3019734,-3.1583 -3.299506 0.4493785,-3.225903 -2.696988 0.5822458,-2.530229 -4.752573 0.1771115,-2.64139 -3.545149 0.3635995,-2.701162 -2.768267 0.5685646,-2.753743 -2.071951 0.7386674,-2.186554 -4.767116 0.2703409,-2.256548 -3.614992 0.4623817,-2.324826 -2.880484 0.6579196,-2.392201 -2.249102 0.8082362,-1.827467 -4.982938 0.3948135,-1.763717 -4.069559 0.5691725,-1.737941 -3.49703 0.7369101,-1.732707 -2.942354 0.8854845,-7.984 -7.654539 -0.01127947,-7.390251 -7.329902 0.2246566,-6.86418 -6.64127 0.3919204,-6.490247 -5.990436 0.6084479,-6.15603 -5.608235 0.8395298,-7.259611 -4.925445 0.09554807,-7.127348 -3.81519 0.2318025,-7.085451 -3.111815 0.3932808,-7.05526 -2.510953 0.5326641,-7.608086 -4.750148 0.1509829,-7.488682 -3.482796 0.2493767,-7.4233 -2.672179 0.4695667,-7.380264 -1.984747 0.66594,-7.952512 -4.832592 0.2404761,-7.880002 -3.65818 0.3415017,-7.824376 -2.928657 0.502534,-7.778873 -2.296874 0.6458024,-8.316253 -5.134357 0.3627947,-8.377842 -4.268385 0.4906922,-8.388211 -3.713365 0.6198252,-8.379598 -3.165031 0.7264445,0.05000,0 0 1
-2.154374 -7.470406 0.002761608,-2.715661 -7.219155 0.2804382,-3.240255 -6.558131 0.4440364,-3.620886 -5.939611 0.6115402,-3.979787 -5.595359 0.8197274,-2.878543 -4.952507 0.1304006,-3.068823 -3.914526 0.2883526,-3.15869 -3.288259 0.4260056,-3.222717 -2.687315 0.5505262,-2.52805 -4.742713 0.1692068,-2.638787 -3.541197 0.3541575,-2.693719 -2.772565 0.5573551,-2.741094 -2.077376 0.7257734,-2.185247 -4.760023 0.2695984,-2.254958 -3.606843 0.460406,-2.31772 -2.883111 0.6594274,-2.381505 -2.250213 0.8122324,-1.827038 -4.979377 0.4008147,-1.763213 -4.066677 0.5732659,-1.733538 -3.500333 0.7453487,-1.725121 -2.942343 0.8972045,-7.994287 -7.658386 -0.009946987,-7.402637 -7.328019 0.2407312,-6.873294 -6.642024 0.4105993,-6.495777 -5.998035 0.6281115,-6.162281 -5.622991 0.8577957,-7.26663 -4.937431 0.1151305,-7.12276 -3.835927 0.2657487,-7.07465 -3.134778 0.434508,-7.039919 -2.533532 0.5765568,-7.612393 -4.755193 0.1661438,-7.486204 -3.489557 0.2782511,-7.423252 -2.687482 0.503618,-7.385303 -1.998028 0.7011111,-7.954308 -4.8348 0.2521174,-7.877856 -3.661216 0.3648577,-7.823626 -2.930381 0.5357915,-7.780869 -2.290219 0.6842238,-8.317027 -5.138057 0.3716387,-8.372424 -4.276315 0.5124308,-8.382288 -3.716963 0.6544655,-8.374701 -3.158004 0.769452,0.08333,0 0 1
-2.154374 -7.470406 0.002761608,-2.715661 -7.219155 0.2804382,-3.240255 -6.558131 0.4440364,-3.620886 -5.939611 0.6115402,-3.979787 -5.595359 0.8197274,-2.878543 -4.952507 0.1304006,-3.068823 -3.914526 0.2883526,-3.15869 -3.288259 0.4260056,-3.222717 -2.687315 0.5505262,-2.52805 -4.742713 0.1692068,-2.638787 -3.541197 0.3541575,-2.693719 -2.772565 0.5573551,-2.741094 -2.077376 0.7257734,-2.185247 -4.760023 0.2695984,-2.254958 -3.606843 0.460406,-2.31772 -2.883111 0.6594274,-2.381505 -2.250213 0.8122324,-1.827038 -4.979377 0.4008147,-1.763213 -4.066677 0.5732659,-1.733538 -3.500333 0.7453487,-1.725121 -2.942343 0.8972045,-7.994287 -7.658386 -0.009946987,-7.402637 -7.328019 0.2407312,-6.873294 -6.642024 0.4105993,-6.495777 -5.998035 0.6281115,-6.162281 -5.622991 0.8577957,-7.26663 -4.937431 0.1151305,-7.12276 -3.835927 0.2657487,-7.07465 -3.134778 0.434508,-7.039919 -2.533532 0.5765568,-7.612393 -4.755193 0.1661438,-7.486204 -3.489557 0.2782511,-7.423252 -2.687482 0.503618,-7.385303 -1.998028 0.7011111,-7.954308 -4.8348 0.2521174,-7.877856 -3.661216 0.3648577,-7.823626 -2.930381 0.5357915,-7.780869 -2.290219 0.6842238,-8.317027 -5.138057 0.3716387,-8.372424 -4.276315 0.5124308,-8.382288 -3.716963 0.6544655,-8.374701 -3.158004 0.769452,0.11667,0 0 1
-2.16745 -7.472826 0.03371874,-2.726626 -7.221193 0.293664,-3.245134 -6.545953 0.4414672,-3.621046 -5.918746 0.597348,-3.977166 -5.569164 0.7899995,-2.876312 -4.940463 0.1347017,-3.067312 -3.904209 0.282512,-3.159883 -3.275798 0.4120296,-3.226194 -2.672407 0.5301963,-2.528998 -4.733356 0.1787852,-2.633402 -3.533536 0.3564883,-2.690359 -2.763597 0.5557904,-2.738688 -2.06921 0.7215867,-2.189551 -4.753107 0.2837328,-2.253311 -3.603014 0.4684505,-2.318165 -2.881684 0.6626045,-2.381427 -2.251932 0.8144923,-1.834174 -4.977101 0.4182355,-1.767318 -4.068004 0.5842569,-1.735734 -3.496948 0.755624,-1.724476 -2.932627 0.9075664,-7.989783 -7.669854 0.01174355,-7.399974 -7.344681 0.2663324,-6.870752 -6.655407 0.4425024,-6.494026 -6.006485 0.6661381,-6.159578 -5.622999 0.9029284,-7.267501 -4.945253 0.1677086,-7.124408 -3.839843 0.3274374,-7.077741 -3.135704 0.4969166,-7.044722 -2.533762 0.6382489,-7.61351 -4.761774 0.2197497,-7.483872 -3.496394 0.3452413,-7.42102 -2.689021 0.5700401,-7.382132 -1.995327 0.7684878,-7.955637 -4.843223 0.3061069,-7.876106 -3.668887 0.4273793,-7.821775 -2.930467 0.599947,-7.779508 -2.284557 0.7501541,-8.318787 -5.150772 0.4240326,-8.372528 -4.285751 0.5693165,-8.383008 -3.724697 0.7130698,-8.376778 -3.166286 0.831406,0.15000,0 0 1
-2.16745 -7.472826 0.03371874,-2.726626 -7.221193 0.293664,-3.245134 -6.545953 0.4414672,-3.621046 -5.918746 0.597348,-3.977166 -5.569164 0.7899995,-2.876312 -4.940463 0.1347017,-3.067312 -3.904209 0.282512,-3.159883 -3.275798 0.4120296,-3.226194 -2.672407 0.5301963,-2.528998 -4.733356 0.1787852,-2.633402 -3.533536 0.3564883,-2.690359 -2.763597 0.5557904,-2.738688 -2.06921 0.7215867,-2.189551 -4.753107 0.2837328,-2.253311 -3.603014 0.4684505,-2.318165 -2.881684 0.6626045,-2.381427 -2.251932 0.8144923,-1.834174 -4.977101 0.4182355,-1.767318 -4.068004 0.5842569,-1.735734 -3.496948 0.755624,-1.724476 -2.932627 0.9075664,-7.989783 -7.669854 0.01174355,-7.399974 -7.344681 0.2663324,-6.870752 -6.655407 0.4425024,-6.494026 -6.006485 0.6661381,-6.159578 -5.622999 0.9029284,-7.267501 -4.945253 0.1677086,-7.124408 -3.839843 0.3274374,-7.077741 -3.135704 0.4969166,-7.044722 -2.533762 0.6382489,-7.61351 -4.761774 0.2197497,-7.483872 -3.496394 0.3452413,-7.42102 -2.689021 0.5700401,-7.382132 -1.995327 0.7684878,-7.955637 -4.843223 0.3061069,-7.876106 -3.668887 0.4273793,-7.821775 -2.930467 0.599947,-7.779508 -2.284557 0.7501541,-8.318787 -5.150772 0.4240326,-8.372528 -4.285751 0.5693165,-8.383008 -3.724697 0.7130698,-8.376778 -3.166286 0.831406,0.18333,0 0 1
-2.176471 -7.473574 0.0704507,-2.736511 -7.224781 0.3055474,-3.248462 -6.530609 0.4293541,-3.61788 -5.890986 0.5644786,-3.974888 -5.552727 0.7384316,-2.879332 -4.929885 0.1378889,-3.077244 -3.893152 0.2659026,-3.176447 -3.254913 0.3817022,-3.24655 -2.647684 0.4894536,-2.536542 -4.722137 0.190716,-2.641875 -3.525471 0.3537302,-2.70481 -2.757373 0.5437388,-2.75268 -2.060549 0.7038278,-2.1991 -4.743021 0.3056618,-2.261307 -3.587871 0.4827926,-2.328938 -2.86017 0.6698126,-2.388482 -2.221207 0.8176238,-1.842008 -4.969673 0.4484665,-1.769992 -4.057304 0.6066483,-1.735094 -3.483456 0.7741712,-1.714068 -2.916843 0.9228642,-7.976884 -7.683424 0.03265921,-7.389769 -7.340696 0.2636574,-6.866457 -6.649474 0.4352929,-6.495175 -6.003834 0.6595398,-6.159586 -5.630352 0.9026393,-7.26175 -4.944063 0.1517339,-7.123533 -3.847573 0.3051258,-7.077194 -3.147372 0.4776063,-7.043519 -2.540445 0.6207764,-7.61049 -4.766579 0.218703,-7.486917 -3.502717 0.3340151,-7.423952 -2.69066 0.5621801,-7.385034 -1.993131 0.7615073,-7.954009 -4.851309 0.3201743,-7.881254 -3.675023 0.4272837,-7.827612 -2.93884 0.5917773,-7.785586 -2.297024 0.737411,-8.316358 -5.160455 0.4526836,-8.372517 -4.283396 0.590278,-8.379179 -3.720581 0.7260734,-8.370614 -3.165893 0.8345248,0.21667,0 0 1
-2.176471 -7.473574 0.0704507,-2.736511 -7.224781 0.3055474,-3.248462 -6.530609 0.4293541,-3.61788 -5.890986 0.5644786,-3.974888 -5.552727 0.7384316,-2.879332 -4.929885 0.1378889,-3.077244 -3.893152 0.2659026,-3.176447 -3.254913 0.3817022,-3.24655 -2.647684 0.4894536,-2.536542 -4.722137 0.190716,-2.641875 -3.525471 0.3537302,-2.70481 -2.757373 0.5437388,-2.75268 -2.060549 0.7038278,-2.1991 -4.743021 0.3056618,-2.261307 -3.587871 0.4827926,-2.328938 -2.86017 0.6698126,-2.388482 -2.221207 0.8176238,-1.842008 -4.969673 0.4484665,-1.769992 -4.057304 0.6066483,-1.735094 -3.483456 0.7741712,-1.714068 -2.916843 0.9228642,-7.976884 -7.683424 0.03265921,-7.389769 -7.340696 0.2636574,-6.866457 -6.649474 0.4352929,-6.495175 -6.003834 0.6595398,-6.159586 -5.630352 0.9026393,-7.26175 -4.944063 0.1517339,-7.123533 -3.847573 0.3051258,-7.077194 -3.147372 0.4776063,-7.043519 -2.540445 0.6207764,-7.61049 -4.766579 0.218703,-7.486917 -3.502717 0.3340151,-7.423952 -2.69066 0.5621801,-7.385034 -1.993131 0.7615073,-7.954009 -4.851309 0.3201743,-7.881254 -3.675023 0.4272837,-7.827612 -2.93884 0.5917773,-7.785586 -2.297024 0.737411,-8.316358 -5.160455 0.4526836,-8.372517 -4.283396 0.590278,-8.379179 -3.720581 0.7260734,-8.370614 -3.165893 0.8345248,0.25000,0 0 1
-2.182791 -7.483873 0.05907467,-2.745628 -7.213769 0.2675503,-3.25277 -6.518259 0.3808629,-3.622254 -5.883375 0.5083316,-3.975547 -5.535473 0.6738068,-2.87898 -4.941484 0.09004034,-3.082784 -3.908315 0.2126508,-3.188646 -3.267516 0.3236006,-3.265174 -2.66454 0.4280321,-2.537919 -4.734047 0.1525083,-2.645517 -3.536565 0.3091841,-2.710966 -2.763562 0.4974542,-2.762299 -2.062543 0.6544834,-2.203354 -4.753686 0.2764633,-2.267685 -3.592452 0.4434419,-2.336401 -2.861759 0.6280316,-2.39869 -2.22343 0.7709885,-1.850254 -4.977737 0.4248755,-1.778011 -4.060586 0.5752434,-1.740339 -3.484255 0.7375773,-1.716446 -2.918801 0.8771124,-7.977149 -7.680438 0.005961953,-7.385989 -7.339874 0.2420177,-6.865011 -6.64986 0.4189288,-6.493156 -6.009317 0.6443816,-6.15794 -5.646262 0.885666,-7.266247 -4.94841 0.1457769,-7.124251 -3.848586 0.3089657,-7.072111 -3.14992 0.4909034,-7.034289 -2.547632 0.6413642,-7.612691 -4.772314 0.2106165,-7.489088 -3.500102 0.338768,-7.426154 -2.686027 0.5708632,-7.388315 -1.980606 0.7748104,-7.952584 -4.855903 0.3061869,-7.877623 -3.673417 0.4216489,-7.821335 -2.939846 0.5848861,-7.777354 -2.297959 0.7297946,-8.310468 -5.161035 0.4346604,-8.366402 -4.288549 0.5772904,-8.374889 -3.72633 0.7137473,-8.367897 -3.165255 0.8270978,0.28333,0 0 1
-2.182791 -7.483873 0.05907467,-2.745628 -7.213769 0.2675503,-3.25277 -6.518259 0.3808629,-3.622254 -5.883375 0.5083316,-3.975547 -5.535473 0.6738068,-2.87898 -4.941484 0.09004034,-3.082784 -3.908315 0.2126508,-3.188646 -3.267516 0.3236006,-3.265174 -2.66454 0.4280321,-2.537919 -4.734047 0.1525083,-2.645517 -3.536565 0.3091841,-2.710966 -2.763562 0.4974542,-2.762299 -2.062543 0.6544834,-2.203354 -4.753686 0.2764633,-2.267685 -3.592452 0.4434419,-2.336401 -2.861759 0.6280316,-2.39869 -2.22343 0.7709885,-1.850254 -4.977737 0.4248755,-1.778011 -4.060586 0.5752434,-1.740339 -3.484255 0.7375773,-1.716446 -2.918801 0.8771124,-7.977149 -7.680438 0.005961953,-7.385989 -7.339874 0.2420177,-6.865011 -6.64986 0.4189288,-6.493156 -6.009317 0.6443816,-6.15794 -5.646262 0.885666,-7.266247 -4.94841 0.1457769,-7.124251 -3.848586 0.3089657,-7.072111 -3.14992 0.4909034,-7.034289 -2.547632 0.6413642,-7.612691 -4.772314 0.2106165,-7.489088 -3.500102 0.338768,-7.426154 -2.686027 0.5708632,-7.388315 -1.980606 0.7748104,-7.952584 -4.855903 0.3061869,-7.877623 -3.673417 0.4216489,-7.821335 -2.939846 0.5848861,-7.777354 -2.297959 0.7297946,-8.310468 -5.161035 0.4346604,-8.366402 -4.288549 0.5772904,-8.374889 -3.72633 0.7137473,-8.367897 -3.165255 0.8270978,0.31667,0 0 1
-2.19522 -7.490283 0.06696703,-2.754531 -7.220799 0.291587,-3.258793 -6.525054 0.4123178,-3.622437 -5.880369 0.5422983,-3.973602 -5.523355 0.7098908,-2.885711 -4.948688 0.1414426,-3.081802 -3.912446 0.2774175,-3.185544 -3.272932 0.3973444,-3.262075 -2.667099 0.5095883,-2.544051 -4.738969 0.1996043,-2.646888 -3.540979 0.3756519,-2.711385 -2.765523 0.5764831,-2.761882 -2.057151 0.7423627,-2.20887 -4.757785 0.316825,-2.27164 -3.603109 0.4986188,-2.339794 -2.874413 0.6910695,-2.398625 -2.23257 0.842427,-1.856419 -4.980917 0.4590304,-1.785475 -4.06232 0.620905,-1.747847 -3.480595 0.7886631,-1.723445 -2.908235 0.9365376,-7.992766 -7.672893 -0.0006839622,-7.385718 -7.342199 0.2293582,-6.859075 -6.640939 0.3976322,-6.484758 -5.984527 0.6159303,-6.151088 -5.612968 0.8446443,-7.258747 -4.94317 0.1109179,-7.124349 -3.836088 0.264746,-7.076436 -3.128627 0.4413312,-7.042254 -2.518671 0.5888976,-7.608755 -4.767 0.1701393,-7.491803 -3.489873 0.2902068,-7.430187 -2.668306 0.5216166,-7.392473 -1.956977 0.7304986,-7.952741 -4.850339 0.2612813,-7.878634 -3.65702 0.3712155,-7.822934 -2.924128 0.5270577,-7.779798 -2.283096 0.668433,-8.314957 -5.152836 0.3845688,-8.365281 -4.272398 0.5192681,-8.370205 -3.711731 0.6493211,-8.361659 -3.15125 0.7564107,0.35000,0 0 1
-2.19522 -7.490283 0.06696703,-2.754531 -7.220799 0.291587,-3.258793 -6.525054 0.4123178,-3.622437 -5.880369 0.5422983,-3.973602 -5.523355 0.7098908,-2.885711 -4.948688 0.1414426,-3.081802 -3.912446 0.2774175,-3.185544 -3.272932 0.3973444,-3.262075 -2.667099 0.5095883,-2.544051 -4.738969 0.1996043,-2.646888 -3.540979 0.3756519,-2.711385 -2.765523 0.5764831,-2.761882 -2.057151 0.7423627,-2.20887 -4.757785 0.316825,-2.27164 -3.603109 0.4986188,-2.339794 -2.874413 0.6910695,-2.398625 -2.23257 0.842427,-1.856419 -4.980917 0.4590304,-1.785475 -4.06232 0.620905,-1.747847 -3.480595 0.7886631,-1.723445 -2.908235 0.9365376,-7.992766 -7.672893 -0.0006839622,-7.385718 -7.342199 0.2293582,-6.859075 -6.640939 0.3976322,-6.484758 -5.984527 0.6159303,-6.151088 -5.612968 0.8446443,-7.258747 -4.94317 0.1109179,-7.124349 -3.836088 0.264746,-7.076436 -3.128627 0.4413312,-7.042254 -2.518671 0.5888976,-7.608755 -4.767 0.1701393,-7.491803 -3.489873 0.2902068,-7.430187 -2.668306 0.5216166,-7.392473 -1.956977 0.7304986,-7.952741 -4.850339 0.2612813,-7.878634 -3.65702 0.3712155,-7.822934 -2.924128 0.5270577,-7.779798 -2.283096 0.668433,-8.314957 -5.152836 0.3845688,-8.365281 -4.272398 0.5192681,-8.370205 -3.711731 0.6493211,-8.361659 -3.15125 0.7564107,0.38333,0 0 1
-2.180809 -7.484475 0.08076892,-2.739887 -7.214448 0.3200954,-3.242292 -6.509655 0.4522577,-3.599607 -5.848786 0.5954731,-3.952723 -5.47191 0.7823114,-2.887175 -4.941514 0.1620723,-3.087448 -3.907732 0.2976287,-3.189573 -3.268214 0.4174379,-3.261102 -2.658007 0.5311791,-2.543792 -4.731082 0.2150206,-2.651671 -3.535717 0.3806769,-2.716586 -2.763587 0.5710574,-2.764595 -2.05377 0.7311407,-2.207658 -4.753049 0.3312707,-2.271295 -3.596283 0.503707,-2.340698 -2.868398 0.6934432,-2.401492 -2.22004 0.8469527,-1.853773 -4.981475 0.4740613,-1.782168 -4.064832 0.6267281,-1.744053 -3.48884 0.7972463,-1.719049 -2.920448 0.9496422,-7.993208 -7.682764 0.0450077,-7.39665 -7.358596 0.2919166,-6.870961 -6.65133 0.4728435,-6.499952 -5.98121 0.7050405,-6.160618 -5.581718 0.9471651,-7.26435 -4.941302 0.1752088,-7.134938 -3.827127 0.33943,-7.091837 -3.112869 0.5252305,-7.059078 -2.493948 0.6866092,-7.616362 -4.764036 0.2366631,-7.496895 -3.486092 0.3721329,-7.431369 -2.657027 0.6166596,-7.386957 -1.933605 0.8414993,-7.961675 -4.849817 0.3321849,-7.88562 -3.656122 0.456992,-7.824286 -2.902938 0.6398805,-7.771083 -2.237991 0.8012062,-8.328365 -5.160047 0.459711,-8.378542 -4.271211 0.6108006,-8.38183 -3.701858 0.7570442,-8.370067 -3.133732 0.8810987,0.41667,0 0 1
-2.180809 -7.484475 0.08076892,-2.739887 -7.214448 0.3200954,-3.242292 -6.509655 0.4522577,-3.599607 -5.848786 0.5954731,-3.952723 -5.47191 0.7823114,-2.887175 -4.941514 0.1620723,-3.087448 -3.907732 0.2976287,-3.189573 -3.268214 0.4174379,-3.261102 -2.658007 0.5311791,-2.543792 -4.731082 0.2150206,-2.651671 -3.535717 0.3806769,-2.716586 -2.763587 0.5710574,-2.764595 -2.05377 0.7311407,-2.207658 -4.753049 0.3312707,-2.271295 -3.596283 0.503707,-2.340698 -2.868398 0.6934432,-2.401492 -2.22004 0.8469527,-1.853773 -4.981475 0.4740613,-1.782168 -4.064832 0.6267281,-1.744053 -3.48884 0.7972463,-1.719049 -2.920448 0.9496422,-7.993208 -7.682764 0.0450077,-7.39665 -7.358596 0.2919166,-6.870961 -6.65133 0.4728435,-6.499952 -5.98121 0.7050405,-6.160618 -5.581718 0.9471651,-7.26435 -4.941302 0.1752088,-7.134938 -3.827127 0.33943,-7.091837 -3.112869 0.5252305,-7.059078 -2.493948 0.6866092,-7.616362 -4.764036 0.2366631,-7.496895 -3.486092 0.3721329,-7.431369 -2.657027 0.6166596,-7.386957 -1.933605 0.8414993,-7.961675 -4.849817 0.3321849,-7.88562 -3.656122 0.456992,-7.824286 -2.902938 0.6398805,-7.771083 -2.237991 0.8012062,-8.328365 -5.160047 0.459711,-8.378542 -4.271211 0.6108006,-8.38183 -3.701858 0.7570442,-8.370067 -3.133732 0.8810987,0.45000,0 0 1
-2.176688 -7.510982 0.1426061,-2.740684 -7.230696 0.3710641,-3.234848 -6.499331 0.4922178,-3.574145 -5.813333 0.6299617,-3.934275 -5.415748 0.821645,-2.88479 -4.950834 0.2033256,-3.08577 -3.921337 0.3375392,-3.186226 -3.278005 0.4559146,-3.253174 -2.654855 0.5682511,-2.538957 -4.73882 0.257837,-2.647122 -3.558953 0.4148936,-2.709297 -2.788387 0.6012649,-2.751882 -2.071646 0.7664515,-2.20116 -4.758306 0.3743804,-2.261953 -3.614921 0.5312252,-2.330738 -2.885935 0.7208181,-2.388722 -2.234155 0.8814279,-1.846656 -4.983341 0.5162997,-1.779534 -4.069339 0.6604064,-1.746086 -3.487058 0.8329312,-1.723721 -2.914329 0.990083,-8.028054 -7.680139 0.06399963,-7.4196 -7.362651 0.3110282,-6.889819 -6.658912 0.4870934,-6.517987 -5.984596 0.7130211,-6.178981 -5.584795 0.946287,-7.271253 -4.947344 0.1893552,-7.124289 -3.831622 0.3541257,-7.071584 -3.116473 0.5348493,-7.036634 -2.493881 0.687384,-7.624384 -4.759077 0.248423,-7.499751 -3.478555 0.3793551,-7.436775 -2.652299 0.617021,-7.397824 -1.931407 0.8314368,-7.972585 -4.836826 0.3421665,-7.893793 -3.635179 0.4611511,-7.834388 -2.892093 0.6356035,-7.786877 -2.235587 0.7900438,-8.342097 -5.137296 0.4679111,-8.389786 -4.247565 0.6172825,-8.393003 -3.677607 0.7626451,-8.384047 -3.10601 0.8803659,0.48333,0 0 1
-2.176688 -7.510982 0.1426061,-2.740684 -7.230696 0.3710641,-3.234848 -6.499331 0.4922178,-3.574145 -5.813333 0.6299617,-3.934275 -5.415748 0.821645,-2.88479 -4.950834 0.2033256,-3.08577 -3.921337 0.3375392,-3.186226 -3.278005 0.4559146,-3.253174 -2.654855 0.5682511,-2.538957 -4.73882 0.257837,-2.647122 -3.558953 0.4148936,-2.709297 -2.788387 0.6012649,-2.751882 -2.071646 0.7664515,-2.20116 -4.758306 0.3743804,-2.261953 -3.614921 0.5312252,-2.330738 -2.885935 0.7208181,-2.388722 -2.234155 0.8814279,-1.846656 -4.983341 0.5162997,-1.779534 -4.069339 0.6604064,-1.746086 -3.487058 0.8329312,-1.723721 -2.914329 0.990083,-8.028054 -7.680139 0.06399963,-7.4196 -7.362651 0.3110282,-6.889819 -6.658912 0.4870934,-6.517987 -5.984596 0.7130211,-6.178981 -5.584795 0.946287,-7.271253 -4.947344 0.1893552,-7.124289 -3.831622 0.3541257,-7.071584 -3.116473 0.5348493,-7.036634 -2.493881 0.687384,-7.624384 -4.759077 0.248423,-7.499751 -3.478555 0.3793551,-7.436775 -2.652299 0.617021,-7.397824 -1.931407 0.8314368,-7.972585 -4.836826 0.3421665,-7.893793 -3.635179 0.4611511,-7.834388 -2.892093 0.6356035,-7.786877 -2.235587 0.7900438,-8.342097 -5.137296 0.4679111,-8.389786 -4.247565 0.6172825,-8.393003 -3.677607 0.7626451,-8.384047 -3.10601 0.8803659,0.51667,0 0 1
-2.167076 -7.579441 0.2037654,-2.723987 -7.290304 0.4453687,-3.205399 -6.534791 0.5626769,-3.524925 -5.826722 0.6994104,-3.894721 -5.410955 0.8909555,-2.875127 -5.00698 0.2805828,-3.086179 -3.990678 0.4308562,-3.193888 -3.347994 0.5514519,-3.274098 -2.728998 0.6621658,-2.526877 -4.790134 0.3370277,-2.637466 -3.630094 0.5205795,-2.706584 -2.875679 0.7185422,-2.762751 -2.155346 0.887617,-2.192562 -4.813106 0.459273,-2.255181 -3.692674 0.6400696,-2.328487 -2.983755 0.8510546,-2.39335 -2.336807 1.024115,-1.846638 -5.043842 0.6061243,-1.782578 -4.149294 0.7710506,-1.753463 -3.572462 0.9584752,-1.736686 -2.999603 1.122868,-8.043045 -7.708377 0.08692729,-7.43264 -7.394509 0.3102484,-6.914504 -6.668643 0.4587694,-6.54445 -5.98633 0.6668746,-6.209863 -5.587988 0.8738413,-7.290037 -4.969284 0.1105011,-7.124804 -3.882704 0.2464396,-7.050911 -3.180597 0.4197031,-7.000103 -2.562161 0.5646511,-7.631111 -4.777261 0.1731274,-7.49615 -3.508279 0.2611471,-7.426476 -2.681459 0.4804634,-7.382241 -1.956835 0.671582,-7.969488 -4.839565 0.2784249,-7.890169 -3.64482 0.365123,-7.827227 -2.894505 0.5249813,-7.77517 -2.229719 0.6649686,-8.328983 -5.12079 0.4175965,-8.356199 -4.210771 0.5520403,-8.348843 -3.621734 0.692286,-8.328465 -3.039525 0.8013826,0.55000,0 0 1
-2.167076 -7.579441 0.2037654,-2.723987 -7.290304 0.4453687,-3.205399 -6.534791 0.5626769,-3.524925 -5.826722 0.6994104,-3.894721 -5.410955 0.8909555,-2.875127 -5.00698 0.2805828,-3.086179 -3.990678 0.4308562,-3.193888 -3.347994 0.5514519,-3.274098 -2.728998 0.6621658,-2.526877 -4.790134 0.3370277,-2.637466 -3.630094 0.5205795,-2.706584 -2.875679 0.7185422,-2.762751 -2.155346 0.887617,-2.192562 -4.813106 0.459273,-2.255181 -3.692674 0.6400696,-2.328487 -2.983755 0.8510546,-2.39335 -2.336807 1.024115,-1.846638 -5.043842 0.6061243,-1.782578 -4.149294 0.7710506,-1.753463 -3.572462 0.9584752,-1.736686 -2.999603 1.122868,-8.043045 -7.708377 0.08692729,-7.43264 -7.394509 0.3102484,-6.914504 -6.668643 0.4587694,-6.54445 -5.98633 0.6668746,-6.209863 -5.587988 0.8738413,-7.290037 -4.969284 0.1105011,-7.124804 -3.882704 0.2464396,-7.050911 -3.180597 0.4197031,-7.000103 -2.562161 0.5646511,-7.631111 -4.777261 0.1731274,-7.49615 -3.508279 0.2611471,-7.426476 -2.681459 0.4804634,-7.382241 -1.956835 0.671582,-7.969488 -4.839565 0.2784249,-7.890169 -3.64482 0.365123,-7.827227 -2.894505 0.5249813,-7.77517 -2.229719 0.6649686,-8.328983 -5.12079 0.4175965,-8.356199 -4.210771 0.5520403,-8.348843 -3.621734 0.692286,-8.328465 -3.039525 0.8013826,0.58333,0 0 1
-2.177957 -7.613771 0.223956,-2.733472 -7.351322 0.4473173,-3.211594 -6.56982 0.5537451,-3.527313 -5.852205 0.6815853,-3.884905 -5.419823 0.8545586,-2.873172 -5.030723 0.285793,-3.073995 -4.003038 0.4305503,-3.181174 -3.352065 0.5434174,-3.25812 -2.735039 0.6493577,-2.529235 -4.817277 0.3511147,-2.627156 -3.645324 0.5303727,-2.700323 -2.874331 0.7183053,-2.757298 -2.165995 0.8782447,-2.195062 -4.844627 0.4817418,-2.243596 -3.703969 0.6670823,-2.31504 -2.973668 0.8696188,-2.378305 -2.323792 1.040276,-1.850755 -5.088643 0.6355031,-1.781463 -4.182424 0.7964889,-1.755323 -3.586929 0.9810919,-1.741612 -3.003056 1.146887,-8.07779 -7.797142 0.1456022,-7.457259 -7.449678 0.3674639,-6.939181 -6.707349 0.5189564,-6.580067 -5.9964 0.739279,-6.250293 -5.524484 0.9661748,-7.292016 -5.021869 0.1193573,-7.097452 -3.957129 0.2426291,-6.998468 -3.285163 0.3828274,-6.91836 -2.695468 0.491242,-7.645147 -4.851054 0.1847711,-7.507789 -3.654386 0.2294083,-7.442898 -2.938058 0.3859648,-7.40267 -2.326924 0.5010366,-7.978147 -4.919809 0.2955186,-7.904033 -3.769338 0.3504103,-7.850419 -3.092817 0.4812859,-7.798041 -2.494585 0.5840174,-8.325814 -5.19247 0.4375732,-8.318892 -4.320551 0.5650787,-8.284349 -3.761257 0.6990803,-8.226678 -3.222533 0.7951751,0.61667,0 0 1
-2.177957 -7.613771 0.223956,-2.733472 -7.351322 0.4473173,-3.211594 -6.56982 0.5537451,-3.527313 -5.852205 0.6815853,-3.884905 -5.419823 0.8545586,-2.873172 -5.030723 0.285793,-3.073995 -4.003038 0.4305503,-3.181174 -3.352065 0.5434174,-3.25812 -2.735039 0.6493577,-2.529235 -4.817277 0.3511147,-2.627156 -3.645324 0.5303727,-2.700323 -2.874331 0.7183053,-2.757298 -2.165995 0.8782447,-2.195062 -4.844627 0.4817418,-2.243596 -3.703969 0.6670823,-2.31504 -2.973668 0.8696188,-2.378305 -2.323792 1.040276,-1.850755 -5.088643 0.6355031,-1.781463 -4.182424 0.7964889,-1.755323 -3.586929 0.9810919,-1.741612 -3.003056 1.146887,-8.07779 -7.797142 0.1456022,-7.457259 -7.449678 0.3674639,-6.939181 -6.707349 0.5189564,-6.580067 -5.9964 0.739279,-6.250293 -5.524484 0.9661748,-7.292016 -5.021869 0.1193573,-7.097452 -3.957129 0.2426291,-6.998468 -3.285163 0.3828274,-6.91836 -2.695468 0.491242,-7.645147 -4.851054 0.1847711,-7.507789 -3.654386 0.2294083,-7.442898 -2.938058 0.3859648,-7.40267 -2.326924 0.5010366,-7.978147 -4.919809 0.2955186,-7.904033 -3.769338 0.3504103,-7.850419 -3.092817 0.4812859,-7.798041 -2.494585 0.5840174,-8.325814 -5.19247 0.4375732,-8.318892 -4.320551 0.5650787,-8.284349 -3.761257 0.6990803,-8.226678 -3.222533 0.7951751,0.65000,0 0 1
-2.172123 -7.618495 0.1970061,-2.731082 -7.336034 0.4454044,-3.208181 -6.583543 0.5763802,-3.526127 -5.875101 0.7280905,-3.880801 -5.421144 0.9299183,-2.87122 -5.03406 0.2694406,-3.08013 -4.011055 0.4110268,-3.188726 -3.369531 0.5200903,-3.268803 -2.759023 0.623919,-2.525709 -4.830242 0.3276661,-2.631381 -3.655317 0.5066959,-2.707016 -2.892063 0.6945341,-2.764769 -2.190563 0.8536091,-2.192786 -4.866796 0.4544362,-2.238245 -3.718708 0.6411971,-2.310053 -2.989817 0.8526852,-2.373127 -2.337628 1.027418,-1.849825 -5.11598 0.6050217,-1.778777 -4.214088 0.7689223,-1.756501 -3.624291 0.9620202,-1.745438 -3.041759 1.133105,-8.152473 -7.952004 -0.7709642,-7.42798 -7.530189 -0.6959845,-6.947179 -6.753223 -0.5921175,-6.676476 -5.983957 -0.4599292,-6.42913 -5.414149 -0.3519227,-7.269441 -5.424541 -0.712541,-7.100432 -4.193931 -0.5842024,-6.996909 -3.488612 -0.4830856,-6.909175 -2.911174 -0.4070162,-7.661725 -5.283855 -0.6381204,-7.598351 -4.023372 -0.4613415,-7.539268 -4.454126 -0.3335819,-7.54394 -4.944858 -0.251947,-8.032544 -5.30653 -0.5551019,-7.972829 -4.167812 -0.3840836,-7.876099 -4.675531 -0.3085741,-7.874425 -5.234828 -0.2717184,-8.419441 -5.466432 -0.4854722,-8.385872 -4.50254 -0.3585405,-8.254152 -4.617494 -0.3522424,-8.18723 -4.930788 -0.363969,0.68333,0 0 1
-2.172123 -7.618495 0.1970061,-2.731082 -7.336034 0.4454044,-3.208181 -6.583543 0.5763802,-3.526127 -5.875101 0.7280905,-3.880801 -5.421144 0.9299183,-2.87122 -5.03406 0.2694406,-3.08013 -4.011055 0.4110268,-3.188726 -3.369531 0.5200903,-3.268803 -2.759023 0.623919,-2.525709 -4.830242 0.3276661,-2.631381 -3.655317 0.5066959,-2.707016 -2.892063 0.6945341,-2.764769 -2.190563 0.8536091,-2.192786 -4.866796 0.4544362,-2.238245 -3.718708 0.6411971,-2.310053 -2.989817 0.8526852,-2.373127 -2.337628 1.027418,-1.849825 -5.11598 0.6050217,-1.778777 -4.214088 0.7689223,-1.756501 -3.624291 0.9620202,-1.745438 -3.041759 1.133105,-8.152473 -7.952004 -0.7709642,-7.42798 -7.530189 -0.6959845,-6.947179 -6.753223 -0.5921175,-6.676476 -5.983957 -0.4599292,-6.42913 -5.414149 -0.3519227,-7.269441 -5.424541 -0.712541,-7.100432 -4.193931 -0.5842024,-6.996909 -3.488612 -0.4830856,-6.909175 -2.911174 -0.4070162,-7.661725 -5.283855 -0.6381204,-7.598351 -4.023372 -0.4613415,-7.539268 -4.454126 -0.3335819,-7.54394 -4.944858 -0.251947,-8.032544 -5.30653 -0.5551019,-7.972829 -4.167812 -0.3840836,-7.876099 -4.675531 -0.3085741,-7.874425 -5.234828 -0.2717184,-8.419441 -5.466432 -0.4854722,-8.385872 -4.50254 -0.3585405,-8.254152 -4.617494 -0.3522424,-8.18723 -4.930788 -0.363969,0.71667,0 0 1
-2.192482 -7.632194 0.2434363,-2.762791 -7.370177 0.4709238,-3.245156 -6.605546 0.5867132,-3.556334 -5.88218 0.7230885,-3.899439 -5.426952 0.9001012,-2.904639 -5.046872 0.2866122,-3.112974 -4.028484 0.4299864,-3.221298 -3.384821 0.5311848,-3.298314 -2.780473 0.6182353,-2.558345 -4.831109 0.3499202,-2.67174 -3.667185 0.5227222,-2.762122 -2.899844 0.6974887,-2.829447 -2.19606 0.8464556,-2.222624 -4.85917 0.4816532,-2.272197 -3.731761 0.6636591,-2.350218 -3.010721 0.8625238,-2.416314 -2.36607 1.026186,-1.875653 -5.099765 0.6354337,-1.813667 -4.203366 0.794691,-1.799175 -3.618122 0.9854313,-1.794423 -3.046167 1.153638,-8.101462 -8.17268 -0.5206178,-7.558495 -8.005732 0.008380353,-7.000192 -7.356241 0.423813,-6.793884 -6.626974 0.7939281,-7.026155 -6.010807 1.158635,-7.209325 -5.652067 -0.09739235,-7.081044 -4.627719 0.3193897,-7.052678 -4.168382 0.618107,-7.018208 -3.873986 0.7979387,-7.628227 -5.463762 -0.06500962,-7.607326 -5.151839 0.7451822,-7.644211 -6.221927 0.9809659,-7.666404 -6.998806 0.9101042,-8.051552 -5.538268 0.0596686,-8.02191 -5.302036 0.878379,-7.999939 -6.301436 1.141727,-7.975134 -7.008014 1.10225,-8.499082 -5.750717 0.2077775,-8.504104 -5.188179 0.7840394,-8.393867 -5.814885 1.010517,-8.295492 -6.379194 1.03505,0.75000,0 0 1
-2.192482 -7.632194 0.2434363,-2.762791 -7.370177 0.4709238,-3.245156 -6.605546 0.5867132,-3.556334 -5.88218 0.7230885,-3.899439 -5.426952 0.9001012,-2.904639 -5.046872 0.2866122,-3.112974 -4.028484 0.4299864,-3.221298 -3.384821 0.5311848,-3.298314 -2.780473 0.6182353,-2.558345 -4.831109 0.3499202,-2.67174 -3.667185 0.5227222,-2.762122 -2.899844 0.6974887,-2.829447 -2.19606 0.8464556,-2.222624 -4.85917 0.4816532,-2.272197 -3.731761 0.6636591,-2.350218 -3.010721 0.8625238,-2.416314 -2.36607 1.026186,-1.875653 -5.099765 0.6354337,-1.813667 -4.203366 0.794691,-1.799175 -3.618122 0.9854313,-1.794423 -3.046167 1.153638,-8.101462 -8.17268 -0.5206178,-7.558495 -8.005732 0.008380353,-7.000192 -7.356241 0.423813,-6.793884 -6.626974 0.7939281,-7.026155 -6.010807 1.158635,-7.209325 -5.652067 -0.09739235,-7.081044 -4.627719 0.3193897,-7.052678 -4.168382 0.618107,-7.018208 -3.873986 0.7979387,-7.628227 -5.463762 -0.06500962,-7.607326 -5.151839 0.7451822,-7.644211 -6.221927 0.9809659,-7.666404 -6.998806 0.9101042,-8.051552 -5.538268 0.0596686,-8.02191 -5.302036 0.878379,-7.999939 -6.301436 1.141727,-7.975134 -7.008014 1.10225,-8.499082 -5.750717 0.2077775,-8.504104 -5.188179 0.7840394,-8.393867 -5.814885 1.010517,-8.295492 -6.379194 1.03505,0.78333,0 0 1
-2.222853 -7.64368 0.2692417,-2.791821 -7.37173 0.4733247,-3.266646 -6.599182 0.5844958,-3.576406 -5.881036 0.7245708,-3.925651 -5.428302 0.9101895,-2.933939 -5.047241 0.2760172,-3.143131 -4.037599 0.4168023,-3.252468 -3.398255 0.5160247,-3.330517 -2.792702 0.6035036,-2.589788 -4.834676 0.3582485,-2.708046 -3.678024 0.5350779,-2.799862 -2.913421 0.7107819,-2.869003 -2.205227 0.8582973,-2.254296 -4.863995 0.5076193,-2.310784 -3.734672 0.6906474,-2.394539 -3.011069 0.8871483,-2.46497 -2.359207 1.046856,-1.904754 -5.107651 0.6785084,-1.842133 -4.206365 0.8388579,-1.828923 -3.61329 1.028068,-1.824478 -3.03106 1.19906,-8.180317 -8.141899 -0.4245793,-7.629919 -8.051205 0.1631835,-7.059678 -7.415961 0.6494517,-6.895136 -6.71322 1.044708,-7.20047 -6.229965 1.450556,-7.27251 -5.708542 0.2428673,-7.1407 -4.821146 0.7742857,-7.122971 -4.439746 1.120593,-7.106586 -4.235563 1.313002,-7.703372 -5.457654 0.2760391,-7.667862 -5.357699 1.087935,-7.712819 -6.367055 1.362537,-7.745509 -7.06801 1.384231,-8.140017 -5.544302 0.3886378,-8.117321 -5.522485 1.165111,-8.093503 -6.477787 1.408063,-8.052393 -7.125053 1.394159,-8.592215 -5.770395 0.529774,-8.60403 -5.370616 1.090385,-8.493237 -6.024103 1.298373,-8.378855 -6.558794 1.331932,0.81667,0 0 1
-2.243546 -7.6744 0.2791651,-2.808909 -7.387027 0.4817463,-3.283193 -6.616132 0.5985106,-3.598145 -5.908039 0.7449776,-3.949333 -5.469292 0.937359,-2.952026 -5.071064 0.3069806,-3.16065 -4.058558 0.4628722,-3.277071 -3.417167 0.5742654,-3.368444 -2.809033 0.669046,-2.609218 -4.863433 0.3965164,-2.727999 -3.707429 0.5999562,-2.832111 -2.93885 0.7966722,-2.915921 -2.227633 0.9617891,-2.274784 -4.901643 0.5537949,-2.335981 -3.769075 0.7615504,-2.431048 -3.03979 0.9814179,-2.514056 -2.388794 1.155954,-1.929966 -5.152811 0.7301252,-1.874345 -4.247732 0.9074994,-1.875987 -3.647888 1.112679,-1.887345 -3.062468 1.293561,-8.274354 -8.100292 -0.5013826,-7.735554 -8.098904 0.144491,-7.138872 -7.490478 0.6122274,-6.962884 -6.771454 0.9711436,-7.20047 -6.229965 1.373577,-7.27251 -5.708542 0.1658879,-7.1407 -4.821146 0.6973063,-7.122971 -4.439746 1.043614,-7.106586 -4.235563 1.236022,-7.703372 -5.457654 0.1990597,-7.667862 -5.357699 1.010955,-7.712819 -6.367055 1.285558,-7.745509 -7.06801 1.307252,-8.140017 -5.544302 0.3116584,-8.117321 -5.522485 1.088132,-8.093503 -6.477787 1.331083,-8.052393 -7.125053 1.317179,-8.592215 -5.770395 0.4527946,-8.60403 -5.370616 1.013406,-8.493237 -6.024103 1.221394,-8.378855 -6.558794 1.254953,0.85000,0 0 1
-2.243546 -7.6744 0.2791651,-2.808909 -7.387027 0.4817463,-3.283193 -6.616132 0.5985106,-3.598145 -5.908039 0.7449776,-3.949333 -5.469292 0.937359,-2.952026 -5.071064 0.3069806,-3.16065 -4.058558 0.4628722,-3.277071 -3.417167 0.5742654,-3.368444 -2.809033 0.669046,-2.609218 -4.863433 0.3965164,-2.727999 -3.707429 0.5999562,-2.832111 -2.93885 0.7966722,-2.915921 -2.227633 0.9617891,-2.274784 -4.901643 0.5537949,-2.335981 -3.769075 0.7615504,-2.431048 -3.03979 0.9814179,-2.514056 -2.388794 1.155954,-1.929966 -5.152811 0.7301252,-1.874345 -4.247732 0.9074994,-1.875987 -3.647888 1.112679,-1.887345 -3.062468 1.293561,-8.274354 -8.100292 -0.8070405,-7.735554 -8.098904 -0.1611669,-7.138872 -7.490478 0.3065696,-6.962884 -6.771454 0.6654857,-7.297449 -6.319637 1.039599,-7.394926 -5.780242 -0.1819747,-7.23506 -4.933666 0.3742017,-7.206732 -4.439176 0.7808454,-7.18269 -4.079347 1.068252,-7.829991 -5.506173 -0.1800799,-7.780723 -5.31337 0.6863601,-7.837456 -6.321289 0.9775037,-7.898721 -7.091856 1.010813,-8.279078 -5.564233 -0.06982917,-8.258548 -5.522251 0.7880287,-8.24345 -6.482728 1.041693,-8.227122 -7.175982 1.013671,-8.740496 -5.791801 0.07351577,-8.728421 -5.468544 0.723718,-8.633119 -6.160802 0.9451848,-8.552553 -6.723728 0.9783878,0.88333,0 0 1
-2.256053 -7.698268 0.3110963,-2.825544 -7.420703 0.5301142,-3.305995 -6.641522 0.6544701,-3.625437 -5.92397 0.80687,-3.974339 -5.484187 1.00377,-2.976116 -5.094061 0.3555778,-3.187947 -4.083487 0.5109245,-3.305306 -3.449899 0.6204513,-3.399233 -2.845821 0.7146928,-2.629697 -4.879587 0.4391485,-2.749383 -3.727619 0.6382771,-2.854115 -2.966877 0.8300418,-2.937773 -2.262249 0.9918717,-2.292831 -4.916028 0.5915273,-2.356748 -3.787857 0.7930185,-2.457043 -3.062849 1.008085,-2.544532 -2.410778 1.180911,-1.946226 -5.169326 0.7654368,-1.888381 -4.264704 0.9422667,-1.891445 -3.66572 1.142949,-1.904991 -3.085552 1.32246,-8.314809 -8.035862 -1.105779,-7.793405 -8.115992 -0.4029788,-7.206408 -7.502346 0.04875267,-7.059992 -6.762786 0.3806332,-7.372894 -6.341075 0.7295822,-7.475987 -5.792779 -0.4339293,-7.347927 -4.949743 0.1471556,-7.314932 -4.41851 0.5909252,-7.282679 -4.019561 0.901294,-7.916519 -5.525684 -0.468724,-7.924885 -5.245477 0.4326775,-7.985412 -6.27564 0.7218679,-8.03454 -7.076065 0.734526,-8.369373 -5.566336 -0.3859237,-8.412639 -5.415264 0.4976809,-8.390645 -6.397418 0.7494828,-8.353063 -7.092189 0.7024412,-8.819915 -5.787374 -0.2706082,-8.871619 -5.44819 0.4065456,-8.794835 -6.126871 0.6380113,-8.706409 -6.673829 0.6563567,0.91667,0 0 1
-2.256053 -7.698268 0.3110963,-2.825544 -7.420703 0.5301142,-3.305995 -6.641522 0.6544701,-3.625437 -5.92397 0.80687,-3.974339 -5.484187 1.00377,-2.976116 -5.094061 0.3555778,-3.187947 -4.083487 0.5109245,-3.305306 -3.449899 0.6204513,-3.399233 -2.845821 0.7146928,-2.629697 -4.879587 0.4391485,-2.749383 -3.727619 0.6382771,-2.854115 -2.966877 0.8300418,-2.937773 -2.262249 0.9918717,-2.292831 -4.916028 0.5915273,-2.356748 -3.787857 0.7930185,-2.457043 -3.062849 1.008085,-2.544532 -2.410778 1.180911,-1.946226 -5.169326 0.7654368,-1.888381 -4.264704 0.9422667,-1.891445 -3.66572 1.142949,-1.904991 -3.085552 1.32246,-8.314809 -8.035862 -1.105779,-7.793405 -8.115992 -0.4029788,-7.206408 -7.502346 0.04875267,-7.059992 -6.762786 0.3806332,-7.372894 -6.341075 0.7295822,-7.475987 -5.792779 -0.4339293,-7.347927 -4.949743 0.1471556,-7.314932 -4.41851 0.5909252,-7.282679 -4.019561 0.901294,-7.916519 -5.525684 -0.468724,-7.924885 -5.245477 0.4326775,-7.985412 -6.27564 0.7218679,-8.03454 -7.076065 0.734526,-8.369373 -5.566336 -0.3859237,-8.412639 -5.415264 0.4976809,-8.390645 -6.397418 0.7494828,-8.353063 -7.092189 0.7024412,-8.819915 -5.787374 -0.2706082,-8.871619 -5.44819 0.4065456,-8.794835 -6.126871 0.6380113,-8.706409 -6.673829 0.6563567,0.95000,0 0 1
-2.246864 -7.780668 0.3476917,-2.811296 -7.512139 0.5848696,-3.299412 -6.733659 0.7123811,-3.636623 -6.034833 0.8653007,-3.99045 -5.615386 1.065094,-2.979411 -5.179035 0.4085937,-3.205069 -4.164869 0.5859282,-3.329889 -3.521114 0.7183702,-3.428302 -2.910965 0.8259799,-2.633468 -4.953774 0.4890755,-2.758768 -3.788114 0.6996031,-2.865815 -3.026243 0.8966038,-2.953234 -2.327039 1.052148,-2.294868 -4.986735 0.6455206,-2.357537 -3.848396 0.8543869,-2.456232 -3.127108 1.077578,-2.545747 -2.485179 1.246063,-1.946002 -5.243712 0.8227282,-1.880386 -4.329585 1.017974,-1.881576 -3.726021 1.224444,-1.90023 -3.1471 1.393589,-8.382332 -7.961946 -1.105909,-7.879766 -8.101553 -0.2527747,-7.300597 -7.458328 0.2524705,-7.151955 -6.72212 0.596943,-7.462687 -6.339481 0.9303795,-7.570511 -5.743004 -0.225304,-7.492796 -4.910889 0.5375793,-7.490294 -4.365301 1.088339,-7.480001 -3.884615 1.443007,-8.016464 -5.494916 -0.3024442,-8.083109 -5.177033 0.7622842,-8.12914 -6.22046 1.081849,-8.137627 -6.93475 1.055102,-8.482138 -5.526964 -0.2590104,-8.589912 -5.356884 0.7477705,-8.550147 -6.352458 1.000783,-8.47586 -7.000829 0.912937,-8.936968 -5.758815 -0.1681069,-9.041477 -5.46416 0.5811682,-8.964104 -6.118776 0.8053789,-8.857508 -6.640095 0.784115,0.98333,0 0 1
-2.246864 -7.780668 0.3476917,-2.811296 -7.512139 0.5848696,-3.299412 -6.733659 0.7123811,-3.636623 -6.034833 0.8653007,-3.99045 -5.615386 1.065094,-2.979411 -5.179035 0.4085937,-3.205069 -4.164869 0.5859282,-3.329889 -3.521114 0.7183702,-3.428302 -2.910965 0.8259799,-2.633468 -4.953774 0.4890755,-2.758768 -3.788114 0.6996031,-2.865815 -3.026243 0.8966038,-2.953234 -2.327039 1.052148,-2.294868 -4.986735 0.6455206,-2.357537 -3.848396 0.8543869,-2.456232 -3.127108 1.077578,-2.545747 -2.485179 1.246063,-1.946002 -5.243712 0.8227282,-1.880386 -4.329585 1.017974,-1.881576 -3.726021 1.224444,-1.90023 -3.1471 1.393589,-8.382332 -7.961946 -1.105909,-7.879766 -8.101553 -0.2527747,-7.300597 -7.458328 0.2524705,-7.151955 -6.72212 0.596943,-7.462687 -6.339481 0.9303795,-7.570511 -5.743004 -0.225304,-7.492796 -4.910889 0.5375793,-7.490294 -4.365301 1.088339,-7.480001 -3.884615 1.443007,-8.016464 -5.494916 -0.3024442,-8.083109 -5.177033 0.7622842,-8.12914 -6.22046 1.081849,-8.137627 -6.93475 1.055102,-8.482138 -5.526964 -0.2590104,-8.589912 -5.356884 0.7477705,-8.550147 -6.352458 1.000783,-8.47586 -7.000829 0.912937,-8.936968 -5.758815 -0.1681069,-9.041477 -5.46416 0.5811682,-8.964104 -6.118776 0.8053789,-8.857508 -6.640095 0.784115,1.01667,0 0 1
-2.250262 -7.812839 0.3676645,-2.807554 -7.536111 0.5976475,-3.288305 -6.765493 0.721898,-3.620664 -6.065729 0.8733629,-3.980888 -5.647785 1.070622,-2.973808 -5.201807 0.4426257,-3.196272 -4.182294 0.6120284,-3.321413 -3.536173 0.7436254,-3.417086 -2.920492 0.8553376,-2.633002 -4.98079 0.5296164,-2.756297 -3.802234 0.7480718,-2.850868 -3.034084 0.9461592,-2.925269 -2.329102 1.108243,-2.296667 -5.019264 0.6907887,-2.356197 -3.867619 0.9098869,-2.44221 -3.129453 1.1366,-2.517797 -2.467538 1.313463,-1.95007 -5.285884 0.8733605,-1.882611 -4.377359 1.069322,-1.873216 -3.773036 1.277406,-1.874858 -3.185274 1.454368,-8.365961 -7.993555 -0.5344487,-7.867228 -8.031755 0.3741404,-7.336262 -7.406049 0.9669694,-7.209228 -6.713035 1.397792,-7.522358 -6.261726 1.851687,-7.61316 -5.604256 0.4561417,-7.517838 -4.823422 1.242185,-7.546511 -4.34189 1.819899,-7.566733 -3.910877 2.176785,-8.090224 -5.374252 0.3663967,-8.131575 -5.025858 1.468171,-8.164593 -6.134717 1.85527,-8.161253 -6.919494 1.894478,-8.576462 -5.447973 0.3972319,-8.646506 -5.287183 1.422593,-8.605412 -6.332932 1.731138,-8.529047 -7.007864 1.670391,-9.044763 -5.72941 0.4804801,-9.145698 -5.375176 1.22727,-9.050249 -6.033737 1.467254,-8.924829 -6.558365 1.444641,1.05000,0 0 1
-2.250262 -7.812839 0.3676645,-2.807554 -7.536111 0.5976475,-3.288305 -6.765493 0.721898,-3.620664 -6.065729 0.8733629,-3.980888 -5.647785 1.070622,-2.973808 -5.201807 0.4426257,-3.196272 -4.182294 0.6120284,-3.321413 -3.536173 0.7436254,-3.417086 -2.920492 0.8553376,-2.633002 -4.98079 0.5296164,-2.756297 -3.802234 0.7480718,-2.850868 -3.034084 0.9461592,-2.925269 -2.329102 1.108243,-2.296667 -5.019264 0.6907887,-2.356197 -3.867619 0.9098869,-2.44221 -3.129453 1.1366,-2.517797 -2.467538 1.313463,-1.95007 -5.285884 0.8733605,-1.882611 -4.377359 1.069322,-1.873216 -3.773036 1.277406,-1.874858 -3.185274 1.454368,-8.365961 -7.993555 -0.5344487,-7.867228 -8.031755 0.3741404,-7.336262 -7.406049 0.9669694,-7.209228 -6.713035 1.397792,-7.522358 -6.261726 1.851687,-7.61316 -5.604256 0.4561417,-7.517838 -4.823422 1.242185,-7.546511 -4.34189 1.819899,-7.566733 -3.910877 2.176785,-8.090224 -5.374252 0.3663967,-8.131575 -5.025858 1.468171,-8.164593 -6.134717 1.85527,-8.161253 -6.919494 1.894478,-8.576462 -5.447973 0.3972319,-8.646506 -5.287183 1.422593,-8.605412 -6.332932 1.731138,-8.529047 -7.007864 1.670391,-9.044763 -5.72941 0.4804801,-9.145698 -5.375176 1.22727,-9.050249 -6.033737 1.467254,-8.924829 -6.558365 1.444641,1.08333,0 0 1
-2.231923 -7.844231 0.3778501,-2.794528 -7.566995 0.5941417,-3.275852 -6.790674 0.7070992,-3.606955 -6.085069 0.8518419,-3.971138 -5.666587 1.050932,-2.963533 -5.232885 0.4258947,-3.19121 -4.212888 0.5832038,-3.31834 -3.562499 0.7097931,-3.414082 -2.940412 0.8246436,-2.62036 -5.008561 0.5123475,-2.749744 -3.831777 0.710452,-2.845584 -3.067745 0.9048566,-2.920296 -2.35888 1.063279,-2.282134 -5.042928 0.6737397,-2.348158 -3.886875 0.8768023,-2.436776 -3.155101 1.103623,-2.514557 -2.495986 1.283244,-1.934833 -5.30047 0.8552621,-1.870155 -4.388221 1.042054,-1.862801 -3.781216 1.251473,-1.867436 -3.188158 1.427255,-8.370193 -7.972702 0.07949549,-7.85022 -7.91506 0.9594177,-7.322675 -7.311693 1.541883,-7.212831 -6.638917 1.987067,-7.562918 -6.203333 2.452396,-7.62893 -5.420774 1.042841,-7.523086 -4.690185 1.818685,-7.550344 -4.221378 2.376865,-7.566654 -3.786108 2.696675,-8.120806 -5.15209 0.93821,-8.155617 -5.096234 2.023374,-8.189718 -6.208169 2.392933,-8.176934 -6.972782 2.389985,-8.609433 -5.260276 0.9572688,-8.66453 -5.296218 1.909937,-8.641301 -6.297679 2.155717,-8.551662 -6.93607 2.068104,-9.081007 -5.564971 1.026893,-9.187971 -5.280794 1.739532,-9.096954 -5.936016 1.979225,-8.955671 -6.460096 1.943132,1.11667,0 0 1
-2.231923 -7.844231 0.3778501,-2.794528 -7.566995 0.5941417,-3.275852 -6.790674 0.7070992,-3.606955 -6.085069 0.8518419,-3.971138 -5.666587 1.050932,-2.963533 -5.232885 0.4258947,-3.19121 -4.212888 0.5832038,-3.31834 -3.562499 0.7097931,-3.414082 -2.940412 0.8246436,-2.62036 -5.008561 0.5123475,-2.749744 -3.831777 0.710452,-2.845584 -3.067745 0.9048566,-2.920296 -2.35888 1.063279,-2.282134 -5.042928 0.6737397,-2.348158 -3.886875 0.8768023,-2.436776 -3.155101 1.103623,-2.514557 -2.495986 1.283244,-1.934833 -5.30047 0.8552621,-1.870155 -4.388221 1.042054,-1.862801 -3.781216 1.251473,-1.867436 -3.188158 1.427255,-8.370193 -7.972702 0.07949549,-7.85022 -7.91506 0.9594177,-7.322675 -7.311693 1.541883,-7.212831 -6.638917 1.987067,-7.562918 -6.203333 2.452396,-7.62893 -5.420774 1.042841,-7.523086 -4.690185 1.818685,-7.550344 -4.221378 2.376865,-7.566654 -3.786108 2.696675,-8.120806 -5.15209 0.93821,-8.155617 -5.096234 2.023374,-8.189718 -6.208169 2.392933,-8.176934 -6.972782 2.389985,-8.609433 -5.260276 0.9572688,-8.66453 -5.296218 1.909937,-8.641301 -6.297679 2.155717,-8.551662 -6.93607 2.068104,-9.081007 -5.564971 1.026893,-9.187971 -5.280794 1.739532,-9.096954 -5.936016 1.979225,-8.955671 -6.460096 1.943132,1.15000,0 0 1
-2.23064 -7.86767 0.4195987,-2.79852 -7.593486 0.6480281,-3.275036 -6.810401 0.7713221,-3.602861 -6.098392 0.9216254,-3.968963 -5.674942 1.122828,-2.951699 -5.243721 0.5002233,-3.175257 -4.22138 0.6652684,-3.302524 -3.575946 0.7912481,-3.400563 -2.956204 0.8999604,-2.609678 -5.020153 0.5815669,-2.733517 -3.840672 0.7946455,-2.830642 -3.072813 0.9931116,-2.907884 -2.36061 1.157463,-2.274928 -5.055643 0.7362724,-2.332804 -3.905241 0.9558101,-2.423552 -3.170284 1.181505,-2.502037 -2.5032 1.362,-1.931532 -5.317565 0.9080535,-1.85901 -4.402627 1.103672,-1.849774 -3.796161 1.312968,-1.852029 -3.202019 1.49206,-8.378417 -7.905075 0.1720711,-7.851207 -7.788064 1.027114,-7.331034 -7.203107 1.615026,-7.229291 -6.539645 2.073373,-7.584212 -6.141859 2.551288,-7.653784 -5.304496 1.172167,-7.565279 -4.537549 1.973427,-7.602638 -4.060841 2.528257,-7.637705 -3.631593 2.822863,-8.150105 -5.070376 1.080385,-8.203297 -5.017955 2.181349,-8.223043 -6.102764 2.541064,-8.1944 -6.845132 2.530198,-8.637577 -5.20417 1.108891,-8.70754 -5.232038 2.072635,-8.667488 -6.220848 2.320039,-8.566767 -6.855037 2.231411,-9.102278 -5.53758 1.185549,-9.238983 -5.195814 1.873599,-9.158027 -5.76666 2.116914,-9.023791 -6.238048 2.090165,1.18333,0 0 1
-2.23064 -7.86767 0.4195987,-2.79852 -7.593486 0.6480281,-3.275036 -6.810401 0.7713221,-3.602861 -6.098392 0.9216254,-3.968963 -5.674942 1.122828,-2.951699 -5.243721 0.5002233,-3.175257 -4.22138 0.6652684,-3.302524 -3.575946 0.7912481,-3.400563 -2.956204 0.8999604,-2.609678 -5.020153 0.5815669,-2.733517 -3.840672 0.7946455,-2.830642 -3.072813 0.9931116,-2.907884 -2.36061 1.157463,-2.274928 -5.055643 0.7362724,-2.332804 -3.905241 0.9558101,-2.423552 -3.170284 1.181505,-2.502037 -2.5032 1.362,-1.931532 -5.317565 0.9080535,-1.85901 -4.402627 1.103672,-1.849774 -3.796161 1.312968,-1.852029 -3.202019 1.49206,-8.378417 -7.905075 0.1720711,-7.851207 -7.788064 1.027114,-7.331034 -7.203107 1.615026,-7.229291 -6.539645 2.073373,-7.584212 -6.141859 2.551288,-7.653784 -5.304496 1.172167,-7.565279 -4.537549 1.973427,-7.602638 -4.060841 2.528257,-7.637705 -3.631593 2.822863,-8.150105 -5.070376 1.080385,-8.203297 -5.017955 2.181349,-8.223043 -6.102764 2.541064,-8.1944 -6.845132 2.530198,-8.637577 -5.20417 1.108891,-8.70754 -5.232038 2.072635,-8.667488 -6.220848 2.320039,-8.566767 -6.855037 2.231411,-9.102278 -5.53758 1.185549,-9.238983 -5.195814 1.873599,-9.158027 -5.76666 2.116914,-9.023791 -6.238048 2.090165,1.21667,0 0 1
-2.235739 -7.887666 0.4706755,-2.805817 -7.603036 0.6888908,-3.283256 -6.825473 0.8150366,-3.609037 -6.121261 0.9729677,-3.973788 -5.703242 1.175897,-2.961001 -5.242856 0.5496935,-3.183998 -4.221247 0.730348,-3.310965 -3.581008 0.8617341,-3.411544 -2.966693 0.9710888,-2.612313 -5.025495 0.6400138,-2.738062 -3.861728 0.8773327,-2.84282 -3.100532 1.08672,-2.925953 -2.390588 1.255162,-2.272827 -5.067274 0.8033471,-2.331124 -3.927245 1.039575,-2.423692 -3.207866 1.273077,-2.502837 -2.560031 1.452389,-1.925796 -5.333337 0.9801935,-1.849555 -4.418237 1.188863,-1.841983 -3.811854 1.406343,-1.850368 -3.218371 1.587126,-8.357718 -7.729887 0.5297516,-7.841955 -7.52939 1.449507,-7.337708 -6.979802 2.085534,-7.248156 -6.339849 2.592465,-7.617888 -5.954644 3.104769,-7.675943 -5.026068 1.638177,-7.632456 -4.304342 2.592198,-7.709146 -3.876377 3.246877,-7.796167 -3.497214 3.594399,-8.189536 -4.805474 1.506031,-8.265369 -4.780107 2.677451,-8.239324 -5.927942 3.012097,-8.184512 -6.62413 2.985446,-8.693871 -4.957277 1.508029,-8.770202 -4.990214 2.522946,-8.698387 -6.036956 2.676238,-8.588556 -6.621767 2.505293,-9.161043 -5.320943 1.571759,-9.31057 -4.934203 2.265749,-9.198528 -5.559584 2.430524,-9.045753 -6.045827 2.326,1.25000,0 0 1
-2.235739 -7.887666 0.4706755,-2.805817 -7.603036 0.6888908,-3.283256 -6.825473 0.8150366,-3.609037 -6.121261 0.9729677,-3.973788 -5.703242 1.175897,-2.961001 -5.242856 0.5496935,-3.183998 -4.221247 0.730348,-3.310965 -3.581008 0.8617341,-3.411544 -2.966693 0.9710888,-2.612313 -5.025495 0.6400138,-2.738062 -3.861728 0.8773327,-2.84282 -3.100532 1.08672,-2.925953 -2.390588 1.255162,-2.272827 -5.067274 0.8033471,-2.331124 -3.927245 1.039575,-2.423692 -3.207866 1.273077,-2.502837 -2.560031 1.452389,-1.925796 -5.333337 0.9801935,-1.849555 -4.418237 1.188863,-1.841983 -3.811854 1.406343,-1.850368 -3.218371 1.587126,-8.357718 -7.729887 0.5297516,-7.841955 -7.52939 1.449507,-7.337708 -6.979802 2.085534,-7.248156 -6.339849 2.592465,-7.617888 -5.954644 3.104769,-7.675943 -5.026068 1.638177,-7.632456 -4.304342 2.592198,-7.709146 -3.876377 3.246877,-7.796167 -3.497214 3.594399,-8.189536 -4.805474 1.506031,-8.265369 -4.780107 2.677451,-8.239324 -5.927942 3.012097,-8.184512 -6.62413 2.985446,-8.693871 -4.957277 1.508029,-8.770202 -4.990214 2.522946,-8.698387 -6.036956 2.676238,-8.588556 -6.621767 2.505293,-9.161043 -5.320943 1.571759,-9.31057 -4.934203 2.265749,-9.198528 -5.559584 2.430524,-9.045753 -6.045827 2.326,1.28333,0 0 1
-2.239786 -7.89467 0.4804935,-2.809373 -7.601119 0.6867502,-3.284964 -6.82785 0.809233,-3.611574 -6.124044 0.9685606,-3.978119 -5.703113 1.180928,-2.958533 -5.245277 0.5219135,-3.182532 -4.226213 0.6868424,-3.3088 -3.596461 0.8091009,-3.410076 -2.991085 0.9128791,-2.612146 -5.027321 0.6164615,-2.736076 -3.864969 0.8374142,-2.841891 -3.108864 1.041069,-2.930542 -2.403203 1.205463,-2.273901 -5.072519 0.7844504,-2.331528 -3.936587 1.008773,-2.428673 -3.222164 1.238616,-2.515034 -2.579283 1.413206,-1.927558 -5.341545 0.9658923,-1.851702 -4.437854 1.168302,-1.849594 -3.832553 1.384977,-1.86527 -3.242428 1.56465,-8.354673 -7.624364 0.6353484,-7.819439 -7.435831 1.602426,-7.323876 -6.857337 2.303732,-7.249512 -6.215711 2.876607,-7.618584 -5.862033 3.458853,-7.717587 -4.91619 1.85904,-7.664312 -4.163459 2.815369,-7.741011 -3.788299 3.446208,-7.833627 -3.496648 3.753687,-8.240561 -4.702569 1.717344,-8.280648 -4.698854 2.939422,-8.255795 -5.845483 3.26889,-8.198426 -6.503854 3.210948,-8.742156 -4.874696 1.708912,-8.794995 -4.917317 2.753306,-8.735105 -5.956895 2.937183,-8.627551 -6.497137 2.791816,-9.212859 -5.218242 1.754924,-9.371616 -4.777067 2.474075,-9.267929 -5.404808 2.685627,-9.119781 -5.881274 2.609168,1.31667,0 1 2
-2.239786 -7.89467 0.4804935,-2.809373 -7.601119 0.6867502,-3.284964 -6.82785 0.809233,-3.611574 -6.124044 0.9685606,-3.978119 -5.703113 1.180928,-2.958533 -5.245277 0.5219135,-3.182532 -4.226213 0.6868424,-3.3088 -3.596461 0.8091009,-3.410076 -2.991085 0.9128791,-2.612146 -5.027321 0.6164615,-2.736076 -3.864969 0.8374142,-2.841891 -3.108864 1.041069,-2.930542 -2.403203 1.205463,-2.273901 -5.072519 0.7844504,-2.331528 -3.936587 1.008773,-2.428673 -3.222164 1.238616,-2.515034 -2.579283 1.413206,-1.927558 -5.341545 0.9658923,-1.851702 -4.437854 1.168302,-1.849594 -3.832553 1.384977,-1.86527 -3.242428 1.56465,-8.354673 -7.624364 0.6353484,-7.819439 -7.435831 1.602426,-7.323876 -6.857337 2.303732,-7.249512 -6.215711 2.876607,-7.618584 -5.862033 3.458853,-7.717587 -4.91619 1.85904,-7.664312 -4.163459 2.815369,-7.741011 -3.788299 3.446208,-7.833627 -3.496648 3.753687,-8.240561 -4.702569 1.717344,-8.280648 -4.698854 2.939422,-8.255795 -5.845483 3.26889,-8.198426 -6.503854 3.210948,-8.742156 -4.874696 1.708912,-8.794995 -4.917317 2.753306,-8.735105 -5.956895 2.937183,-8.627551 -6.497137 2.791816,-9.212859 -5.218242 1.754924,-9.371616 -4.777067 2.474075,-9.267929 -5.404808 2.685627,-9.119781 -5.881274 2.609168,1.35000,0 1 2
-2.235215 -7.903158 0.4869558,-2.805317 -7.613446 0.6894871,-3.281929 -6.831789 0.8060924,-3.608028 -6.132435 0.961093,-3.970543 -5.714873 1.162822,-2.955043 -5.253006 0.542078,-3.178873 -4.23771 0.7135313,-3.306658 -3.604782 0.8405911,-3.40789 -2.996234 0.9474893,-2.611293 -5.03544 0.6425831,-2.734717 -3.874543 0.8745674,-2.840917 -3.118657 1.08252,-2.927463 -2.41306 1.246211,-2.273172 -5.082581 0.8165103,-2.328751 -3.948225 1.052498,-2.424314 -3.229221 1.285519,-2.507778 -2.582673 1.463553,-1.925702 -5.357277 1.003769,-1.848473 -4.454517 1.215696,-1.845512 -3.847963 1.434502,-1.859472 -3.257774 1.616067,-8.347165 -7.522903 1.06081,-7.815228 -7.311628 2.054392,-7.311135 -6.733976 2.773612,-7.260083 -6.0824 3.364759,-7.648808 -5.737214 3.983087,-7.704496 -4.75363 2.374609,-7.685926 -4.038555 3.373116,-7.777889 -3.705347 4.053702,-7.874695 -3.504097 4.399749,-8.249041 -4.49723 2.213754,-8.300286 -4.592237 3.446918,-8.273283 -5.751857 3.806207,-8.195856 -6.441398 3.785666,-8.763554 -4.659653 2.184532,-8.829308 -4.819877 3.253892,-8.7603 -5.878167 3.442334,-8.630786 -6.438835 3.307779,-9.240541 -5.012652 2.207063,-9.412052 -4.703039 2.999304,-9.29163 -5.415283 3.223552,-9.108113 -5.941965 3.148315,1.38333,0 1 2
-2.235215 -7.903158 0.4869558,-2.805317 -7.613446 0.6894871,-3.281929 -6.831789 0.8060924,-3.608028 -6.132435 0.961093,-3.970543 -5.714873 1.162822,-2.955043 -5.253006 0.542078,-3.178873 -4.23771 0.7135313,-3.306658 -3.604782 0.8405911,-3.40789 -2.996234 0.9474893,-2.611293 -5.03544 0.6425831,-2.734717 -3.874543 0.8745674,-2.840917 -3.118657 1.08252,-2.927463 -2.41306 1.246211,-2.273172 -5.082581 0.8165103,-2.328751 -3.948225 1.052498,-2.424314 -3.229221 1.285519,-2.507778 -2.582673 1.463553,-1.925702 -5.357277 1.003769,-1.848473 -4.454517 1.215696,-1.845512 -3.847963 1.434502,-1.859472 -3.257774 1.616067,-8.347165 -7.522903 1.06081,-7.815228 -7.311628 2.054392,-7.311135 -6.733976 2.773612,-7.260083 -6.0824 3.364759,-7.648808 -5.737214 3.983087,-7.704496 -4.75363 2.374609,-7.685926 -4.038555 3.373116,-7.777889 -3.705347 4.053702,-7.874695 -3.504097 4.399749,-8.249041 -4.49723 2.213754,-8.300286 -4.592237 3.446918,-8.273283 -5.751857 3.806207,-8.195856 -6.441398 3.785666,-8.763554 -4.659653 2.184532,-8.829308 -4.819877 3.253892,-8.7603 -5.878167 3.442334,-8.630786 -6.438835 3.307779,-9.240541 -5.012652 2.207063,-9.412052 -4.703039 2.999304,-9.29163 -5.415283 3.223552,-9.108113 -5.941965 3.148315,1.41667,0 1 2
-2.201704 -7.952331 0.487704,-2.769877 -7.675247 0.7178026,-3.25775 -6.876922 0.8376606,-3.58824 -6.16452 0.9877985,-3.956146 -5.764281 1.18912,-2.941984 -5.308203 0.5529562,-3.167524 -4.288206 0.7312911,-3.293783 -3.645161 0.8649149,-3.394184 -3.025852 0.9740769,-2.593328 -5.086202 0.6381133,-2.72277 -3.921157 0.8554537,-2.825428 -3.172125 1.053554,-2.910851 -2.467796 1.209085,-2.253399 -5.125797 0.8034374,-2.314278 -3.984069 1.023929,-2.403761 -3.262825 1.250377,-2.484943 -2.602077 1.425201,-1.903986 -5.393885 0.9873825,-1.829848 -4.484775 1.191508,-1.820669 -3.886679 1.4031,-1.829594 -3.301042 1.574848,-8.416462 -7.477178 1.237252,-7.868022 -7.234334 2.224997,-7.374085 -6.57364 2.950807,-7.333066 -5.895572 3.525966,-7.724057 -5.642504 4.095601,-7.779845 -4.619069 2.538163,-7.773017 -3.852284 3.582156,-7.888409 -3.509964 4.231386,-8.023101 -3.238201 4.541672,-8.321368 -4.393735 2.38001,-8.367309 -4.522432 3.632723,-8.335059 -5.717956 3.922199,-8.268492 -6.279451 3.846046,-8.833814 -4.560424 2.367089,-8.885781 -4.714422 3.433741,-8.809677 -5.800144 3.530077,-8.699142 -6.268907 3.331883,-9.309067 -4.929321 2.411993,-9.465089 -4.607118 3.148262,-9.342604 -5.300659 3.312003,-9.177061 -5.769155 3.197732,1.45000,0 1 2
-2.201704 -7.952331 0.487704,-2.769877 -7.675247 0.7178026,-3.25775 -6.876922 0.8376606,-3.58824 -6.16452 0.9877985,-3.956146 -5.764281 1.18912,-2.941984 -5.308203 0.5529562,-3.167524 -4.288206 0.7312911,-3.293783 -3.645161 0.8649149,-3.394184 -3.025852 0.9740769,-2.593328 -5.086202 0.6381133,-2.72277 -3.921157 0.8554537,-2.825428 -3.172125 1.053554,-2.910851 -2.467796 1.209085,-2.253399 -5.125797 0.8034374,-2.314278 -3.984069 1.023929,-2.403761 -3.262825 1.250377,-2.484943 -2.602077 1.425201,-1.903986 -5.393885 0.9873825,-1.829848 -4.484775 1.191508,-1.820669 -3.886679 1.4031,-1.829594 -3.301042 1.574848,-8.416462 -7.477178 1.237252,-7.868022 -7.234334 2.224997,-7.374085 -6.57364 2.950807,-7.333066 -5.895572 3.525966,-7.724057 -5.642504 4.095601,-7.779845 -4.619069 2.538163,-7.773017 -3.852284 3.582156,-7.888409 -3.509964 4.231386,-8.023101 -3.238201 4.541672,-8.321368 -4.393735 2.38001,-8.367309 -4.522432 3.632723,-8.335059 -5.717956 3.922199,-8.268492 -6.279451 3.846046,-8.833814 -4.560424 2.367089,-8.885781 -4.714422 3.433741,-8.809677 -5.800144 3.530077,-8.699142 -6.268907 3.331883,-9.309067 -4.929321 2.411993,-9.465089 -4.607118 3.148262,-9.342604 -5.300659 3.312003,-9.177061 -5.769155 3.197732,1.48333,0 1 2
-2.190662 -7.987993 0.4945809,-2.755981 -7.709817 0.7108572,-3.236706 -6.918197 0.8252719,-3.559155 -6.207601 0.974251,-3.924707 -5.791845 1.167213,-2.914287 -5.339736 0.5691632,-3.139309 -4.32584 0.7438062,-3.268806 -3.689051 0.8737841,-3.372373 -3.073389 0.9841728,-2.572464 -5.119567 0.6630536,-2.697743 -3.953444 0.8881613,-2.798111 -3.200451 1.095165,-2.87959 -2.499322 1.263896,-2.238327 -5.162523 0.8300807,-2.29323 -4.016946 1.05461,-2.378563 -3.289205 1.28948,-2.45446 -2.632167 1.473258,-1.89558 -5.436689 1.013543,-1.81907 -4.527751 1.216481,-1.805143 -3.924042 1.428308,-1.805928 -3.33316 1.60864,-8.459637 -7.450788 0.7706425,-7.914595 -7.296508 1.78347,-7.42018 -6.736833 2.493453,-7.336541 -6.067449 3.056597,-7.67844 -5.658271 3.616756,-7.790843 -4.727942 2.036859,-7.778537 -3.926498 2.982883,-7.878055 -3.503864 3.587734,-8.005202 -3.166059 3.864683,-8.325673 -4.496717 1.874873,-8.393135 -4.530042 3.08963,-8.361634 -5.674018 3.416294,-8.29339 -6.294031 3.345675,-8.83933 -4.648512 1.840795,-8.908463 -4.727144 2.913651,-8.84297 -5.775205 3.113179,-8.731204 -6.288709 2.97714,-9.328185 -4.951181 1.870937,-9.495819 -4.511205 2.632866,-9.391517 -5.188943 2.85638,-9.236733 -5.674185 2.78636,1.51667,0 1 2
-2.156479 -8.029449 0.4928488,-2.725508 -7.747612 0.7216942,-3.211407 -6.956874 0.8381705,-3.532352 -6.240659 0.9849014,-3.901134 -5.820517 1.177793,-2.872286 -5.384219 0.5823969,-3.104327 -4.367134 0.7553203,-3.232704 -3.733175 0.8836894,-3.335375 -3.11482 0.9883428,-2.525713 -5.159709 0.658506,-2.650265 -3.986984 0.8705511,-2.743312 -3.233099 1.078222,-2.820557 -2.537612 1.245001,-2.192031 -5.198534 0.8039784,-2.246787 -4.059907 1.009276,-2.333719 -3.343218 1.238104,-2.412549 -2.706572 1.421558,-1.852056 -5.46359 0.9676332,-1.775978 -4.564451 1.160319,-1.763954 -3.970004 1.365997,-1.769751 -3.387292 1.537773,-8.47479 -7.55102 0.7683232,-7.923443 -7.413962 1.692673,-7.407299 -6.831707 2.393861,-7.291889 -6.200687 2.977128,-7.625134 -5.839769 3.564684,-7.791697 -4.818979 2.009572,-7.762333 -4.007189 3.003952,-7.865282 -3.632645 3.632278,-7.989606 -3.381845 3.908656,-8.335466 -4.608718 1.900737,-8.374228 -4.637075 3.155502,-8.365062 -5.814889 3.410527,-8.320621 -6.4451 3.284909,-8.859897 -4.795265 1.922462,-8.903561 -4.897941 3.016732,-8.849738 -5.965211 3.14516,-8.758541 -6.47514 2.970931,-9.357221 -5.125062 2.004981,-9.498774 -4.637535 2.76343,-9.386413 -5.348058 2.945858,-9.24493 -5.837638 2.861657,1.55000,0 1 2
-2.156479 -8.029449 0.4928488,-2.725508 -7.747612 0.7216942,-3.211407 -6.956874 0.8381705,-3.532352 -6.240659 0.9849014,-3.901134 -5.820517 1.177793,-2.872286 -5.384219 0.5823969,-3.104327 -4.367134 0.7553203,-3.232704 -3.733175 0.8836894,-3.335375 -3.11482 0.9883428,-2.525713 -5.159709 0.658506,-2.650265 -3.986984 0.8705511,-2.743312 -3.233099 1.078222,-2.820557 -2.537612 1.245001,-2.192031 -5.198534 0.8039784,-2.246787 -4.059907 1.009276,-2.333719 -3.343218 1.238104,-2.412549 -2.706572 1.421558,-1.852056 -5.46359 0.9676332,-1.775978 -4.564451 1.160319,-1.763954 -3.970004 1.365997,-1.769751 -3.387292 1.537773,-8.47479 -7.55102 0.7683232,-7.923443 -7.413962 1.692673,-7.407299 -6.831707 2.393861,-7.291889 -6.200687 2.977128,-7.625134 -5.839769 3.564684,-7.791697 -4.818979 2.009572,-7.762333 -4.007189 3.003952,-7.865282 -3.632645 3.632278,-7.989606 -3.381845 3.908656,-8.335466 -4.608718 1.900737,-8.374228 -4.637075 3.155502,-8.365062 -5.814889 3.410527,-8.320621 -6.4451 3.284909,-8.859897 -4.795265 1.922462,-8.903561 -4.897941 3.016732,-8.849738 -5.965211 3.14516,-8.758541 -6.47514 2.970931,-9.357221 -5.125062 2.004981,-9.498774 -4.637535 2.76343,-9.386413 -5.348058 2.945858,-9.24493 -5.837638 2.861657,1.58333,0 1 2
-2.128986 -8.042879 0.4909073,-2.697799 -7.769703 0.7413617,-3.183748 -6.976319 0.8666573,-3.497602 -6.255616 1.016606,-3.864088 -5.831207 1.212914,-2.845333 -5.400909 0.6234161,-3.069633 -4.371678 0.8036458,-3.195993 -3.735193 0.9377139,-3.297771 -3.117247 1.049916,-2.494291 -5.175132 0.6872195,-2.611922 -4.000728 0.9109607,-2.698873 -3.246257 1.127177,-2.769969 -2.547638 1.30526,-2.157136 -5.214168 0.8210762,-2.208941 -4.085778 1.037012,-2.291016 -3.376047 1.26821,-2.361872 -2.74006 1.45769,-1.814224 -5.478568 0.9711729,-1.734785 -4.584148 1.168064,-1.712869 -3.996528 1.378465,-1.706334 -3.41402 1.559587,-8.474311 -7.671279 0.7275233,-7.932643 -7.551746 1.63449,-7.432925 -6.973802 2.340536,-7.339109 -6.345233 2.910582,-7.688468 -5.984329 3.467694,-7.811211 -4.927416 1.967966,-7.793562 -3.993244 2.913358,-7.896328 -3.651066 3.531944,-8.027404 -3.509912 3.800168,-8.341943 -4.739515 1.855687,-8.422917 -4.770465 3.068414,-8.404157 -5.931196 3.332396,-8.341878 -6.580081 3.245438,-8.852993 -4.943212 1.854544,-8.927369 -5.004603 2.923605,-8.868531 -6.048419 3.087153,-8.760612 -6.579011 2.96277,-9.333842 -5.286701 1.909034,-9.48716 -4.752502 2.641448,-9.37414 -5.398735 2.816777,-9.214911 -5.849435 2.754454,1.61667,0 1 2
-2.128986 -8.042879 0.4909073,-2.697799 -7.769703 0.7413617,-3.183748 -6.976319 0.8666573,-3.497602 -6.255616 1.016606,-3.864088 -5.831207 1.212914,-2.845333 -5.400909 0.6234161,-3.069633 -4.371678 0.8036458,-3.195993 -3.735193 0.9377139,-3.297771 -3.117247 1.049916,-2.494291 -5.175132 0.6872195,-2.611922 -4.000728 0.9109607,-2.698873 -3.246257 1.127177,-2.769969 -2.547638 1.30526,-2.157136 -5.214168 0.8210762,-2.208941 -4.085778 1.037012,-2.291016 -3.376047 1.26821,-2.361872 -2.74006 1.45769,-1.814224 -5.478568 0.9711729,-1.734785 -4.584148 1.168064,-1.712869 -3.996528 1.378465,-1.706334 -3.41402 1.559587,-8.474311 -7.671279 0.7275233,-7.932643 -7.551746 1.63449,-7.432925 -6.973802 2.340536,-7.339109 -6.345233 2.910582,-7.688468 -5.984329 3.467694,-7.811211 -4.927416 1.967966,-7.793562 -3.993244 2.913358,-7.896328 -3.651066 3.531944,-8.027404 -3.509912 3.800168,-8.341943 -4.739515 1.855687,-8.422917 -4.770465 3.068414,-8.404157 -5.931196 3.332396,-8.341878 -6.580081 3.245438,-8.852993 -4.943212 1.854544,-8.927369 -5.004603 2.923605,-8.868531 -6.048419 3.087153,-8.760612 -6.579011 2.96277,-9.333842 -5.286701 1.909034,-9.48716 -4.752502 2.641448,-9.37414 -5.398735 2.816777,-9.214911 -5.849435 2.754454,1.65000,0 1 2
-2.073578 -8.118816 0.5023242,-2.645362 -7.841188 0.8032156,-3.136593 -7.041106 0.9529397,-3.444891 -6.302141 1.116084,-3.811701 -5.874128 1.330722,-2.796796 -5.480222 0.6962733,-3.019781 -4.446874 0.8874632,-3.141226 -3.800848 1.032173,-3.239332 -3.174784 1.15386,-2.440282 -5.250801 0.7365184,-2.555753 -4.067861 0.957965,-2.635813 -3.307325 1.179112,-2.704588 -2.601016 1.359916,-2.102394 -5.28854 0.8478848,-2.154019 -4.162778 1.055496,-2.235368 -3.446022 1.288376,-2.308656 -2.802288 1.483147,-1.76057 -5.551927 0.9811175,-1.679997 -4.651647 1.174799,-1.65388 -4.064537 1.380366,-1.642922 -3.485448 1.561176,-8.442041 -7.786857 -0.2532657,-7.862545 -7.644193 0.4267135,-7.332588 -7.085371 1.015429,-7.222096 -6.465164 1.529063,-7.646284 -6.112807 1.994118,-7.735621 -5.24836 0.737735,-7.638997 -4.175773 1.52264,-7.70407 -3.738447 2.004946,-7.800524 -3.630461 2.23624,-8.238369 -5.102663 0.7247014,-8.242146 -4.962949 1.835381,-8.253981 -6.008904 2.081289,-8.233543 -6.780221 2.011958,-8.720508 -5.285982 0.8207299,-8.749131 -5.134412 1.799158,-8.69959 -6.036047 1.977092,-8.598428 -6.68378 1.858804,-9.189922 -5.582153 0.9602702,-9.346057 -4.891442 1.694785,-9.216705 -5.460258 1.950989,-9.020662 -6.024496 1.938983,1.68333,0 1 2
-2.073578 -8.118816 0.5023242,-2.645362 -7.841188 0.8032156,-3.136593 -7.041106 0.9529397,-3.444891 -6.302141 1.116084,-3.811701 -5.874128 1.330722,-2.796796 -5.480222 0.6962733,-3.019781 -4.446874 0.8874632,-3.141226 -3.800848 1.032173,-3.239332 -3.174784 1.15386,-2.440282 -5.250801 0.7365184,-2.555753 -4.067861 0.957965,-2.635813 -3.307325 1.179112,-2.704588 -2.601016 1.359916,-2.102394 -5.28854 0.8478848,-2.154019 -4.162778 1.055496,-2.235368 -3.446022 1.288376,-2.308656 -2.802288 1.483147,-1.76057 -5.551927 0.9811175,-1.679997 -4.651647 1.174799,-1.65388 -4.064537 1.380366,-1.642922 -3.485448 1.561176,-8.442041 -7.786857 -0.2532657,-7.862545 -7.644193 0.4267135,-7.332588 -7.085371 1.015429,-7.222096 -6.465164 1.529063,-7.646284 -6.112807 1.994118,-7.735621 -5.24836 0.737735,-7.638997 -4.175773 1.52264,-7.70407 -3.738447 2.004946,-7.800524 -3.630461 2.23624,-8.238369 -5.102663 0.7247014,-8.242146 -4.962949 1.835381,-8.253981 -6.008904 2.081289,-8.233543 -6.780221 2.011958,-8.720508 -5.285982 0.8207299,-8.749131 -5.134412 1.799158,-8.69959 -6.036047 1.977092,-8.598428 -6.68378 1.858804,-9.189922 -5.582153 0.9602702,-9.346057 -4.891442 1.694785,-9.216705 -5.460258 1.950989,-9.020662 -6.024496 1.938983,1.71667,0 1 2
-2.05037 -8.188267 0.5633847,-2.624261 -7.897334 0.830802,-3.107691 -7.086957 0.9639704,-3.410131 -6.35745 1.122104,-3.774513 -5.929307 1.326294,-2.752421 -5.517283 0.7133588,-2.974921 -4.482075 0.8982526,-3.102373 -3.833746 1.034116,-3.20171 -3.2117 1.142498,-2.399742 -5.298425 0.7713255,-2.507686 -4.118928 0.9890052,-2.588168 -3.349019 1.20746,-2.65608 -2.633006 1.383843,-2.064063 -5.342621 0.8954221,-2.108223 -4.223003 1.101182,-2.185867 -3.508159 1.324659,-2.254817 -2.867875 1.51099,-1.725029 -5.610605 1.043156,-1.638487 -4.715955 1.233575,-1.608669 -4.129638 1.432411,-1.593354 -3.555824 1.60672,-8.329123 -7.907751 -0.3708102,-7.772433 -7.769513 0.3318188,-7.243896 -7.20141 0.9007554,-7.130038 -6.575544 1.394456,-7.543873 -6.180929 1.866511,-7.640701 -5.357263 0.5193905,-7.520349 -4.324062 1.241683,-7.554627 -3.865397 1.704678,-7.611122 -3.654857 1.943384,-8.131226 -5.220066 0.494096,-8.139573 -4.927194 1.576213,-8.146306 -5.992744 1.839018,-8.129989 -6.795418 1.730634,-8.599089 -5.387224 0.5816668,-8.632989 -5.139614 1.52837,-8.575887 -6.086589 1.717528,-8.485464 -6.753406 1.59258,-9.053276 -5.695144 0.7117516,-9.203239 -5.037014 1.417041,-9.081708 -5.608839 1.689444,-8.906477 -6.139436 1.690348,1.75000,0 1 2
-2.05037 -8.188267 0.5633847,-2.624261 -7.897334 0.830802,-3.107691 -7.086957 0.9639704,-3.410131 -6.35745 1.122104,-3.774513 -5.929307 1.326294,-2.752421 -5.517283 0.7133588,-2.974921 -4.482075 0.8982526,-3.102373 -3.833746 1.034116,-3.20171 -3.2117 1.142498,-2.399742 -5.298425 0.7713255,-2.507686 -4.118928 0.9890052,-2.588168 -3.349019 1.20746,-2.65608 -2.633006 1.383843,-2.064063 -5.342621 0.8954221,-2.108223 -4.223003 1.101182,-2.185867 -3.508159 1.324659,-2.254817 -2.867875 1.51099,-1.725029 -5.610605 1.043156,-1.638487 -4.715955 1.233575,-1.608669 -4.129638 1.432411,-1.593354 -3.555824 1.60672,-8.329123 -7.907751 -0.3708102,-7.772433 -7.769513 0.3318188,-7.243896 -7.20141 0.9007554,-7.130038 -6.575544 1.394456,-7.543873 -6.180929 1.866511,-7.640701 -5.357263 0.5193905,-7.520349 -4.324062 1.241683,-7.554627 -3.865397 1.704678,-7.611122 -3.654857 1.943384,-8.131226 -5.220066 0.494096,-8.139573 -4.927194 1.576213,-8.146306 -5.992744 1.839018,-8.129989 -6.795418 1.730634,-8.599089 -5.387224 0.5816668,-8.632989 -5.139614 1.52837,-8.575887 -6.086589 1.717528,-8.485464 -6.753406 1.59258,-9.053276 -5.695144 0.7117516,-9.203239 -5.037014 1.417041,-9.081708 -5.608839 1.689444,-8.906477 -6.139436 1.690348,1.78333,0 1 2
-2.004259 -8.244501 0.5793477,-2.58355 -7.951688 0.8789135,-3.072969 -7.137176 1.028616,-3.377675 -6.400062 1.192975,-3.738161 -5.980213 1.39831,-2.722628 -5.577492 0.7934943,-2.937853 -4.522444 0.9939345,-3.057611 -3.862346 1.138386,-3.15053 -3.234022 1.256808,-2.360092 -5.35469 0.8350749,-2.467266 -4.165083 1.072964,-2.546267 -3.389554 1.305304,-2.612523 -2.667871 1.492122,-2.016525 -5.39822 0.945456,-2.06277 -4.270169 1.172207,-2.136 -3.550222 1.405412,-2.202967 -2.898971 1.601314,-1.671637 -5.667352 1.07986,-1.587492 -4.765674 1.286238,-1.55409 -4.187086 1.489313,-1.538915 -3.616965 1.667364,-8.27956 -8.01248 -0.788888,-7.716546 -7.796173 -0.0828582,-7.184492 -7.217857 0.4499466,-7.05489 -6.525741 0.9023173,-7.442188 -6.101569 1.297695,-7.586865 -5.529191 -0.05492342,-7.473627 -4.494403 0.5812188,-7.468968 -3.99732 0.9761708,-7.464087 -3.607658 1.178831,-8.054785 -5.40443 -0.08464468,-8.037199 -4.973617 0.9700651,-8.048179 -6.055503 1.238253,-8.05481 -6.828787 1.10582,-8.513818 -5.52565 0.00407505,-8.518854 -5.137265 0.946964,-8.467542 -6.127077 1.15562,-8.404066 -6.808853 1.02032,-8.97181 -5.777299 0.1322587,-9.071692 -5.066535 0.8095974,-8.943399 -5.656589 1.088362,-8.79705 -6.221838 1.093982,1.81667,0 1 2
-2.004259 -8.244501 0.5793477,-2.58355 -7.951688 0.8789135,-3.072969 -7.137176 1.028616,-3.377675 -6.400062 1.192975,-3.738161 -5.980213 1.39831,-2.722628 -5.577492 0.7934943,-2.937853 -4.522444 0.9939345,-3.057611 -3.862346 1.138386,-3.15053 -3.234022 1.256808,-2.360092 -5.35469 0.8350749,-2.467266 -4.165083 1.072964,-2.546267 -3.389554 1.305304,-2.612523 -2.667871 1.492122,-2.016525 -5.39822 0.945456,-2.06277 -4.270169 1.172207,-2.136 -3.550222 1.405412,-2.202967 -2.898971 1.601314,-1.671637 -5.667352 1.07986,-1.587492 -4.765674 1.286238,-1.55409 -4.187086 1.489313,-1.538915 -3.616965 1.667364,-8.27956 -8.01248 -0.788888,-7.716546 -7.796173 -0.0828582,-7.184492 -7.217857 0.4499466,-7.05489 -6.525741 0.9023173,-7.442188 -6.101569 1.297695,-7.586865 -5.529191 -0.05492342,-7.473627 -4.494403 0.5812188,-7.468968 -3.99732 0.9761708,-7.464087 -3.607658 1.178831,-8.054785 -5.40443 -0.08464468,-8.037199 -4.973617 0.9700651,-8.048179 -6.055503 1.238253,-8.05481 -6.828787 1.10582,-8.513818 -5.52565 0.00407505,-8.518854 -5.137265 0.946964,-8.467542 -6.127077 1.15562,-8.404066 -6.808853 1.02032,-8.97181 -5.777299 0.1322587,-9.071692 -5.066535 0.8095974,-8.943399 -5.656589 1.088362,-8.79705 -6.221838 1.093982,1.85000,0 1 2
-1.986298 -8.27129 0.6458014,-2.567276 -7.981386 0.9656999,-3.054497 -7.166135 1.127067,-3.357916 -6.428099 1.302876,-3.720942 -6.014461 1.516205,-2.701114 -5.580728 0.9000128,-2.90894 -4.528912 1.108979,-3.026033 -3.868378 1.254504,-3.121185 -3.245693 1.373867,-2.33422 -5.364891 0.9389089,-2.438897 -4.173982 1.204921,-2.519677 -3.390346 1.45048,-2.591122 -2.663012 1.648209,-1.988628 -5.417193 1.048308,-2.038918 -4.29301 1.310767,-2.116874 -3.566431 1.554339,-2.190271 -2.905922 1.752766,-1.643517 -5.6939 1.182576,-1.561005 -4.798181 1.410354,-1.529217 -4.206466 1.619284,-1.516877 -3.616743 1.806984,-8.251159 -8.05134 -0.8070367,-7.716776 -7.843177 -0.1214591,-7.173674 -7.251506 0.3377736,-7.002231 -6.5558 0.7322415,-7.352545 -6.12013 1.072688,-7.557638 -5.555448 -0.2398547,-7.431129 -4.611501 0.3419507,-7.414494 -4.106922 0.730428,-7.382468 -3.661124 0.9380862,-8.005793 -5.410266 -0.2734767,-8.003557 -5.024409 0.7124127,-8.035725 -6.117408 1.009188,-8.028056 -6.878206 0.9072318,-8.439299 -5.507364 -0.1904883,-8.462628 -5.16444 0.7427039,-8.437304 -6.156277 1.000962,-8.364062 -6.827221 0.8848734,-8.873283 -5.747991 -0.07466799,-8.975799 -5.073364 0.5713983,-8.876095 -5.636575 0.8252819,-8.751061 -6.184627 0.8081286,1.88333,0 1 2
-1.986298 -8.27129 0.6458014,-2.567276 -7.981386 0.9656999,-3.054497 -7.166135 1.127067,-3.357916 -6.428099 1.302876,-3.720942 -6.014461 1.516205,-2.701114 -5.580728 0.9000128,-2.90894 -4.528912 1.108979,-3.026033 -3.868378 1.254504,-3.121185 -3.245693 1.373867,-2.33422 -5.364891 0.9389089,-2.438897 -4.173982 1.204921,-2.519677 -3.390346 1.45048,-2.591122 -2.663012 1.648209,-1.988628 -5.417193 1.048308,-2.038918 -4.29301 1.310767,-2.116874 -3.566431 1.554339,-2.190271 -2.905922 1.752766,-1.643517 -5.6939 1.182576,-1.561005 -4.798181 1.410354,-1.529217 -4.206466 1.619284,-1.516877 -3.616743 1.806984,-8.251159 -8.05134 -0.8070367,-7.716776 -7.843177 -0.1214591,-7.173674 -7.251506 0.3377736,-7.002231 -6.5558 0.7322415,-7.352545 -6.12013 1.072688,-7.557638 -5.555448 -0.2398547,-7.431129 -4.611501 0.3419507,-7.414494 -4.106922 0.730428,-7.382468 -3.661124 0.9380862,-8.005793 -5.410266 -0.2734767,-8.003557 -5.024409 0.7124127,-8.035725 -6.117408 1.009188,-8.028056 -6.878206 0.9072318,-8.439299 -5.507364 -0.1904883,-8.462628 -5.16444 0.7427039,-8.437304 -6.156277 1.000962,-8.364062 -6.827221 0.8848734,-8.873283 -5.747991 -0.07466799,-8.975799 -5.073364 0.5713983,-8.876095 -5.636575 0.8252819,-8.751061 -6.184627 0.8081286,1.91667,0 1 2
-2.027887 -8.284676 0.6865329,-2.602622 -7.99378 1.01194,-3.083309 -7.181251 1.204406,-3.396296 -6.440091 1.40649,-3.763508 -6.023561 1.646318,-2.733425 -5.585351 0.9692082,-2.944904 -4.537661 1.209898,-3.056868 -3.873192 1.369498,-3.149779 -3.247901 1.493165,-2.36681 -5.369493 1.017604,-2.483003 -4.189929 1.308831,-2.575212 -3.402349 1.546898,-2.653191 -2.673005 1.742849,-2.018174 -5.42868 1.137938,-2.070329 -4.300893 1.418671,-2.148573 -3.559782 1.671335,-2.221488 -2.882224 1.872666,-1.668434 -5.723041 1.277137,-1.58303 -4.822901 1.520509,-1.55682 -4.227457 1.737002,-1.548098 -3.638311 1.927433,-8.262424 -8.04722 -0.7798464,-7.727882 -7.889252 -0.04489863,-7.191728 -7.306068 0.4346005,-7.030005 -6.617519 0.8303746,-7.350445 -6.198176 1.181543,-7.561138 -5.559671 -0.140887,-7.453691 -4.663776 0.4718471,-7.425316 -4.156398 0.9081209,-7.383305 -3.680586 1.148146,-8.006301 -5.408796 -0.2005759,-8.04275 -5.028002 0.8154368,-8.0647 -6.146661 1.099038,-8.045951 -6.903877 1.008058,-8.443495 -5.49544 -0.1334307,-8.507421 -5.134281 0.8046565,-8.470299 -6.131555 1.053612,-8.388832 -6.787666 0.9429989,-8.872303 -5.733024 -0.0318529,-9.00563 -5.081105 0.5951068,-8.909452 -5.590435 0.8438551,-8.781776 -6.076417 0.8313886,1.95000,0 1 2
-2.027887 -8.284676 0.6865329,-2.602622 -7.99378 1.01194,-3.083309 -7.181251 1.204406,-3.396296 -6.440091 1.40649,-3.763508 -6.023561 1.646318,-2.733425 -5.585351 0.9692082,-2.944904 -4.537661 1.209898,-3.056868 -3.873192 1.369498,-3.149779 -3.247901 1.493165,-2.36681 -5.369493 1.017604,-2.483003 -4.189929 1.308831,-2.575212 -3.402349 1.546898,-2.653191 -2.673005 1.742849,-2.018174 -5.42868 1.137938,-2.070329 -4.300893 1.418671,-2.148573 -3.559782 1.671335,-2.221488 -2.882224 1.872666,-1.668434 -5.723041 1.277137,-1.58303 -4.822901 1.520509,-1.55682 -4.227457 1.737002,-1.548098 -3.638311 1.927433,-8.262424 -8.04722 -0.7798464,-7.727882 -7.889252 -0.04489863,-7.191728 -7.306068 0.4346005,-7.030005 -6.617519 0.8303746,-7.350445 -6.198176 1.181543,-7.561138 -5.559671 -0.140887,-7.453691 -4.663776 0.4718471,-7.425316 -4.156398 0.9081209,-7.383305 -3.680586 1.148146,-8.006301 -5.408796 -0.2005759,-8.04275 -5.028002 0.8154368,-8.0647 -6.146661 1.099038,-8.045951 -6.903877 1.008058,-8.443495 -5.49544 -0.1334307,-8.507421 -5.134281 0.8046565,-8.470299 -6.131555 1.053612,-8.388832 -6.787666 0.9429989,-8.872303 -5.733024 -0.0318529,-9.00563 -5.081105 0.5951068,-8.909452 -5.590435 0.8438551,-8.781776 -6.076417 0.8313886,1.98333,0 1 2
-2.056936 -8.255287 0.647136,-2.633087 -7.96623 0.980347,-3.116576 -7.165992 1.176939,-3.434802 -6.434974 1.381091,-3.795036 -6.016742 1.624264,-2.766465 -5.567884 0.944149,-2.978847 -4.515686 1.17683,-3.086623 -3.853151 1.329237,-3.175486 -3.231077 1.448838,-2.397102 -5.352708 0.987278,-2.516261 -4.168138 1.276091,-2.608155 -3.387296 1.508718,-2.684959 -2.665519 1.699581,-2.047485 -5.406938 1.099953,-2.099521 -4.272781 1.379864,-2.180325 -3.545906 1.625887,-2.25533 -2.882307 1.819331,-1.700055 -5.687908 1.233333,-1.618259 -4.784284 1.470419,-1.596141 -4.191506 1.68327,-1.590462 -3.603006 1.869381,-8.267891 -8.041403 -0.7450782,-7.733134 -7.8708 -0.03543586,-7.205904 -7.259851 0.4484551,-7.066765 -6.553428 0.8425051,-7.415064 -6.181276 1.190229,-7.599109 -5.554225 -0.09905994,-7.493124 -4.628322 0.5144216,-7.454692 -4.106435 0.9444196,-7.409648 -3.611687 1.185445,-8.038679 -5.396122 -0.1399617,-8.066705 -5.003785 0.8679769,-8.087171 -6.108402 1.157558,-8.077405 -6.863609 1.097941,-8.476106 -5.47299 -0.05829775,-8.531599 -5.084913 0.8606334,-8.498076 -6.073598 1.10306,-8.428009 -6.752594 1.000205,-8.911104 -5.703996 0.05678266,-9.053891 -5.014383 0.6501176,-8.963287 -5.484787 0.8752491,-8.840297 -5.980104 0.8554522,2.01667,0 1 2
-2.056936 -8.255287 0.647136,-2.633087 -7.96623 0.980347,-3.116576 -7.165992 1.176939,-3.434802 -6.434974 1.381091,-3.795036 -6.016742 1.624264,-2.766465 -5.567884 0.944149,-2.978847 -4.515686 1.17683,-3.086623 -3.853151 1.329237,-3.175486 -3.231077 1.448838,-2.397102 -5.352708 0.987278,-2.516261 -4.168138 1.276091,-2.608155 -3.387296 1.508718,-2.684959 -2.665519 1.699581,-2.047485 -5.406938 1.099953,-2.099521 -4.272781 1.379864,-2.180325 -3.545906 1.625887,-2.25533 -2.882307 1.819331,-1.700055 -5.687908 1.233333,-1.618259 -4.784284 1.470419,-1.596141 -4.191506 1.68327,-1.590462 -3.603006 1.869381,-8.267891 -8.041403 -0.7450782,-7.733134 -7.8708 -0.03543586,-7.205904 -7.259851 0.4484551,-7.066765 -6.553428 0.8425051,-7.415064 -6.181276 1.190229,-7.599109 -5.554225 -0.09905994,-7.493124 -4.628322 0.5144216,-7.454692 -4.106435 0.9444196,-7.409648 -3.611687 1.185445,-8.038679 -5.396122 -0.1399617,-8.066705 -5.003785 0.8679769,-8.087171 -6.108402 1.157558,-8.077405 -6.863609 1.097941,-8.476106 -5.47299 -0.05829775,-8.531599 -5.084913 0.8606334,-8.498076 -6.073598 1.10306,-8.428009 -6.752594 1.000205,-8.911104 -5.703996 0.05678266,-9.053891 -5.014383 0.6501176,-8.963287 -5.484787 0.8752491,-8.840297 -5.980104 0.8554522,2.05000,0 1 2
-2.091746 -8.233789 0.622629,-2.662776 -7.944594 0.9191296,-3.140352 -7.151508 1.09991,-3.458302 -6.437791 1.293537,-3.81823 -6.030904 1.529408,-2.790274 -5.54899 0.8705753,-3.003751 -4.507085 1.090244,-3.116292 -3.852776 1.239683,-3.207441 -3.236766 1.35576,-2.42726 -5.333799 0.9270772,-2.545682 -4.154367 1.200752,-2.638361 -3.383348 1.423098,-2.715517 -2.668821 1.601775,-2.081914 -5.390758 1.053077,-2.129764 -4.257221 1.317009,-2.210021 -3.532135 1.559263,-2.285436 -2.870296 1.74991,-1.737277 -5.678976 1.198556,-1.654681 -4.776117 1.423994,-1.63058 -4.183779 1.633275,-1.625024 -3.595909 1.816759,-8.30265 -8.004034 -0.9043626,-7.775084 -7.823909 -0.1978674,-7.239202 -7.22546 0.2830652,-7.078911 -6.519273 0.6745621,-7.431206 -6.132183 1.00951,-7.620819 -5.547372 -0.2283379,-7.506758 -4.582358 0.3823035,-7.479971 -4.059947 0.7893457,-7.449707 -3.586833 1.012071,-8.062915 -5.414598 -0.2654438,-8.094165 -4.963478 0.7403414,-8.114378 -6.039724 1.051943,-8.102582 -6.795454 1.001406,-8.503005 -5.50053 -0.1927273,-8.562933 -5.063171 0.6967478,-8.532634 -6.034509 0.9531096,-8.461925 -6.706861 0.8637505,-8.936428 -5.732245 -0.08271295,-9.090601 -5.026037 0.4680916,-9.015912 -5.393226 0.6874616,-8.895691 -5.797251 0.6751629,2.08333,0 1 2
-2.091746 -8.233789 0.622629,-2.662776 -7.944594 0.9191296,-3.140352 -7.151508 1.09991,-3.458302 -6.437791 1.293537,-3.81823 -6.030904 1.529408,-2.790274 -5.54899 0.8705753,-3.003751 -4.507085 1.090244,-3.116292 -3.852776 1.239683,-3.207441 -3.236766 1.35576,-2.42726 -5.333799 0.9270772,-2.545682 -4.154367 1.200752,-2.638361 -3.383348 1.423098,-2.715517 -2.668821 1.601775,-2.081914 -5.390758 1.053077,-2.129764 -4.257221 1.317009,-2.210021 -3.532135 1.559263,-2.285436 -2.870296 1.74991,-1.737277 -5.678976 1.198556,-1.654681 -4.776117 1.423994,-1.63058 -4.183779 1.633275,-1.625024 -3.595909 1.816759,-8.30265 -8.004034 -0.9043626,-7.775084 -7.823909 -0.1978674,-7.239202 -7.22546 0.2830652,-7.078911 -6.519273 0.6745621,-7.431206 -6.132183 1.00951,-7.620819 -5.547372 -0.2283379,-7.506758 -4.582358 0.3823035,-7.479971 -4.059947 0.7893457,-7.449707 -3.586833 1.012071,-8.062915 -5.414598 -0.2654438,-8.094165 -4.963478 0.7403414,-8.114378 -6.039724 1.051943,-8.102582 -6.795454 1.001406,-8.503005 -5.50053 -0.1927273,-8.562933 -5.063171 0.6967478,-8.532634 -6.034509 0.9531096,-8.461925 -6.706861 0.8637505,-8.936428 -5.732245 -0.08271295,-9.090601 -5.026037 0.4680916,-9.015912 -5.393226 0.6874616,-8.895691 -5.797251 0.6751629,2.11667,0 1 2
-2.113132 -8.217281 0.6483319,-2.68486 -7.934536 0.9487815,-3.158615 -7.130416 1.132622,-3.469839 -6.416318 1.332723,-3.828249 -6.006856 1.574658,-2.814991 -5.52556 0.8983805,-3.025294 -4.484947 1.113633,-3.137489 -3.83707 1.260431,-3.227917 -3.219749 1.378322,-2.451834 -5.311041 0.960813,-2.56616 -4.133157 1.234744,-2.660573 -3.366136 1.458733,-2.738709 -2.653643 1.639421,-2.108879 -5.374948 1.094403,-2.151205 -4.237646 1.360267,-2.235723 -3.510077 1.608574,-2.315463 -2.847345 1.806665,-1.767007 -5.675436 1.248379,-1.679586 -4.77123 1.477244,-1.659832 -4.174917 1.695582,-1.659794 -3.584295 1.886567,-8.291608 -7.936851 -0.9275331,-7.764283 -7.72483 -0.1935854,-7.243307 -7.156969 0.3197758,-7.09237 -6.451303 0.7412099,-7.436146 -6.047134 1.113108,-7.641679 -5.480699 -0.2123967,-7.540683 -4.455413 0.4341794,-7.514758 -3.902578 0.8603255,-7.50143 -3.405885 1.09159,-8.081439 -5.360097 -0.2554967,-8.124309 -4.860597 0.8020597,-8.137313 -5.95149 1.131539,-8.125811 -6.701093 1.092159,-8.525301 -5.442085 -0.1783791,-8.598711 -4.958721 0.7598495,-8.565024 -5.94382 1.023986,-8.493416 -6.623195 0.921147,-8.970796 -5.657621 -0.06528038,-9.13577 -4.902799 0.5451669,-9.046885 -5.346817 0.7925735,-8.915539 -5.8497 0.7735758,2.15000,0 1 2
-2.113132 -8.217281 0.6483319,-2.68486 -7.934536 0.9487815,-3.158615 -7.130416 1.132622,-3.469839 -6.416318 1.332723,-3.828249 -6.006856 1.574658,-2.814991 -5.52556 0.8983805,-3.025294 -4.484947 1.113633,-3.137489 -3.83707 1.260431,-3.227917 -3.219749 1.378322,-2.451834 -5.311041 0.960813,-2.56616 -4.133157 1.234744,-2.660573 -3.366136 1.458733,-2.738709 -2.653643 1.639421,-2.108879 -5.374948 1.094403,-2.151205 -4.237646 1.360267,-2.235723 -3.510077 1.608574,-2.315463 -2.847345 1.806665,-1.767007 -5.675436 1.248379,-1.679586 -4.77123 1.477244,-1.659832 -4.174917 1.695582,-1.659794 -3.584295 1.886567,-8.291608 -7.936851 -0.9275331,-7.764283 -7.72483 -0.1935854,-7.243307 -7.156969 0.3197758,-7.09237 -6.451303 0.7412099,-7.436146 -6.047134 1.113108,-7.641679 -5.480699 -0.2123967,-7.540683 -4.455413 0.4341794,-7.514758 -3.902578 0.8603255,-7.50143 -3.405885 1.09159,-8.081439 -5.360097 -0.2554967,-8.124309 -4.860597 0.8020597,-8.137313 -5.95149 1.131539,-8.125811 -6.701093 1.092159,-8.525301 -5.442085 -0.1783791,-8.598711 -4.958721 0.7598495,-8.565024 -5.94382 1.023986,-8.493416 -6.623195 0.921147,-8.970796 -5.657621 -0.06528038,-9.13577 -4.902799 0.5451669,-9.046885 -5.346817 0.7925735,-8.915539 -5.8497 0.7735758,2.18333,0 1 2
-2.098738 -8.222754 0.6348209,-2.671486 -7.931829 0.9118057,-3.153755 -7.127851 1.081277,-3.4692 -6.41303 1.271165,-3.829687 -6.000619 1.5024,-2.809737 -5.530782 0.8416423,-3.022469 -4.489763 1.050106,-3.140314 -3.843358 1.197756,-3.238039 -3.226686 1.317148,-2.448909 -5.318281 0.9129936,-2.562371 -4.138881 1.175089,-2.653772 -3.37695 1.397375,-2.732571 -2.666429 1.569837,-2.103757 -5.377826 1.056381,-2.145754 -4.245224 1.303775,-2.227378 -3.528068 1.534164,-2.305937 -2.874839 1.723179,-1.757686 -5.668806 1.220806,-1.664567 -4.765275 1.441152,-1.637836 -4.175273 1.652271,-1.634712 -3.589826 1.835015,-8.312889 -7.89885 -0.7405008,-7.784783 -7.700586 0.02760935,-7.262263 -7.144137 0.5539001,-7.11274 -6.471741 0.9884462,-7.462616 -6.051435 1.386462,-7.645513 -5.416175 0.07620257,-7.54416 -4.389555 0.7187279,-7.525126 -3.849363 1.148667,-7.51965 -3.411871 1.381032,-8.098117 -5.288143 0.00903368,-8.148713 -4.831186 1.075494,-8.165612 -5.920089 1.422066,-8.151447 -6.738994 1.390493,-8.548299 -5.389196 0.05593294,-8.637665 -4.95487 1.010891,-8.598681 -5.901521 1.301663,-8.507834 -6.5984 1.237082,-8.992205 -5.616674 0.133584,-9.180641 -4.877912 0.8078893,-9.086435 -5.337749 1.124462,-8.930367 -5.86798 1.163227,2.21667,0 1 2
-2.098738 -8.222754 0.6348209,-2.671486 -7.931829 0.9118057,-3.153755 -7.127851 1.081277,-3.4692 -6.41303 1.271165,-3.829687 -6.000619 1.5024,-2.809737 -5.530782 0.8416423,-3.022469 -4.489763 1.050106,-3.140314 -3.843358 1.197756,-3.238039 -3.226686 1.317148,-2.448909 -5.318281 0.9129936,-2.562371 -4.138881 1.175089,-2.653772 -3.37695 1.397375,-2.732571 -2.666429 1.569837,-2.103757 -5.377826 1.056381,-2.145754 -4.245224 1.303775,-2.227378 -3.528068 1.534164,-2.305937 -2.874839 1.723179,-1.757686 -5.668806 1.220806,-1.664567 -4.765275 1.441152,-1.637836 -4.175273 1.652271,-1.634712 -3.589826 1.835015,-8.312889 -7.89885 -0.7405008,-7.784783 -7.700586 0.02760935,-7.262263 -7.144137 0.5539001,-7.11274 -6.471741 0.9884462,-7.462616 -6.051435 1.386462,-7.645513 -5.416175 0.07620257,-7.54416 -4.389555 0.7187279,-7.525126 -3.849363 1.148667,-7.51965 -3.411871 1.381032,-8.098117 -5.288143 0.00903368,-8.148713 -4.831186 1.075494,-8.165612 -5.920089 1.422066,-8.151447 -6.738994 1.390493,-8.548299 -5.389196 0.05593294,-8.637665 -4.95487 1.010891,-8.598681 -5.901521 1.301663,-8.507834 -6.5984 1.237082,-8.992205 -5.616674 0.133584,-9.180641 -4.877912 0.8078893,-9.086435 -5.337749 1.124462,-8.930367 -5.86798 1.163227,2.25000,0 1 2
-2.089352 -8.222137 0.6345327,-2.669564 -7.936388 0.8959087,-3.149429 -7.124115 1.041225,-3.458426 -6.403821 1.208479,-3.822305 -6.002223 1.416878,-2.803586 -5.531268 0.82026,-3.016521 -4.489788 1.015727,-3.135384 -3.83922 1.15407,-3.231464 -3.219457 1.269537,-2.442761 -5.316213 0.8916774,-2.555005 -4.139112 1.148156,-2.644364 -3.375225 1.369659,-2.718698 -2.664436 1.543958,-2.09804 -5.37295 1.03178,-2.141833 -4.240109 1.28023,-2.221606 -3.525905 1.509459,-2.294637 -2.878579 1.696988,-1.751216 -5.660197 1.192118,-1.66481 -4.758137 1.412768,-1.639595 -4.166074 1.622596,-1.635133 -3.576537 1.802578,-8.328043 -7.852132 -0.4639775,-7.792763 -7.676269 0.3639925,-7.272113 -7.130247 0.9467388,-7.130936 -6.462646 1.433663,-7.488935 -6.061879 1.896266,-7.665442 -5.304927 0.4390662,-7.552576 -4.29319 1.166561,-7.558463 -3.798371 1.643136,-7.594911 -3.44901 1.874038,-8.134964 -5.176532 0.3511583,-8.188143 -4.800935 1.495794,-8.204666 -5.920967 1.827996,-8.18475 -6.744028 1.762124,-8.592221 -5.304048 0.3864397,-8.678609 -4.95898 1.397872,-8.643152 -5.932554 1.656919,-8.550438 -6.604651 1.556897,-9.03351 -5.563787 0.4565375,-9.223314 -4.833532 1.172925,-9.13295 -5.307975 1.482852,-8.978572 -5.808562 1.499998,2.28333,0 1 2
-2.089352 -8.222137 0.6345327,-2.669564 -7.936388 0.8959087,-3.149429 -7.124115 1.041225,-3.458426 -6.403821 1.208479,-3.822305 -6.002223 1.416878,-2.803586 -5.531268 0.82026,-3.016521 -4.489788 1.015727,-3.135384 -3.83922 1.15407,-3.231464 -3.219457 1.269537,-2.442761 -5.316213 0.8916774,-2.555005 -4.139112 1.148156,-2.644364 -3.375225 1.369659,-2.718698 -2.664436 1.543958,-2.09804 -5.37295 1.03178,-2.141833 -4.240109 1.28023,-2.221606 -3.525905 1.509459,-2.294637 -2.878579 1.696988,-1.751216 -5.660197 1.192118,-1.66481 -4.758137 1.412768,-1.639595 -4.166074 1.622596,-1.635133 -3.576537 1.802578,-8.328043 -7.852132 -0.4639775,-7.792763 -7.676269 0.3639925,-7.272113 -7.130247 0.9467388,-7.130936 -6.462646 1.433663,-7.488935 -6.061879 1.896266,-7.665442 -5.304927 0.4390662,-7.552576 -4.29319 1.166561,-7.558463 -3.798371 1.643136,-7.594911 -3.44901 1.874038,-8.134964 -5.176532 0.3511583,-8.188143 -4.800935 1.495794,-8.204666 -5.920967 1.827996,-8.18475 -6.744028 1.762124,-8.592221 -5.304048 0.3864397,-8.678609 -4.95898 1.397872,-8.643152 -5.932554 1.656919,-8.550438 -6.604651 1.556897,-9.03351 -5.563787 0.4565375,-9.223314 -4.833532 1.172925,-9.13295 -5.307975 1.482852,-8.978572 -5.808562 1.499998,2.31667,0 1 2
-2.09202 -8.221289 0.6356103,-2.671481 -7.937248 0.9055197,-3.150807 -7.131248 1.065216,-3.457583 -6.413049 1.246723,-3.821198 -5.999612 1.469665,-2.805737 -5.527669 0.8370609,-3.017523 -4.4843 1.043333,-3.136155 -3.835504 1.18561,-3.232785 -3.218694 1.302115,-2.445046 -5.316778 0.9119151,-2.552488 -4.139229 1.182701,-2.639861 -3.373868 1.406997,-2.712872 -2.662165 1.582746,-2.099577 -5.377992 1.057024,-2.141171 -4.248344 1.316811,-2.218284 -3.529673 1.552074,-2.288777 -2.877646 1.742609,-1.752204 -5.668268 1.221929,-1.663241 -4.766841 1.450929,-1.636476 -4.174312 1.663758,-1.629248 -3.58605 1.846417,-8.358987 -7.819972 -0.283276,-7.812328 -7.685167 0.6040089,-7.292382 -7.156095 1.226053,-7.158096 -6.489968 1.733648,-7.515302 -6.064759 2.225233,-7.686128 -5.255323 0.7096602,-7.583896 -4.243169 1.481935,-7.607179 -3.754258 2.007271,-7.668949 -3.452056 2.267238,-8.167528 -5.108646 0.5914501,-8.233767 -4.767055 1.755868,-8.242266 -5.890743 2.102268,-8.221162 -6.717563 2.047921,-8.637094 -5.244964 0.5960802,-8.738105 -4.958374 1.631202,-8.690492 -5.92127 1.889647,-8.587482 -6.573431 1.787099,-9.084853 -5.521591 0.6405001,-9.279593 -4.845304 1.404603,-9.188372 -5.374715 1.718852,-9.028553 -5.90505 1.733288,2.35000,0 1 2
-2.09202 -8.221289 0.6356103,-2.671481 -7.937248 0.9055197,-3.150807 -7.131248 1.065216,-3.457583 -6.413049 1.246723,-3.821198 -5.999612 1.469665,-2.805737 -5.527669 0.8370609,-3.017523 -4.4843 1.043333,-3.136155 -3.835504 1.18561,-3.232785 -3.218694 1.302115,-2.445046 -5.316778 0.9119151,-2.552488 -4.139229 1.182701,-2.639861 -3.373868 1.406997,-2.712872 -2.662165 1.582746,-2.099577 -5.377992 1.057024,-2.141171 -4.248344 1.316811,-2.218284 -3.529673 1.552074,-2.288777 -2.877646 1.742609,-1.752204 -5.668268 1.221929,-1.663241 -4.766841 1.450929,-1.636476 -4.174312 1.663758,-1.629248 -3.58605 1.846417,-8.358987 -7.819972 -0.283276,-7.812328 -7.685167 0.6040089,-7.292382 -7.156095 1.226053,-7.158096 -6.489968 1.733648,-7.515302 -6.064759 2.225233,-7.686128 -5.255323 0.7096602,-7.583896 -4.243169 1.481935,-7.607179 -3.754258 2.007271,-7.668949 -3.452056 2.267238,-8.167528 -5.108646 0.5914501,-8.233767 -4.767055 1.755868,-8.242266 -5.890743 2.102268,-8.221162 -6.717563 2.047921,-8.637094 -5.244964 0.5960802,-8.738105 -4.958374 1.631202,-8.690492 -5.92127 1.889647,-8.587482 -6.573431 1.787099,-9.084853 -5.521591 0.6405001,-9.279593 -4.845304 1.404603,-9.188372 -5.374715 1.718852,-9.028553 -5.90505 1.733288,2.38333,0 1 2
-2.105662 -8.224844 0.6687217,-2.682285 -7.936178 0.9326823,-3.158613 -7.118415 1.08587,-3.467325 -6.403261 1.263299,-3.833655 -6.00999 1.479287,-2.807222 -5.519209 0.8687588,-3.012304 -4.479824 1.074708,-3.130467 -3.833837 1.214939,-3.230425 -3.222465 1.327965,-2.446539 -5.309368 0.9456614,-2.551578 -4.140547 1.217412,-2.644264 -3.37575 1.442145,-2.724952 -2.662941 1.618437,-2.10278 -5.370949 1.09104,-2.141706 -4.243478 1.35296,-2.220963 -3.526491 1.586425,-2.295547 -2.873435 1.773556,-1.758699 -5.663724 1.256886,-1.669028 -4.764582 1.48498,-1.641257 -4.169219 1.6939,-1.635111 -3.574172 1.876184,-8.413741 -7.830345 0.1245618,-7.851269 -7.668624 0.9983071,-7.342587 -7.106119 1.671025,-7.232264 -6.436895 2.211564,-7.580593 -6.049566 2.739305,-7.737707 -5.172754 1.15953,-7.677831 -4.192798 2.054549,-7.727148 -3.760545 2.637236,-7.808066 -3.466373 2.886358,-8.244686 -5.013918 1.057884,-8.294011 -4.755913 2.22736,-8.295916 -5.943006 2.459861,-8.286534 -6.633434 2.315204,-8.744103 -5.180805 1.100816,-8.802935 -4.993759 2.155569,-8.741885 -6.061988 2.338628,-8.662927 -6.634905 2.179688,-9.230667 -5.494278 1.188287,-9.376146 -4.892196 1.926385,-9.259089 -5.528163 2.173732,-9.122081 -6.034797 2.144629,2.41667,0 1 2
-2.108585 -8.221418 0.6765442,-2.679908 -7.931265 0.9533803,-3.156632 -7.120901 1.117764,-3.473083 -6.410509 1.302213,-3.835201 -6.013021 1.526267,-2.809664 -5.516988 0.8881698,-3.016106 -4.482107 1.101163,-3.131182 -3.835746 1.249743,-3.229513 -3.217912 1.366663,-2.448425 -5.304245 0.9607629,-2.556547 -4.139671 1.237365,-2.650079 -3.37837 1.46382,-2.73196 -2.667419 1.642914,-2.104084 -5.368227 1.102869,-2.141037 -4.245655 1.369557,-2.221117 -3.530758 1.610373,-2.29809 -2.878175 1.800523,-1.759943 -5.666931 1.264714,-1.669255 -4.771007 1.498754,-1.642962 -4.181655 1.71453,-1.639853 -3.590572 1.901051,-8.422522 -7.792758 0.5504724,-7.868984 -7.693992 1.511055,-7.352449 -7.112255 2.220347,-7.254848 -6.448434 2.791503,-7.608106 -6.056257 3.367315,-7.75052 -5.079893 1.725715,-7.687378 -4.15905 2.669191,-7.768478 -3.764802 3.305416,-7.879833 -3.511416 3.610381,-8.276541 -4.882804 1.590414,-8.335436 -4.751884 2.83004,-8.331018 -5.975349 3.121506,-8.293812 -6.709006 3.010912,-8.788749 -5.0564 1.59936,-8.846251 -5.003105 2.683092,-8.785055 -6.077941 2.883208,-8.687527 -6.673748 2.741748,-9.279562 -5.387456 1.661776,-9.424187 -4.898344 2.43636,-9.306933 -5.57942 2.689796,-9.152446 -6.098901 2.650743,2.45000,0 1 2
-2.108585 -8.221418 0.6765442,-2.679908 -7.931265 0.9533803,-3.156632 -7.120901 1.117764,-3.473083 -6.410509 1.302213,-3.835201 -6.013021 1.526267,-2.809664 -5.516988 0.8881698,-3.016106 -4.482107 1.101163,-3.131182 -3.835746 1.249743,-3.229513 -3.217912 1.366663,-2.448425 -5.304245 0.9607629,-2.556547 -4.139671 1.237365,-2.650079 -3.37837 1.46382,-2.73196 -2.667419 1.642914,-2.104084 -5.368227 1.102869,-2.141037 -4.245655 1.369557,-2.221117 -3.530758 1.610373,-2.29809 -2.878175 1.800523,-1.759943 -5.666931 1.264714,-1.669255 -4.771007 1.498754,-1.642962 -4.181655 1.71453,-1.639853 -3.590572 1.901051,-8.422522 -7.792758 0.5504724,-7.868984 -7.693992 1.511055,-7.352449 -7.112255 2.220347,-7.254848 -6.448434 2.791503,-7.608106 -6.056257 3.367315,-7.75052 -5.079893 1.725715,-7.687378 -4.15905 2.669191,-7.768478 -3.764802 3.305416,-7.879833 -3.511416 3.610381,-8.276541 -4.882804 1.590414,-8.335436 -4.751884 2.83004,-8.331018 -5.975349 3.121506,-8.293812 -6.709006 3.010912,-8.788749 -5.0564 1.59936,-8.846251 -5.003105 2.683092,-8.785055 -6.077941 2.883208,-8.687527 -6.673748 2.741748,-9.279562 -5.387456 1.661776,-9.424187 -4.898344 2.43636,-9.306933 -5.57942 2.689796,-9.152446 -6.098901 2.650743,2.48333,0 1 2
-2.111029 -8.225096 0.6398777,-2.687314 -7.931768 0.9048554,-3.163645 -7.124393 1.064589,-3.475894 -6.41022 1.245014,-3.837433 -6.009406 1.467336,-2.811355 -5.530519 0.8529755,-3.018824 -4.488427 1.063113,-3.134698 -3.83842 1.213239,-3.232012 -3.216046 1.331505,-2.45067 -5.31882 0.9273398,-2.559011 -4.146093 1.19807,-2.653266 -3.382242 1.42379,-2.734868 -2.6701 1.602261,-2.106994 -5.37915 1.069401,-2.142328 -4.252491 1.325421,-2.221407 -3.536973 1.56266,-2.296843 -2.884805 1.752471,-1.764812 -5.67048 1.229902,-1.674402 -4.770179 1.453262,-1.647433 -4.177297 1.665363,-1.642318 -3.587314 1.849819,-8.438793 -7.804216 0.6291546,-7.880671 -7.701096 1.563916,-7.364761 -7.11223 2.273755,-7.272731 -6.434484 2.841952,-7.639028 -6.052135 3.403764,-7.766856 -5.079416 1.821038,-7.715133 -4.11611 2.775211,-7.809067 -3.717854 3.392411,-7.944362 -3.504229 3.674556,-8.295306 -4.883556 1.705951,-8.375378 -4.793454 2.958165,-8.368753 -6.000165 3.243916,-8.321402 -6.70293 3.126826,-8.806957 -5.057172 1.726519,-8.887183 -5.007421 2.834396,-8.825819 -6.075807 3.018888,-8.716024 -6.653827 2.863668,-9.298366 -5.386968 1.801675,-9.475425 -4.827747 2.587253,-9.369169 -5.486404 2.82586,-9.206252 -5.997126 2.777813,2.51667,0 1 2
-2.111029 -8.225096 0.6398777,-2.687314 -7.931768 0.9048554,-3.163645 -7.124393 1.064589,-3.475894 -6.41022 1.245014,-3.837433 -6.009406 1.467336,-2.811355 -5.530519 0.8529755,-3.018824 -4.488427 1.063113,-3.134698 -3.83842 1.213239,-3.232012 -3.216046 1.331505,-2.45067 -5.31882 0.9273398,-2.559011 -4.146093 1.19807,-2.653266 -3.382242 1.42379,-2.734868 -2.6701 1.602261,-2.106994 -5.37915 1.069401,-2.142328 -4.252491 1.325421,-2.221407 -3.536973 1.56266,-2.296843 -2.884805 1.752471,-1.764812 -5.67048 1.229902,-1.674402 -4.770179 1.453262,-1.647433 -4.177297 1.665363,-1.642318 -3.587314 1.849819,-8.438793 -7.804216 0.6291546,-7.880671 -7.701096 1.563916,-7.364761 -7.11223 2.273755,-7.272731 -6.434484 2.841952,-7.639028 -6.052135 3.403764,-7.766856 -5.079416 1.821038,-7.715133 -4.11611 2.775211,-7.809067 -3.717854 3.392411,-7.944362 -3.504229 3.674556,-8.295306 -4.883556 1.705951,-8.375378 -4.793454 2.958165,-8.368753 -6.000165 3.243916,-8.321402 -6.70293 3.126826,-8.806957 -5.057172 1.726519,-8.887183 -5.007421 2.834396,-8.825819 -6.075807 3.018888,-8.716024 -6.653827 2.863668,-9.298366 -5.386968 1.801675,-9.475425 -4.827747 2.587253,-9.369169 -5.486404 2.82586,-9.206252 -5.997126 2.777813,2.55000,0 1 2
-2.120826 -8.219164 0.642871,-2.694627 -7.934629 0.9062068,-3.166083 -7.124588 1.06857,-3.476291 -6.417526 1.255072,-3.839714 -6.012655 1.485006,-2.824794 -5.520311 0.8479826,-3.028938 -4.488002 1.060924,-3.141893 -3.845253 1.209083,-3.235649 -3.224538 1.32732,-2.463121 -5.312528 0.93234,-2.570909 -4.145172 1.207719,-2.665252 -3.386354 1.434647,-2.744565 -2.675056 1.615893,-2.118725 -5.377546 1.084462,-2.151661 -4.247709 1.351158,-2.230865 -3.528011 1.597121,-2.30564 -2.870039 1.793113,-1.775002 -5.675005 1.255347,-1.68449 -4.776475 1.487607,-1.662713 -4.184463 1.70599,-1.662409 -3.595692 1.896204,-8.473069 -7.794094 0.8532501,-7.89957 -7.678778 1.82692,-7.374556 -7.096843 2.570884,-7.258006 -6.418584 3.168146,-7.610149 -6.031748 3.758705,-7.79794 -5.007965 2.115751,-7.733791 -4.06526 3.177468,-7.840603 -3.718004 3.867966,-8.004193 -3.558101 4.176561,-8.343754 -4.830007 1.998114,-8.413543 -4.751782 3.320765,-8.396908 -6.004418 3.600234,-8.34775 -6.688519 3.460087,-8.86834 -5.037118 2.020597,-8.93675 -4.996324 3.216334,-8.859499 -6.122449 3.397608,-8.749385 -6.69709 3.222066,-9.360163 -5.416734 2.104853,-9.540298 -4.824682 2.918509,-9.422246 -5.480538 3.14359,-9.25683 -5.959279 3.078331,2.58333,0 1 2
-2.120826 -8.219164 0.642871,-2.694627 -7.934629 0.9062068,-3.166083 -7.124588 1.06857,-3.476291 -6.417526 1.255072,-3.839714 -6.012655 1.485006,-2.824794 -5.520311 0.8479826,-3.028938 -4.488002 1.060924,-3.141893 -3.845253 1.209083,-3.235649 -3.224538 1.32732,-2.463121 -5.312528 0.93234,-2.570909 -4.145172 1.207719,-2.665252 -3.386354 1.434647,-2.744565 -2.675056 1.615893,-2.118725 -5.377546 1.084462,-2.151661 -4.247709 1.351158,-2.230865 -3.528011 1.597121,-2.30564 -2.870039 1.793113,-1.775002 -5.675005 1.255347,-1.68449 -4.776475 1.487607,-1.662713 -4.184463 1.70599,-1.662409 -3.595692 1.896204,-8.473069 -7.794094 0.8532501,-7.89957 -7.678778 1.82692,-7.374556 -7.096843 2.570884,-7.258006 -6.418584 3.168146,-7.610149 -6.031748 3.758705,-7.79794 -5.007965 2.115751,-7.733791 -4.06526 3.177468,-7.840603 -3.718004 3.867966,-8.004193 -3.558101 4.176561,-8.343754 -4.830007 1.998114,-8.413543 -4.751782 3.320765,-8.396908 -6.004418 3.600234,-8.34775 -6.688519 3.460087,-8.86834 -5.037118 2.020597,-8.93675 -4.996324 3.216334,-8.859499 -6.122449 3.397608,-8.749385 -6.69709 3.222066,-9.360163 -5.416734 2.104853,-9.540298 -4.824682 2.918509,-9.422246 -5.480538 3.14359,-9.25683 -5.959279 3.078331,2.61667,1 2 3
