TiagoOliveira98/Thesis-Project/Difficulty_0_NEW/Dual_Task/Unity_Project/DataLogging/JointData/Logs(1651326446)_sds_Dual_Difficulty0.csv
WRIST,THUMB_CMC,THUMB_MCP,THUMB_IP,THUMB_TIP,INDEX_FINGER_MCP,INDEX_FINGER_PIP,INDEX_FINGER_DIP,INDEX_FINGER_TIP,MIDDLE_FINGER_MCP,MIDDLE_FINGER_PIP,MIDDLE_FINGER_DIP,MIDDLE_FINGER_TIP,RING_FINGER_MCP,RING_FINGER_PIP,RING_FINGER_DIP,RING_FINGER_TIP,PINKY_MCP,PINKY_PIP,PINKY_DIP,PINKY_TIP,WRIST2,THUMB_CMC2,THUMB_MCP2,THUMB_IP2,THUMB_TIP2,INDEX_FINGER_MCP2,INDEX_FINGER_PIP2,INDEX_FINGER_DIP2,INDEX_FINGER_TIP2,MIDDLE_FINGER_MCP2,MIDDLE_FINGER_PIP2,MIDDLE_FINGER_DIP2,MIDDLE_FINGER_TIP2,RING_FINGER_MCP2,RING_FINGER_PIP2,RING_FINGER_DIP2,RING_FINGER_TIP2,PINKY_MCP2,PINKY_PIP2,PINKY_DIP2,PINKY_TIP2,Timestamp,Event
-2.658032 -7.472888 0.0001240014,-3.220227 -7.321954 0.2922511,-3.769966 -6.76962 0.4484967,-4.191244 -6.259201 0.59029,-4.527459 -6.022459 0.7492167,-3.437412 -5.197374 0.2105787,-3.671566 -4.275033 0.3945926,-3.785042 -3.695654 0.5436422,-3.869787 -3.144191 0.6802105,-3.110613 -4.93361 0.2388977,-3.273485 -3.845721 0.4213007,-3.361713 -3.127178 0.6277949,-3.432369 -2.503464 0.8019293,-2.77533 -4.910841 0.3171423,-2.863206 -3.877021 0.5168467,-2.942346 -3.216933 0.6945887,-3.020216 -2.652112 0.8395379,-2.4156 -5.105273 0.4197811,-2.312518 -4.287107 0.6142951,-2.252706 -3.758148 0.7718368,-2.216343 -3.239083 0.918337,-8.226091 -7.47701 0.0001638216,-7.661901 -7.207925 0.2168864,-7.141665 -6.561048 0.3542596,-6.757744 -5.980149 0.5388013,-6.415654 -5.692163 0.7383281,-7.492 -4.990624 0.08594911,-7.342381 -3.994527 0.1963949,-7.282097 -3.354698 0.3400235,-7.23418 -2.797407 0.4707472,-7.816896 -4.814066 0.1307294,-7.678617 -3.698928 0.204087,-7.597489 -2.965584 0.3892299,-7.53989 -2.335772 0.5615447,-8.143566 -4.882575 0.2051899,-8.059095 -3.838772 0.2910175,-7.987707 -3.191604 0.4326279,-7.921648 -2.628225 0.5560589,-8.485194 -5.149015 0.3119722,-8.52511 -4.376077 0.4227184,-8.52263 -3.889652 0.5327979,-8.495631 -3.405508 0.6227863,0.01667,1 0 0 0 0 False
-2.662171 -7.454484 -0.07594134,-3.225652 -7.320505 0.2174634,-3.779598 -6.764666 0.3662946,-4.199284 -6.260505 0.4991224,-4.519381 -6.015699 0.6452572,-3.442053 -5.19966 0.1302068,-3.674108 -4.269293 0.3065059,-3.787161 -3.68814 0.4449409,-3.870649 -3.139564 0.5732762,-3.113616 -4.936262 0.152858,-3.271124 -3.839125 0.3321775,-3.358597 -3.115795 0.5411973,-3.428078 -2.491816 0.7139949,-2.778155 -4.911996 0.2267579,-2.864251 -3.87083 0.4238875,-2.942182 -3.208688 0.6006909,-3.019068 -2.642012 0.7461154,-2.419409 -5.105001 0.3224286,-2.312952 -4.281263 0.5171412,-2.250326 -3.751135 0.6767775,-2.212206 -3.230176 0.8219092,-8.221842 -7.466457 -0.02015139,-7.656027 -7.199392 0.1971296,-7.133811 -6.558239 0.3292712,-6.750234 -5.983705 0.5035447,-6.410088 -5.69909 0.6892177,-7.488748 -4.985999 0.0698694,-7.341162 -3.98344 0.1822247,-7.281202 -3.341377 0.3280544,-7.234274 -2.781971 0.4581259,-7.812965 -4.809318 0.1091798,-7.677022 -3.686181 0.1859767,-7.598036 -2.9531 0.3724936,-7.539912 -2.326718 0.5479805,-8.139662 -4.876302 0.1779067,-8.052573 -3.821509 0.2629163,-7.984891 -3.166282 0.4067093,-7.919631 -2.59625 0.5367725,-8.481062 -5.140131 0.2773305,-8.522453 -4.369874 0.3812254,-8.5214 -3.885265 0.4915156,-8.494969 -3.404196 0.5846189,0.05000,1 0 0 0 0 False
-2.662171 -7.454484 -0.07594134,-3.225652 -7.320505 0.2174634,-3.779598 -6.764666 0.3662946,-4.199284 -6.260505 0.4991224,-4.519381 -6.015699 0.6452572,-3.442053 -5.19966 0.1302068,-3.674108 -4.269293 0.3065059,-3.787161 -3.68814 0.4449409,-3.870649 -3.139564 0.5732762,-3.113616 -4.936262 0.152858,-3.271124 -3.839125 0.3321775,-3.358597 -3.115795 0.5411973,-3.428078 -2.491816 0.7139949,-2.778155 -4.911996 0.2267579,-2.864251 -3.87083 0.4238875,-2.942182 -3.208688 0.6006909,-3.019068 -2.642012 0.7461154,-2.419409 -5.105001 0.3224286,-2.312952 -4.281263 0.5171412,-2.250326 -3.751135 0.6767775,-2.212206 -3.230176 0.8219092,-8.221842 -7.466457 -0.02015139,-7.656027 -7.199392 0.1971296,-7.133811 -6.558239 0.3292712,-6.750234 -5.983705 0.5035447,-6.410088 -5.69909 0.6892177,-7.488748 -4.985999 0.0698694,-7.341162 -3.98344 0.1822247,-7.281202 -3.341377 0.3280544,-7.234274 -2.781971 0.4581259,-7.812965 -4.809318 0.1091798,-7.677022 -3.686181 0.1859767,-7.598036 -2.9531 0.3724936,-7.539912 -2.326718 0.5479805,-8.139662 -4.876302 0.1779067,-8.052573 -3.821509 0.2629163,-7.984891 -3.166282 0.4067093,-7.919631 -2.59625 0.5367725,-8.481062 -5.140131 0.2773305,-8.522453 -4.369874 0.3812254,-8.5214 -3.885265 0.4915156,-8.494969 -3.404196 0.5846189,0.08333,1 0 0 0 0 False
-2.660395 -7.451617 -0.04005925,-3.221912 -7.308048 0.2396364,-3.76964 -6.754913 0.3832394,-4.187523 -6.253004 0.5136935,-4.516831 -6.024423 0.6574525,-3.436285 -5.182844 0.1398817,-3.667923 -4.256843 0.3085686,-3.778655 -3.677557 0.4486599,-3.86307 -3.129084 0.5776634,-3.108721 -4.920841 0.1710577,-3.267633 -3.827659 0.3449998,-3.355997 -3.114882 0.5500886,-3.430118 -2.496795 0.7226295,-2.773037 -4.895761 0.2529794,-2.861096 -3.853491 0.4470305,-2.942482 -3.1917 0.6222586,-3.024281 -2.62364 0.7668142,-2.412044 -5.085182 0.3586552,-2.307683 -4.260751 0.5485674,-2.248874 -3.732078 0.7027522,-2.214391 -3.214073 0.8474328,-8.224813 -7.481769 -0.00631331,-7.658407 -7.215523 0.2119508,-7.136903 -6.569362 0.3465708,-6.75119 -5.999164 0.5247978,-6.408798 -5.72381 0.7160147,-7.490129 -5.0001 0.08757585,-7.338339 -4.010019 0.2004607,-7.274376 -3.367548 0.3455868,-7.222448 -2.803091 0.4781488,-7.816447 -4.820675 0.1261489,-7.67695 -3.705212 0.2027965,-7.593184 -2.964382 0.3942077,-7.533092 -2.332827 0.5740491,-8.143146 -4.88292 0.1927205,-8.05597 -3.835641 0.2802058,-7.98163 -3.175336 0.4249891,-7.910448 -2.605674 0.5527313,-8.486058 -5.141269 0.2904701,-8.52107 -4.367088 0.4033665,-8.514467 -3.876153 0.5142922,-8.483319 -3.393307 0.6051277,0.11667,1 0 0 0 0 False
-2.660395 -7.451617 -0.04005925,-3.221912 -7.308048 0.2396364,-3.76964 -6.754913 0.3832394,-4.187523 -6.253004 0.5136935,-4.516831 -6.024423 0.6574525,-3.436285 -5.182844 0.1398817,-3.667923 -4.256843 0.3085686,-3.778655 -3.677557 0.4486599,-3.86307 -3.129084 0.5776634,-3.108721 -4.920841 0.1710577,-3.267633 -3.827659 0.3449998,-3.355997 -3.114882 0.5500886,-3.430118 -2.496795 0.7226295,-2.773037 -4.895761 0.2529794,-2.861096 -3.853491 0.4470305,-2.942482 -3.1917 0.6222586,-3.024281 -2.62364 0.7668142,-2.412044 -5.085182 0.3586552,-2.307683 -4.260751 0.5485674,-2.248874 -3.732078 0.7027522,-2.214391 -3.214073 0.8474328,-8.224813 -7.481769 -0.00631331,-7.658407 -7.215523 0.2119508,-7.136903 -6.569362 0.3465708,-6.75119 -5.999164 0.5247978,-6.408798 -5.72381 0.7160147,-7.490129 -5.0001 0.08757585,-7.338339 -4.010019 0.2004607,-7.274376 -3.367548 0.3455868,-7.222448 -2.803091 0.4781488,-7.816447 -4.820675 0.1261489,-7.67695 -3.705212 0.2027965,-7.593184 -2.964382 0.3942077,-7.533092 -2.332827 0.5740491,-8.143146 -4.88292 0.1927205,-8.05597 -3.835641 0.2802058,-7.98163 -3.175336 0.4249891,-7.910448 -2.605674 0.5527313,-8.486058 -5.141269 0.2904701,-8.52107 -4.367088 0.4033665,-8.514467 -3.876153 0.5142922,-8.483319 -3.393307 0.6051277,0.15000,1 0 0 0 0 False
-2.651725 -7.469074 -0.04749196,-3.215115 -7.329528 0.2417576,-3.765829 -6.776315 0.3892309,-4.177722 -6.265939 0.5222326,-4.49696 -6.002655 0.6729107,-3.430305 -5.206686 0.1568277,-3.666553 -4.276927 0.333126,-3.785192 -3.688832 0.4738755,-3.873234 -3.134508 0.6061401,-3.101883 -4.942751 0.1859956,-3.258581 -3.839182 0.3606729,-3.350676 -3.114872 0.5661815,-3.423914 -2.497573 0.7377224,-2.766212 -4.918073 0.2654641,-2.853132 -3.870807 0.4598875,-2.934964 -3.200621 0.6339709,-3.013264 -2.635502 0.7788596,-2.406455 -5.107307 0.3687489,-2.299232 -4.275686 0.5592252,-2.23835 -3.736125 0.714743,-2.200382 -3.216428 0.8596126,-8.21113 -7.475526 -0.01180114,-7.647612 -7.210873 0.1980763,-7.128397 -6.570449 0.3366235,-6.749686 -5.997723 0.5215862,-6.405117 -5.721251 0.7232444,-7.482597 -4.996361 0.08495091,-7.331997 -4.000886 0.2066325,-7.272097 -3.356706 0.3563615,-7.222035 -2.791216 0.4922081,-7.809413 -4.815567 0.1316931,-7.668291 -3.692323 0.2176259,-7.589814 -2.948938 0.4091698,-7.531292 -2.311311 0.5920284,-8.138395 -4.88017 0.205832,-8.047159 -3.819725 0.2939124,-7.980467 -3.153093 0.4375635,-7.916005 -2.575049 0.5694019,-8.484064 -5.143922 0.3103664,-8.518189 -4.361831 0.4136184,-8.513501 -3.871408 0.5198708,-8.483866 -3.388585 0.6144819,0.18333,1 0 0 0 0 False
-2.666432 -7.475103 -0.04894593,-3.225254 -7.33892 0.2481843,-3.770424 -6.7821 0.396401,-4.180359 -6.268713 0.5267298,-4.499271 -6.009725 0.6701674,-3.428244 -5.211977 0.1591679,-3.660769 -4.282317 0.3354311,-3.777084 -3.692601 0.4808834,-3.861296 -3.135166 0.617412,-3.100693 -4.946462 0.1845483,-3.257147 -3.837089 0.3642854,-3.348641 -3.111446 0.5762837,-3.417584 -2.489771 0.7535449,-2.76836 -4.921771 0.2602273,-2.851698 -3.868898 0.4574328,-2.934691 -3.197417 0.6349342,-3.01132 -2.628057 0.7808661,-2.412087 -5.114934 0.3607029,-2.300777 -4.290929 0.5475081,-2.237735 -3.754897 0.6986409,-2.196181 -3.234904 0.8412084,-8.203208 -7.476103 -0.02816746,-7.63771 -7.208589 0.1643721,-7.120679 -6.569271 0.297038,-6.739655 -6.000909 0.4780327,-6.398462 -5.721942 0.6787733,-7.484713 -4.993474 0.04188136,-7.329731 -3.989538 0.1585185,-7.264709 -3.346144 0.3034503,-7.21155 -2.78436 0.4363979,-7.812106 -4.818281 0.09589594,-7.668829 -3.692932 0.1795418,-7.586579 -2.952985 0.3728879,-7.527799 -2.31656 0.5563226,-8.139732 -4.885911 0.1761456,-8.047616 -3.828883 0.2624215,-7.975758 -3.165763 0.4055504,-7.909323 -2.593091 0.5355314,-8.481549 -5.150805 0.2871424,-8.518878 -4.366928 0.3939222,-8.511617 -3.872277 0.5062263,-8.479719 -3.382738 0.6010033,0.21667,1 0 0 0 0 False
-2.666432 -7.475103 -0.04894593,-3.225254 -7.33892 0.2481843,-3.770424 -6.7821 0.396401,-4.180359 -6.268713 0.5267298,-4.499271 -6.009725 0.6701674,-3.428244 -5.211977 0.1591679,-3.660769 -4.282317 0.3354311,-3.777084 -3.692601 0.4808834,-3.861296 -3.135166 0.617412,-3.100693 -4.946462 0.1845483,-3.257147 -3.837089 0.3642854,-3.348641 -3.111446 0.5762837,-3.417584 -2.489771 0.7535449,-2.76836 -4.921771 0.2602273,-2.851698 -3.868898 0.4574328,-2.934691 -3.197417 0.6349342,-3.01132 -2.628057 0.7808661,-2.412087 -5.114934 0.3607029,-2.300777 -4.290929 0.5475081,-2.237735 -3.754897 0.6986409,-2.196181 -3.234904 0.8412084,-8.203208 -7.476103 -0.02816746,-7.63771 -7.208589 0.1643721,-7.120679 -6.569271 0.297038,-6.739655 -6.000909 0.4780327,-6.398462 -5.721942 0.6787733,-7.484713 -4.993474 0.04188136,-7.329731 -3.989538 0.1585185,-7.264709 -3.346144 0.3034503,-7.21155 -2.78436 0.4363979,-7.812106 -4.818281 0.09589594,-7.668829 -3.692932 0.1795418,-7.586579 -2.952985 0.3728879,-7.527799 -2.31656 0.5563226,-8.139732 -4.885911 0.1761456,-8.047616 -3.828883 0.2624215,-7.975758 -3.165763 0.4055504,-7.909323 -2.593091 0.5355314,-8.481549 -5.150805 0.2871424,-8.518878 -4.366928 0.3939222,-8.511617 -3.872277 0.5062263,-8.479719 -3.382738 0.6010033,0.25000,1 0 0 0 0 False
-2.668542 -7.481951 -0.02832318,-3.226003 -7.339372 0.2529505,-3.770161 -6.765201 0.3898377,-4.179102 -6.254497 0.5119523,-4.497505 -6.010911 0.6523494,-3.430318 -5.212176 0.1678456,-3.666548 -4.282827 0.335847,-3.78408 -3.695312 0.4696418,-3.872525 -3.141324 0.5951781,-3.102119 -4.946706 0.2000157,-3.254037 -3.837663 0.3749576,-3.346603 -3.107885 0.5813967,-3.418768 -2.485392 0.7536793,-2.768869 -4.925062 0.2819482,-2.850965 -3.867595 0.4802394,-2.934731 -3.188705 0.6563818,-3.014034 -2.614484 0.8016631,-2.411479 -5.121297 0.3860013,-2.30325 -4.290089 0.5755262,-2.239002 -3.745882 0.7268167,-2.194905 -3.219302 0.869146,-8.195354 -7.478033 -0.03398892,-7.639826 -7.207159 0.1674152,-7.122705 -6.561468 0.3042741,-6.739202 -5.999347 0.486712,-6.39398 -5.730803 0.6896854,-7.488045 -4.992473 0.07717661,-7.329856 -3.988077 0.2065633,-7.263912 -3.345249 0.3595912,-7.21066 -2.778005 0.4956993,-7.812579 -4.823206 0.1353075,-7.670895 -3.698292 0.2358839,-7.588642 -2.957395 0.435394,-7.530356 -2.316278 0.6226208,-8.13626 -4.900238 0.2176209,-8.048227 -3.845694 0.325876,-7.975886 -3.176548 0.4770183,-7.908888 -2.594584 0.6103845,-8.47435 -5.176598 0.33005,-8.516913 -4.397275 0.4607536,-8.512035 -3.900713 0.5826201,-8.483242 -3.406644 0.6836604,0.28333,1 0 0 0 0 False
-2.668542 -7.481951 -0.02832318,-3.226003 -7.339372 0.2529505,-3.770161 -6.765201 0.3898377,-4.179102 -6.254497 0.5119523,-4.497505 -6.010911 0.6523494,-3.430318 -5.212176 0.1678456,-3.666548 -4.282827 0.335847,-3.78408 -3.695312 0.4696418,-3.872525 -3.141324 0.5951781,-3.102119 -4.946706 0.2000157,-3.254037 -3.837663 0.3749576,-3.346603 -3.107885 0.5813967,-3.418768 -2.485392 0.7536793,-2.768869 -4.925062 0.2819482,-2.850965 -3.867595 0.4802394,-2.934731 -3.188705 0.6563818,-3.014034 -2.614484 0.8016631,-2.411479 -5.121297 0.3860013,-2.30325 -4.290089 0.5755262,-2.239002 -3.745882 0.7268167,-2.194905 -3.219302 0.869146,-8.195354 -7.478033 -0.03398892,-7.639826 -7.207159 0.1674152,-7.122705 -6.561468 0.3042741,-6.739202 -5.999347 0.486712,-6.39398 -5.730803 0.6896854,-7.488045 -4.992473 0.07717661,-7.329856 -3.988077 0.2065633,-7.263912 -3.345249 0.3595912,-7.21066 -2.778005 0.4956993,-7.812579 -4.823206 0.1353075,-7.670895 -3.698292 0.2358839,-7.588642 -2.957395 0.435394,-7.530356 -2.316278 0.6226208,-8.13626 -4.900238 0.2176209,-8.048227 -3.845694 0.325876,-7.975886 -3.176548 0.4770183,-7.908888 -2.594584 0.6103845,-8.47435 -5.176598 0.33005,-8.516913 -4.397275 0.4607536,-8.512035 -3.900713 0.5826201,-8.483242 -3.406644 0.6836604,0.31667,1 0 0 0 0 False
-2.666223 -7.48315 -0.02947232,-3.22646 -7.33089 0.2371665,-3.770414 -6.763174 0.3665787,-4.182099 -6.257356 0.4831225,-4.498139 -6.013559 0.6176025,-3.42425 -5.209909 0.1485802,-3.660473 -4.279344 0.3113327,-3.779749 -3.690624 0.4421516,-3.870579 -3.136257 0.5652395,-3.098517 -4.946802 0.1848446,-3.252436 -3.838983 0.357145,-3.345898 -3.108863 0.5602735,-3.41979 -2.48537 0.728043,-2.766403 -4.923732 0.2705311,-2.850657 -3.867768 0.4643288,-2.934664 -3.189919 0.6359931,-3.014395 -2.618639 0.7770574,-2.410271 -5.116926 0.3774685,-2.302273 -4.286027 0.5642093,-2.239413 -3.741725 0.7140803,-2.197511 -3.218164 0.854364,-8.197031 -7.479307 -0.003155591,-7.641841 -7.212132 0.1939147,-7.125012 -6.567132 0.3299876,-6.744175 -5.999973 0.5141805,-6.40338 -5.726976 0.7183408,-7.48566 -4.991066 0.08853172,-7.32517 -3.991874 0.2147559,-7.260788 -3.35075 0.3689255,-7.21008 -2.788552 0.5021462,-7.809478 -4.815322 0.1505427,-7.666654 -3.690954 0.2386404,-7.586154 -2.948316 0.433771,-7.529695 -2.307063 0.6175747,-8.135719 -4.888121 0.2384917,-8.046232 -3.828935 0.3333828,-7.97705 -3.159622 0.4794273,-7.913072 -2.573804 0.6082539,-8.478087 -5.160506 0.3564132,-8.516729 -4.375841 0.4800796,-8.508527 -3.8768 0.5966002,-8.475849 -3.383378 0.6908937,0.35000,1 0 0 0 0 False
-2.666223 -7.48315 -0.02947232,-3.22646 -7.33089 0.2371665,-3.770414 -6.763174 0.3665787,-4.182099 -6.257356 0.4831225,-4.498139 -6.013559 0.6176025,-3.42425 -5.209909 0.1485802,-3.660473 -4.279344 0.3113327,-3.779749 -3.690624 0.4421516,-3.870579 -3.136257 0.5652395,-3.098517 -4.946802 0.1848446,-3.252436 -3.838983 0.357145,-3.345898 -3.108863 0.5602735,-3.41979 -2.48537 0.728043,-2.766403 -4.923732 0.2705311,-2.850657 -3.867768 0.4643288,-2.934664 -3.189919 0.6359931,-3.014395 -2.618639 0.7770574,-2.410271 -5.116926 0.3774685,-2.302273 -4.286027 0.5642093,-2.239413 -3.741725 0.7140803,-2.197511 -3.218164 0.854364,-8.197031 -7.479307 -0.003155591,-7.641841 -7.212132 0.1939147,-7.125012 -6.567132 0.3299876,-6.744175 -5.999973 0.5141805,-6.40338 -5.726976 0.7183408,-7.48566 -4.991066 0.08853172,-7.32517 -3.991874 0.2147559,-7.260788 -3.35075 0.3689255,-7.21008 -2.788552 0.5021462,-7.809478 -4.815322 0.1505427,-7.666654 -3.690954 0.2386404,-7.586154 -2.948316 0.433771,-7.529695 -2.307063 0.6175747,-8.135719 -4.888121 0.2384917,-8.046232 -3.828935 0.3333828,-7.97705 -3.159622 0.4794273,-7.913072 -2.573804 0.6082539,-8.478087 -5.160506 0.3564132,-8.516729 -4.375841 0.4800796,-8.508527 -3.8768 0.5966002,-8.475849 -3.383378 0.6908937,0.38333,1 0 0 0 0 False
-2.669719 -7.487487 -0.05150051,-3.227238 -7.339323 0.2223649,-3.773802 -6.7646 0.3558537,-4.18586 -6.255783 0.473416,-4.502584 -6.012246 0.6089785,-3.425644 -5.223101 0.1428577,-3.66077 -4.284455 0.3088769,-3.778275 -3.692724 0.4389997,-3.867659 -3.139368 0.5612444,-3.098671 -4.958072 0.1752788,-3.252338 -3.841602 0.3510107,-3.34564 -3.108784 0.5530071,-3.419692 -2.487271 0.7184918,-2.766129 -4.931036 0.2565057,-2.850335 -3.866824 0.4543244,-2.93466 -3.185934 0.6255927,-3.016284 -2.611268 0.7651233,-2.409465 -5.121006 0.3586131,-2.299988 -4.28463 0.5491716,-2.235462 -3.738616 0.7007989,-2.193338 -3.21206 0.8420818,-8.202257 -7.474233 -0.03094747,-7.637602 -7.203727 0.1485631,-7.122723 -6.567253 0.2714989,-6.741334 -5.999527 0.4435993,-6.400552 -5.736728 0.630955,-7.482052 -4.990603 0.03252505,-7.326353 -3.990448 0.145377,-7.262049 -3.349505 0.2922134,-7.210655 -2.790347 0.4227272,-7.807437 -4.817727 0.09147676,-7.669096 -3.69458 0.171433,-7.586439 -2.954938 0.3663559,-7.527575 -2.318449 0.5514118,-8.134581 -4.889858 0.1733654,-8.047359 -3.836029 0.2583289,-7.975967 -3.179343 0.3980828,-7.909768 -2.609985 0.5215281,-8.475668 -5.156944 0.2857509,-8.517975 -4.380595 0.3950746,-8.513587 -3.888425 0.5053825,-8.485023 -3.398068 0.594597,0.41667,1 0 0 0 0 False
-2.669719 -7.487487 -0.05150051,-3.227238 -7.339323 0.2223649,-3.773802 -6.7646 0.3558537,-4.18586 -6.255783 0.473416,-4.502584 -6.012246 0.6089785,-3.425644 -5.223101 0.1428577,-3.66077 -4.284455 0.3088769,-3.778275 -3.692724 0.4389997,-3.867659 -3.139368 0.5612444,-3.098671 -4.958072 0.1752788,-3.252338 -3.841602 0.3510107,-3.34564 -3.108784 0.5530071,-3.419692 -2.487271 0.7184918,-2.766129 -4.931036 0.2565057,-2.850335 -3.866824 0.4543244,-2.93466 -3.185934 0.6255927,-3.016284 -2.611268 0.7651233,-2.409465 -5.121006 0.3586131,-2.299988 -4.28463 0.5491716,-2.235462 -3.738616 0.7007989,-2.193338 -3.21206 0.8420818,-8.202257 -7.474233 -0.03094747,-7.637602 -7.203727 0.1485631,-7.122723 -6.567253 0.2714989,-6.741334 -5.999527 0.4435993,-6.400552 -5.736728 0.630955,-7.482052 -4.990603 0.03252505,-7.326353 -3.990448 0.145377,-7.262049 -3.349505 0.2922134,-7.210655 -2.790347 0.4227272,-7.807437 -4.817727 0.09147676,-7.669096 -3.69458 0.171433,-7.586439 -2.954938 0.3663559,-7.527575 -2.318449 0.5514118,-8.134581 -4.889858 0.1733654,-8.047359 -3.836029 0.2583289,-7.975967 -3.179343 0.3980828,-7.909768 -2.609985 0.5215281,-8.475668 -5.156944 0.2857509,-8.517975 -4.380595 0.3950746,-8.513587 -3.888425 0.5053825,-8.485023 -3.398068 0.594597,0.45000,1 0 0 0 0 False
-2.666156 -7.491699 -0.0262778,-3.219515 -7.342099 0.2553206,-3.764365 -6.770959 0.39458,-4.174154 -6.263393 0.5148934,-4.490482 -6.020645 0.6521906,-3.429815 -5.224609 0.1989283,-3.667557 -4.289672 0.3731636,-3.783769 -3.696945 0.5112872,-3.872072 -3.139574 0.6390892,-3.103285 -4.958888 0.2273985,-3.255643 -3.845807 0.4082529,-3.344497 -3.115106 0.6179472,-3.41522 -2.490608 0.7903725,-2.770412 -4.933393 0.3029918,-2.855277 -3.873827 0.502434,-2.936131 -3.197931 0.6800704,-3.014465 -2.625531 0.8246255,-2.412575 -5.123501 0.398649,-2.303404 -4.287061 0.5897577,-2.236311 -3.74412 0.7424012,-2.190762 -3.218666 0.8843063,-8.19503 -7.475061 -0.03042377,-7.639329 -7.200232 0.1756022,-7.127055 -6.562493 0.3141333,-6.748243 -6.001683 0.4980556,-6.403323 -5.733621 0.7031532,-7.486067 -4.993654 0.07640962,-7.32907 -3.999166 0.2036879,-7.265239 -3.357897 0.3548651,-7.214549 -2.791641 0.4900963,-7.813017 -4.818569 0.1305399,-7.671366 -3.698785 0.2263116,-7.588733 -2.954749 0.4246328,-7.529479 -2.316203 0.6127959,-8.140125 -4.888631 0.2101587,-8.05326 -3.832057 0.3130261,-7.982279 -3.16266 0.4637156,-7.913942 -2.582677 0.5956431,-8.482174 -5.157061 0.3198494,-8.523719 -4.374446 0.4451985,-8.51805 -3.87764 0.5626214,-8.485873 -3.386658 0.6595953,0.48333,1 0 0 0 0 False
-2.657031 -7.496 -0.0201177,-3.217817 -7.351024 0.2732411,-3.765456 -6.796127 0.4236852,-4.174725 -6.282365 0.5579866,-4.490656 -6.012939 0.7110197,-3.426664 -5.227705 0.1950997,-3.663062 -4.293925 0.3679072,-3.781181 -3.702573 0.5048231,-3.870676 -3.143963 0.6321871,-3.098532 -4.960859 0.2203982,-3.251829 -3.850518 0.3950189,-3.343536 -3.120916 0.601208,-3.415855 -2.49903 0.7737014,-2.765388 -4.937644 0.2971998,-2.849074 -3.876531 0.4895071,-2.932075 -3.198452 0.6693252,-3.011057 -2.625965 0.819066,-2.407229 -5.131671 0.395622,-2.300663 -4.29528 0.5835329,-2.238524 -3.749823 0.7413452,-2.197385 -3.226399 0.8903435,-8.203873 -7.477731 -0.02350494,-7.648997 -7.208968 0.1772949,-7.134538 -6.566886 0.3128166,-6.751965 -5.999114 0.4935552,-6.406752 -5.731075 0.6974791,-7.493452 -4.993692 0.07037469,-7.335763 -3.993276 0.1925907,-7.270321 -3.35615 0.3436221,-7.219381 -2.793102 0.4771001,-7.815673 -4.819789 0.1315131,-7.677326 -3.703629 0.2226802,-7.595207 -2.966682 0.4221443,-7.536604 -2.32757 0.6085283,-8.140752 -4.89476 0.2189779,-8.05356 -3.847959 0.3184534,-7.979071 -3.186228 0.4698054,-7.910059 -2.606286 0.6000832,-8.480344 -5.16986 0.3374608,-8.523871 -4.394876 0.4703093,-8.518831 -3.897972 0.5916938,-8.489788 -3.400499 0.6872939,0.51667,1 0 0 0 0 False
-2.657031 -7.496 -0.0201177,-3.217817 -7.351024 0.2732411,-3.765456 -6.796127 0.4236852,-4.174725 -6.282365 0.5579866,-4.490656 -6.012939 0.7110197,-3.426664 -5.227705 0.1950997,-3.663062 -4.293925 0.3679072,-3.781181 -3.702573 0.5048231,-3.870676 -3.143963 0.6321871,-3.098532 -4.960859 0.2203982,-3.251829 -3.850518 0.3950189,-3.343536 -3.120916 0.601208,-3.415855 -2.49903 0.7737014,-2.765388 -4.937644 0.2971998,-2.849074 -3.876531 0.4895071,-2.932075 -3.198452 0.6693252,-3.011057 -2.625965 0.819066,-2.407229 -5.131671 0.395622,-2.300663 -4.29528 0.5835329,-2.238524 -3.749823 0.7413452,-2.197385 -3.226399 0.8903435,-8.203873 -7.477731 -0.02350494,-7.648997 -7.208968 0.1772949,-7.134538 -6.566886 0.3128166,-6.751965 -5.999114 0.4935552,-6.406752 -5.731075 0.6974791,-7.493452 -4.993692 0.07037469,-7.335763 -3.993276 0.1925907,-7.270321 -3.35615 0.3436221,-7.219381 -2.793102 0.4771001,-7.815673 -4.819789 0.1315131,-7.677326 -3.703629 0.2226802,-7.595207 -2.966682 0.4221443,-7.536604 -2.32757 0.6085283,-8.140752 -4.89476 0.2189779,-8.05356 -3.847959 0.3184534,-7.979071 -3.186228 0.4698054,-7.910059 -2.606286 0.6000832,-8.480344 -5.16986 0.3374608,-8.523871 -4.394876 0.4703093,-8.518831 -3.897972 0.5916938,-8.489788 -3.400499 0.6872939,0.55000,1 0 0 0 0 False
-2.663047 -7.492152 -0.02761406,-3.219906 -7.344823 0.2544001,-3.762278 -6.785192 0.3976197,-4.172927 -6.27519 0.5278872,-4.489559 -6.014377 0.6756347,-3.423769 -5.214477 0.160787,-3.658848 -4.280822 0.3274139,-3.775722 -3.694643 0.4655983,-3.862412 -3.14168 0.5945283,-3.097441 -4.956262 0.1940763,-3.249857 -3.843782 0.3646412,-3.340264 -3.117681 0.5708379,-3.410566 -2.498147 0.7453216,-2.765979 -4.934288 0.2776254,-2.847912 -3.87701 0.4673612,-2.932428 -3.200603 0.6432695,-3.01248 -2.626598 0.7905524,-2.410472 -5.128717 0.3833031,-2.30012 -4.298694 0.5664235,-2.237028 -3.75767 0.7188421,-2.195083 -3.233204 0.8645532,-8.215878 -7.473147 -0.04391862,-7.657271 -7.202855 0.1659389,-7.139804 -6.563686 0.3101592,-6.762925 -5.993758 0.50411,-6.421095 -5.714338 0.7151431,-7.498947 -5.001737 0.07530885,-7.34257 -3.999561 0.2165003,-7.278396 -3.356516 0.3737065,-7.227817 -2.791683 0.5121412,-7.82504 -4.822906 0.1333291,-7.680584 -3.700599 0.2356557,-7.597657 -2.953391 0.4352059,-7.539124 -2.30746 0.6238858,-8.152546 -4.888992 0.2178078,-8.062715 -3.836687 0.3274439,-7.992723 -3.168411 0.4787318,-7.926997 -2.584231 0.6116066,-8.49528 -5.153622 0.3322155,-8.535625 -4.366817 0.4629349,-8.528299 -3.870819 0.5838602,-8.496021 -3.379886 0.6826061,0.58333,1 0 0 0 0 False
-2.663047 -7.492152 -0.02761406,-3.219906 -7.344823 0.2544001,-3.762278 -6.785192 0.3976197,-4.172927 -6.27519 0.5278872,-4.489559 -6.014377 0.6756347,-3.423769 -5.214477 0.160787,-3.658848 -4.280822 0.3274139,-3.775722 -3.694643 0.4655983,-3.862412 -3.14168 0.5945283,-3.097441 -4.956262 0.1940763,-3.249857 -3.843782 0.3646412,-3.340264 -3.117681 0.5708379,-3.410566 -2.498147 0.7453216,-2.765979 -4.934288 0.2776254,-2.847912 -3.87701 0.4673612,-2.932428 -3.200603 0.6432695,-3.01248 -2.626598 0.7905524,-2.410472 -5.128717 0.3833031,-2.30012 -4.298694 0.5664235,-2.237028 -3.75767 0.7188421,-2.195083 -3.233204 0.8645532,-8.215878 -7.473147 -0.04391862,-7.657271 -7.202855 0.1659389,-7.139804 -6.563686 0.3101592,-6.762925 -5.993758 0.50411,-6.421095 -5.714338 0.7151431,-7.498947 -5.001737 0.07530885,-7.34257 -3.999561 0.2165003,-7.278396 -3.356516 0.3737065,-7.227817 -2.791683 0.5121412,-7.82504 -4.822906 0.1333291,-7.680584 -3.700599 0.2356557,-7.597657 -2.953391 0.4352059,-7.539124 -2.30746 0.6238858,-8.152546 -4.888992 0.2178078,-8.062715 -3.836687 0.3274439,-7.992723 -3.168411 0.4787318,-7.926997 -2.584231 0.6116066,-8.49528 -5.153622 0.3322155,-8.535625 -4.366817 0.4629349,-8.528299 -3.870819 0.5838602,-8.496021 -3.379886 0.6826061,0.61667,1 0 0 0 0 False
-2.666242 -7.507354 -0.02315823,-3.225955 -7.353015 0.2592095,-3.768044 -6.794097 0.4028262,-4.175035 -6.281949 0.5319266,-4.49239 -6.021093 0.6783966,-3.423105 -5.231281 0.1717149,-3.654566 -4.292379 0.3410684,-3.768641 -3.698122 0.4792922,-3.852926 -3.139283 0.606679,-3.094896 -4.969615 0.2035506,-3.246115 -3.852624 0.3742602,-3.336051 -3.12221 0.5779161,-3.407515 -2.501491 0.7493827,-2.762301 -4.94695 0.2859646,-2.845773 -3.880647 0.4758981,-2.929383 -3.199523 0.6506041,-3.010336 -2.625453 0.7944692,-2.404902 -5.141201 0.3918517,-2.296871 -4.301641 0.5750455,-2.235243 -3.756444 0.7250698,-2.195985 -3.232809 0.8693956,-8.226963 -7.465026 -0.07753458,-7.665943 -7.196632 0.1175042,-7.149379 -6.562841 0.2533274,-6.769175 -5.996833 0.43806,-6.43178 -5.719577 0.639829,-7.512792 -5.001586 0.01586647,-7.354326 -4.001265 0.1458442,-7.289852 -3.359626 0.2980567,-7.236874 -2.797254 0.4337789,-7.83723 -4.822855 0.07573016,-7.690816 -3.692445 0.1706364,-7.607731 -2.947625 0.3677432,-7.546837 -2.306873 0.555049,-8.163172 -4.888584 0.1615427,-8.067924 -3.827694 0.2609852,-7.994753 -3.159836 0.4074455,-7.925016 -2.580418 0.5399911,-8.505748 -5.151092 0.2759244,-8.540583 -4.359109 0.3985228,-8.532794 -3.862783 0.5125242,-8.500048 -3.37224 0.6085638,0.65000,1 0 0 0 0 False
-2.666242 -7.507354 -0.02315823,-3.225955 -7.353015 0.2592095,-3.768044 -6.794097 0.4028262,-4.175035 -6.281949 0.5319266,-4.49239 -6.021093 0.6783966,-3.423105 -5.231281 0.1717149,-3.654566 -4.292379 0.3410684,-3.768641 -3.698122 0.4792922,-3.852926 -3.139283 0.606679,-3.094896 -4.969615 0.2035506,-3.246115 -3.852624 0.3742602,-3.336051 -3.12221 0.5779161,-3.407515 -2.501491 0.7493827,-2.762301 -4.94695 0.2859646,-2.845773 -3.880647 0.4758981,-2.929383 -3.199523 0.6506041,-3.010336 -2.625453 0.7944692,-2.404902 -5.141201 0.3918517,-2.296871 -4.301641 0.5750455,-2.235243 -3.756444 0.7250698,-2.195985 -3.232809 0.8693956,-8.226963 -7.465026 -0.07753458,-7.665943 -7.196632 0.1175042,-7.149379 -6.562841 0.2533274,-6.769175 -5.996833 0.43806,-6.43178 -5.719577 0.639829,-7.512792 -5.001586 0.01586647,-7.354326 -4.001265 0.1458442,-7.289852 -3.359626 0.2980567,-7.236874 -2.797254 0.4337789,-7.83723 -4.822855 0.07573016,-7.690816 -3.692445 0.1706364,-7.607731 -2.947625 0.3677432,-7.546837 -2.306873 0.555049,-8.163172 -4.888584 0.1615427,-8.067924 -3.827694 0.2609852,-7.994753 -3.159836 0.4074455,-7.925016 -2.580418 0.5399911,-8.505748 -5.151092 0.2759244,-8.540583 -4.359109 0.3985228,-8.532794 -3.862783 0.5125242,-8.500048 -3.37224 0.6085638,0.68333,1 0 0 0 0 False
-2.662047 -7.514153 -0.005870293,-3.218708 -7.361578 0.2828671,-3.765808 -6.786725 0.4293192,-4.176989 -6.272165 0.5565565,-4.493868 -6.018001 0.7012341,-3.419519 -5.240025 0.2268345,-3.656721 -4.304672 0.4025212,-3.774155 -3.709091 0.5405244,-3.863853 -3.146985 0.6693348,-3.093813 -4.974981 0.2527299,-3.248814 -3.86468 0.4353963,-3.337978 -3.135654 0.644004,-3.407782 -2.509422 0.8201434,-2.762975 -4.949564 0.3269659,-2.850562 -3.892602 0.5240282,-2.932993 -3.216424 0.7025502,-3.011824 -2.643325 0.8500265,-2.406349 -5.139041 0.4221819,-2.296593 -4.302644 0.6099251,-2.230114 -3.761141 0.7609164,-2.184228 -3.240034 0.9060523,-8.218898 -7.485702 -0.0500038,-7.661872 -7.208444 0.1323012,-7.149551 -6.56604 0.2634436,-6.773146 -5.998703 0.4457147,-6.435317 -5.725475 0.6480078,-7.51832 -5.008529 0.03020471,-7.362104 -4.004327 0.1529892,-7.296911 -3.361984 0.2992972,-7.242702 -2.79624 0.4294181,-7.842877 -4.833157 0.09542626,-7.696377 -3.705947 0.1849516,-7.610961 -2.961761 0.3774985,-7.548036 -2.322957 0.5629657,-8.169428 -4.901042 0.1841481,-8.070322 -3.837585 0.2760596,-7.993441 -3.16448 0.4141336,-7.920684 -2.58342 0.5421621,-8.511463 -5.164604 0.3018372,-8.547197 -4.361282 0.4175109,-8.540006 -3.858661 0.5286841,-8.510193 -3.365203 0.6239953,0.71667,1 0 0 0 0 False
-2.662047 -7.514153 -0.005870293,-3.218708 -7.361578 0.2828671,-3.765808 -6.786725 0.4293192,-4.176989 -6.272165 0.5565565,-4.493868 -6.018001 0.7012341,-3.419519 -5.240025 0.2268345,-3.656721 -4.304672 0.4025212,-3.774155 -3.709091 0.5405244,-3.863853 -3.146985 0.6693348,-3.093813 -4.974981 0.2527299,-3.248814 -3.86468 0.4353963,-3.337978 -3.135654 0.644004,-3.407782 -2.509422 0.8201434,-2.762975 -4.949564 0.3269659,-2.850562 -3.892602 0.5240282,-2.932993 -3.216424 0.7025502,-3.011824 -2.643325 0.8500265,-2.406349 -5.139041 0.4221819,-2.296593 -4.302644 0.6099251,-2.230114 -3.761141 0.7609164,-2.184228 -3.240034 0.9060523,-8.218898 -7.485702 -0.0500038,-7.661872 -7.208444 0.1323012,-7.149551 -6.56604 0.2634436,-6.773146 -5.998703 0.4457147,-6.435317 -5.725475 0.6480078,-7.51832 -5.008529 0.03020471,-7.362104 -4.004327 0.1529892,-7.296911 -3.361984 0.2992972,-7.242702 -2.79624 0.4294181,-7.842877 -4.833157 0.09542626,-7.696377 -3.705947 0.1849516,-7.610961 -2.961761 0.3774985,-7.548036 -2.322957 0.5629657,-8.169428 -4.901042 0.1841481,-8.070322 -3.837585 0.2760596,-7.993441 -3.16448 0.4141336,-7.920684 -2.58342 0.5421621,-8.511463 -5.164604 0.3018372,-8.547197 -4.361282 0.4175109,-8.540006 -3.858661 0.5286841,-8.510193 -3.365203 0.6239953,0.75000,1 0 0 0 0 False
-2.654868 -7.513622 -0.01540553,-3.212692 -7.356665 0.2559612,-3.757015 -6.778211 0.3970592,-4.164332 -6.254205 0.5244362,-4.479105 -5.98837 0.6688184,-3.417858 -5.235469 0.1819713,-3.650833 -4.293932 0.3484644,-3.766086 -3.701576 0.4810919,-3.853191 -3.144489 0.6040215,-3.092461 -4.975673 0.2166617,-3.245438 -3.860833 0.39047,-3.334936 -3.128119 0.5933593,-3.405695 -2.502344 0.7672104,-2.760928 -4.950138 0.3003772,-2.847444 -3.890164 0.4903921,-2.92978 -3.207709 0.6619691,-3.008909 -2.631006 0.8059882,-2.404275 -5.138216 0.4042039,-2.29383 -4.299554 0.5860497,-2.228441 -3.754201 0.7366564,-2.184858 -3.232694 0.8824876,-8.231294 -7.478833 -0.02578361,-7.669036 -7.208091 0.1597343,-7.15276 -6.569425 0.2957693,-6.774531 -6.001958 0.4817539,-6.434827 -5.736325 0.690035,-7.513108 -4.992153 0.04220163,-7.356473 -3.985609 0.1538009,-7.291815 -3.345239 0.2969868,-7.237909 -2.790064 0.4217285,-7.839144 -4.820786 0.1036831,-7.699811 -3.686411 0.1812575,-7.620142 -2.9521 0.3596649,-7.56234 -2.31904 0.5285109,-8.167028 -4.893302 0.1907492,-8.072168 -3.83093 0.2719012,-7.996288 -3.178363 0.3989273,-7.927374 -2.612744 0.5123603,-8.508942 -5.159914 0.3078362,-8.544826 -4.363327 0.4170027,-8.538178 -3.865363 0.5209947,-8.510086 -3.371695 0.6066864,0.78333,1 0 0 0 0 False
-2.66267 -7.524395 0.007695088,-3.218424 -7.373399 0.2865059,-3.75963 -6.794657 0.4274916,-4.1651 -6.268722 0.5537795,-4.476545 -5.994831 0.6975513,-3.4123 -5.239244 0.1940231,-3.644958 -4.301269 0.3585211,-3.761117 -3.705878 0.4969763,-3.848604 -3.143996 0.6267383,-3.087341 -4.976081 0.223156,-3.238771 -3.865283 0.3918164,-3.33042 -3.133934 0.5983687,-3.401403 -2.506076 0.7765772,-2.758201 -4.949227 0.3024611,-2.840164 -3.89232 0.4865067,-2.924353 -3.213954 0.6614771,-3.003447 -2.635557 0.8090283,-2.404945 -5.138412 0.403655,-2.295965 -4.305906 0.5829068,-2.231859 -3.763 0.7338229,-2.187429 -3.237424 0.8811069,-8.217636 -7.490428 0.009304583,-7.658768 -7.210334 0.1863338,-7.147788 -6.570847 0.3161846,-6.77254 -6.004198 0.4951596,-6.434244 -5.731227 0.6895711,-7.513815 -4.990066 0.07890262,-7.359972 -3.986358 0.1920739,-7.290216 -3.348095 0.3326724,-7.230482 -2.787558 0.4620137,-7.836877 -4.820847 0.1441731,-7.696923 -3.689016 0.2294139,-7.612701 -2.950082 0.4170255,-7.550852 -2.313196 0.5974622,-8.161455 -4.89473 0.2324666,-8.065819 -3.827038 0.3148946,-7.98572 -3.165854 0.4439776,-7.913157 -2.594951 0.5643814,-8.499373 -5.163625 0.3505742,-8.536978 -4.366247 0.4583104,-8.528383 -3.865627 0.5675359,-8.499519 -3.375759 0.6594964,0.81667,1 0 0 0 0 False
-2.66267 -7.524395 0.007695088,-3.218424 -7.373399 0.2865059,-3.75963 -6.794657 0.4274916,-4.1651 -6.268722 0.5537795,-4.476545 -5.994831 0.6975513,-3.4123 -5.239244 0.1940231,-3.644958 -4.301269 0.3585211,-3.761117 -3.705878 0.4969763,-3.848604 -3.143996 0.6267383,-3.087341 -4.976081 0.223156,-3.238771 -3.865283 0.3918164,-3.33042 -3.133934 0.5983687,-3.401403 -2.506076 0.7765772,-2.758201 -4.949227 0.3024611,-2.840164 -3.89232 0.4865067,-2.924353 -3.213954 0.6614771,-3.003447 -2.635557 0.8090283,-2.404945 -5.138412 0.403655,-2.295965 -4.305906 0.5829068,-2.231859 -3.763 0.7338229,-2.187429 -3.237424 0.8811069,-8.217636 -7.490428 0.009304583,-7.658768 -7.210334 0.1863338,-7.147788 -6.570847 0.3161846,-6.77254 -6.004198 0.4951596,-6.434244 -5.731227 0.6895711,-7.513815 -4.990066 0.07890262,-7.359972 -3.986358 0.1920739,-7.290216 -3.348095 0.3326724,-7.230482 -2.787558 0.4620137,-7.836877 -4.820847 0.1441731,-7.696923 -3.689016 0.2294139,-7.612701 -2.950082 0.4170255,-7.550852 -2.313196 0.5974622,-8.161455 -4.89473 0.2324666,-8.065819 -3.827038 0.3148946,-7.98572 -3.165854 0.4439776,-7.913157 -2.594951 0.5643814,-8.499373 -5.163625 0.3505742,-8.536978 -4.366247 0.4583104,-8.528383 -3.865627 0.5675359,-8.499519 -3.375759 0.6594964,0.85000,1 0 0 0 0 False
-2.64135 -7.543563 0.03078122,-3.199805 -7.389463 0.3048876,-3.744467 -6.803839 0.4403002,-4.150986 -6.272486 0.5609921,-4.464166 -5.99917 0.6993159,-3.406035 -5.259072 0.226923,-3.640589 -4.322212 0.39248,-3.75934 -3.724464 0.5265545,-3.849684 -3.15991 0.6530932,-3.081202 -4.992051 0.2573652,-3.232176 -3.881614 0.4295615,-3.324228 -3.147795 0.6336767,-3.396105 -2.520582 0.8091179,-2.750702 -4.964088 0.3382264,-2.834323 -3.907535 0.5233274,-2.918152 -3.229044 0.6959521,-2.996612 -2.655481 0.8434185,-2.395726 -5.152502 0.4399263,-2.285947 -4.314573 0.6195095,-2.221303 -3.769157 0.7720582,-2.177618 -3.246757 0.9196757,-8.228572 -7.486778 0.009204196,-7.670537 -7.209651 0.202937,-7.15404 -6.567526 0.3457724,-6.775227 -5.994148 0.5367072,-6.434461 -5.726287 0.7463313,-7.508969 -4.994682 0.1116613,-7.352597 -3.980151 0.2384264,-7.288224 -3.334866 0.390581,-7.235173 -2.77366 0.5241064,-7.834197 -4.820766 0.1720292,-7.692389 -3.685253 0.2715214,-7.611996 -2.941221 0.4630605,-7.553441 -2.295496 0.6449951,-8.161702 -4.889347 0.2552343,-8.062975 -3.82611 0.35287,-7.98537 -3.163433 0.4890232,-7.915224 -2.588667 0.6100179,-8.503002 -5.151388 0.3700658,-8.535087 -4.357469 0.4875058,-8.52664 -3.86041 0.5963318,-8.499076 -3.366233 0.6864334,0.88333,1 0 0 0 0 False
-2.64135 -7.543563 0.03078122,-3.199805 -7.389463 0.3048876,-3.744467 -6.803839 0.4403002,-4.150986 -6.272486 0.5609921,-4.464166 -5.99917 0.6993159,-3.406035 -5.259072 0.226923,-3.640589 -4.322212 0.39248,-3.75934 -3.724464 0.5265545,-3.849684 -3.15991 0.6530932,-3.081202 -4.992051 0.2573652,-3.232176 -3.881614 0.4295615,-3.324228 -3.147795 0.6336767,-3.396105 -2.520582 0.8091179,-2.750702 -4.964088 0.3382264,-2.834323 -3.907535 0.5233274,-2.918152 -3.229044 0.6959521,-2.996612 -2.655481 0.8434185,-2.395726 -5.152502 0.4399263,-2.285947 -4.314573 0.6195095,-2.221303 -3.769157 0.7720582,-2.177618 -3.246757 0.9196757,-8.228572 -7.486778 0.009204196,-7.670537 -7.209651 0.202937,-7.15404 -6.567526 0.3457724,-6.775227 -5.994148 0.5367072,-6.434461 -5.726287 0.7463313,-7.508969 -4.994682 0.1116613,-7.352597 -3.980151 0.2384264,-7.288224 -3.334866 0.390581,-7.235173 -2.77366 0.5241064,-7.834197 -4.820766 0.1720292,-7.692389 -3.685253 0.2715214,-7.611996 -2.941221 0.4630605,-7.553441 -2.295496 0.6449951,-8.161702 -4.889347 0.2552343,-8.062975 -3.82611 0.35287,-7.98537 -3.163433 0.4890232,-7.915224 -2.588667 0.6100179,-8.503002 -5.151388 0.3700658,-8.535087 -4.357469 0.4875058,-8.52664 -3.86041 0.5963318,-8.499076 -3.366233 0.6864334,0.91667,1 0 0 0 0 False
-2.629483 -7.548898 0.02376746,-3.187477 -7.396474 0.3045598,-3.730886 -6.817447 0.4509186,-4.139036 -6.280099 0.5819148,-4.457875 -6.006571 0.7332276,-3.391294 -5.259896 0.2200526,-3.62623 -4.316625 0.3822903,-3.743797 -3.717047 0.5203751,-3.83123 -3.151147 0.6501399,-3.065159 -4.998496 0.2476978,-3.220572 -3.884401 0.4147749,-3.312258 -3.152702 0.615563,-3.381435 -2.526632 0.7942941,-2.734706 -4.972869 0.3250087,-2.820841 -3.914087 0.5036894,-2.907419 -3.234108 0.676707,-2.986054 -2.653659 0.8277679,-2.380355 -5.162382 0.4258907,-2.275445 -4.325991 0.6001638,-2.216424 -3.78375 0.750904,-2.175869 -3.259653 0.902316,-8.231109 -7.492717 0.04959878,-7.667543 -7.213485 0.2396076,-7.151045 -6.570858 0.3786179,-6.772392 -5.996672 0.5678493,-6.429946 -5.717096 0.7719184,-7.513626 -4.988967 0.1293396,-7.358096 -3.987108 0.2524741,-7.288527 -3.343098 0.4002194,-7.228137 -2.779151 0.5342639,-7.838656 -4.813423 0.1892059,-7.695427 -3.688068 0.2798851,-7.609529 -2.946102 0.4720345,-7.546499 -2.300086 0.6582381,-8.163816 -4.881546 0.2739576,-8.065637 -3.823707 0.3605128,-7.984567 -3.164912 0.4947007,-7.910182 -2.59173 0.6179078,-8.504135 -5.14517 0.3896219,-8.533363 -4.352788 0.502133,-8.521498 -3.856693 0.6132166,-8.48882 -3.365125 0.7122876,0.95000,1 0 0 0 0 False
-2.629483 -7.548898 0.02376746,-3.187477 -7.396474 0.3045598,-3.730886 -6.817447 0.4509186,-4.139036 -6.280099 0.5819148,-4.457875 -6.006571 0.7332276,-3.391294 -5.259896 0.2200526,-3.62623 -4.316625 0.3822903,-3.743797 -3.717047 0.5203751,-3.83123 -3.151147 0.6501399,-3.065159 -4.998496 0.2476978,-3.220572 -3.884401 0.4147749,-3.312258 -3.152702 0.615563,-3.381435 -2.526632 0.7942941,-2.734706 -4.972869 0.3250087,-2.820841 -3.914087 0.5036894,-2.907419 -3.234108 0.676707,-2.986054 -2.653659 0.8277679,-2.380355 -5.162382 0.4258907,-2.275445 -4.325991 0.6001638,-2.216424 -3.78375 0.750904,-2.175869 -3.259653 0.902316,-8.231109 -7.492717 0.04959878,-7.667543 -7.213485 0.2396076,-7.151045 -6.570858 0.3786179,-6.772392 -5.996672 0.5678493,-6.429946 -5.717096 0.7719184,-7.513626 -4.988967 0.1293396,-7.358096 -3.987108 0.2524741,-7.288527 -3.343098 0.4002194,-7.228137 -2.779151 0.5342639,-7.838656 -4.813423 0.1892059,-7.695427 -3.688068 0.2798851,-7.609529 -2.946102 0.4720345,-7.546499 -2.300086 0.6582381,-8.163816 -4.881546 0.2739576,-8.065637 -3.823707 0.3605128,-7.984567 -3.164912 0.4947007,-7.910182 -2.59173 0.6179078,-8.504135 -5.14517 0.3896219,-8.533363 -4.352788 0.502133,-8.521498 -3.856693 0.6132166,-8.48882 -3.365125 0.7122876,0.98333,1 0 0 0 0 False
-2.619821 -7.55302 0.07455578,-3.170229 -7.41319 0.3749565,-3.713026 -6.824395 0.533253,-4.118599 -6.278036 0.6744808,-4.443098 -6.004449 0.8390272,-3.383581 -5.259687 0.3038812,-3.616548 -4.321687 0.4726766,-3.731076 -3.727967 0.6114275,-3.816767 -3.161747 0.743835,-3.057343 -4.990642 0.325308,-3.212834 -3.879292 0.5002538,-3.301754 -3.149244 0.7060668,-3.370016 -2.516475 0.8875011,-2.726239 -4.965137 0.3971835,-2.814809 -3.909424 0.5837981,-2.901208 -3.232572 0.762381,-2.980643 -2.647317 0.9175065,-2.369907 -5.160902 0.4939782,-2.266969 -4.329157 0.6739936,-2.203962 -3.789401 0.8293025,-2.15911 -3.264607 0.9842884,-8.231352 -7.500419 0.03353169,-7.671551 -7.223623 0.2314147,-7.157317 -6.572357 0.3720333,-6.776747 -5.996696 0.5610369,-6.433059 -5.720377 0.765647,-7.514594 -5.000049 0.1324917,-7.358478 -3.991646 0.259579,-7.289347 -3.344102 0.4125594,-7.229483 -2.779834 0.5486338,-7.839231 -4.826864 0.1934112,-7.698402 -3.691142 0.2932717,-7.612853 -2.940205 0.4904763,-7.548158 -2.287263 0.6771168,-8.163395 -4.898005 0.2769872,-8.069533 -3.829041 0.3751218,-7.989828 -3.158079 0.5158024,-7.914484 -2.571023 0.6389825,-8.501288 -5.165012 0.3907141,-8.535956 -4.367903 0.5180326,-8.527061 -3.8654 0.6330117,-8.496887 -3.364861 0.7287396,1.01667,1 0 0 0 0 False
-2.611215 -7.542783 0.05039856,-3.163419 -7.394302 0.3530228,-3.708944 -6.813221 0.5155323,-4.116228 -6.278278 0.657352,-4.442345 -6.006994 0.825371,-3.385355 -5.258697 0.2913415,-3.622752 -4.31764 0.4700535,-3.74033 -3.723895 0.6152533,-3.829773 -3.155935 0.7501234,-3.056463 -4.990165 0.3146895,-3.211966 -3.874279 0.4988307,-3.298996 -3.144283 0.7108372,-3.366859 -2.509108 0.8951629,-2.723363 -4.962612 0.3878791,-2.809698 -3.907075 0.5815271,-2.8921 -3.230337 0.766476,-2.968857 -2.64387 0.9251696,-2.364844 -5.154832 0.484842,-2.262352 -4.324728 0.668201,-2.197422 -3.784928 0.825291,-2.15233 -3.255998 0.9796258,-8.228938 -7.513521 0.03353137,-7.671551 -7.223623 0.2314147,-7.157317 -6.572357 0.3720333,-6.776747 -5.996696 0.5610369,-6.433059 -5.720377 0.765647,-7.514594 -5.000049 0.1324917,-7.358478 -3.991646 0.259579,-7.289347 -3.344102 0.4125594,-7.229483 -2.779834 0.5486338,-7.839231 -4.826864 0.1934112,-7.698402 -3.691142 0.2932717,-7.612853 -2.940205 0.4904763,-7.548158 -2.287263 0.6771168,-8.163395 -4.898005 0.2769872,-8.069533 -3.829041 0.3751218,-7.989828 -3.158079 0.5158024,-7.914484 -2.571023 0.6389825,-8.501288 -5.165012 0.3907141,-8.535956 -4.367903 0.5180326,-8.527061 -3.8654 0.6330117,-8.496887 -3.364861 0.7287396,1.05000,1 0 0 0 0 False
-2.611215 -7.542783 0.05039856,-3.163419 -7.394302 0.3530228,-3.708944 -6.813221 0.5155323,-4.116228 -6.278278 0.657352,-4.442345 -6.006994 0.825371,-3.385355 -5.258697 0.2913415,-3.622752 -4.31764 0.4700535,-3.74033 -3.723895 0.6152533,-3.829773 -3.155935 0.7501234,-3.056463 -4.990165 0.3146895,-3.211966 -3.874279 0.4988307,-3.298996 -3.144283 0.7108372,-3.366859 -2.509108 0.8951629,-2.723363 -4.962612 0.3878791,-2.809698 -3.907075 0.5815271,-2.8921 -3.230337 0.766476,-2.968857 -2.64387 0.9251696,-2.364844 -5.154832 0.484842,-2.262352 -4.324728 0.668201,-2.197422 -3.784928 0.825291,-2.15233 -3.255998 0.9796258,-8.228938 -7.513521 0.07594723,-7.671144 -7.225941 0.2625166,-7.157123 -6.57324 0.4039536,-6.779816 -5.99962 0.5971458,-6.437301 -5.729103 0.8061969,-7.518525 -4.997999 0.163141,-7.363593 -3.98441 0.2903254,-7.293292 -3.339925 0.4402409,-7.231771 -2.776878 0.5751335,-7.845103 -4.826404 0.2341905,-7.703867 -3.690985 0.3320376,-7.616428 -2.939633 0.5283547,-7.550436 -2.284457 0.7174441,-8.171771 -4.900928 0.3284424,-8.072616 -3.832731 0.4250141,-7.988774 -3.163151 0.5635821,-7.91046 -2.577354 0.6886066,-8.513267 -5.171798 0.45324,-8.542446 -4.366254 0.5769451,-8.529955 -3.86111 0.690825,-8.496865 -3.359131 0.7897146,1.08333,1 0 0 0 0 False
-2.622255 -7.539189 0.01379835,-3.170101 -7.382505 0.3111844,-3.70698 -6.805389 0.4758877,-4.112986 -6.278749 0.6204954,-4.434841 -6.01501 0.7916737,-3.380096 -5.25982 0.2599237,-3.620995 -4.317526 0.4372169,-3.738134 -3.724025 0.5826167,-3.825962 -3.157346 0.7176041,-3.054062 -4.995672 0.2853046,-3.213713 -3.871831 0.4704712,-3.299834 -3.13983 0.6816827,-3.364508 -2.50757 0.8628798,-2.723443 -4.969071 0.359243,-2.814749 -3.898676 0.5541077,-2.898947 -3.216858 0.7371691,-2.975381 -2.630888 0.8924357,-2.367512 -5.161121 0.4557876,-2.265171 -4.321435 0.6374658,-2.200658 -3.775779 0.7920854,-2.154907 -3.24504 0.9439125,-8.232919 -7.508455 0.08353857,-7.674379 -7.227275 0.2720469,-7.16117 -6.573557 0.4182323,-6.78682 -5.988436 0.6152499,-6.441967 -5.71062 0.8294936,-7.514761 -4.992527 0.1757084,-7.360754 -3.977519 0.2982413,-7.296336 -3.330669 0.4485083,-7.243565 -2.763152 0.5825515,-7.844208 -4.81991 0.2426502,-7.703018 -3.680143 0.3364615,-7.6218 -2.930559 0.5255015,-7.562861 -2.28239 0.7024723,-8.175336 -4.891029 0.3323683,-8.075777 -3.816061 0.4207397,-7.997387 -3.155596 0.5450172,-7.926351 -2.582241 0.6546255,-8.521596 -5.156307 0.4540536,-8.542159 -4.340374 0.569952,-8.524048 -3.831872 0.6717843,-8.489229 -3.329041 0.7523451,1.11667,1 0 0 0 0 False
-2.622255 -7.539189 0.01379835,-3.170101 -7.382505 0.3111844,-3.70698 -6.805389 0.4758877,-4.112986 -6.278749 0.6204954,-4.434841 -6.01501 0.7916737,-3.380096 -5.25982 0.2599237,-3.620995 -4.317526 0.4372169,-3.738134 -3.724025 0.5826167,-3.825962 -3.157346 0.7176041,-3.054062 -4.995672 0.2853046,-3.213713 -3.871831 0.4704712,-3.299834 -3.13983 0.6816827,-3.364508 -2.50757 0.8628798,-2.723443 -4.969071 0.359243,-2.814749 -3.898676 0.5541077,-2.898947 -3.216858 0.7371691,-2.975381 -2.630888 0.8924357,-2.367512 -5.161121 0.4557876,-2.265171 -4.321435 0.6374658,-2.200658 -3.775779 0.7920854,-2.154907 -3.24504 0.9439125,-8.232919 -7.508455 0.08353857,-7.674379 -7.227275 0.2720469,-7.16117 -6.573557 0.4182323,-6.78682 -5.988436 0.6152499,-6.441967 -5.71062 0.8294936,-7.514761 -4.992527 0.1757084,-7.360754 -3.977519 0.2982413,-7.296336 -3.330669 0.4485083,-7.243565 -2.763152 0.5825515,-7.844208 -4.81991 0.2426502,-7.703018 -3.680143 0.3364615,-7.6218 -2.930559 0.5255015,-7.562861 -2.28239 0.7024723,-8.175336 -4.891029 0.3323683,-8.075777 -3.816061 0.4207397,-7.997387 -3.155596 0.5450172,-7.926351 -2.582241 0.6546255,-8.521596 -5.156307 0.4540536,-8.542159 -4.340374 0.569952,-8.524048 -3.831872 0.6717843,-8.489229 -3.329041 0.7523451,1.15000,1 0 0 0 0 False
-2.623318 -7.538789 0.07200147,-3.16389 -7.396913 0.3796765,-3.704409 -6.804921 0.5494956,-4.112888 -6.267266 0.7028486,-4.433183 -5.984103 0.8831598,-3.383417 -5.249229 0.3232109,-3.627971 -4.308321 0.5055904,-3.751362 -3.719655 0.647015,-3.847513 -3.160859 0.778183,-3.059443 -4.979349 0.3461908,-3.217855 -3.860784 0.535814,-3.309841 -3.1319 0.7414896,-3.380681 -2.501802 0.9144198,-2.731231 -4.956295 0.4215757,-2.818163 -3.89074 0.6242086,-2.902321 -3.204978 0.8128929,-2.980092 -2.613375 0.967305,-2.377323 -5.15744 0.5194566,-2.272538 -4.321733 0.7068907,-2.205705 -3.776912 0.8654828,-2.158146 -3.247607 1.015202,-8.235179 -7.496809 0.07042982,-7.67445 -7.217174 0.2617295,-7.161215 -6.575766 0.4080271,-6.787611 -5.996476 0.6047004,-6.446854 -5.713012 0.8178173,-7.517225 -4.98414 0.1597309,-7.361191 -3.969136 0.2853732,-7.29701 -3.324953 0.4368221,-7.243726 -2.757757 0.5718629,-7.844857 -4.812044 0.2256348,-7.706538 -3.670193 0.3222439,-7.626018 -2.927485 0.5120363,-7.568073 -2.28215 0.6906571,-8.172222 -4.885931 0.3161376,-8.077025 -3.811096 0.4069034,-7.995585 -3.157201 0.538305,-7.923424 -2.58813 0.6561913,-8.513898 -5.155858 0.4385107,-8.542713 -4.349163 0.5589976,-8.529406 -3.847175 0.6690395,-8.498281 -3.348014 0.7589045,1.18333,1 0 0 0 0 False
-2.623318 -7.538789 0.07200147,-3.16389 -7.396913 0.3796765,-3.704409 -6.804921 0.5494956,-4.112888 -6.267266 0.7028486,-4.433183 -5.984103 0.8831598,-3.383417 -5.249229 0.3232109,-3.627971 -4.308321 0.5055904,-3.751362 -3.719655 0.647015,-3.847513 -3.160859 0.778183,-3.059443 -4.979349 0.3461908,-3.217855 -3.860784 0.535814,-3.309841 -3.1319 0.7414896,-3.380681 -2.501802 0.9144198,-2.731231 -4.956295 0.4215757,-2.818163 -3.89074 0.6242086,-2.902321 -3.204978 0.8128929,-2.980092 -2.613375 0.967305,-2.377323 -5.15744 0.5194566,-2.272538 -4.321733 0.7068907,-2.205705 -3.776912 0.8654828,-2.158146 -3.247607 1.015202,-8.235179 -7.496809 0.07042982,-7.67445 -7.217174 0.2617295,-7.161215 -6.575766 0.4080271,-6.787611 -5.996476 0.6047004,-6.446854 -5.713012 0.8178173,-7.517225 -4.98414 0.1597309,-7.361191 -3.969136 0.2853732,-7.29701 -3.324953 0.4368221,-7.243726 -2.757757 0.5718629,-7.844857 -4.812044 0.2256348,-7.706538 -3.670193 0.3222439,-7.626018 -2.927485 0.5120363,-7.568073 -2.28215 0.6906571,-8.172222 -4.885931 0.3161376,-8.077025 -3.811096 0.4069034,-7.995585 -3.157201 0.538305,-7.923424 -2.58813 0.6561913,-8.513898 -5.155858 0.4385107,-8.542713 -4.349163 0.5589976,-8.529406 -3.847175 0.6690395,-8.498281 -3.348014 0.7589045,1.21667,1 0 0 0 0 False
-2.624133 -7.533221 0.08450904,-3.169739 -7.386039 0.3939448,-3.713936 -6.794321 0.5606946,-4.122786 -6.250151 0.7084824,-4.44287 -5.968442 0.8779048,-3.388695 -5.2357 0.3278283,-3.635035 -4.297681 0.5021749,-3.756295 -3.707195 0.6403111,-3.849466 -3.143625 0.7703867,-3.062737 -4.969415 0.3477158,-3.224029 -3.853778 0.5326671,-3.314301 -3.12837 0.7382336,-3.381242 -2.501616 0.9159282,-2.732505 -4.949481 0.4208594,-2.824271 -3.886866 0.6199613,-2.908177 -3.205904 0.8113452,-2.985051 -2.615848 0.9708768,-2.375379 -5.150182 0.5172164,-2.27564 -4.318798 0.7005902,-2.210649 -3.780529 0.8611276,-2.163167 -3.253419 1.015902,-8.227859 -7.51068 0.07554472,-7.671477 -7.230543 0.2697615,-7.160269 -6.576631 0.4173085,-6.783537 -5.992113 0.6123728,-6.437325 -5.70775 0.8263273,-7.515329 -4.995326 0.1908293,-7.35859 -3.976616 0.323544,-7.292095 -3.328716 0.4752588,-7.236291 -2.758422 0.6099094,-7.844389 -4.825109 0.257147,-7.706104 -3.674795 0.3618796,-7.623721 -2.924522 0.5534601,-7.565333 -2.273969 0.7332666,-8.174182 -4.904691 0.3457412,-8.077419 -3.818719 0.4469462,-7.992343 -3.148103 0.5828562,-7.91803 -2.566415 0.7038001,-8.517887 -5.183899 0.4646141,-8.54888 -4.366982 0.5961759,-8.535561 -3.855051 0.7142764,-8.504849 -3.348994 0.8111385,1.25000,1 0 0 0 0 False
-2.624133 -7.533221 0.08450904,-3.169739 -7.386039 0.3939448,-3.713936 -6.794321 0.5606946,-4.122786 -6.250151 0.7084824,-4.44287 -5.968442 0.8779048,-3.388695 -5.2357 0.3278283,-3.635035 -4.297681 0.5021749,-3.756295 -3.707195 0.6403111,-3.849466 -3.143625 0.7703867,-3.062737 -4.969415 0.3477158,-3.224029 -3.853778 0.5326671,-3.314301 -3.12837 0.7382336,-3.381242 -2.501616 0.9159282,-2.732505 -4.949481 0.4208594,-2.824271 -3.886866 0.6199613,-2.908177 -3.205904 0.8113452,-2.985051 -2.615848 0.9708768,-2.375379 -5.150182 0.5172164,-2.27564 -4.318798 0.7005902,-2.210649 -3.780529 0.8611276,-2.163167 -3.253419 1.015902,-8.227859 -7.51068 0.07554472,-7.671477 -7.230543 0.2697615,-7.160269 -6.576631 0.4173085,-6.783537 -5.992113 0.6123728,-6.437325 -5.70775 0.8263273,-7.515329 -4.995326 0.1908293,-7.35859 -3.976616 0.323544,-7.292095 -3.328716 0.4752588,-7.236291 -2.758422 0.6099094,-7.844389 -4.825109 0.257147,-7.706104 -3.674795 0.3618796,-7.623721 -2.924522 0.5534601,-7.565333 -2.273969 0.7332666,-8.174182 -4.904691 0.3457412,-8.077419 -3.818719 0.4469462,-7.992343 -3.148103 0.5828562,-7.91803 -2.566415 0.7038001,-8.517887 -5.183899 0.4646141,-8.54888 -4.366982 0.5961759,-8.535561 -3.855051 0.7142764,-8.504849 -3.348994 0.8111385,1.28333,1 0 0 0 0 False
-2.615993 -7.550626 0.06424304,-3.167149 -7.395916 0.3496293,-3.706271 -6.801466 0.499793,-4.107197 -6.254167 0.6352596,-4.427613 -5.975452 0.7966992,-3.383368 -5.255416 0.2738383,-3.625096 -4.310522 0.4426091,-3.744843 -3.71033 0.5806584,-3.834765 -3.140392 0.7087035,-3.055441 -4.990371 0.3021828,-3.213299 -3.867705 0.4762541,-3.303161 -3.135345 0.6776857,-3.372057 -2.504868 0.8542058,-2.724998 -4.962758 0.3820391,-2.812365 -3.892049 0.5674261,-2.896566 -3.210066 0.7489927,-2.973511 -2.623918 0.9027658,-2.370077 -5.151548 0.4847213,-2.268953 -4.310819 0.662298,-2.206386 -3.768548 0.816685,-2.162711 -3.241951 0.9686223,-8.23138 -7.517271 0.1072325,-7.673733 -7.235247 0.2978691,-7.164435 -6.578994 0.4446289,-6.793567 -5.992052 0.641473,-6.447841 -5.718114 0.8590849,-7.518545 -4.99674 0.2169029,-7.35914 -3.982286 0.3467575,-7.292418 -3.337337 0.4965467,-7.236674 -2.765134 0.6294802,-7.847846 -4.822511 0.2881892,-7.708727 -3.67575 0.3908995,-7.627605 -2.924137 0.5825644,-7.568734 -2.269903 0.7625551,-8.176467 -4.898763 0.3812778,-8.08045 -3.817202 0.4822761,-7.998596 -3.146904 0.6210827,-7.925467 -2.561054 0.7435402,-8.519692 -5.173814 0.5049471,-8.549313 -4.358602 0.6388681,-8.536257 -3.846182 0.7581324,-8.504422 -3.334497 0.8550995,1.31667,1 0 0 0 0 False
-2.615993 -7.550626 0.06424304,-3.167149 -7.395916 0.3496293,-3.706271 -6.801466 0.499793,-4.107197 -6.254167 0.6352596,-4.427613 -5.975452 0.7966992,-3.383368 -5.255416 0.2738383,-3.625096 -4.310522 0.4426091,-3.744843 -3.71033 0.5806584,-3.834765 -3.140392 0.7087035,-3.055441 -4.990371 0.3021828,-3.213299 -3.867705 0.4762541,-3.303161 -3.135345 0.6776857,-3.372057 -2.504868 0.8542058,-2.724998 -4.962758 0.3820391,-2.812365 -3.892049 0.5674261,-2.896566 -3.210066 0.7489927,-2.973511 -2.623918 0.9027658,-2.370077 -5.151548 0.4847213,-2.268953 -4.310819 0.662298,-2.206386 -3.768548 0.816685,-2.162711 -3.241951 0.9686223,-8.23138 -7.517271 0.1072325,-7.673733 -7.235247 0.2978691,-7.164435 -6.578994 0.4446289,-6.793567 -5.992052 0.641473,-6.447841 -5.718114 0.8590849,-7.518545 -4.99674 0.2169029,-7.35914 -3.982286 0.3467575,-7.292418 -3.337337 0.4965467,-7.236674 -2.765134 0.6294802,-7.847846 -4.822511 0.2881892,-7.708727 -3.67575 0.3908995,-7.627605 -2.924137 0.5825644,-7.568734 -2.269903 0.7625551,-8.176467 -4.898763 0.3812778,-8.08045 -3.817202 0.4822761,-7.998596 -3.146904 0.6210827,-7.925467 -2.561054 0.7435402,-8.519692 -5.173814 0.5049471,-8.549313 -4.358602 0.6388681,-8.536257 -3.846182 0.7581324,-8.504422 -3.334497 0.8550995,1.35000,1 0 0 0 0 False
-2.612515 -7.546291 0.07134221,-3.163488 -7.386009 0.3722544,-3.704061 -6.79881 0.5401888,-4.110959 -6.259726 0.6873665,-4.436361 -5.985053 0.8621334,-3.378382 -5.250915 0.3214795,-3.615681 -4.306545 0.4962095,-3.732227 -3.712521 0.6408179,-3.819921 -3.144348 0.7764354,-3.051737 -4.987489 0.3448354,-3.205592 -3.867525 0.5312209,-3.291172 -3.137226 0.7412956,-3.356403 -2.503184 0.9248945,-2.721585 -4.963269 0.4168969,-2.808808 -3.899371 0.6073191,-2.891571 -3.219965 0.7936296,-2.967007 -2.63227 0.9531951,-2.365911 -5.156063 0.5117787,-2.262786 -4.32047 0.6913148,-2.197375 -3.776731 0.8474623,-2.150867 -3.245438 1.003154,-8.239569 -7.510324 0.1282857,-7.680798 -7.226307 0.3259974,-7.166907 -6.57357 0.4770092,-6.794746 -5.989358 0.6784575,-6.453802 -5.71215 0.8967589,-7.523306 -4.988061 0.2326805,-7.364162 -3.976213 0.3620152,-7.295725 -3.336255 0.5120138,-7.236526 -2.76988 0.6487076,-7.85284 -4.809318 0.3000311,-7.711817 -3.662143 0.3987981,-7.630162 -2.912544 0.5860142,-7.570881 -2.261598 0.7634059,-8.182711 -4.881122 0.3916166,-8.080277 -3.795732 0.4868485,-7.997997 -3.122202 0.6199954,-7.925099 -2.534559 0.7413248,-8.528027 -5.153283 0.5155144,-8.552762 -4.340053 0.6392673,-8.539129 -3.831415 0.7524869,-8.508125 -3.327423 0.8472204,1.38333,1 0 0 0 0 False
-2.613121 -7.54222 0.07601299,-3.161234 -7.3901 0.3683509,-3.702471 -6.799482 0.5249233,-4.107097 -6.258163 0.6630685,-4.43423 -5.991249 0.8271257,-3.380356 -5.244586 0.2976761,-3.615421 -4.305471 0.4662434,-3.731153 -3.715131 0.6023482,-3.818652 -3.154592 0.7297502,-3.052458 -4.979448 0.3235244,-3.204463 -3.864063 0.5025077,-3.289717 -3.139442 0.705351,-3.355747 -2.511793 0.8835497,-2.720712 -4.955276 0.3990795,-2.806364 -3.896402 0.5888794,-2.888691 -3.223212 0.7682536,-2.964452 -2.640001 0.9216328,-2.364029 -5.15092 0.4996064,-2.261796 -4.324979 0.6791341,-2.196332 -3.785715 0.8327794,-2.149792 -3.25552 0.985198,-8.245641 -7.521944 0.1632219,-7.688063 -7.238121 0.3599591,-7.176365 -6.57752 0.502169,-6.802895 -5.987129 0.6950199,-6.458571 -5.710159 0.9074692,-7.523 -4.989285 0.2456363,-7.365376 -3.977947 0.3654829,-7.299461 -3.332675 0.5137841,-7.244274 -2.760112 0.6467535,-7.851318 -4.810533 0.3111899,-7.716286 -3.665691 0.398286,-7.636838 -2.913117 0.5873281,-7.580814 -2.257417 0.7666048,-8.180211 -4.884477 0.4035386,-8.087682 -3.80599 0.4916073,-8.007385 -3.135247 0.6308162,-7.936347 -2.548877 0.7574666,-8.524475 -5.158382 0.5294845,-8.558642 -4.350126 0.6523298,-8.548314 -3.841521 0.7737054,-8.520325 -3.332482 0.8746458,1.41667,1 0 0 0 0 False
-2.613121 -7.54222 0.07601299,-3.161234 -7.3901 0.3683509,-3.702471 -6.799482 0.5249233,-4.107097 -6.258163 0.6630685,-4.43423 -5.991249 0.8271257,-3.380356 -5.244586 0.2976761,-3.615421 -4.305471 0.4662434,-3.731153 -3.715131 0.6023482,-3.818652 -3.154592 0.7297502,-3.052458 -4.979448 0.3235244,-3.204463 -3.864063 0.5025077,-3.289717 -3.139442 0.705351,-3.355747 -2.511793 0.8835497,-2.720712 -4.955276 0.3990795,-2.806364 -3.896402 0.5888794,-2.888691 -3.223212 0.7682536,-2.964452 -2.640001 0.9216328,-2.364029 -5.15092 0.4996064,-2.261796 -4.324979 0.6791341,-2.196332 -3.785715 0.8327794,-2.149792 -3.25552 0.985198,-8.245641 -7.521944 0.1632219,-7.688063 -7.238121 0.3599591,-7.176365 -6.57752 0.502169,-6.802895 -5.987129 0.6950199,-6.458571 -5.710159 0.9074692,-7.523 -4.989285 0.2456363,-7.365376 -3.977947 0.3654829,-7.299461 -3.332675 0.5137841,-7.244274 -2.760112 0.6467535,-7.851318 -4.810533 0.3111899,-7.716286 -3.665691 0.398286,-7.636838 -2.913117 0.5873281,-7.580814 -2.257417 0.7666048,-8.180211 -4.884477 0.4035386,-8.087682 -3.80599 0.4916073,-8.007385 -3.135247 0.6308162,-7.936347 -2.548877 0.7574666,-8.524475 -5.158382 0.5294845,-8.558642 -4.350126 0.6523298,-8.548314 -3.841521 0.7737054,-8.520325 -3.332482 0.8746458,1.45000,1 0 0 0 0 False
-2.605266 -7.542135 0.05801214,-3.156034 -7.384376 0.3400833,-3.697895 -6.787263 0.4884592,-4.103748 -6.243498 0.6227859,-4.433394 -5.975891 0.7835195,-3.378662 -5.247821 0.2593404,-3.616819 -4.302946 0.4282711,-3.735493 -3.710145 0.5642893,-3.824403 -3.145613 0.6900275,-3.050693 -4.984297 0.2911186,-3.20322 -3.863699 0.466929,-3.289494 -3.136073 0.671048,-3.355593 -2.502945 0.8488767,-2.719118 -4.957481 0.3731732,-2.805882 -3.895771 0.5613475,-2.889209 -3.21813 0.7405071,-2.965086 -2.63211 0.892316,-2.362363 -5.148765 0.4790805,-2.259639 -4.31765 0.6569173,-2.197052 -3.780589 0.8101213,-2.153027 -3.253778 0.9590533,-8.257628 -7.523225 0.1795273,-7.692418 -7.238966 0.3615256,-7.174724 -6.580125 0.5002129,-6.802205 -5.997497 0.6922839,-6.459635 -5.720906 0.9043972,-7.529327 -4.988384 0.2401665,-7.366619 -3.984797 0.3534253,-7.299307 -3.34121 0.4985175,-7.243917 -2.774686 0.629203,-7.858171 -4.806859 0.307852,-7.716388 -3.667449 0.381033,-7.636301 -2.918067 0.5619705,-7.579707 -2.266738 0.7345559,-8.18736 -4.875655 0.4008238,-8.088777 -3.79756 0.4731364,-8.009975 -3.126408 0.5984201,-7.941669 -2.543014 0.7165644,-8.531494 -5.143118 0.5270168,-8.559598 -4.330099 0.6321272,-8.546936 -3.824323 0.7396284,-8.517805 -3.327503 0.8311369,1.48333,1 0 0 0 0 False
-2.605266 -7.542135 0.05801214,-3.156034 -7.384376 0.3400833,-3.697895 -6.787263 0.4884592,-4.103748 -6.243498 0.6227859,-4.433394 -5.975891 0.7835195,-3.378662 -5.247821 0.2593404,-3.616819 -4.302946 0.4282711,-3.735493 -3.710145 0.5642893,-3.824403 -3.145613 0.6900275,-3.050693 -4.984297 0.2911186,-3.20322 -3.863699 0.466929,-3.289494 -3.136073 0.671048,-3.355593 -2.502945 0.8488767,-2.719118 -4.957481 0.3731732,-2.805882 -3.895771 0.5613475,-2.889209 -3.21813 0.7405071,-2.965086 -2.63211 0.892316,-2.362363 -5.148765 0.4790805,-2.259639 -4.31765 0.6569173,-2.197052 -3.780589 0.8101213,-2.153027 -3.253778 0.9590533,-8.257628 -7.523225 0.1795273,-7.692418 -7.238966 0.3615256,-7.174724 -6.580125 0.5002129,-6.802205 -5.997497 0.6922839,-6.459635 -5.720906 0.9043972,-7.529327 -4.988384 0.2401665,-7.366619 -3.984797 0.3534253,-7.299307 -3.34121 0.4985175,-7.243917 -2.774686 0.629203,-7.858171 -4.806859 0.307852,-7.716388 -3.667449 0.381033,-7.636301 -2.918067 0.5619705,-7.579707 -2.266738 0.7345559,-8.18736 -4.875655 0.4008238,-8.088777 -3.79756 0.4731364,-8.009975 -3.126408 0.5984201,-7.941669 -2.543014 0.7165644,-8.531494 -5.143118 0.5270168,-8.559598 -4.330099 0.6321272,-8.546936 -3.824323 0.7396284,-8.517805 -3.327503 0.8311369,1.51667,1 0 0 0 0 False
-2.609557 -7.539591 0.05960769,-3.156658 -7.385094 0.3414437,-3.693062 -6.78688 0.4870222,-4.093939 -6.248193 0.6199586,-4.419717 -5.987401 0.7733307,-3.370691 -5.240991 0.2558908,-3.60656 -4.298257 0.4254111,-3.722519 -3.706644 0.562613,-3.809108 -3.142653 0.6892951,-3.045273 -4.979392 0.2901206,-3.19779 -3.858593 0.4694219,-3.283026 -3.130314 0.6760409,-3.348219 -2.494951 0.8570441,-2.715755 -4.952493 0.375402,-2.803682 -3.886659 0.5656799,-2.885892 -3.209473 0.7418199,-2.960683 -2.621323 0.8928016,-2.3621 -5.143726 0.485183,-2.257799 -4.312685 0.6637574,-2.19312 -3.774939 0.8144352,-2.146851 -3.243182 0.9642399,-8.255777 -7.537472 0.1977236,-7.696359 -7.251056 0.3971457,-7.177699 -6.586813 0.5455197,-6.803192 -5.993898 0.7466047,-6.461193 -5.711263 0.9682733,-7.527961 -4.997407 0.2826194,-7.371202 -3.984018 0.4013169,-7.306843 -3.337492 0.5491865,-7.252211 -2.768425 0.6812884,-7.857581 -4.816681 0.3463294,-7.7183 -3.671085 0.4293681,-7.63655 -2.914197 0.6152586,-7.577339 -2.257458 0.7910307,-8.187936 -4.885224 0.4381657,-8.089354 -3.807155 0.5226879,-8.008122 -3.129091 0.6581541,-7.93676 -2.541009 0.7828262,-8.532817 -5.152206 0.5635115,-8.561342 -4.333606 0.6795093,-8.551015 -3.822456 0.7926718,-8.524357 -3.319452 0.8887116,1.55000,1 0 0 0 0 False
-2.609557 -7.539591 0.05960769,-3.156658 -7.385094 0.3414437,-3.693062 -6.78688 0.4870222,-4.093939 -6.248193 0.6199586,-4.419717 -5.987401 0.7733307,-3.370691 -5.240991 0.2558908,-3.60656 -4.298257 0.4254111,-3.722519 -3.706644 0.562613,-3.809108 -3.142653 0.6892951,-3.045273 -4.979392 0.2901206,-3.19779 -3.858593 0.4694219,-3.283026 -3.130314 0.6760409,-3.348219 -2.494951 0.8570441,-2.715755 -4.952493 0.375402,-2.803682 -3.886659 0.5656799,-2.885892 -3.209473 0.7418199,-2.960683 -2.621323 0.8928016,-2.3621 -5.143726 0.485183,-2.257799 -4.312685 0.6637574,-2.19312 -3.774939 0.8144352,-2.146851 -3.243182 0.9642399,-8.255777 -7.537472 0.1977236,-7.696359 -7.251056 0.3971457,-7.177699 -6.586813 0.5455197,-6.803192 -5.993898 0.7466047,-6.461193 -5.711263 0.9682733,-7.527961 -4.997407 0.2826194,-7.371202 -3.984018 0.4013169,-7.306843 -3.337492 0.5491865,-7.252211 -2.768425 0.6812884,-7.857581 -4.816681 0.3463294,-7.7183 -3.671085 0.4293681,-7.63655 -2.914197 0.6152586,-7.577339 -2.257458 0.7910307,-8.187936 -4.885224 0.4381657,-8.089354 -3.807155 0.5226879,-8.008122 -3.129091 0.6581541,-7.93676 -2.541009 0.7828262,-8.532817 -5.152206 0.5635115,-8.561342 -4.333606 0.6795093,-8.551015 -3.822456 0.7926718,-8.524357 -3.319452 0.8887116,1.58333,1 0 0 0 0 False
-2.612125 -7.541621 0.06653848,-3.156046 -7.379076 0.3576224,-3.692173 -6.780468 0.516413,-4.09784 -6.237443 0.6609202,-4.418285 -5.958162 0.8289374,-3.364608 -5.240739 0.2990013,-3.605473 -4.29441 0.4733528,-3.727106 -3.702415 0.6090346,-3.818795 -3.143213 0.7342781,-3.04147 -4.981374 0.3286925,-3.199168 -3.855319 0.5165999,-3.290516 -3.124432 0.7221896,-3.359486 -2.494303 0.8948933,-2.713488 -4.960268 0.4087923,-2.801097 -3.88673 0.6090202,-2.883769 -3.20095 0.7916428,-2.959589 -2.61074 0.9434263,-2.360588 -5.159284 0.5106327,-2.254395 -4.323107 0.6947975,-2.187523 -3.778207 0.8511,-2.140151 -3.246932 0.9997108,-8.252935 -7.543102 0.2404781,-7.690412 -7.249527 0.4332631,-7.172899 -6.583713 0.5763061,-6.798827 -5.991287 0.770995,-6.453663 -5.72019 0.9838746,-7.529854 -4.987455 0.3205092,-7.371613 -3.980554 0.4367345,-7.306065 -3.33751 0.5838128,-7.250081 -2.771961 0.7163494,-7.85999 -4.808869 0.3835015,-7.719674 -3.664118 0.4658045,-7.639268 -2.909086 0.6484239,-7.580949 -2.256193 0.821627,-8.189518 -4.878492 0.4718952,-8.091462 -3.800251 0.5501388,-8.013179 -3.123106 0.6766023,-7.944115 -2.537148 0.7952411,-8.533478 -5.148057 0.5937443,-8.56054 -4.334619 0.7029293,-8.551801 -3.824124 0.812172,-8.526667 -3.326435 0.9068629,1.61667,1 0 0 0 0 False
-2.603019 -7.550935 0.08104486,-3.147399 -7.391328 0.3696522,-3.683529 -6.789415 0.52707,-4.08766 -6.242534 0.6723987,-4.408022 -5.959028 0.8468444,-3.362473 -5.249853 0.2981933,-3.604788 -4.306304 0.4715674,-3.726482 -3.711394 0.6093732,-3.820324 -3.145686 0.7395314,-3.038808 -4.986457 0.3323377,-3.197212 -3.864582 0.5152748,-3.289725 -3.133678 0.720087,-3.360426 -2.502508 0.8914544,-2.710638 -4.964635 0.419066,-2.797146 -3.893112 0.6156,-2.882486 -3.207323 0.8002179,-2.961 -2.615595 0.9527894,-2.356743 -5.1653 0.527755,-2.250525 -4.323035 0.7119359,-2.183939 -3.778251 0.8686917,-2.136392 -3.248374 1.018068,-8.249656 -7.550508 0.2498952,-7.68691 -7.256416 0.4315369,-7.171169 -6.590505 0.5667235,-6.796407 -5.998519 0.7578158,-6.454164 -5.726449 0.967909,-7.527827 -4.992154 0.3005597,-7.37229 -3.979503 0.4099554,-7.307793 -3.333375 0.5514234,-7.252701 -2.768345 0.6776442,-7.858742 -4.812047 0.3673999,-7.722347 -3.658126 0.4441987,-7.641891 -2.903475 0.6248749,-7.584867 -2.250141 0.7945749,-8.188287 -4.880746 0.4613278,-8.095088 -3.793817 0.5360229,-8.015751 -3.119844 0.6631107,-7.944684 -2.5342 0.7799513,-8.530831 -5.148547 0.5867782,-8.56054 -4.334619 0.7123512,-8.551801 -3.824124 0.8215939,-8.526667 -3.326435 0.9162848,1.65000,1 0 0 0 0 False
-2.603019 -7.550935 0.08104486,-3.147399 -7.391328 0.3696522,-3.683529 -6.789415 0.52707,-4.08766 -6.242534 0.6723987,-4.408022 -5.959028 0.8468444,-3.362473 -5.249853 0.2981933,-3.604788 -4.306304 0.4715674,-3.726482 -3.711394 0.6093732,-3.820324 -3.145686 0.7395314,-3.038808 -4.986457 0.3323377,-3.197212 -3.864582 0.5152748,-3.289725 -3.133678 0.720087,-3.360426 -2.502508 0.8914544,-2.710638 -4.964635 0.419066,-2.797146 -3.893112 0.6156,-2.882486 -3.207323 0.8002179,-2.961 -2.615595 0.9527894,-2.356743 -5.1653 0.527755,-2.250525 -4.323035 0.7119359,-2.183939 -3.778251 0.8686917,-2.136392 -3.248374 1.018068,-8.249656 -7.550508 0.2498952,-7.68691 -7.256416 0.4315369,-7.171169 -6.590505 0.5667235,-6.796407 -5.998519 0.7578158,-6.454164 -5.726449 0.967909,-7.527827 -4.992154 0.3005597,-7.37229 -3.979503 0.4099554,-7.307793 -3.333375 0.5514234,-7.252701 -2.768345 0.6776442,-7.858742 -4.812047 0.3673999,-7.722347 -3.658126 0.4441987,-7.641891 -2.903475 0.6248749,-7.584867 -2.250141 0.7945749,-8.188287 -4.880746 0.4613278,-8.095088 -3.793817 0.5360229,-8.015751 -3.119844 0.6631107,-7.944684 -2.5342 0.7799513,-8.530831 -5.148547 0.5867782,-8.561944 -4.332633 0.6947267,-8.550483 -3.823276 0.8055915,-8.522191 -3.319608 0.9010533,1.68333,1 0 0 0 0 False
-2.60529 -7.556485 0.0719341,-3.15131 -7.392496 0.3641669,-3.688521 -6.795526 0.5233911,-4.092593 -6.250448 0.6671663,-4.408486 -5.959973 0.8346231,-3.35821 -5.255635 0.3027878,-3.597192 -4.308406 0.480999,-3.717931 -3.710548 0.6231557,-3.811203 -3.138076 0.7563339,-3.034483 -4.994524 0.3329685,-3.190297 -3.867185 0.5237712,-3.280336 -3.136402 0.7347244,-3.350813 -2.504133 0.9147666,-2.706093 -4.971824 0.4149921,-2.794764 -3.897966 0.6164377,-2.878269 -3.213693 0.803538,-2.955574 -2.622507 0.9621582,-2.352564 -5.169044 0.5194001,-2.248107 -4.328454 0.7047417,-2.182675 -3.781216 0.8654462,-2.135828 -3.248318 1.019243,-8.248434 -7.552141 0.2484677,-7.685053 -7.25702 0.4272182,-7.169802 -6.585369 0.5608916,-6.796608 -5.990032 0.7497572,-6.452308 -5.718118 0.9564261,-7.525805 -4.991405 0.3125086,-7.370149 -3.978472 0.4236618,-7.301975 -3.336513 0.5656106,-7.244073 -2.771076 0.6939578,-7.857369 -4.814971 0.3845251,-7.723825 -3.656854 0.4658033,-7.64115 -2.902063 0.6516003,-7.583086 -2.246891 0.823247,-8.187955 -4.884662 0.4800458,-8.094296 -3.797982 0.5615201,-8.012777 -3.125337 0.6925555,-7.941778 -2.539735 0.8107515,-8.531945 -5.151739 0.6076854,-8.562155 -4.335252 0.7231326,-8.551482 -3.825194 0.8346658,-8.525054 -3.318862 0.9283401,1.71667,1 0 0 0 0 False
-2.60529 -7.556485 0.0719341,-3.15131 -7.392496 0.3641669,-3.688521 -6.795526 0.5233911,-4.092593 -6.250448 0.6671663,-4.408486 -5.959973 0.8346231,-3.35821 -5.255635 0.3027878,-3.597192 -4.308406 0.480999,-3.717931 -3.710548 0.6231557,-3.811203 -3.138076 0.7563339,-3.034483 -4.994524 0.3329685,-3.190297 -3.867185 0.5237712,-3.280336 -3.136402 0.7347244,-3.350813 -2.504133 0.9147666,-2.706093 -4.971824 0.4149921,-2.794764 -3.897966 0.6164377,-2.878269 -3.213693 0.803538,-2.955574 -2.622507 0.9621582,-2.352564 -5.169044 0.5194001,-2.248107 -4.328454 0.7047417,-2.182675 -3.781216 0.8654462,-2.135828 -3.248318 1.019243,-8.248434 -7.552141 0.2484677,-7.685053 -7.25702 0.4272182,-7.169802 -6.585369 0.5608916,-6.796608 -5.990032 0.7497572,-6.452308 -5.718118 0.9564261,-7.525805 -4.991405 0.3125086,-7.370149 -3.978472 0.4236618,-7.301975 -3.336513 0.5656106,-7.244073 -2.771076 0.6939578,-7.857369 -4.814971 0.3845251,-7.723825 -3.656854 0.4658033,-7.64115 -2.902063 0.6516003,-7.583086 -2.246891 0.823247,-8.187955 -4.884662 0.4800458,-8.094296 -3.797982 0.5615201,-8.012777 -3.125337 0.6925555,-7.941778 -2.539735 0.8107515,-8.531945 -5.151739 0.6076854,-8.562155 -4.335252 0.7231326,-8.551482 -3.825194 0.8346658,-8.525054 -3.318862 0.9283401,1.75000,1 0 0 0 0 False
-2.603614 -7.544332 0.06137641,-3.151468 -7.381025 0.3544747,-3.688488 -6.78527 0.5101626,-4.090319 -6.239034 0.6472143,-4.410085 -5.959031 0.8089573,-3.361876 -5.246679 0.2982938,-3.601215 -4.297276 0.4732295,-3.718197 -3.70256 0.6116082,-3.805626 -3.13718 0.738826,-3.034201 -4.985975 0.3253074,-3.192172 -3.861801 0.5155531,-3.279242 -3.130915 0.7220919,-3.343561 -2.500818 0.89741,-2.702589 -4.965353 0.4022054,-2.788325 -3.89561 0.6049626,-2.868674 -3.212251 0.7909129,-2.942332 -2.621686 0.9451427,-2.34639 -5.164875 0.5012055,-2.241896 -4.331323 0.6869504,-2.175403 -3.789706 0.8457387,-2.128208 -3.258655 0.9964988,-8.259468 -7.554452 0.2747092,-7.698988 -7.260571 0.4738447,-7.17841 -6.585165 0.6140158,-6.802145 -5.990195 0.8043385,-6.454327 -5.718585 1.01276,-7.526913 -4.990943 0.3584619,-7.369194 -3.982557 0.4695341,-7.30214 -3.340422 0.6114571,-7.246498 -2.776691 0.740145,-7.859561 -4.811458 0.4202137,-7.725595 -3.660108 0.5001984,-7.644577 -2.909056 0.6836494,-7.586919 -2.259229 0.8531255,-8.19061 -4.875465 0.508029,-8.09968 -3.795573 0.5872551,-8.020377 -3.126918 0.7123054,-7.949673 -2.54628 0.8255845,-8.536054 -5.13515 0.629011,-8.568385 -4.32089 0.7428244,-8.555826 -3.812963 0.8490205,-8.526465 -3.310975 0.939564,1.78333,1 0 0 0 0 False
-2.603614 -7.544332 0.06137641,-3.151468 -7.381025 0.3544747,-3.688488 -6.78527 0.5101626,-4.090319 -6.239034 0.6472143,-4.410085 -5.959031 0.8089573,-3.361876 -5.246679 0.2982938,-3.601215 -4.297276 0.4732295,-3.718197 -3.70256 0.6116082,-3.805626 -3.13718 0.738826,-3.034201 -4.985975 0.3253074,-3.192172 -3.861801 0.5155531,-3.279242 -3.130915 0.7220919,-3.343561 -2.500818 0.89741,-2.702589 -4.965353 0.4022054,-2.788325 -3.89561 0.6049626,-2.868674 -3.212251 0.7909129,-2.942332 -2.621686 0.9451427,-2.34639 -5.164875 0.5012055,-2.241896 -4.331323 0.6869504,-2.175403 -3.789706 0.8457387,-2.128208 -3.258655 0.9964988,-8.259468 -7.554452 0.2747092,-7.698988 -7.260571 0.4738447,-7.17841 -6.585165 0.6140158,-6.802145 -5.990195 0.8043385,-6.454327 -5.718585 1.01276,-7.526913 -4.990943 0.3584619,-7.369194 -3.982557 0.4695341,-7.30214 -3.340422 0.6114571,-7.246498 -2.776691 0.740145,-7.859561 -4.811458 0.4202137,-7.725595 -3.660108 0.5001984,-7.644577 -2.909056 0.6836494,-7.586919 -2.259229 0.8531255,-8.19061 -4.875465 0.508029,-8.09968 -3.795573 0.5872551,-8.020377 -3.126918 0.7123054,-7.949673 -2.54628 0.8255845,-8.536054 -5.13515 0.629011,-8.568385 -4.32089 0.7428244,-8.555826 -3.812963 0.8490205,-8.526465 -3.310975 0.939564,1.81667,1 0 0 0 0 False
-2.597759 -7.551733 0.06541909,-3.145498 -7.392841 0.3595682,-3.682894 -6.796974 0.5183501,-4.08158 -6.246589 0.6635786,-4.396135 -5.94644 0.8320236,-3.355747 -5.250616 0.285286,-3.596638 -4.298868 0.464319,-3.714672 -3.698394 0.6052086,-3.800003 -3.128747 0.7365143,-3.028652 -4.990961 0.3165632,-3.184124 -3.862867 0.5008497,-3.270587 -3.130916 0.7056342,-3.334281 -2.499646 0.8795853,-2.697824 -4.970402 0.4015451,-2.782843 -3.895008 0.6007679,-2.86395 -3.20907 0.7849403,-2.938041 -2.616023 0.9393328,-2.341721 -5.169401 0.5092216,-2.236076 -4.330263 0.6926783,-2.170536 -3.789235 0.8498715,-2.124206 -3.261757 0.9987646,-8.256369 -7.560391 0.2619109,-7.697322 -7.257703 0.4371192,-7.188344 -6.588729 0.5749438,-6.81859 -5.998189 0.7688215,-6.476247 -5.725019 0.9844525,-7.536783 -4.990152 0.3321785,-7.381088 -3.979475 0.4403096,-7.316371 -3.337268 0.581832,-7.26173 -2.769191 0.7078925,-7.865898 -4.819743 0.4071994,-7.733598 -3.665201 0.4895187,-7.65148 -2.908986 0.6723406,-7.592274 -2.252849 0.8395886,-8.194481 -4.88976 0.5056485,-8.107168 -3.810821 0.5857511,-8.025031 -3.137826 0.7147257,-7.951468 -2.553768 0.8277734,-8.535507 -5.156341 0.6348315,-8.571144 -4.342605 0.7512023,-8.562565 -3.828752 0.8602824,-8.535671 -3.323254 0.9477616,1.85000,1 0 0 0 0 False
-2.597759 -7.551733 0.06541909,-3.145498 -7.392841 0.3595682,-3.682894 -6.796974 0.5183501,-4.08158 -6.246589 0.6635786,-4.396135 -5.94644 0.8320236,-3.355747 -5.250616 0.285286,-3.596638 -4.298868 0.464319,-3.714672 -3.698394 0.6052086,-3.800003 -3.128747 0.7365143,-3.028652 -4.990961 0.3165632,-3.184124 -3.862867 0.5008497,-3.270587 -3.130916 0.7056342,-3.334281 -2.499646 0.8795853,-2.697824 -4.970402 0.4015451,-2.782843 -3.895008 0.6007679,-2.86395 -3.20907 0.7849403,-2.938041 -2.616023 0.9393328,-2.341721 -5.169401 0.5092216,-2.236076 -4.330263 0.6926783,-2.170536 -3.789235 0.8498715,-2.124206 -3.261757 0.9987646,-8.256369 -7.560391 0.2619109,-7.697322 -7.257703 0.4371192,-7.188344 -6.588729 0.5749438,-6.81859 -5.998189 0.7688215,-6.476247 -5.725019 0.9844525,-7.536783 -4.990152 0.3321785,-7.381088 -3.979475 0.4403096,-7.316371 -3.337268 0.581832,-7.26173 -2.769191 0.7078925,-7.865898 -4.819743 0.4071994,-7.733598 -3.665201 0.4895187,-7.65148 -2.908986 0.6723406,-7.592274 -2.252849 0.8395886,-8.194481 -4.88976 0.5056485,-8.107168 -3.810821 0.5857511,-8.025031 -3.137826 0.7147257,-7.951468 -2.553768 0.8277734,-8.535507 -5.156341 0.6348315,-8.571144 -4.342605 0.7512023,-8.562565 -3.828752 0.8602824,-8.535671 -3.323254 0.9477616,1.88333,1 0 0 0 0 False
-2.608232 -7.560781 0.07443943,-3.155001 -7.411315 0.3725783,-3.694418 -6.803941 0.5246309,-4.091297 -6.253706 0.6593494,-4.401335 -5.960773 0.8109488,-3.35607 -5.254903 0.2994171,-3.592838 -4.301322 0.4718488,-3.712688 -3.702972 0.6047703,-3.80533 -3.138809 0.7300621,-3.029053 -4.995704 0.325362,-3.183315 -3.863705 0.5096936,-3.273493 -3.13235 0.7156477,-3.340842 -2.501234 0.8893908,-2.699626 -4.976118 0.4052022,-2.786731 -3.896577 0.6060454,-2.866603 -3.206764 0.793485,-2.939456 -2.609766 0.9489573,-2.345154 -5.177647 0.5071679,-2.241174 -4.334256 0.6916158,-2.175753 -3.791833 0.8493958,-2.127105 -3.264992 0.9976944,-8.270373 -7.570343 0.2779705,-7.707436 -7.264529 0.4644907,-7.191366 -6.594419 0.6010503,-6.816249 -5.998376 0.7904811,-6.471132 -5.730245 0.9999074,-7.543076 -5.001729 0.344166,-7.387828 -3.992604 0.4583947,-7.321845 -3.350152 0.6048478,-7.266101 -2.782375 0.7367948,-7.878398 -4.824479 0.4078767,-7.742673 -3.67435 0.4910356,-7.661465 -2.91827 0.6774949,-7.60494 -2.263158 0.8529735,-8.211943 -4.890501 0.4971609,-8.118433 -3.817247 0.5732981,-8.037728 -3.143482 0.6976954,-7.96737 -2.558855 0.8105267,-8.558569 -5.151666 0.6191655,-8.583875 -4.34017 0.7286484,-8.571229 -3.831878 0.835337,-8.543935 -3.329994 0.9245818,1.91667,1 0 0 0 0 False
-2.608232 -7.560781 0.07443943,-3.155001 -7.411315 0.3725783,-3.694418 -6.803941 0.5246309,-4.091297 -6.253706 0.6593494,-4.401335 -5.960773 0.8109488,-3.35607 -5.254903 0.2994171,-3.592838 -4.301322 0.4718488,-3.712688 -3.702972 0.6047703,-3.80533 -3.138809 0.7300621,-3.029053 -4.995704 0.325362,-3.183315 -3.863705 0.5096936,-3.273493 -3.13235 0.7156477,-3.340842 -2.501234 0.8893908,-2.699626 -4.976118 0.4052022,-2.786731 -3.896577 0.6060454,-2.866603 -3.206764 0.793485,-2.939456 -2.609766 0.9489573,-2.345154 -5.177647 0.5071679,-2.241174 -4.334256 0.6916158,-2.175753 -3.791833 0.8493958,-2.127105 -3.264992 0.9976944,-8.270373 -7.570343 0.2779705,-7.707436 -7.264529 0.4644907,-7.191366 -6.594419 0.6010503,-6.816249 -5.998376 0.7904811,-6.471132 -5.730245 0.9999074,-7.543076 -5.001729 0.344166,-7.387828 -3.992604 0.4583947,-7.321845 -3.350152 0.6048478,-7.266101 -2.782375 0.7367948,-7.878398 -4.824479 0.4078767,-7.742673 -3.67435 0.4910356,-7.661465 -2.91827 0.6774949,-7.60494 -2.263158 0.8529735,-8.211943 -4.890501 0.4971609,-8.118433 -3.817247 0.5732981,-8.037728 -3.143482 0.6976954,-7.96737 -2.558855 0.8105267,-8.558569 -5.151666 0.6191655,-8.583875 -4.34017 0.7286484,-8.571229 -3.831878 0.835337,-8.543935 -3.329994 0.9245818,1.95000,1 0 0 0 0 False
-2.605149 -7.56645 0.07439026,-3.152763 -7.421031 0.3756888,-3.691671 -6.820489 0.5364534,-4.09033 -6.268863 0.6806729,-4.404419 -5.966127 0.8487805,-3.35959 -5.266078 0.3207944,-3.59926 -4.310112 0.4991039,-3.721577 -3.711547 0.6315758,-3.816788 -3.146302 0.7540758,-3.030848 -5.00431 0.3462909,-3.183151 -3.867948 0.5343447,-3.272434 -3.13276 0.7370356,-3.342119 -2.505247 0.9059079,-2.701613 -4.986423 0.4258966,-2.783406 -3.903694 0.6265098,-2.866124 -3.209367 0.8142318,-2.944615 -2.617334 0.9688746,-2.346838 -5.190832 0.5261414,-2.241532 -4.341821 0.7140517,-2.176337 -3.79153 0.876043,-2.131604 -3.265573 1.026433,-8.275045 -7.573667 0.2102913,-7.709291 -7.266395 0.3960355,-7.197849 -6.603092 0.5384415,-6.831405 -6.003826 0.7351025,-6.489464 -5.725379 0.9543782,-7.547168 -5.023115 0.3033041,-7.390697 -4.001029 0.4251066,-7.325815 -3.351876 0.5746043,-7.273446 -2.776912 0.7025698,-7.882034 -4.849323 0.3737712,-7.748433 -3.682543 0.4638637,-7.665399 -2.919294 0.6549574,-7.607323 -2.25801 0.8282269,-8.214576 -4.915122 0.4668816,-8.127179 -3.82488 0.552857,-8.045829 -3.143581 0.6853744,-7.972884 -2.554046 0.8015733,-8.559315 -5.172124 0.5899078,-8.593972 -4.345 0.7100112,-8.584047 -3.825191 0.8210783,-8.556921 -3.313371 0.9091692,1.98333,1 0 0 0 0 False
-2.606112 -7.573362 0.08949251,-3.153601 -7.414148 0.3865534,-3.690323 -6.812999 0.5480911,-4.091429 -6.265237 0.6931404,-4.405428 -5.972895 0.8625326,-3.3549 -5.265254 0.3256721,-3.59527 -4.315563 0.5032005,-3.71839 -3.720163 0.6408547,-3.814922 -3.153988 0.7697893,-3.02992 -5.005937 0.3559289,-3.185814 -3.875743 0.5473478,-3.276705 -3.141193 0.7543033,-3.34669 -2.50774 0.9294009,-2.701578 -4.987907 0.4395402,-2.787221 -3.908315 0.6418164,-2.870032 -3.216103 0.8315248,-2.946927 -2.618589 0.9902924,-2.348449 -5.19066 0.5439712,-2.241179 -4.34691 0.7300099,-2.174623 -3.798848 0.88915,-2.126173 -3.267471 1.041519,-8.278226 -7.594469 0.2913205,-7.717537 -7.290606 0.4893488,-7.208656 -6.616868 0.6353113,-6.843214 -6.013556 0.8353279,-6.498526 -5.730167 1.053873,-7.561624 -5.026581 0.3739497,-7.402285 -4.017319 0.4944575,-7.336465 -3.373629 0.6395956,-7.280189 -2.804075 0.7658842,-7.892568 -4.844852 0.4404425,-7.757796 -3.687959 0.5258592,-7.677235 -2.926674 0.7147704,-7.618937 -2.267599 0.8900971,-8.221946 -4.910833 0.5337504,-8.129896 -3.822879 0.6137401,-8.052084 -3.132198 0.7451129,-7.982242 -2.532747 0.8659012,-8.565782 -5.173792 0.6592429,-8.596161 -4.347519 0.7770563,-8.58436 -3.829345 0.8916506,-8.556903 -3.319747 0.9878587,2.01667,1 0 0 0 0 False
-2.606112 -7.573362 0.08949251,-3.153601 -7.414148 0.3865534,-3.690323 -6.812999 0.5480911,-4.091429 -6.265237 0.6931404,-4.405428 -5.972895 0.8625326,-3.3549 -5.265254 0.3256721,-3.59527 -4.315563 0.5032005,-3.71839 -3.720163 0.6408547,-3.814922 -3.153988 0.7697893,-3.02992 -5.005937 0.3559289,-3.185814 -3.875743 0.5473478,-3.276705 -3.141193 0.7543033,-3.34669 -2.50774 0.9294009,-2.701578 -4.987907 0.4395402,-2.787221 -3.908315 0.6418164,-2.870032 -3.216103 0.8315248,-2.946927 -2.618589 0.9902924,-2.348449 -5.19066 0.5439712,-2.241179 -4.34691 0.7300099,-2.174623 -3.798848 0.88915,-2.126173 -3.267471 1.041519,-8.278226 -7.594469 0.2913205,-7.717537 -7.290606 0.4893488,-7.208656 -6.616868 0.6353113,-6.843214 -6.013556 0.8353279,-6.498526 -5.730167 1.053873,-7.561624 -5.026581 0.3739497,-7.402285 -4.017319 0.4944575,-7.336465 -3.373629 0.6395956,-7.280189 -2.804075 0.7658842,-7.892568 -4.844852 0.4404425,-7.757796 -3.687959 0.5258592,-7.677235 -2.926674 0.7147704,-7.618937 -2.267599 0.8900971,-8.221946 -4.910833 0.5337504,-8.129896 -3.822879 0.6137401,-8.052084 -3.132198 0.7451129,-7.982242 -2.532747 0.8659012,-8.565782 -5.173792 0.6592429,-8.596161 -4.347519 0.7770563,-8.58436 -3.829345 0.8916506,-8.556903 -3.319747 0.9878587,2.05000,1 0 0 0 0 False
-2.57985 -7.587415 0.0816927,-3.133808 -7.414918 0.3769721,-3.671261 -6.816322 0.5370833,-4.069066 -6.258127 0.6836047,-4.384773 -5.951821 0.8569769,-3.340748 -5.280904 0.3222799,-3.580938 -4.325885 0.5058935,-3.702053 -3.722185 0.6504145,-3.793339 -3.147716 0.7816489,-3.012945 -5.024274 0.352527,-3.168911 -3.894669 0.5434914,-3.258823 -3.159839 0.7510669,-3.326937 -2.523033 0.9280553,-2.680542 -5.002452 0.4356296,-2.765435 -3.926583 0.6322644,-2.85062 -3.240282 0.8164673,-2.926959 -2.649227 0.9725796,-2.324796 -5.196009 0.5400053,-2.218733 -4.351348 0.7268802,-2.157455 -3.801039 0.8884586,-2.113977 -3.269027 1.042029,-8.29896 -7.602655 0.2940674,-7.733273 -7.304075 0.4762786,-7.221899 -6.620042 0.6113883,-6.862513 -6.012443 0.800448,-6.524686 -5.731151 1.004623,-7.574106 -5.032428 0.363059,-7.421661 -4.014886 0.4750162,-7.358559 -3.374671 0.6154796,-7.305545 -2.810915 0.7359942,-7.906891 -4.852542 0.4314998,-7.77864 -3.681892 0.515554,-7.696182 -2.922345 0.7028295,-7.636162 -2.26262 0.8747892,-8.236729 -4.915281 0.526109,-8.152069 -3.821004 0.6058046,-8.074102 -3.138603 0.7367808,-8.002591 -2.545599 0.855391,-8.578291 -5.174301 0.6492815,-8.616897 -4.348464 0.7636924,-8.608038 -3.831664 0.8768682,-8.581776 -3.323305 0.9717493,2.08333,1 0 0 0 0 False
-2.57985 -7.587415 0.0816927,-3.133808 -7.414918 0.3769721,-3.671261 -6.816322 0.5370833,-4.069066 -6.258127 0.6836047,-4.384773 -5.951821 0.8569769,-3.340748 -5.280904 0.3222799,-3.580938 -4.325885 0.5058935,-3.702053 -3.722185 0.6504145,-3.793339 -3.147716 0.7816489,-3.012945 -5.024274 0.352527,-3.168911 -3.894669 0.5434914,-3.258823 -3.159839 0.7510669,-3.326937 -2.523033 0.9280553,-2.680542 -5.002452 0.4356296,-2.765435 -3.926583 0.6322644,-2.85062 -3.240282 0.8164673,-2.926959 -2.649227 0.9725796,-2.324796 -5.196009 0.5400053,-2.218733 -4.351348 0.7268802,-2.157455 -3.801039 0.8884586,-2.113977 -3.269027 1.042029,-8.29896 -7.602655 0.2940674,-7.733273 -7.304075 0.4762786,-7.221899 -6.620042 0.6113883,-6.862513 -6.012443 0.800448,-6.524686 -5.731151 1.004623,-7.574106 -5.032428 0.363059,-7.421661 -4.014886 0.4750162,-7.358559 -3.374671 0.6154796,-7.305545 -2.810915 0.7359942,-7.906891 -4.852542 0.4314998,-7.77864 -3.681892 0.515554,-7.696182 -2.922345 0.7028295,-7.636162 -2.26262 0.8747892,-8.236729 -4.915281 0.526109,-8.152069 -3.821004 0.6058046,-8.074102 -3.138603 0.7367808,-8.002591 -2.545599 0.855391,-8.578291 -5.174301 0.6492815,-8.616897 -4.348464 0.7636924,-8.608038 -3.831664 0.8768682,-8.581776 -3.323305 0.9717493,2.11667,1 0 0 0 0 False
-2.566738 -7.577571 0.06713665,-3.115452 -7.397956 0.3560192,-3.643921 -6.79116 0.5133053,-4.049218 -6.242048 0.6553593,-4.379441 -5.978532 0.8239818,-3.313545 -5.264442 0.2942883,-3.54908 -4.306567 0.4725997,-3.667942 -3.706401 0.6109182,-3.756799 -3.140742 0.7377239,-2.984675 -5.014874 0.3258787,-3.134853 -3.879307 0.5158255,-3.21846 -3.141209 0.7194618,-3.282347 -2.512842 0.8877722,-2.652334 -5.000698 0.4073262,-2.733894 -3.918089 0.6042883,-2.817787 -3.230534 0.7813265,-2.893501 -2.644548 0.9304836,-2.298681 -5.206225 0.5131849,-2.187032 -4.364017 0.6990048,-2.123658 -3.816015 0.8578874,-2.078538 -3.286154 1.006712,-8.327557 -7.618478 0.3105302,-7.765732 -7.298234 0.5170489,-7.259317 -6.624791 0.6754647,-6.906598 -6.012748 0.8861926,-6.569454 -5.707006 1.108352,-7.607074 -5.048225 0.4295489,-7.456248 -4.029957 0.5551123,-7.391723 -3.390134 0.6965921,-7.339951 -2.823353 0.8207273,-7.943335 -4.865316 0.4958717,-7.807989 -3.700468 0.5992463,-7.722451 -2.934829 0.8029346,-7.660051 -2.265798 0.990374,-8.27372 -4.917274 0.5907831,-8.188601 -3.836892 0.6915017,-8.105197 -3.1449 0.8401135,-8.021759 -2.54611 0.9701154,-8.61941 -5.162473 0.7132889,-8.660976 -4.336088 0.8440624,-8.65623 -3.818654 0.9590575,-8.627414 -3.309234 1.053072,2.15000,1 0 0 0 0 False
-2.566738 -7.577571 0.06713665,-3.115452 -7.397956 0.3560192,-3.643921 -6.79116 0.5133053,-4.049218 -6.242048 0.6553593,-4.379441 -5.978532 0.8239818,-3.313545 -5.264442 0.2942883,-3.54908 -4.306567 0.4725997,-3.667942 -3.706401 0.6109182,-3.756799 -3.140742 0.7377239,-2.984675 -5.014874 0.3258787,-3.134853 -3.879307 0.5158255,-3.21846 -3.141209 0.7194618,-3.282347 -2.512842 0.8877722,-2.652334 -5.000698 0.4073262,-2.733894 -3.918089 0.6042883,-2.817787 -3.230534 0.7813265,-2.893501 -2.644548 0.9304836,-2.298681 -5.206225 0.5131849,-2.187032 -4.364017 0.6990048,-2.123658 -3.816015 0.8578874,-2.078538 -3.286154 1.006712,-8.327557 -7.618478 0.3105302,-7.765732 -7.298234 0.5170489,-7.259317 -6.624791 0.6754647,-6.906598 -6.012748 0.8861926,-6.569454 -5.707006 1.108352,-7.607074 -5.048225 0.4295489,-7.456248 -4.029957 0.5551123,-7.391723 -3.390134 0.6965921,-7.339951 -2.823353 0.8207273,-7.943335 -4.865316 0.4958717,-7.807989 -3.700468 0.5992463,-7.722451 -2.934829 0.8029346,-7.660051 -2.265798 0.990374,-8.27372 -4.917274 0.5907831,-8.188601 -3.836892 0.6915017,-8.105197 -3.1449 0.8401135,-8.021759 -2.54611 0.9701154,-8.61941 -5.162473 0.7132889,-8.660976 -4.336088 0.8440624,-8.65623 -3.818654 0.9590575,-8.627414 -3.309234 1.053072,2.18333,1 0 0 0 0 False
-2.522516 -7.604295 0.09450287,-3.075268 -7.420795 0.3615383,-3.598484 -6.795814 0.5060977,-3.991444 -6.215427 0.6404415,-4.315584 -5.913012 0.8023884,-3.258864 -5.278787 0.278322,-3.490545 -4.324834 0.4421026,-3.609742 -3.725446 0.572943,-3.697446 -3.159458 0.6933648,-2.931435 -5.029403 0.3241522,-3.07779 -3.891164 0.5102746,-3.161741 -3.153928 0.7076904,-3.224962 -2.52807 0.865582,-2.602646 -5.015895 0.421973,-2.682165 -3.920868 0.6127881,-2.771318 -3.228103 0.7879528,-2.849891 -2.644547 0.936293,-2.252688 -5.225134 0.544211,-2.141928 -4.370712 0.7325243,-2.088422 -3.812818 0.8971717,-2.049932 -3.28763 1.047497,-8.382751 -7.633472 0.3751747,-7.825509 -7.30408 0.5965443,-7.32281 -6.615318 0.7563387,-6.971203 -5.99235 0.9623059,-6.639566 -5.664625 1.172755,-7.675369 -5.050497 0.4882078,-7.533851 -4.041507 0.6024932,-7.472223 -3.424821 0.745755,-7.422711 -2.871757 0.8742008,-8.005951 -4.86046 0.5579236,-7.878719 -3.714222 0.6554909,-7.795695 -2.95702 0.8687881,-7.731001 -2.28889 1.072913,-8.332495 -4.912864 0.6585569,-8.247513 -3.831854 0.7537829,-8.163706 -3.12745 0.9172318,-8.07809 -2.510521 1.063034,-8.678589 -5.163892 0.7841524,-8.726945 -4.32693 0.9131637,-8.72161 -3.796064 1.035673,-8.695306 -3.279119 1.137506,2.21667,1 0 0 0 0 False
-2.441973 -7.666601 0.1135957,-2.995472 -7.477347 0.4205097,-3.50713 -6.870227 0.5865121,-3.860611 -6.248424 0.7391519,-4.166721 -5.871003 0.9143359,-3.185802 -5.340709 0.3628566,-3.413141 -4.376805 0.5409648,-3.525185 -3.778729 0.6824932,-3.608456 -3.208327 0.8132092,-2.852571 -5.090715 0.3869481,-2.99952 -3.953431 0.5780556,-3.079442 -3.225102 0.7828686,-3.140024 -2.595003 0.9536278,-2.522039 -5.079919 0.4646315,-2.604884 -3.987485 0.6458663,-2.692782 -3.30148 0.8216559,-2.770673 -2.718988 0.9882131,-2.16955 -5.287499 0.5686433,-2.076588 -4.417381 0.7521614,-2.033132 -3.85782 0.9307405,-2.049932 -3.28763 1.066519,-8.382751 -7.633472 0.3751747,-7.825509 -7.30408 0.5965443,-7.32281 -6.615318 0.7563387,-6.971203 -5.99235 0.9623059,-6.639566 -5.664625 1.172755,-7.675369 -5.050497 0.4882078,-7.533851 -4.041507 0.6024932,-7.472223 -3.424821 0.745755,-7.422711 -2.871757 0.8742008,-8.005951 -4.86046 0.5579236,-7.878719 -3.714222 0.6554909,-7.795695 -2.95702 0.8687881,-7.731001 -2.28889 1.072913,-8.332495 -4.912864 0.6585569,-8.247513 -3.831854 0.7537829,-8.163706 -3.12745 0.9172318,-8.07809 -2.510521 1.063034,-8.678589 -5.163892 0.7841524,-8.726945 -4.32693 0.9131637,-8.72161 -3.796064 1.035673,-8.695306 -3.279119 1.137506,2.25000,1 0 0 0 0 False
-2.441973 -7.666601 0.1135957,-2.995472 -7.477347 0.4205097,-3.50713 -6.870227 0.5865121,-3.860611 -6.248424 0.7391519,-4.166721 -5.871003 0.9143359,-3.185802 -5.340709 0.3628566,-3.413141 -4.376805 0.5409648,-3.525185 -3.778729 0.6824932,-3.608456 -3.208327 0.8132092,-2.852571 -5.090715 0.3869481,-2.99952 -3.953431 0.5780556,-3.079442 -3.225102 0.7828686,-3.140024 -2.595003 0.9536278,-2.522039 -5.079919 0.4646315,-2.604884 -3.987485 0.6458663,-2.692782 -3.30148 0.8216559,-2.770673 -2.718988 0.9882131,-2.16955 -5.287499 0.5686433,-2.076588 -4.417381 0.7521614,-2.033132 -3.85782 0.9307405,-2.003202 -3.341987 1.093721,-8.451331 -7.636199 0.4423888,-7.895429 -7.326149 0.6550152,-7.407126 -6.610277 0.8084884,-7.078995 -5.964719 1.010647,-6.746088 -5.636734 1.211729,-7.762565 -5.030546 0.5039027,-7.629294 -4.020224 0.5995432,-7.576163 -3.412817 0.7365487,-7.535157 -2.873769 0.8611857,-8.094204 -4.838359 0.5751634,-7.97854 -3.67847 0.6558592,-7.907527 -2.93409 0.8539797,-7.852427 -2.27667 1.051746,-8.417879 -4.888813 0.6869292,-8.344514 -3.790002 0.7661091,-8.279377 -3.083599 0.9203626,-8.21404 -2.451455 1.062631,-8.762032 -5.142288 0.8205032,-8.80201 -4.291149 0.9291749,-8.80024 -3.753713 1.043599,-8.784714 -3.227854 1.14858,2.28333,1 0 0 0 0 False
-2.366515 -7.760172 0.1564415,-2.913589 -7.540345 0.4739557,-3.408693 -6.905181 0.6447287,-3.725475 -6.244632 0.8100122,-4.024687 -5.816789 1.004182,-3.124547 -5.410846 0.3672179,-3.356163 -4.449018 0.5420303,-3.462084 -3.852859 0.6813699,-3.537127 -3.269304 0.8228135,-2.789536 -5.169616 0.3865904,-2.928311 -4.038145 0.5487881,-2.992908 -3.329488 0.7385554,-3.038952 -2.710712 0.9109559,-2.461387 -5.169914 0.4702056,-2.540411 -4.099357 0.62458,-2.619881 -3.420782 0.81519,-2.692211 -2.842907 0.9979081,-2.112498 -5.38815 0.5824842,-2.030591 -4.533458 0.7504568,-1.994787 -3.997959 0.9271638,-1.973208 -3.506858 1.088666,-8.513079 -7.695798 0.517894,-7.930586 -7.34991 0.7166257,-7.446445 -6.620548 0.8308452,-7.128737 -5.938787 1.000718,-6.801723 -5.574602 1.165856,-7.814865 -5.050968 0.4550075,-7.672683 -4.05359 0.5009945,-7.610964 -3.443497 0.615387,-7.563685 -2.891543 0.7205002,-8.152676 -4.873579 0.5011854,-8.053699 -3.757396 0.504645,-8.002349 -3.051979 0.6913917,-7.971029 -2.442451 0.8659036,-8.476362 -4.934345 0.5946639,-8.43095 -3.891797 0.6158492,-8.389196 -3.226395 0.7485306,-8.342466 -2.644271 0.8694775,-8.815673 -5.193387 0.7144204,-8.872004 -4.376558 0.7919398,-8.880013 -3.868628 0.9020532,-8.869528 -3.376757 0.9962369,2.31667,1 0 0 0 0 False
-2.366515 -7.760172 0.1564415,-2.913589 -7.540345 0.4739557,-3.408693 -6.905181 0.6447287,-3.725475 -6.244632 0.8100122,-4.024687 -5.816789 1.004182,-3.124547 -5.410846 0.3672179,-3.356163 -4.449018 0.5420303,-3.462084 -3.852859 0.6813699,-3.537127 -3.269304 0.8228135,-2.789536 -5.169616 0.3865904,-2.928311 -4.038145 0.5487881,-2.992908 -3.329488 0.7385554,-3.038952 -2.710712 0.9109559,-2.461387 -5.169914 0.4702056,-2.540411 -4.099357 0.62458,-2.619881 -3.420782 0.81519,-2.692211 -2.842907 0.9979081,-2.112498 -5.38815 0.5824842,-2.030591 -4.533458 0.7504568,-1.994787 -3.997959 0.9271638,-1.973208 -3.506858 1.088666,-8.513079 -7.695798 0.517894,-7.930586 -7.34991 0.7166257,-7.446445 -6.620548 0.8308452,-7.128737 -5.938787 1.000718,-6.801723 -5.574602 1.165856,-7.814865 -5.050968 0.4550075,-7.672683 -4.05359 0.5009945,-7.610964 -3.443497 0.615387,-7.563685 -2.891543 0.7205002,-8.152676 -4.873579 0.5011854,-8.053699 -3.757396 0.504645,-8.002349 -3.051979 0.6913917,-7.971029 -2.442451 0.8659036,-8.476362 -4.934345 0.5946639,-8.43095 -3.891797 0.6158492,-8.389196 -3.226395 0.7485306,-8.342466 -2.644271 0.8694775,-8.815673 -5.193387 0.7144204,-8.872004 -4.376558 0.7919398,-8.880013 -3.868628 0.9020532,-8.869528 -3.376757 0.9962369,2.35000,1 0 0 0 0 False
-2.311661 -7.854903 0.2711007,-2.849839 -7.609697 0.6132722,-3.327377 -6.929438 0.7880426,-3.635605 -6.220388 0.9690598,-3.955343 -5.747903 1.192016,-3.088678 -5.459787 0.454765,-3.319578 -4.507602 0.6176946,-3.432163 -3.914741 0.7439378,-3.51143 -3.334237 0.8719263,-2.759619 -5.231241 0.4504088,-2.89857 -4.132751 0.5698295,-2.962353 -3.461661 0.7281494,-3.003703 -2.864977 0.8712376,-2.436311 -5.240351 0.5194846,-2.507389 -4.201809 0.6519648,-2.579979 -3.539762 0.8506623,-2.642825 -2.949005 1.032291,-2.091051 -5.457523 0.6217651,-2.022601 -4.642965 0.7745683,-1.98891 -4.131927 0.954329,-1.960091 -3.655488 1.112053,-8.567889 -7.734582 0.6663418,-7.984352 -7.404258 0.8858625,-7.492489 -6.670583 0.9967247,-7.168878 -5.974855 1.156395,-6.85321 -5.567147 1.321137,-7.852237 -5.049192 0.5261192,-7.690057 -4.093771 0.5307069,-7.628599 -3.503479 0.6204895,-7.587897 -2.966197 0.7057805,-8.198389 -4.87416 0.5269027,-8.09951 -3.850788 0.4428554,-8.062948 -3.249332 0.5576124,-8.04714 -2.749263 0.6650906,-8.522621 -4.927593 0.5863002,-8.470253 -3.952611 0.5347378,-8.435519 -3.385345 0.6256945,-8.399295 -2.907636 0.7045258,-8.853172 -5.174736 0.6811942,-8.881111 -4.427873 0.7002527,-8.877087 -3.96511 0.7834878,-8.851639 -3.537063 0.8628062,2.38333,1 0 0 0 0 False
-2.311661 -7.854903 0.2711007,-2.849839 -7.609697 0.6132722,-3.327377 -6.929438 0.7880426,-3.635605 -6.220388 0.9690598,-3.955343 -5.747903 1.192016,-3.088678 -5.459787 0.454765,-3.319578 -4.507602 0.6176946,-3.432163 -3.914741 0.7439378,-3.51143 -3.334237 0.8719263,-2.759619 -5.231241 0.4504088,-2.89857 -4.132751 0.5698295,-2.962353 -3.461661 0.7281494,-3.003703 -2.864977 0.8712376,-2.436311 -5.240351 0.5194846,-2.507389 -4.201809 0.6519648,-2.579979 -3.539762 0.8506623,-2.642825 -2.949005 1.032291,-2.091051 -5.457523 0.6217651,-2.022601 -4.642965 0.7745683,-1.98891 -4.131927 0.954329,-1.960091 -3.655488 1.112053,-8.567889 -7.734582 0.6663418,-7.984352 -7.404258 0.8858625,-7.492489 -6.670583 0.9967247,-7.168878 -5.974855 1.156395,-6.85321 -5.567147 1.321137,-7.852237 -5.049192 0.5261192,-7.690057 -4.093771 0.5307069,-7.628599 -3.503479 0.6204895,-7.587897 -2.966197 0.7057805,-8.198389 -4.87416 0.5269027,-8.09951 -3.850788 0.4428554,-8.062948 -3.249332 0.5576124,-8.04714 -2.749263 0.6650906,-8.522621 -4.927593 0.5863002,-8.470253 -3.952611 0.5347378,-8.435519 -3.385345 0.6256945,-8.399295 -2.907636 0.7045258,-8.853172 -5.174736 0.6811942,-8.881111 -4.427873 0.7002527,-8.877087 -3.96511 0.7834878,-8.851639 -3.537063 0.8628062,2.41667,1 0 0 0 0 False
-2.287367 -7.897519 0.3143475,-2.830633 -7.591818 0.6232557,-3.301142 -6.905382 0.7691491,-3.585455 -6.178188 0.9361565,-3.885861 -5.641975 1.136353,-3.068319 -5.475326 0.3904424,-3.300174 -4.548042 0.5550479,-3.410493 -3.964114 0.6809913,-3.491404 -3.396082 0.802057,-2.740024 -5.257141 0.3916179,-2.871824 -4.204158 0.4922459,-2.928094 -3.558491 0.6404181,-2.962467 -2.986158 0.7677603,-2.417045 -5.264467 0.4725145,-2.47821 -4.27906 0.5855244,-2.53878 -3.665937 0.7785619,-2.591962 -3.124517 0.9367306,-2.074356 -5.466825 0.5861656,-2.016272 -4.695219 0.723518,-1.996513 -4.204564 0.894977,-1.983233 -3.739311 1.031026,-8.576637 -7.756383 0.5540151,-8.003059 -7.420875 0.8010436,-7.51081 -6.683913 0.9163246,-7.179245 -5.986112 1.069197,-6.863169 -5.532848 1.232654,-7.87193 -5.088953 0.4301722,-7.701645 -4.135379 0.4420993,-7.643254 -3.552598 0.5392269,-7.604454 -3.01614 0.6316596,-8.220539 -4.926294 0.4219048,-8.11701 -3.955883 0.3494788,-8.093014 -3.428298 0.4786728,-8.091977 -3.019117 0.5975944,-8.544267 -4.982008 0.4742186,-8.478691 -4.053037 0.4388238,-8.450843 -3.539366 0.546478,-8.423128 -3.12911 0.6372992,-8.873096 -5.218247 0.563832,-8.878849 -4.492662 0.5905718,-8.870255 -4.044376 0.6827812,-8.838017 -3.636108 0.7711166,2.45000,1 0 0 0 0 False
-2.287367 -7.897519 0.3143475,-2.830633 -7.591818 0.6232557,-3.301142 -6.905382 0.7691491,-3.585455 -6.178188 0.9361565,-3.885861 -5.641975 1.136353,-3.068319 -5.475326 0.3904424,-3.300174 -4.548042 0.5550479,-3.410493 -3.964114 0.6809913,-3.491404 -3.396082 0.802057,-2.740024 -5.257141 0.3916179,-2.871824 -4.204158 0.4922459,-2.928094 -3.558491 0.6404181,-2.962467 -2.986158 0.7677603,-2.417045 -5.264467 0.4725145,-2.47821 -4.27906 0.5855244,-2.53878 -3.665937 0.7785619,-2.591962 -3.124517 0.9367306,-2.074356 -5.466825 0.5861656,-2.016272 -4.695219 0.723518,-1.996513 -4.204564 0.894977,-1.983233 -3.739311 1.031026,-8.576637 -7.756383 0.5540151,-8.003059 -7.420875 0.8010436,-7.51081 -6.683913 0.9163246,-7.179245 -5.986112 1.069197,-6.863169 -5.532848 1.232654,-7.87193 -5.088953 0.4301722,-7.701645 -4.135379 0.4420993,-7.643254 -3.552598 0.5392269,-7.604454 -3.01614 0.6316596,-8.220539 -4.926294 0.4219048,-8.11701 -3.955883 0.3494788,-8.093014 -3.428298 0.4786728,-8.091977 -3.019117 0.5975944,-8.544267 -4.982008 0.4742186,-8.478691 -4.053037 0.4388238,-8.450843 -3.539366 0.546478,-8.423128 -3.12911 0.6372992,-8.873096 -5.218247 0.563832,-8.878849 -4.492662 0.5905718,-8.870255 -4.044376 0.6827812,-8.838017 -3.636108 0.7711166,2.48333,1 0 0 0 0 False
-2.264173 -7.839771 0.2091971,-2.814391 -7.549924 0.5320403,-3.285092 -6.886635 0.6748227,-3.562119 -6.159172 0.8404629,-3.857327 -5.607489 1.031585,-3.065381 -5.434497 0.2706799,-3.300226 -4.513887 0.4209319,-3.407949 -3.935992 0.5355982,-3.481133 -3.377633 0.6547916,-2.735996 -5.232597 0.2563261,-2.868991 -4.201737 0.3369727,-2.930429 -3.581954 0.467889,-2.96061 -3.027377 0.5849578,-2.410758 -5.247336 0.3213168,-2.458716 -4.287189 0.4102177,-2.513019 -3.712286 0.5849407,-2.556854 -3.192276 0.7247775,-2.06754 -5.448829 0.4218935,-2.019589 -4.700135 0.5431435,-2.009955 -4.235338 0.7057888,-2.004395 -3.779361 0.8295578,-8.549329 -7.692425 0.3007724,-7.987665 -7.383007 0.5061888,-7.515187 -6.631319 0.6080651,-7.202945 -5.939821 0.7449718,-6.899431 -5.505586 0.8959515,-7.878055 -5.076526 0.1525817,-7.709295 -4.114849 0.1600943,-7.655972 -3.517591 0.2704076,-7.617244 -2.977515 0.3712667,-8.22958 -4.931031 0.1657295,-8.159769 -3.973018 0.1053604,-8.145825 -3.457266 0.236044,-8.140209 -3.091213 0.3553016,-8.554187 -4.993026 0.2397449,-8.516218 -4.085485 0.2029886,-8.49122 -3.591272 0.3083508,-8.457224 -3.216999 0.3915563,-8.876242 -5.21651 0.3474387,-8.891077 -4.502376 0.367279,-8.882551 -4.0673 0.4509113,-8.842245 -3.674215 0.5273566,2.51667,1 0 0 0 0 False
-2.268794 -7.806541 0.1626403,-2.817687 -7.520591 0.4758224,-3.288239 -6.846662 0.5995858,-3.554926 -6.105398 0.7534584,-3.840363 -5.543917 0.9275781,-3.058936 -5.401333 0.1705196,-3.285585 -4.482618 0.3007368,-3.399511 -3.905096 0.4116314,-3.482924 -3.345844 0.5211711,-2.727353 -5.210096 0.1512695,-2.852342 -4.201685 0.2035825,-2.917727 -3.601553 0.3192174,-2.95123 -3.066943 0.4239065,-2.401947 -5.226302 0.2111118,-2.441619 -4.299201 0.2666748,-2.492062 -3.74823 0.428464,-2.53511 -3.251938 0.5562022,-2.063407 -5.418359 0.3128211,-2.017033 -4.691156 0.4096492,-2.013974 -4.24545 0.5495799,-2.016274 -3.806374 0.6579553,-8.559504 -7.621669 0.1073169,-8.005573 -7.335994 0.3502324,-7.539909 -6.608415 0.485375,-7.223098 -5.927566 0.646458,-6.926081 -5.462318 0.8288291,-7.899982 -5.041061 0.03390562,-7.736769 -4.079565 0.06999415,-7.677418 -3.47422 0.2047152,-7.630534 -2.944672 0.3238413,-8.252743 -4.911857 0.04421521,-8.188455 -3.954292 0.0334154,-8.169503 -3.469831 0.189959,-8.155243 -3.164947 0.3229094,-8.583112 -4.985582 0.1156712,-8.549417 -4.083139 0.1133693,-8.513764 -3.611806 0.2414649,-8.473882 -3.281102 0.3416188,-8.911671 -5.217758 0.2223242,-8.921817 -4.506866 0.2513839,-8.908531 -4.068378 0.343832,-8.863322 -3.668617 0.4341543,2.55000,1 0 0 0 0 False
-2.268794 -7.806541 0.1626403,-2.817687 -7.520591 0.4758224,-3.288239 -6.846662 0.5995858,-3.554926 -6.105398 0.7534584,-3.840363 -5.543917 0.9275781,-3.058936 -5.401333 0.1705196,-3.285585 -4.482618 0.3007368,-3.399511 -3.905096 0.4116314,-3.482924 -3.345844 0.5211711,-2.727353 -5.210096 0.1512695,-2.852342 -4.201685 0.2035825,-2.917727 -3.601553 0.3192174,-2.95123 -3.066943 0.4239065,-2.401947 -5.226302 0.2111118,-2.441619 -4.299201 0.2666748,-2.492062 -3.74823 0.428464,-2.53511 -3.251938 0.5562022,-2.063407 -5.418359 0.3128211,-2.017033 -4.691156 0.4096492,-2.013974 -4.24545 0.5495799,-2.016274 -3.806374 0.6579553,-8.559504 -7.621669 0.1073169,-8.005573 -7.335994 0.3502324,-7.539909 -6.608415 0.485375,-7.223098 -5.927566 0.646458,-6.926081 -5.462318 0.8288291,-7.899982 -5.041061 0.03390562,-7.736769 -4.079565 0.06999415,-7.677418 -3.47422 0.2047152,-7.630534 -2.944672 0.3238413,-8.252743 -4.911857 0.04421521,-8.188455 -3.954292 0.0334154,-8.169503 -3.469831 0.189959,-8.155243 -3.164947 0.3229094,-8.583112 -4.985582 0.1156712,-8.549417 -4.083139 0.1133693,-8.513764 -3.611806 0.2414649,-8.473882 -3.281102 0.3416188,-8.911671 -5.217758 0.2223242,-8.921817 -4.506866 0.2513839,-8.908531 -4.068378 0.343832,-8.863322 -3.668617 0.4341543,2.58333,1 0 0 0 0 False
