TiagoOliveira98/Thesis-Project/Motor_Task/Unity_Project/Motor_Task/DataLogging/JointData/Logs(1644889123)_Tiago_main.csv
WRIST,THUMB_CMC,THUMB_MCP,THUMB_IP,THUMB_TIP,INDEX_FINGER_MCP,INDEX_FINGER_PIP,INDEX_FINGER_DIP,INDEX_FINGER_TIP,MIDDLE_FINGER_MCP,MIDDLE_FINGER_PIP,MIDDLE_FINGER_DIP,MIDDLE_FINGER_TIP,RING_FINGER_MCP,RING_FINGER_PIP,RING_FINGER_DIP,RING_FINGER_TIP,PINKY_MCP,PINKY_PIP,PINKY_DIP,PINKY_TIP,WRIST2,THUMB_CMC2,THUMB_MCP2,THUMB_IP2,THUMB_TIP2,INDEX_FINGER_MCP2,INDEX_FINGER_PIP2,INDEX_FINGER_DIP2,INDEX_FINGER_TIP2,MIDDLE_FINGER_MCP2,MIDDLE_FINGER_PIP2,MIDDLE_FINGER_DIP2,MIDDLE_FINGER_TIP2,RING_FINGER_MCP2,RING_FINGER_PIP2,RING_FINGER_DIP2,RING_FINGER_TIP2,PINKY_MCP2,PINKY_PIP2,PINKY_DIP2,PINKY_TIP2,Timestamp,Event
-1.74934 -8.191473 0.000507122,-2.269665 -8.004248 0.3257216,-2.779187 -7.41331 0.5183331,-3.165648 -6.896224 0.7103181,-3.521973 -6.689033 0.9575687,-2.505838 -5.830078 0.2248379,-2.743587 -4.910544 0.39461,-2.858333 -4.349292 0.5291849,-2.946671 -3.800951 0.6547412,-2.193161 -5.577449 0.2602084,-2.353837 -4.47034 0.4269022,-2.353837 -4.47034 0.4269022,-2.493055 -3.170872 0.7323726,-1.877621 -5.583099 0.3549174,-1.925778 -4.50707 0.5403574,-1.977565 -3.843841 0.7246079,-2.032775 -3.26885 0.8673829,-1.545193 -5.814498 0.4867939,-1.421463 -5.021053 0.664717,-1.34656 -4.50294 0.809078,-1.292933 -3.997701 0.9380317,-8.235451 -8.738094 0.001008167,-7.627512 -8.422371 0.1197811,-7.05514 -7.742296 0.2463381,-6.642248 -7.138891 0.4179244,-6.265882 -6.916294 0.6153856,-7.349946 -6.119621 0.04180174,-7.146918 -5.162952 0.1095187,-7.071978 -4.547006 0.2471973,-7.019223 -4.003044 0.359245,-7.662255 -5.897576 0.1366312,-7.490896 -4.704857 0.1917649,-7.400198 -3.970421 0.3711296,-7.328172 -3.327116 0.5050617,-7.970171 -5.916751 0.2494566,-7.875346 -4.793845 0.3467524,-7.800648 -4.113151 0.4732006,-7.727634 -3.531499 0.5589834,-8.282961 -6.147507 0.3806085,-8.334086 -5.304914 0.4755848,-8.345909 -4.767509 0.5628579,-8.344292 -4.275281 0.6186574,0.010, 10
-1.750557 -8.188442 0.01089469,-2.273123 -7.998967 0.3222893,-2.782077 -7.409778 0.5062263,-3.168098 -6.888471 0.6963775,-3.504972 -6.663927 0.9385272,-2.511382 -5.822471 0.1983867,-2.759394 -4.903078 0.3669913,-2.876416 -4.342771 0.499973,-2.967198 -3.789638 0.6202027,-2.199546 -5.569656 0.2425391,-2.356282 -4.456759 0.3994138,-2.356282 -4.456759 0.3994138,-2.494728 -3.16267 0.710592,-1.883915 -5.57488 0.3498788,-1.929153 -4.505111 0.5252955,-1.982761 -3.847363 0.7130584,-2.039232 -3.276226 0.8598635,-1.549746 -5.803787 0.4914641,-1.420099 -5.015025 0.6628762,-1.34256 -4.49897 0.8099746,-1.286934 -3.992403 0.9404797,-8.232455 -8.740889 -0.003509286,-7.617863 -8.419853 0.09711821,-7.049628 -7.730426 0.2168333,-6.640437 -7.125545 0.3836993,-6.262847 -6.912223 0.5749371,-7.351005 -6.120647 0.03620097,-7.149492 -5.158321 0.09506276,-7.073841 -4.532466 0.2220779,-7.021103 -3.982116 0.3323072,-7.664331 -5.900871 0.1363461,-7.494588 -4.701801 0.1888895,-7.404547 -3.95694 0.3660888,-7.334675 -3.310743 0.4985602,-7.970977 -5.920301 0.2502292,-7.875104 -4.787597 0.3497429,-7.799557 -4.08966 0.4807794,-7.728414 -3.495681 0.5697973,-8.281417 -6.153355 0.3797541,-8.332487 -5.300328 0.4797571,-8.346905 -4.752669 0.5736354,-8.347578 -4.252676 0.6335763,0.110, 10
-1.758351 -8.187866 0.03367666,-2.276256 -7.990951 0.3578,-2.782157 -7.414892 0.564109,-3.170341 -6.899796 0.7754433,-3.512976 -6.663437 1.047583,-2.520919 -5.814804 0.2497839,-2.77145 -4.903211 0.4296792,-2.88601 -4.346534 0.5669748,-2.974406 -3.793443 0.6946467,-2.209868 -5.565578 0.2942108,-2.372084 -4.461436 0.466222,-2.372084 -4.461436 0.466222,-2.511672 -3.171696 0.7938392,-1.893314 -5.576742 0.4025016,-1.944631 -4.507703 0.5894811,-1.999541 -3.84822 0.7911301,-2.059147 -3.265909 0.9487491,-1.557199 -5.814726 0.543515,-1.424941 -5.033598 0.7252533,-1.348748 -4.521474 0.8790228,-1.295864 -4.017458 1.013013,-8.225555 -8.724787 -0.01410599,-7.617116 -8.397203 0.09276663,-7.051449 -7.720687 0.2084126,-6.644048 -7.113435 0.370193,-6.272682 -6.892594 0.5546113,-7.349317 -6.104579 0.01614064,-7.145898 -5.140817 0.07752753,-7.070781 -4.51634 0.2103139,-7.018578 -3.967136 0.3229498,-7.663111 -5.886018 0.1100817,-7.495849 -4.682703 0.1594847,-7.412219 -3.94024 0.3377445,-7.346343 -3.297699 0.4683655,-7.967952 -5.909108 0.2194308,-7.880323 -4.776781 0.3132814,-7.814937 -4.082586 0.4351384,-7.751003 -3.491193 0.5170463,-8.27557 -6.14457 0.3441308,-8.327667 -5.289464 0.4348513,-8.343419 -4.744988 0.5172269,-8.346368 -4.25177 0.5676422,0.210, 10
-1.74972 -8.191055 -0.005894972,-2.27458 -7.998889 0.3064829,-2.783773 -7.417819 0.4921614,-3.170267 -6.890525 0.6816912,-3.504305 -6.654494 0.9247015,-2.516547 -5.832371 0.1827484,-2.767956 -4.917657 0.3471034,-2.886551 -4.358426 0.4772508,-2.977761 -3.806056 0.599554,-2.206162 -5.578148 0.2222534,-2.37031 -4.469656 0.3783055,-2.37031 -4.469656 0.3783055,-2.513371 -3.178501 0.688715,-1.891539 -5.579139 0.3240933,-1.947332 -4.513019 0.4967508,-2.005438 -3.853134 0.6847646,-2.06554 -3.275463 0.8336787,-1.558908 -5.804155 0.4599126,-1.431176 -5.012825 0.6257118,-1.356647 -4.498394 0.7713431,-1.305229 -3.994565 0.9000529,-8.245533 -8.738787 0.01078753,-7.632929 -8.43136 0.1382076,-7.062731 -7.735002 0.2627928,-6.64577 -7.124185 0.4357869,-6.26144 -6.892334 0.632202,-7.360126 -6.112861 0.03499042,-7.159657 -5.13553 0.0929319,-7.082199 -4.503076 0.2245416,-7.029064 -3.954196 0.3332917,-7.673824 -5.893978 0.1196129,-7.512586 -4.686119 0.1686386,-7.424488 -3.933794 0.3442661,-7.358454 -3.283486 0.4708867,-7.980426 -5.917869 0.2230064,-7.897675 -4.780054 0.3117612,-7.824244 -4.080214 0.4348494,-7.755642 -3.482344 0.5205446,-8.288457 -6.152809 0.3453363,-8.339281 -5.295132 0.4423054,-8.346022 -4.749419 0.537686,-8.342557 -4.250473 0.5980784,0.310, 10
-1.741397 -8.204134 0.04472186,-2.268366 -8.006016 0.4057535,-2.771355 -7.426506 0.6255351,-3.143856 -6.898801 0.8428082,-3.491781 -6.660652 1.117676,-2.508602 -5.835996 0.3189823,-2.744852 -4.916749 0.5054575,-2.858485 -4.356703 0.6554028,-2.948599 -3.801706 0.7925803,-2.192432 -5.582489 0.3421412,-2.348555 -4.482258 0.5221556,-2.348555 -4.482258 0.5221556,-2.488075 -3.185371 0.8544891,-1.875476 -5.590517 0.4291193,-1.920488 -4.526933 0.6175723,-1.969539 -3.865163 0.8153895,-2.022575 -3.286073 0.974315,-1.541756 -5.824964 0.5542451,-1.416955 -5.031188 0.733709,-1.33982 -4.508897 0.8921275,-1.28569 -3.999671 1.037123,-8.250427 -8.746006 0.03367393,-7.636036 -8.435642 0.1782846,-7.063495 -7.738862 0.308309,-6.641474 -7.121956 0.4843364,-6.25391 -6.882335 0.6867566,-7.363756 -6.122428 0.07224389,-7.160165 -5.147449 0.1336828,-7.086599 -4.516064 0.2689394,-7.038981 -3.966629 0.3803704,-7.679752 -5.894504 0.1473876,-7.510919 -4.693663 0.1892713,-7.426426 -3.94604 0.3622835,-7.362168 -3.298011 0.4943519,-7.988598 -5.908975 0.2409771,-7.897926 -4.783384 0.3238531,-7.828471 -4.090677 0.4415255,-7.761483 -3.497405 0.525318,-8.300332 -6.135541 0.3578657,-8.350919 -5.286926 0.4475734,-8.359944 -4.748708 0.5330372,-8.3563 -4.253342 0.5893306,0.410, 10
-1.758127 -8.200603 -0.01183598,-2.280226 -7.999032 0.3121823,-2.780688 -7.418014 0.5159863,-3.160095 -6.887556 0.7277153,-3.498361 -6.62816 0.993333,-2.500766 -5.829329 0.193719,-2.743251 -4.901676 0.3669994,-2.856844 -4.345468 0.5043851,-2.942886 -3.797591 0.628608,-2.187301 -5.586568 0.2360911,-2.34442 -4.472309 0.3961108,-2.34442 -4.472309 0.3961108,-2.476058 -3.174545 0.7077768,-1.871552 -5.597909 0.3413667,-1.917476 -4.519891 0.5169259,-1.972344 -3.855011 0.7066311,-2.026952 -3.27643 0.854836,-1.538785 -5.832845 0.4819484,-1.404634 -5.037293 0.6479799,-1.326528 -4.516832 0.7934428,-1.268515 -4.007968 0.9230721,-8.251479 -8.762665 0.05334971,-7.640533 -8.448727 0.178206,-7.072268 -7.73842 0.2999725,-6.658818 -7.114006 0.4637038,-6.270224 -6.900097 0.6559287,-7.370749 -6.131275 0.1066352,-7.168183 -5.154764 0.1661717,-7.090502 -4.521518 0.2969752,-7.037123 -3.961284 0.4068947,-7.687539 -5.9053 0.1943326,-7.520665 -4.694856 0.2472214,-7.432995 -3.945326 0.4216802,-7.367141 -3.296266 0.554418,-7.995828 -5.922882 0.2977386,-7.903795 -4.779716 0.3950892,-7.830386 -4.07896 0.5229797,-7.761657 -3.480045 0.611487,-8.30607 -6.155287 0.41971,-8.353707 -5.294006 0.5262347,-8.365641 -4.744215 0.6270052,-8.366194 -4.238964 0.6924207,0.510, 10
-1.729568 -8.28126 -0.07357156,-2.250774 -7.977456 0.3174675,-2.702968 -7.419778 0.557951,-2.941644 -6.860721 0.8176294,-3.123857 -6.482777 1.119275,-2.510001 -5.873575 0.120922,-2.731122 -4.945388 0.3134397,-2.838451 -4.380692 0.4803987,-2.922386 -3.832634 0.6153722,-2.180626 -5.685262 0.1332535,-2.321089 -4.601378 0.2888635,-2.321089 -4.601378 0.2888635,-2.427625 -3.360478 0.6527244,-1.856294 -5.695021 0.229417,-1.923155 -4.669727 0.4018283,-1.966123 -4.011917 0.6196892,-2.013413 -3.442844 0.7963313,-1.513249 -5.88567 0.3682259,-1.418056 -5.061751 0.550764,-1.358088 -4.524307 0.7157515,-1.320523 -4.006593 0.8690835,-8.245636 -8.766346 0.1279121,-7.645962 -8.433842 0.2257346,-7.089873 -7.701234 0.3422446,-6.688957 -7.069831 0.5091442,-6.29513 -6.854604 0.7024463,-7.376842 -6.100797 0.1512064,-7.176204 -5.135952 0.2079956,-7.098568 -4.508195 0.3369529,-7.045803 -3.947885 0.4422325,-7.690357 -5.884902 0.2546358,-7.52628 -4.686989 0.2990538,-7.440316 -3.946367 0.4687454,-7.375557 -3.301946 0.5946474,-7.997184 -5.914203 0.3741884,-7.90597 -4.775508 0.4659939,-7.834893 -4.07411 0.5934049,-7.768186 -3.467234 0.6768788,-8.308511 -6.159011 0.5078222,-8.352962 -5.302896 0.6137931,-8.365173 -4.756845 0.7110215,-8.366238 -4.248306 0.7687325,0.610, 10
-1.705867 -8.238518 -0.4232752,-2.252861 -7.903829 -0.0183323,-2.656877 -7.199876 0.1954193,-2.780878 -6.503991 0.4447157,-2.811125 -5.988514 0.6972103,-2.540187 -5.8211 -0.4124994,-2.709696 -4.869693 -0.3160179,-2.782742 -4.273027 -0.1553281,-2.834074 -3.71708 -0.0006845593,-2.184381 -5.741132 -0.3916008,-2.275403 -4.831249 -0.189445,-2.275403 -4.831249 -0.189445,-2.392007 -4.512864 0.2805001,-1.853421 -5.820833 -0.2906323,-1.902302 -4.993047 -0.08281821,-1.936745 -4.674074 0.2482146,-1.978082 -4.629976 0.4650239,-1.519548 -6.029438 -0.1309136,-1.471612 -5.378014 0.09085876,-1.480088 -5.070201 0.3334467,-1.50472 -4.91143 0.5399652,-8.261327 -8.780344 0.2244002,-7.663027 -8.444639 0.3297117,-7.10371 -7.688997 0.4474106,-6.703455 -7.033113 0.618157,-6.304746 -6.801382 0.819932,-7.381675 -6.089784 0.2208471,-7.189416 -5.128622 0.2760032,-7.119055 -4.505214 0.4072175,-7.06905 -3.942062 0.5100416,-7.694262 -5.871803 0.3171628,-7.530762 -4.702999 0.3361224,-7.444365 -3.972326 0.4911929,-7.371809 -3.327707 0.612332,-8.004512 -5.899767 0.4336812,-7.905174 -4.782554 0.5029048,-7.835632 -4.091337 0.6155649,-7.766129 -3.49019 0.6885068,-8.323185 -6.14318 0.5666838,-8.349647 -5.291156 0.6581254,-8.35525 -4.745435 0.7406759,-8.348539 -4.230327 0.7864396,0.710, 10
-1.701866 -8.275747 -0.8519138,-2.198271 -7.811647 -0.4764374,-2.522782 -7.13615 -0.242837,-2.647058 -6.392066 -0.01573586,-2.637207 -5.784761 0.1673123,-2.455873 -5.955923 -0.7543998,-2.591454 -4.894941 -0.5566595,-2.678164 -4.281023 -0.4046727,-2.727353 -3.669528 -0.2700039,-2.133003 -5.896369 -0.7453011,-2.129323 -5.044895 -0.2308664,-2.129323 -5.044895 -0.2308664,-2.185303 -6.453394 -0.1145597,-1.813384 -5.95416 -0.6614893,-1.788562 -5.132925 -0.2130141,-1.861826 -5.95654 -0.1297603,-1.905872 -6.464398 -0.214968,-1.494451 -6.138989 -0.5495056,-1.450983 -5.379308 -0.2868726,-1.51514 -5.718482 -0.2148375,-1.550447 -6.050571 -0.2398679,-8.270773 -8.776064 0.2175844,-7.663974 -8.444117 0.3324908,-7.107237 -7.691597 0.4427374,-6.718716 -7.028551 0.6048019,-6.327206 -6.776112 0.7962269,-7.38168 -6.092144 0.1798239,-7.192068 -5.137674 0.22946,-7.122238 -4.514139 0.3690784,-7.075253 -3.948427 0.4795393,-7.698267 -5.869382 0.2606195,-7.539292 -4.712883 0.259196,-7.455907 -3.992536 0.4180102,-7.387253 -3.357988 0.5431381,-8.011464 -5.892229 0.3623298,-7.91823 -4.778892 0.4094927,-7.85205 -4.100136 0.5185804,-7.78583 -3.513138 0.5892479,-8.333575 -6.126466 0.4834073,-8.366221 -5.286756 0.5516675,-8.371617 -4.74537 0.6198181,-8.362477 -4.235881 0.6580991,0.810, 6
-1.560379 -8.092375 -1.309989,-2.023124 -7.723831 -0.8954077,-2.326976 -7.066471 -0.6440277,-2.328938 -6.295117 -0.3866214,-2.147232 -5.72701 -0.1554356,-2.249777 -5.848406 -1.01715,-2.379516 -4.812017 -0.727126,-2.446295 -4.179509 -0.5325144,-2.466465 -3.582181 -0.3395544,-1.906779 -5.849756 -1.005389,-1.880785 -5.411628 -0.3976765,-1.880785 -5.411628 -0.3976765,-1.912666 -6.971375 -0.3544723,-1.576843 -5.953739 -0.9197399,-1.579222 -5.614826 -0.3013898,-1.649452 -6.517526 -0.2408977,-1.692568 -7.073896 -0.3187544,-1.257269 -6.154892 -0.8091334,-1.267009 -5.663385 -0.3791205,-1.355623 -6.247592 -0.3265278,-1.406353 -6.671861 -0.3713619,-8.279318 -8.809134 0.2276821,-7.672999 -8.479214 0.3365939,-7.120247 -7.71122 0.4507432,-6.731997 -7.036154 0.6154429,-6.339649 -6.767641 0.8089304,-7.400415 -6.107557 0.2177901,-7.204661 -5.137398 0.2792825,-7.132256 -4.505447 0.4205664,-7.08439 -3.932185 0.5302485,-7.716228 -5.898378 0.3047887,-7.559813 -4.717893 0.3226208,-7.478665 -3.992274 0.4825625,-7.412606 -3.358359 0.607582,-8.028869 -5.933302 0.4104116,-7.940414 -4.799755 0.477884,-7.878119 -4.112167 0.6001327,-7.81481 -3.515322 0.6775318,-8.347239 -6.178216 0.5333952,-8.377016 -5.322483 0.6165298,-8.382812 -4.776093 0.6954575,-8.371656 -4.259202 0.7388352,0.910, 6
-1.566675 -8.068207 -1.284054,-2.011142 -7.721246 -0.8558073,-2.311721 -7.055315 -0.5881767,-2.276397 -6.29722 -0.3269207,-2.053446 -5.758307 -0.1092029,-2.2335 -5.826986 -0.9240758,-2.360292 -4.824701 -0.5769632,-2.413082 -4.1993 -0.3485291,-2.422142 -3.597701 -0.1430284,-1.886488 -5.825496 -0.9045361,-1.849505 -5.436008 -0.2636943,-1.849505 -5.436008 -0.2636943,-1.889122 -6.989025 -0.2434963,-1.553975 -5.937689 -0.8107958,-1.548415 -5.641651 -0.1583337,-1.627413 -6.557771 -0.1228224,-1.677345 -7.104309 -0.2218456,-1.232525 -6.151409 -0.6872277,-1.233459 -5.678457 -0.2323481,-1.326101 -6.288146 -0.1986527,-1.379807 -6.709471 -0.2528946,-8.291305 -8.823517 0.2667476,-7.688572 -8.485273 0.3890632,-7.131405 -7.719915 0.5116069,-6.739129 -7.046762 0.6858169,-6.345711 -6.775101 0.89227,-7.410897 -6.116937 0.2650771,-7.216295 -5.147794 0.3305379,-7.143726 -4.518892 0.4754071,-7.093225 -3.944219 0.5873557,-7.723909 -5.902423 0.3512577,-7.567756 -4.739755 0.3753581,-7.485084 -4.019338 0.5409218,-7.416997 -3.376927 0.6752069,-8.036047 -5.93275 0.4583623,-7.94449 -4.812517 0.5284249,-7.87924 -4.12991 0.6516706,-7.814238 -3.53353 0.7321831,-8.358532 -6.174596 0.5832497,-8.392572 -5.326962 0.6692752,-8.400333 -4.780416 0.7431389,-8.392515 -4.260826 0.7846834,1.010, 6
-1.611585 -8.027332 -1.59086,-2.029049 -7.825437 -1.102362,-2.33466 -7.180322 -0.8058802,-2.276777 -6.412965 -0.5300059,-2.087518 -5.849199 -0.2981421,-2.257735 -5.989591 -1.117302,-2.369825 -5.170598 -0.7375107,-2.449619 -4.537143 -0.5015734,-2.509638 -3.913221 -0.3143533,-1.924952 -5.888174 -1.135715,-1.895267 -5.595569 -0.5201193,-1.895267 -5.595569 -0.5201193,-1.905593 -7.116917 -0.5115817,-1.592321 -5.963131 -1.067609,-1.59121 -5.718459 -0.3961003,-1.657637 -6.615548 -0.3279269,-1.697403 -7.212524 -0.4436746,-1.25602 -6.170892 -0.9609522,-1.253358 -5.76971 -0.5063742,-1.341956 -6.356233 -0.4737885,-1.409014 -6.821737 -0.5448512,-8.292274 -8.80603 0.1812539,-7.685213 -8.476187 0.3191184,-7.125375 -7.720689 0.4540047,-6.734013 -7.044758 0.6349946,-6.341965 -6.757595 0.8421839,-7.410954 -6.120938 0.2100985,-7.216002 -5.142017 0.2899677,-7.145907 -4.509152 0.4402335,-7.098344 -3.935556 0.5580087,-7.730192 -5.909463 0.2859368,-7.578201 -4.725574 0.3219786,-7.50526 -4.006708 0.4914351,-7.447953 -3.369529 0.6233907,-8.044263 -5.941347 0.3820707,-7.957753 -4.805657 0.4675455,-7.897119 -4.11922 0.602015,-7.837663 -3.518716 0.6850516,-8.366661 -6.179973 0.4975119,-8.402504 -5.328029 0.5903445,-8.412499 -4.788135 0.6690814,-8.406379 -4.270516 0.7158344,1.110, 6
-1.56551 -7.953342 -1.776698,-1.983958 -7.80933 -1.239302,-2.324245 -7.173282 -0.9286501,-2.306832 -6.418213 -0.6704768,-2.079707 -5.855981 -0.4589138,-2.245073 -5.972095 -1.244095,-2.363898 -5.056514 -0.8535548,-2.430093 -4.408538 -0.5898218,-2.465698 -3.757135 -0.3857212,-1.895406 -5.878625 -1.290459,-1.873229 -5.642754 -0.6431839,-1.873229 -5.642754 -0.6431839,-1.872274 -7.136703 -0.6857173,-1.567113 -5.948755 -1.251441,-1.586059 -5.83451 -0.5655735,-1.624737 -6.725391 -0.5058354,-1.657802 -7.257587 -0.6176987,-1.242265 -6.123641 -1.179041,-1.258976 -5.785114 -0.7201906,-1.339473 -6.397238 -0.7073562,-1.400041 -6.840616 -0.7846031,-8.292332 -8.830683 0.2739187,-7.685375 -8.484394 0.3981428,-7.133105 -7.723384 0.5325346,-6.742412 -7.047204 0.7164983,-6.346507 -6.771187 0.9288954,-7.430888 -6.108095 0.2838854,-7.240939 -5.13368 0.3450337,-7.170475 -4.498605 0.4851918,-7.124224 -3.927768 0.5939249,-7.74839 -5.903302 0.3662266,-7.604017 -4.725845 0.3937414,-7.531137 -3.996614 0.5624003,-7.473155 -3.357232 0.6939976,-8.059227 -5.942342 0.4668477,-7.979469 -4.814575 0.5379489,-7.924006 -4.125099 0.655817,-7.866424 -3.530385 0.7307078,-8.375507 -6.195474 0.5879563,-8.422544 -5.337374 0.6634529,-8.44332 -4.793787 0.7339534,-8.446663 -4.281279 0.774767,1.210, 6
-1.597264 -8.048815 -1.658222,-2.020167 -7.82792 -1.168555,-2.325371 -7.234504 -0.8378131,-2.267419 -6.505958 -0.5238302,-2.076591 -5.944133 -0.2381525,-2.240669 -6.03349 -1.154494,-2.351373 -5.269531 -0.7654591,-2.422219 -4.663425 -0.5388027,-2.476554 -4.068212 -0.3702877,-1.907069 -5.936512 -1.169364,-1.873593 -5.667047 -0.5285122,-1.873593 -5.667047 -0.5285122,-1.914104 -7.124938 -0.4781588,-1.572901 -6.019807 -1.105877,-1.552183 -5.806886 -0.4252627,-1.631684 -6.682752 -0.3638072,-1.685046 -7.276686 -0.4871317,-1.235333 -6.244985 -1.001069,-1.215955 -5.811733 -0.5486975,-1.30826 -6.380046 -0.5273763,-1.379814 -6.845557 -0.599933,-8.286876 -8.827848 0.2594484,-7.68489 -8.488623 0.3730677,-7.13908 -7.722099 0.4997827,-6.752223 -7.044162 0.6768674,-6.353754 -6.768566 0.883238,-7.439691 -6.105503 0.2690044,-7.249464 -5.121564 0.3347735,-7.179415 -4.476196 0.4725932,-7.133707 -3.89846 0.5774539,-7.756176 -5.902433 0.3570404,-7.611776 -4.710805 0.3908092,-7.541169 -3.9822 0.5515235,-7.485381 -3.350447 0.6735655,-8.066801 -5.941932 0.4621589,-7.987975 -4.80528 0.5413175,-7.933913 -4.117365 0.6594307,-7.87709 -3.520869 0.7299604,-8.382124 -6.198024 0.5867876,-8.427364 -5.339117 0.6691185,-8.447977 -4.796422 0.7420069,-8.450843 -4.278804 0.7837683,1.310, 6
-1.658999 -8.088717 -1.749717,-2.056554 -7.885366 -1.229739,-2.379181 -7.291786 -0.8847646,-2.321336 -6.566545 -0.5652111,-2.101487 -6.070315 -0.3082796,-2.223007 -6.06299 -1.216963,-2.316159 -5.277833 -0.8397976,-2.392822 -4.600929 -0.6484284,-2.467328 -3.941064 -0.5306307,-1.882929 -6.00245 -1.220799,-1.864636 -5.603796 -0.5638615,-1.864636 -5.603796 -0.5638615,-1.999133 -6.973753 -0.4887683,-1.552201 -6.117462 -1.135411,-1.563457 -5.911996 -0.4093422,-1.677839 -6.732893 -0.3363025,-1.746125 -7.384347 -0.4858106,-1.202725 -6.368305 -1.015251,-1.21959 -5.881244 -0.5292902,-1.321157 -6.335014 -0.4712739,-1.385703 -6.753961 -0.5135158,-8.300025 -8.826082 0.2217829,-7.689404 -8.482985 0.3387654,-7.134971 -7.716548 0.4731475,-6.73702 -7.0426 0.6562591,-6.333549 -6.764069 0.8683013,-7.435223 -6.118789 0.2397457,-7.240963 -5.135514 0.3113328,-7.171537 -4.491878 0.4536947,-7.128213 -3.910292 0.5706699,-7.75394 -5.914694 0.3275673,-7.605737 -4.726274 0.364237,-7.538126 -4.000501 0.5329607,-7.486704 -3.367578 0.6638501,-8.067462 -5.952564 0.4330432,-7.985889 -4.813095 0.5182739,-7.930631 -4.120319 0.6538245,-7.875238 -3.520617 0.7374632,-8.386837 -6.201835 0.5586623,-8.427307 -5.340334 0.6473767,-8.444494 -4.794597 0.729214,-8.443973 -4.273959 0.7784585,1.410, 6
-1.601167 -7.931464 -1.49048,-2.009243 -7.793203 -0.9754975,-2.357004 -7.17332 -0.5986203,-2.310931 -6.485891 -0.2746449,-2.03054 -5.977277 0.0007935762,-2.264954 -5.933559 -0.8519065,-2.37432 -5.087274 -0.4195151,-2.433534 -4.45903 -0.1318597,-2.462065 -3.844833 0.08172047,-1.902521 -5.801157 -0.8741356,-1.897205 -5.740409 -0.1989847,-1.897205 -5.740409 -0.1989847,-1.937759 -7.16697 -0.2646838,-1.562975 -5.877456 -0.8175635,-1.59716 -5.942344 -0.1716715,-1.651517 -6.789595 -0.1780198,-1.696712 -7.26342 -0.3218185,-1.231198 -6.077418 -0.7200782,-1.251183 -5.888836 -0.3252625,-1.355855 -6.526303 -0.3685834,-1.432683 -6.952761 -0.4713808,-8.301055 -8.816317 0.1994181,-7.681621 -8.493055 0.3170871,-7.127529 -7.732662 0.4487467,-6.740638 -7.044229 0.6286117,-6.346477 -6.752417 0.8364925,-7.429914 -6.121761 0.2242907,-7.237409 -5.136087 0.2990737,-7.16791 -4.492609 0.4420432,-7.124672 -3.90905 0.5538449,-7.74771 -5.913107 0.3118103,-7.609569 -4.720038 0.3521676,-7.546779 -3.995889 0.5180882,-7.500582 -3.362558 0.6475149,-8.061367 -5.942609 0.4178925,-7.986315 -4.802867 0.5036005,-7.936653 -4.11725 0.6307386,-7.885717 -3.521108 0.7091289,-8.383732 -6.179219 0.5416755,-8.431408 -5.311887 0.6259056,-8.453677 -4.76571 0.6998962,-8.458591 -4.247487 0.7425084,1.510, 6
-1.639496 -7.924254 -1.322546,-2.038064 -7.774784 -0.8210875,-2.382168 -7.176906 -0.4832458,-2.306052 -6.530462 -0.167838,-2.034846 -6.044286 0.1173049,-2.291507 -5.867414 -0.7711926,-2.380158 -4.990338 -0.3580098,-2.420039 -4.385728 -0.07811046,-2.451637 -3.778203 0.1470076,-1.926187 -5.724204 -0.7714313,-1.871045 -5.744802 -0.09093678,-1.871045 -5.744802 -0.09093678,-1.941065 -7.228705 0.03277671,-1.581661 -5.771322 -0.6969363,-1.568632 -5.971191 -0.01954007,-1.629798 -6.803869 0.06419551,-1.715399 -7.329244 -0.02981424,-1.254252 -5.942986 -0.5779147,-1.243184 -5.860431 -0.1157273,-1.34362 -6.478139 -0.1002302,-1.446148 -6.889681 -0.175151,-8.286787 -8.816673 0.2195899,-7.67827 -8.486887 0.3222888,-7.13179 -7.724636 0.4447619,-6.745934 -7.045496 0.6172121,-6.346752 -6.781607 0.8219272,-7.434459 -6.103704 0.2192965,-7.245951 -5.120782 0.2760939,-7.178417 -4.473184 0.4074091,-7.138193 -3.888939 0.5163116,-7.756232 -5.902605 0.3115431,-7.619395 -4.711942 0.334595,-7.561124 -3.982996 0.4903187,-7.522572 -3.362056 0.6119909,-8.071617 -5.938553 0.4203414,-7.998558 -4.801016 0.4932376,-7.951576 -4.111351 0.6087618,-7.905105 -3.520648 0.6805859,-8.391969 -6.18659 0.5491608,-8.438103 -5.308471 0.6241942,-8.464272 -4.759553 0.6886947,-8.474169 -4.241352 0.7272455,1.610, 6
-1.637193 -7.899951 -1.288019,-2.050374 -7.730975 -0.7858436,-2.389168 -7.137989 -0.4329445,-2.329215 -6.493264 -0.09115016,-2.075281 -5.974973 0.2162216,-2.31966 -5.805712 -0.7131876,-2.428031 -4.914844 -0.2865812,-2.471023 -4.320981 0.004881859,-2.49068 -3.725302 0.2386725,-1.943487 -5.702167 -0.6989403,-1.896137 -5.643788 0.01986933,-1.896137 -5.643788 0.01986933,-1.961926 -7.153614 0.1725062,-1.589217 -5.779954 -0.6132131,-1.579229 -5.887649 0.08375275,-1.660709 -6.741971 0.1551353,-1.736243 -7.258079 0.06734228,-1.253652 -5.974125 -0.4879307,-1.23875 -5.834867 -0.006116748,-1.356836 -6.453914 0.01197362,-1.448322 -6.837331 -0.05062437,-8.297127 -8.77317 0.2100825,-7.681192 -8.453789 0.3153971,-7.131324 -7.686363 0.434148,-6.751082 -7.006742 0.607766,-6.354863 -6.726905 0.813307,-7.425489 -6.065999 0.1806282,-7.235751 -5.088058 0.2321928,-7.164454 -4.447702 0.3645057,-7.119065 -3.864868 0.4719959,-7.747654 -5.864621 0.2736349,-7.620279 -4.691158 0.28228,-7.566733 -3.980607 0.4305163,-7.529924 -3.373942 0.544414,-8.063957 -5.896146 0.3910247,-7.994657 -4.775583 0.460739,-7.954017 -4.099203 0.5857706,-7.909028 -3.520444 0.659264,-8.385541 -6.131936 0.5270272,-8.432033 -5.265523 0.604934,-8.45853 -4.724134 0.6715719,-8.465395 -4.210292 0.7051404,1.710, 6
-1.710492 -7.848588 -1.454568,-2.091092 -7.704402 -0.9072393,-2.427904 -7.133606 -0.5384803,-2.381326 -6.456953 -0.2082189,-2.163632 -5.989342 0.05178297,-2.297785 -5.832794 -0.7972189,-2.403538 -5.07663 -0.3657908,-2.461897 -4.439065 -0.1028149,-2.522922 -3.788199 0.08244419,-1.958727 -5.705984 -0.8200894,-1.923617 -5.642988 -0.1112255,-1.923617 -5.642988 -0.1112255,-1.994184 -7.102166 -0.04679251,-1.62 -5.782817 -0.7560622,-1.612471 -5.860565 -0.02254379,-1.701247 -6.686315 0.04039586,-1.781441 -7.242824 -0.1118088,-1.281916 -5.997042 -0.6404443,-1.260332 -5.819855 -0.1739405,-1.364049 -6.389736 -0.160074,-1.466672 -6.799947 -0.2364703,-8.286983 -8.747808 0.1769563,-7.675607 -8.432024 0.2681059,-7.129887 -7.674014 0.3821613,-6.761078 -7.004688 0.5514355,-6.376822 -6.731555 0.7512947,-7.421415 -6.049931 0.1579351,-7.229438 -5.089593 0.2198569,-7.156679 -4.465552 0.351567,-7.108785 -3.888193 0.459739,-7.742611 -5.848599 0.2649963,-7.616709 -4.700748 0.2773685,-7.564639 -4.009126 0.4232571,-7.528114 -3.409719 0.527698,-8.059027 -5.878672 0.3942622,-7.986103 -4.776214 0.4708054,-7.945645 -4.115196 0.5910459,-7.900603 -3.540966 0.661525,-8.382962 -6.112682 0.5390307,-8.430471 -5.253734 0.6237884,-8.456067 -4.715116 0.6873353,-8.460811 -4.19606 0.7186754,1.810, 6
-1.746637 -7.823785 -1.540098,-2.122791 -7.690923 -0.9862701,-2.452772 -7.108884 -0.6202691,-2.383448 -6.451162 -0.2984698,-2.153792 -5.997736 -0.05119967,-2.315677 -5.826199 -0.8571454,-2.410354 -5.064956 -0.4089355,-2.469023 -4.418889 -0.1326011,-2.527805 -3.759525 0.0654937,-1.958165 -5.711117 -0.8787275,-1.930851 -5.645759 -0.1619449,-1.930851 -5.645759 -0.1619449,-2.026024 -7.136666 -0.1217108,-1.608552 -5.799036 -0.8116156,-1.620179 -5.849902 -0.06247163,-1.723366 -6.675957 -0.018641,-1.79843 -7.225769 -0.1853074,-1.260874 -6.013097 -0.6950629,-1.257224 -5.764937 -0.2082498,-1.368928 -6.311048 -0.1922226,-1.460101 -6.710941 -0.2655312,-8.330323 -8.681089 0.0332506,-7.721981 -8.374342 0.1614216,-7.173559 -7.654224 0.2868527,-6.805645 -6.989103 0.4671558,-6.42924 -6.651752 0.6854985,-7.441755 -6.027143 -0.07485968,-7.239403 -5.092474 -0.0626926,-7.16339 -4.499731 0.05091409,-7.110041 -3.950123 0.1532027,-7.764729 -5.826658 -0.00585857,-7.639624 -4.778169 -0.07098851,-7.58721 -4.15887 0.04363419,-7.549347 -3.627462 0.1245708,-8.081014 -5.847566 0.1017048,-8.012635 -4.826015 0.1108386,-7.963067 -4.229908 0.2167741,-7.908184 -3.722017 0.2770408,-8.408018 -6.05378 0.2324941,-8.441894 -5.244648 0.2835309,-8.456082 -4.748474 0.3433853,-8.449271 -4.261405 0.3598784,1.910, 6
-1.678011 -7.783788 -1.109129,-2.077086 -7.740464 -0.5490326,-2.432393 -7.163548 -0.1564074,-2.401707 -6.589306 0.2106708,-2.155638 -6.119546 0.5394462,-2.337548 -5.737901 -0.3775939,-2.42739 -4.915185 0.1251371,-2.48404 -4.310718 0.4705999,-2.519649 -3.72402 0.7339694,-1.959815 -5.567224 -0.3907837,-1.907028 -5.693029 0.3531744,-1.907028 -5.693029 0.3531744,-1.974019 -7.152364 0.3862406,-1.600362 -5.65349 -0.3221542,-1.578234 -5.926174 0.3680782,-1.658584 -6.762655 0.3676037,-1.753825 -7.2198 0.2174846,-1.263123 -5.882387 -0.2027661,-1.230748 -5.882482 0.257427,-1.354351 -6.538164 0.2414634,-1.474251 -6.917802 0.1468228,-8.341728 -8.442356 -0.2953612,-7.792811 -8.180019 -0.08664846,-7.329103 -7.438861 0.07509977,-7.028718 -6.753555 0.275754,-6.691711 -6.263893 0.5034718,-7.461417 -5.846574 -0.4404327,-7.273308 -4.970826 -0.4405311,-7.217087 -4.403911 -0.3162645,-7.170774 -3.880985 -0.2132415,-7.786754 -5.682691 -0.3877589,-7.712048 -4.775871 -0.3549393,-7.718715 -4.441679 -0.1400355,-7.727221 -4.339225 0.006852537,-8.101621 -5.723338 -0.2960117,-8.095639 -4.87293 -0.2187271,-8.058813 -4.533103 0.009584993,-8.014447 -4.431896 0.1514798,-8.423936 -5.940925 -0.1643137,-8.430966 -5.239137 -0.03195918,-8.394611 -4.931352 0.1385465,-8.331779 -4.789651 0.2343476,2.010, 6
-1.711686 -7.930038 -1.244826,-2.094517 -7.784873 -0.6885484,-2.437078 -7.20289 -0.3201462,-2.368558 -6.550342 0.01304471,-2.131281 -6.129655 0.2628791,-2.293064 -5.867132 -0.5280117,-2.386917 -5.078049 -0.0670445,-2.437636 -4.434917 0.197181,-2.487682 -3.783056 0.3730433,-1.942512 -5.738229 -0.5587901,-1.9201 -5.745805 0.1633006,-1.9201 -5.745805 0.1633006,-2.007471 -7.19136 0.2209785,-1.599107 -5.817804 -0.4986123,-1.592154 -5.942382 0.2298362,-1.696994 -6.73689 0.2729447,-1.779256 -7.250598 0.1125458,-1.259469 -6.039746 -0.3868434,-1.23907 -5.861639 0.07804263,-1.348881 -6.408166 0.0936662,-1.447624 -6.793815 0.0174123,-8.390021 -8.414249 -1.028561,-7.823072 -8.079269 -0.8488493,-7.397366 -7.389744 -0.6707151,-7.126509 -6.70598 -0.4889051,-6.819297 -6.173234 -0.281172,-7.498524 -6.020999 -1.024266,-7.329145 -5.022737 -0.9456834,-7.25034 -4.373147 -0.8291478,-7.187814 -3.801927 -0.7474256,-7.795942 -5.876579 -0.9688703,-7.719886 -4.745006 -0.7864308,-7.716101 -4.728218 -0.6078179,-7.738731 -4.975482 -0.5498568,-8.096672 -5.917676 -0.8869032,-8.065687 -4.872001 -0.6995375,-8.042904 -4.928707 -0.5645677,-8.050782 -5.270021 -0.5379273,-8.427498 -6.126375 -0.7854605,-8.419848 -5.296855 -0.5712091,-8.386063 -5.213272 -0.4591354,-8.366991 -5.425869 -0.4487402,2.110, 3
-1.703798 -8.003651 -1.17364,-2.093738 -7.835207 -0.6284993,-2.418498 -7.265521 -0.2473225,-2.350897 -6.606506 0.0930891,-2.133759 -6.192247 0.3596942,-2.259996 -5.911538 -0.4642773,-2.374271 -5.165756 -0.05956697,-2.43717 -4.507646 0.1508627,-2.499699 -3.857064 0.2882671,-1.917936 -5.788925 -0.487069,-1.887478 -5.597929 0.202237,-1.887478 -5.597929 0.202237,-2.015273 -6.789146 0.3559585,-1.577471 -5.873156 -0.433566,-1.573903 -5.97379 0.2840605,-1.689452 -6.788154 0.3615851,-1.782539 -7.390108 0.2108759,-1.227615 -6.111413 -0.3300157,-1.214502 -5.907875 0.1238908,-1.319616 -6.406896 0.1471759,-1.41548 -6.790494 0.08695924,-8.370941 -8.240202 -1.775972,-7.85285 -7.9359 -1.4173,-7.513531 -7.277464 -1.137161,-7.330447 -6.604558 -0.8293743,-7.137955 -5.994827 -0.4961731,-7.517467 -6.005721 -1.677997,-7.36239 -4.990933 -1.326174,-7.301203 -4.376622 -1.022472,-7.283541 -3.788051 -0.8466938,-7.82164 -5.916257 -1.613186,-7.749145 -4.968967 -1.019258,-7.731103 -5.838425 -0.7032356,-7.758471 -6.520228 -0.6971117,-8.136168 -5.955574 -1.475376,-8.087004 -5.14578 -0.9173185,-8.026854 -6.015504 -0.6858515,-8.028563 -6.670964 -0.7484004,-8.478809 -6.14048 -1.309138,-8.423317 -5.402738 -0.843189,-8.324124 -5.924604 -0.6905262,-8.294275 -6.457746 -0.7512379,2.210, 3
-1.684634 -7.872485 -1.161463,-2.084438 -7.777439 -0.6510549,-2.419138 -7.248352 -0.2476342,-2.393963 -6.705664 0.1267953,-2.161317 -6.233751 0.4745338,-2.314055 -5.855772 -0.4187497,-2.409588 -5.039789 0.03577888,-2.480589 -4.404832 0.353698,-2.531741 -3.817021 0.6020497,-1.938938 -5.672856 -0.4297981,-1.911946 -5.834027 0.2662046,-1.911946 -5.834027 0.2662046,-2.009513 -7.172538 0.3144093,-1.582108 -5.765455 -0.3704419,-1.579517 -6.079154 0.2348803,-1.671641 -6.845003 0.2385672,-1.754218 -7.244071 0.1223717,-1.247521 -6.014225 -0.2690523,-1.217458 -6.039665 0.1094518,-1.346914 -6.655851 0.08343661,-1.458397 -6.992971 0.003373623,-8.345071 -8.098875 -2.052677,-7.850811 -7.744781 -1.777883,-7.498817 -7.060493 -1.489449,-7.45116 -6.317765 -1.194311,-7.599089 -5.66513 -0.901076,-7.533076 -5.934215 -1.972752,-7.354429 -4.929201 -1.728884,-7.269636 -4.293132 -1.512468,-7.227864 -3.702087 -1.377041,-7.855745 -5.845176 -1.858778,-7.773771 -5.011258 -1.446222,-7.760916 -5.810003 -1.244545,-7.781367 -6.484377 -1.203297,-8.172748 -5.897733 -1.688433,-8.077273 -5.244329 -1.201747,-8.023585 -6.108125 -1.017656,-8.042169 -6.750717 -1.040318,-8.510847 -6.066247 -1.492963,-8.395864 -5.392252 -1.148322,-8.310551 -5.96895 -1.0749,-8.298555 -6.482359 -1.129683,2.310, 2
-1.723066 -8.07172 -0.9594888,-2.115409 -7.899013 -0.4216682,-2.448688 -7.326719 -0.02214855,-2.389767 -6.665861 0.3512748,-2.173409 -6.24123 0.6659852,-2.282005 -5.927055 -0.2774144,-2.380524 -5.228149 0.1348219,-2.441209 -4.590761 0.3215486,-2.505146 -3.943153 0.4386551,-1.937798 -5.787935 -0.2889521,-1.910548 -5.659839 0.4025292,-1.910548 -5.659839 0.4025292,-2.025374 -6.948972 0.5284439,-1.596649 -5.862411 -0.2208282,-1.575301 -5.980609 0.5040766,-1.682618 -6.812158 0.5839578,-1.771703 -7.42107 0.4396597,-1.250027 -6.102447 -0.1014273,-1.230349 -5.907838 0.3401139,-1.338197 -6.425624 0.3550812,-1.437675 -6.832883 0.2896955,-8.335268 -8.016609 -2.087765,-7.855723 -7.682767 -1.790971,-7.50863 -7.017471 -1.47022,-7.482724 -6.267487 -1.152483,-7.638064 -5.611563 -0.8496444,-7.535142 -5.860696 -1.952094,-7.355031 -4.855884 -1.718443,-7.276795 -4.203831 -1.514733,-7.235274 -3.59742 -1.370456,-7.865456 -5.774042 -1.842803,-7.788992 -4.925639 -1.425377,-7.776081 -5.650712 -1.200671,-7.784999 -6.290382 -1.130208,-8.188196 -5.836819 -1.686943,-8.08196 -5.245612 -1.193031,-8.038658 -6.104013 -1.042415,-8.066894 -6.747856 -1.082271,-8.530548 -6.019584 -1.499906,-8.407947 -5.381534 -1.171844,-8.319838 -5.967763 -1.12017,-8.305765 -6.481592 -1.192261,2.410, 2
-1.729036 -8.076092 -1.20277,-2.112871 -7.91134 -0.6390581,-2.44851 -7.349032 -0.2571266,-2.370646 -6.695117 0.08444273,-2.142684 -6.264108 0.3550674,-2.301556 -5.975805 -0.4952895,-2.394426 -5.186538 -0.04511786,-2.437422 -4.53284 0.2035474,-2.485097 -3.882562 0.3581771,-1.954774 -5.865245 -0.5358132,-1.915705 -5.81752 0.1970054,-1.915705 -5.81752 0.1970054,-2.038709 -7.257843 0.3076767,-1.615517 -5.951095 -0.4909461,-1.598399 -6.082456 0.2535222,-1.710172 -6.875686 0.3284993,-1.802412 -7.414402 0.1725752,-1.280513 -6.17026 -0.3980291,-1.252586 -5.991575 0.07119489,-1.353301 -6.520593 0.09446847,-1.449514 -6.903086 0.02389634,-8.341609 -7.98276 -2.203493,-7.866948 -7.688577 -1.903303,-7.521394 -6.992408 -1.595969,-7.516688 -6.216178 -1.302554,-7.691603 -5.542155 -1.035051,-7.551922 -5.83698 -2.099586,-7.379004 -4.819179 -1.888254,-7.294496 -4.170305 -1.710302,-7.238867 -3.573087 -1.588633,-7.879334 -5.767904 -2.005008,-7.801047 -4.90983 -1.612968,-7.7903 -5.684234 -1.42873,-7.802922 -6.332185 -1.394396,-8.198053 -5.834119 -1.85645,-8.095871 -5.250669 -1.359726,-8.045195 -6.11812 -1.193197,-8.066219 -6.733814 -1.224346,-8.533906 -6.006208 -1.679261,-8.417707 -5.379262 -1.352739,-8.331467 -5.981523 -1.288816,-8.317873 -6.483392 -1.351449,2.510, 2
-1.686644 -7.997642 -0.9780201,-2.095594 -7.869363 -0.4603154,-2.460036 -7.305319 -0.09065664,-2.421214 -6.726772 0.259956,-2.140658 -6.283851 0.5932891,-2.333677 -5.891856 -0.2972507,-2.434916 -5.02407 0.1306715,-2.490707 -4.439511 0.4146572,-2.523474 -3.886993 0.6343825,-1.953235 -5.727647 -0.2983375,-1.909247 -5.834966 0.395665,-1.909247 -5.834966 0.395665,-1.954947 -7.317646 0.5257999,-1.601515 -5.80048 -0.2430155,-1.604581 -6.132247 0.4351319,-1.66817 -6.948448 0.5382044,-1.753669 -7.491088 0.4433365,-1.267691 -6.018244 -0.1459479,-1.263359 -5.991792 0.3324057,-1.380239 -6.623365 0.3671894,-1.498943 -7.066389 0.2953329,-8.340944 -7.977326 -2.1572,-7.865609 -7.697807 -1.819779,-7.520842 -7.008827 -1.504879,-7.525212 -6.231576 -1.208046,-7.698638 -5.542593 -0.9379838,-7.562822 -5.813364 -2.031502,-7.389788 -4.796791 -1.815012,-7.303453 -4.144828 -1.635545,-7.249429 -3.543028 -1.515708,-7.895093 -5.745954 -1.954596,-7.818932 -4.904483 -1.546938,-7.812712 -5.68304 -1.355687,-7.825552 -6.335681 -1.321458,-8.216019 -5.817997 -1.818985,-8.115124 -5.251557 -1.30919,-8.068741 -6.128947 -1.135771,-8.091635 -6.759052 -1.171987,-8.553148 -5.994973 -1.652318,-8.437774 -5.375049 -1.315673,-8.352732 -5.983144 -1.245354,-8.338283 -6.487701 -1.309455,2.610, 2
-1.720541 -8.086693 -0.7875901,-2.150674 -7.963848 -0.3148312,-2.518028 -7.410026 0.06049031,-2.513001 -6.84066 0.4348468,-2.23846 -6.381896 0.7784048,-2.3798 -5.966669 -0.1034936,-2.480986 -5.154625 0.3466028,-2.541235 -4.559602 0.6374773,-2.570346 -3.985643 0.8594241,-1.998999 -5.767925 -0.08493966,-1.938248 -6.022815 0.5841316,-1.938248 -6.022815 0.5841316,-2.043714 -7.411354 0.6965486,-1.642482 -5.84856 -0.009446084,-1.610898 -6.237777 0.5901794,-1.699188 -6.990518 0.6243885,-1.798614 -7.440192 0.5234579,-1.311872 -6.08304 0.108674,-1.29355 -6.171157 0.5339646,-1.422343 -6.799436 0.5594752,-1.551193 -7.197952 0.4831047,-8.357861 -8.034433 -2.085291,-7.881065 -7.738981 -1.745828,-7.533799 -7.012047 -1.43383,-7.542929 -6.217534 -1.137479,-7.719246 -5.522717 -0.8745339,-7.576912 -5.846168 -1.9521,-7.402613 -4.80823 -1.728437,-7.316331 -4.12839 -1.538109,-7.261842 -3.503656 -1.404121,-7.911342 -5.782753 -1.876271,-7.83658 -4.926802 -1.44328,-7.82569 -5.699256 -1.239494,-7.834812 -6.352945 -1.198492,-8.23612 -5.853342 -1.741043,-8.132404 -5.263383 -1.20547,-8.07795 -6.157089 -1.030276,-8.099215 -6.808052 -1.073609,-8.577789 -6.022914 -1.575118,-8.460633 -5.395748 -1.220017,-8.368705 -6.017921 -1.149196,-8.351768 -6.537798 -1.213141,2.710, 2
-1.805765 -8.227474 -0.7911241,-2.239867 -8.038624 -0.338418,-2.595469 -7.457193 0.0258894,-2.572128 -6.871437 0.3960859,-2.271203 -6.443864 0.7156318,-2.448883 -6.043565 -0.1409575,-2.558441 -5.194875 0.3451762,-2.618208 -4.6313 0.6663053,-2.652822 -4.075965 0.9032128,-2.078634 -5.904819 -0.1027613,-2.017466 -6.107088 0.594821,-2.017466 -6.107088 0.594821,-2.113809 -7.522453 0.7219518,-1.726736 -6.026216 -0.004736125,-1.695332 -6.342237 0.6431904,-1.797116 -7.10482 0.7002213,-1.890232 -7.536542 0.6329575,-1.404739 -6.265828 0.1328223,-1.343692 -6.214178 0.5621719,-1.469834 -6.793311 0.5894685,-1.578097 -7.143272 0.5474439,-8.360435 -8.08222 -1.985916,-7.875471 -7.779759 -1.668293,-7.52446 -7.064387 -1.351473,-7.533709 -6.28049 -1.051821,-7.725859 -5.616783 -0.7843615,-7.567346 -5.869224 -1.873905,-7.393363 -4.840692 -1.654017,-7.312338 -4.167768 -1.463457,-7.259356 -3.544272 -1.328921,-7.901039 -5.803667 -1.780922,-7.82971 -4.93991 -1.363609,-7.818448 -5.713047 -1.161577,-7.821733 -6.369028 -1.110724,-8.227474 -5.87901 -1.632326,-8.127007 -5.299701 -1.115873,-8.071824 -6.192675 -0.9525572,-8.089567 -6.830953 -0.9923605,-8.569825 -6.067089 -1.451491,-8.450377 -5.464498 -1.118012,-8.360779 -6.084972 -1.057305,-8.344051 -6.590901 -1.124295,2.810, 2
-1.828262 -8.283211 -0.9477316,-2.259262 -8.104836 -0.4716434,-2.613386 -7.536584 -0.1143696,-2.599542 -6.956487 0.2491829,-2.318139 -6.547057 0.5747101,-2.47322 -6.116943 -0.3088286,-2.58667 -5.212845 0.1234903,-2.642576 -4.653473 0.425536,-2.669533 -4.113825 0.6598804,-2.105848 -6.000978 -0.2834497,-2.05268 -6.078684 0.4087456,-2.05268 -6.078684 0.4087456,-2.135803 -7.511503 0.5982572,-1.758932 -6.120817 -0.2029681,-1.738994 -6.365057 0.4468265,-1.827358 -7.127109 0.553328,-1.909645 -7.598407 0.5066472,-1.437026 -6.357868 -0.08515978,-1.387521 -6.223203 0.3737375,-1.507009 -6.794973 0.4262317,-1.604658 -7.166576 0.3956627,-8.354521 -8.075478 -1.997494,-7.869442 -7.756708 -1.672337,-7.526238 -7.046381 -1.363031,-7.535913 -6.258984 -1.06803,-7.719611 -5.589774 -0.8029503,-7.565198 -5.863563 -1.881123,-7.389301 -4.823964 -1.651241,-7.30372 -4.148025 -1.457838,-7.249766 -3.528562 -1.328323,-7.902293 -5.798696 -1.794567,-7.826114 -4.945573 -1.363414,-7.817657 -5.736633 -1.165837,-7.827927 -6.401329 -1.132054,-8.229938 -5.871186 -1.647717,-8.124083 -5.298975 -1.124574,-8.069623 -6.19676 -0.9606739,-8.086941 -6.834885 -1.010581,-8.570745 -6.050916 -1.470299,-8.447732 -5.449539 -1.121137,-8.359759 -6.080189 -1.053093,-8.343752 -6.590431 -1.123652,2.910, 2
-1.827959 -8.36265 -0.7343708,-2.253901 -8.187687 -0.2694096,-2.609265 -7.639949 0.1259662,-2.585564 -7.080464 0.5222085,-2.312039 -6.667099 0.8903291,-2.48962 -6.159362 -0.06062055,-2.586794 -5.257124 0.3897103,-2.630299 -4.710187 0.6865478,-2.646924 -4.163794 0.9219364,-2.121789 -6.030687 -0.02858227,-2.056149 -6.192663 0.6955394,-2.056149 -6.192663 0.6955394,-2.172322 -7.579063 0.908103,-1.77189 -6.141265 0.056297,-1.742366 -6.488554 0.6952659,-1.836425 -7.23088 0.7665169,-1.942727 -7.64517 0.7062883,-1.451633 -6.363966 0.1816023,-1.40848 -6.403911 0.6162341,-1.531738 -6.994311 0.6584779,-1.646515 -7.341356 0.6129889,-8.383739 -8.073294 -1.984982,-7.896528 -7.767921 -1.658321,-7.546873 -7.067054 -1.354006,-7.545284 -6.278508 -1.067623,-7.728244 -5.593557 -0.8099474,-7.593011 -5.861454 -1.839912,-7.411883 -4.806882 -1.615242,-7.322634 -4.118556 -1.426674,-7.27092 -3.492107 -1.29705,-7.928421 -5.796009 -1.755361,-7.853285 -4.924969 -1.338505,-7.838799 -5.699106 -1.139434,-7.845576 -6.364672 -1.099248,-8.253161 -5.871692 -1.616582,-8.153388 -5.290914 -1.09743,-8.094092 -6.178634 -0.924451,-8.107044 -6.820091 -0.9605589,-8.591612 -6.054174 -1.449077,-8.475948 -5.449251 -1.103426,-8.385386 -6.069355 -1.033955,-8.366663 -6.581806 -1.094399,3.010, 2
-1.910315 -8.466501 -0.6514641,-2.358006 -8.292589 -0.1853705,-2.732602 -7.688347 0.1697813,-2.726671 -7.093814 0.5182246,-2.412686 -6.72495 0.8285525,-2.526063 -6.227914 -0.00972712,-2.617526 -5.352812 0.4090689,-2.667689 -4.774066 0.6988219,-2.683505 -4.216484 0.9401597,-2.157456 -6.088109 -0.002112389,-2.072792 -6.224792 0.6445447,-2.072792 -6.224792 0.6445447,-2.20174 -7.678833 0.7884177,-1.80927 -6.210726 0.06934041,-1.76192 -6.480958 0.6740692,-1.865112 -7.23566 0.7393501,-1.9757 -7.707617 0.6695641,-1.490865 -6.467735 0.1753076,-1.434339 -6.417572 0.6077429,-1.567534 -7.000539 0.6666467,-1.691483 -7.373153 0.6330441,-8.422434 -8.152639 -1.859675,-7.929298 -7.845037 -1.485461,-7.569773 -7.131189 -1.151025,-7.575173 -6.349426 -0.8388743,-7.791368 -5.707155 -0.5491661,-7.628077 -5.89075 -1.684512,-7.447472 -4.836887 -1.432748,-7.363508 -4.148297 -1.22631,-7.314736 -3.52085 -1.090093,-7.972664 -5.839476 -1.611749,-7.90948 -4.969277 -1.154514,-7.896458 -5.763891 -0.9476706,-7.896584 -6.446317 -0.9107332,-8.303237 -5.925548 -1.47646,-8.222637 -5.330314 -0.9028689,-8.16253 -6.22624 -0.6981585,-8.166128 -6.89045 -0.7343518,-8.645889 -6.118311 -1.313139,-8.55668 -5.505895 -0.927958,-8.464979 -6.13064 -0.8425094,-8.434349 -6.658376 -0.9076037,3.110, 2
-1.896442 -8.555573 -1.328196,-2.356499 -8.384138 -0.8962319,-2.732723 -7.894741 -0.5772731,-2.787704 -7.272737 -0.2407526,-2.559731 -6.898132 0.07109761,-2.583305 -6.413574 -0.8369823,-2.642668 -5.596554 -0.4717223,-2.690585 -5.001622 -0.2761889,-2.704912 -4.393444 -0.1683679,-2.245667 -6.35387 -0.828339,-2.185721 -6.040329 -0.2016327,-2.185721 -6.040329 -0.2016327,-2.226691 -7.34979 -0.1024597,-1.902345 -6.470375 -0.7253802,-1.853047 -6.21625 -0.1450378,-1.94345 -7.032079 -0.06629443,-1.998442 -7.471515 -0.1403629,-1.572572 -6.735918 -0.5934796,-1.538411 -6.431575 -0.2158282,-1.643847 -6.944946 -0.1215891,-1.71181 -7.27243 -0.1301979,-8.445956 -8.176273 -1.811117,-7.946298 -7.84865 -1.447059,-7.599398 -7.103008 -1.125175,-7.619403 -6.298652 -0.8239433,-7.830343 -5.639057 -0.5483087,-7.653424 -5.889871 -1.658963,-7.47066 -4.820974 -1.406343,-7.38793 -4.128075 -1.203989,-7.346249 -3.501225 -1.07958,-8.00303 -5.845056 -1.58805,-7.942411 -4.975898 -1.126268,-7.930159 -5.78586 -0.9235405,-7.932164 -6.46816 -0.8992022,-8.338803 -5.936702 -1.453679,-8.257295 -5.352071 -0.880233,-8.19418 -6.268257 -0.6793725,-8.199098 -6.927967 -0.7214453,-8.684651 -6.129398 -1.291704,-8.595891 -5.517707 -0.911563,-8.503844 -6.167039 -0.8303457,-8.475151 -6.699152 -0.8965625,3.210, 2
-1.957952 -8.44396 -1.33066,-2.394116 -8.362978 -0.9133521,-2.813286 -7.825058 -0.5018366,-2.913688 -7.223852 -0.09067786,-2.622859 -6.858066 0.2568589,-2.642604 -6.395771 -0.8166907,-2.730614 -5.572752 -0.4229582,-2.751643 -5.102411 -0.1605572,-2.746771 -4.622591 0.00923121,-2.308744 -6.256737 -0.7749751,-2.281723 -6.16318 -0.1329124,-2.281723 -6.16318 -0.1329124,-2.340839 -7.320716 0.009792924,-1.972749 -6.326242 -0.666849,-1.956566 -6.32719 -0.1530751,-2.027914 -7.106879 -0.123183,-2.083442 -7.377383 -0.1773679,-1.648129 -6.524211 -0.512946,-1.619227 -6.390583 -0.2379638,-1.717924 -6.98197 -0.2303779,-1.784197 -7.237207 -0.2617726,-8.451012 -8.209106 -1.733732,-7.951106 -7.835508 -1.383658,-7.614658 -7.103264 -1.050113,-7.626182 -6.298109 -0.7334055,-7.813974 -5.611756 -0.4367121,-7.638143 -5.906195 -1.574635,-7.460322 -4.829071 -1.336132,-7.386815 -4.147012 -1.134761,-7.344283 -3.529107 -1.006869,-7.993614 -5.859844 -1.492672,-7.942304 -5.008488 -1.030707,-7.948407 -5.829835 -0.8158832,-7.949989 -6.517517 -0.7815226,-8.332298 -5.948184 -1.354633,-8.261212 -5.365763 -0.8115503,-8.212673 -6.27268 -0.6194998,-8.214724 -6.931337 -0.6530677,-8.679743 -6.141614 -1.185426,-8.594798 -5.532716 -0.8354933,-8.509593 -6.166011 -0.7606887,-8.481384 -6.687801 -0.8274668,3.310, 2
-2.005464 -8.455925 -1.281832,-2.435278 -8.362234 -0.8220753,-2.825922 -7.807184 -0.4166408,-2.846441 -7.211266 -0.03084183,-2.533488 -6.921705 0.2818915,-2.633187 -6.385477 -0.6893622,-2.730409 -5.536916 -0.2829742,-2.771708 -5.006695 -0.03402317,-2.775877 -4.441839 0.1482004,-2.294643 -6.262183 -0.662493,-2.280183 -6.275623 -0.01474059,-2.280183 -6.275623 -0.01474059,-2.357811 -7.460205 0.06307065,-1.966523 -6.355875 -0.5646603,-1.966907 -6.442791 0.01879859,-2.06438 -7.212919 0.03493357,-2.13371 -7.517078 -0.05423844,-1.659227 -6.57868 -0.4186468,-1.63862 -6.484684 -0.07521164,-1.75303 -7.077089 -0.05911553,-1.831577 -7.355087 -0.1095505,-8.425153 -8.275761 -1.747983,-7.933741 -7.922571 -1.419086,-7.582465 -7.225454 -1.084954,-7.568089 -6.439458 -0.7744614,-7.755902 -5.765895 -0.4882989,-7.622009 -5.998421 -1.581931,-7.436184 -4.916585 -1.347434,-7.344825 -4.221942 -1.148468,-7.274404 -3.590632 -1.006789,-7.960978 -5.934333 -1.485339,-7.883281 -5.089665 -1.05748,-7.885042 -5.88499 -0.8392971,-7.898418 -6.545887 -0.7795939,-8.288644 -6.004926 -1.336409,-8.189637 -5.431962 -0.8224503,-8.143196 -6.299791 -0.6422611,-8.156256 -6.926185 -0.6591671,-8.632074 -6.19103 -1.158898,-8.512384 -5.59272 -0.8299229,-8.427035 -6.192667 -0.7593541,-8.412565 -6.700534 -0.8122723,3.410, 2
-2.016385 -8.469257 -1.325437,-2.43747 -8.372011 -0.8633752,-2.83057 -7.819822 -0.4671822,-2.838129 -7.245372 -0.08224988,-2.510875 -6.97972 0.2472811,-2.623928 -6.355554 -0.7727822,-2.729569 -5.513664 -0.3920662,-2.784433 -4.987203 -0.1552694,-2.800263 -4.461029 0.0277257,-2.283599 -6.277896 -0.734732,-2.273634 -6.187141 -0.07029498,-2.273634 -6.187141 -0.07029498,-2.353495 -7.460511 0.07136548,-1.954113 -6.400681 -0.6265907,-1.967624 -6.410449 -0.01048052,-2.074632 -7.189829 0.05440366,-2.141329 -7.570476 -0.02054024,-1.642291 -6.647919 -0.4758119,-1.633313 -6.464052 -0.07630265,-1.757761 -7.038583 -0.03310668,-1.839511 -7.360077 -0.07394159,-8.41977 -8.318312 -1.813797,-7.928564 -7.977714 -1.495714,-7.57107 -7.287717 -1.160389,-7.558789 -6.510326 -0.8430412,-7.760252 -5.85785 -0.5549736,-7.617061 -6.054325 -1.686917,-7.425133 -4.968106 -1.458275,-7.327868 -4.271652 -1.265105,-7.261519 -3.638559 -1.136527,-7.954085 -5.992729 -1.586575,-7.853583 -5.118794 -1.142768,-7.856495 -5.955994 -0.9575452,-7.882428 -6.63997 -0.9438884,-8.282418 -6.061512 -1.426842,-8.166878 -5.445966 -0.9045923,-8.118073 -6.341314 -0.7384114,-8.14011 -6.975519 -0.7903061,-8.6252 -6.246164 -1.238597,-8.497221 -5.619075 -0.9018421,-8.409555 -6.233047 -0.8373431,-8.399232 -6.74727 -0.9006669,3.510, 2
-2.004222 -8.536404 -1.122921,-2.441408 -8.410872 -0.6592758,-2.847852 -7.851241 -0.247125,-2.866122 -7.262622 0.1541859,-2.529147 -6.974804 0.4930977,-2.638186 -6.385242 -0.5677325,-2.746047 -5.566547 -0.1767142,-2.801736 -5.039722 0.07222533,-2.820879 -4.491283 0.2605714,-2.288675 -6.289029 -0.5240807,-2.293098 -6.232654 0.136283,-2.293098 -6.232654 0.136283,-2.36841 -7.500246 0.2667122,-1.953054 -6.409014 -0.411945,-1.98295 -6.458186 0.191692,-2.085896 -7.242347 0.2487854,-2.140354 -7.616855 0.1739271,-1.636108 -6.663067 -0.2545621,-1.640384 -6.50303 0.1205363,-1.76781 -7.082509 0.1528212,-1.841163 -7.405265 0.10611,-8.417605 -8.424755 -1.816758,-7.927778 -8.094294 -1.494396,-7.559447 -7.390769 -1.166146,-7.550761 -6.605585 -0.8597724,-7.760629 -5.93185 -0.5786781,-7.619949 -6.161361 -1.687525,-7.425713 -5.081377 -1.474134,-7.332862 -4.369739 -1.289166,-7.269772 -3.726251 -1.152969,-7.961702 -6.097524 -1.595641,-7.86911 -5.21944 -1.189473,-7.852921 -6.012887 -1.004213,-7.862179 -6.69389 -0.9643311,-8.291447 -6.164249 -1.446063,-8.166708 -5.590613 -0.9204736,-8.108875 -6.496118 -0.7464305,-8.128112 -7.160291 -0.7845436,-8.635647 -6.338022 -1.268798,-8.499817 -5.728296 -0.9281185,-8.412305 -6.365536 -0.8696098,-8.396527 -6.902202 -0.9283946,3.610, 2
-1.995614 -8.546284 -1.15796,-2.435061 -8.425533 -0.7200418,-2.84206 -7.877591 -0.3215069,-2.887569 -7.29369 0.07278824,-2.572163 -6.996753 0.4113618,-2.640787 -6.404508 -0.6164764,-2.758085 -5.571989 -0.2350275,-2.811228 -5.041891 0.02091587,-2.825004 -4.498704 0.2174306,-2.29552 -6.308425 -0.5702615,-2.293227 -6.234314 0.07805741,-2.293227 -6.234314 0.07805741,-2.363606 -7.495954 0.2305853,-1.96028 -6.429097 -0.4583948,-1.982793 -6.459608 0.1233698,-2.08005 -7.230947 0.1916645,-2.135048 -7.597684 0.1307808,-1.644031 -6.680463 -0.3054156,-1.646472 -6.530597 0.06300294,-1.768186 -7.106869 0.1094666,-1.838906 -7.418266 0.07350838,-8.410793 -8.465645 -1.762304,-7.929268 -8.126213 -1.437799,-7.564356 -7.430213 -1.110165,-7.547926 -6.656909 -0.7984722,-7.752957 -5.990364 -0.5151154,-7.626596 -6.175674 -1.646578,-7.423429 -5.097124 -1.434421,-7.32174 -4.387508 -1.252785,-7.253158 -3.742789 -1.120897,-7.964347 -6.120047 -1.547902,-7.858046 -5.261425 -1.11386,-7.855288 -6.080396 -0.9193349,-7.877112 -6.771627 -0.8915669,-8.297673 -6.198188 -1.387941,-8.164918 -5.62878 -0.8589392,-8.115578 -6.536386 -0.687804,-8.139978 -7.193906 -0.7335569,-8.642856 -6.383278 -1.200162,-8.493532 -5.788127 -0.8609196,-8.403692 -6.419717 -0.7953677,-8.389778 -6.943645 -0.857231,3.710, 2
-2.001352 -8.508385 -1.225567,-2.451048 -8.384859 -0.7727012,-2.856417 -7.818693 -0.3778754,-2.902161 -7.23039 0.007483959,-2.588317 -6.926587 0.3249712,-2.658797 -6.386093 -0.6637717,-2.782847 -5.527062 -0.2874789,-2.839241 -4.976633 -0.03801608,-2.852942 -4.422949 0.1605762,-2.312062 -6.295127 -0.6267523,-2.306949 -6.221364 0.01571357,-2.306949 -6.221364 0.01571357,-2.368217 -7.478782 0.1445104,-1.9751 -6.409053 -0.5235968,-1.992825 -6.428077 0.05186093,-2.080273 -7.193605 0.114085,-2.130263 -7.556507 0.05283201,-1.656976 -6.647284 -0.3768845,-1.659639 -6.478792 -0.009165525,-1.774045 -7.04682 0.04393876,-1.840131 -7.354099 0.01216054,-8.415326 -8.478765 -1.775674,-7.921073 -8.110493 -1.438816,-7.561419 -7.423803 -1.107107,-7.559216 -6.64121 -0.798412,-7.763521 -5.964603 -0.5236096,-7.602478 -6.200449 -1.649256,-7.394904 -5.126215 -1.413666,-7.295055 -4.419638 -1.210479,-7.230428 -3.777235 -1.06762,-7.941042 -6.142983 -1.556559,-7.841763 -5.28739 -1.104531,-7.850258 -6.125277 -0.9100847,-7.877997 -6.822027 -0.892135,-8.274466 -6.223466 -1.400799,-8.155956 -5.641141 -0.8558041,-8.113558 -6.558256 -0.685106,-8.142507 -7.209157 -0.7405716,-8.619736 -6.412378 -1.213906,-8.479627 -5.829021 -0.8622252,-8.393207 -6.468909 -0.8028208,-8.382954 -6.983001 -0.8781368,3.810, 2
-2.030033 -8.514774 -1.060874,-2.472311 -8.379372 -0.5996938,-2.870707 -7.810918 -0.1959718,-2.886237 -7.224159 0.1967332,-2.565264 -6.956995 0.5345385,-2.67071 -6.353218 -0.4806005,-2.780776 -5.485447 -0.08723044,-2.837502 -4.942443 0.1582049,-2.857947 -4.384477 0.3389773,-2.321154 -6.255588 -0.4405146,-2.330333 -6.204147 0.2248477,-2.330333 -6.204147 0.2248477,-2.393759 -7.461544 0.350925,-1.986535 -6.36779 -0.331307,-2.014503 -6.409662 0.2790382,-2.113707 -7.18555 0.3292007,-2.166221 -7.543317 0.2566707,-1.669002 -6.607646 -0.179046,-1.675102 -6.465921 0.200523,-1.798057 -7.043684 0.2395891,-1.868062 -7.347368 0.1993641,-8.423199 -8.471792 -1.784313,-7.929667 -8.146946 -1.470151,-7.563456 -7.451269 -1.148816,-7.547698 -6.665472 -0.8428231,-7.748506 -5.979125 -0.5606238,-7.597825 -6.21122 -1.661374,-7.39201 -5.126834 -1.43728,-7.295751 -4.3999 -1.237942,-7.231709 -3.740374 -1.086969,-7.936241 -6.141519 -1.56126,-7.837839 -5.270359 -1.13125,-7.83549 -6.073877 -0.9372111,-7.854184 -6.769117 -0.9023411,-8.273128 -6.211246 -1.400144,-8.141214 -5.656131 -0.8679331,-8.094083 -6.570175 -0.7042019,-8.122412 -7.23455 -0.7527952,-8.615463 -6.387413 -1.245118,-8.467659 -5.820302 -0.8989202,-8.386618 -6.465497 -0.8371595,-8.381484 -6.983064 -0.9070795,3.910, 2
-2.014094 -8.525562 -1.055102,-2.445519 -8.389544 -0.5929339,-2.855459 -7.833509 -0.1747,-2.896479 -7.262866 0.2339743,-2.577547 -7.003292 0.5914595,-2.652232 -6.354719 -0.4557096,-2.766943 -5.484373 -0.05483973,-2.824502 -4.941267 0.193148,-2.846109 -4.385829 0.381094,-2.300848 -6.271354 -0.4088141,-2.316007 -6.18869 0.2709407,-2.316007 -6.18869 0.2709407,-2.397478 -7.451103 0.4213567,-1.961849 -6.395319 -0.2939801,-2.000177 -6.426961 0.3314159,-2.103236 -7.188515 0.392646,-2.158923 -7.555069 0.3275491,-1.639318 -6.64221 -0.1365519,-1.644176 -6.46228 0.2581549,-1.767365 -7.026447 0.3024676,-1.83767 -7.341444 0.2662054,-8.426062 -8.477844 -1.818899,-7.931006 -8.154369 -1.508789,-7.559693 -7.471002 -1.182238,-7.542443 -6.687213 -0.8744229,-7.75279 -6.011733 -0.5923012,-7.611887 -6.225578 -1.700052,-7.393221 -5.135511 -1.477896,-7.290618 -4.403153 -1.283491,-7.224751 -3.745887 -1.137981,-7.950433 -6.155183 -1.597717,-7.845157 -5.285028 -1.176224,-7.837655 -6.087155 -0.9938527,-7.854136 -6.777568 -0.9639086,-8.282824 -6.222904 -1.433504,-8.143164 -5.66435 -0.9032682,-8.09139 -6.56994 -0.7384937,-8.118462 -7.227523 -0.7855417,-8.626404 -6.403566 -1.242724,-8.470926 -5.828693 -0.9021105,-8.384313 -6.468773 -0.8461911,-8.373133 -6.990508 -0.9096565,4.010, 2
-1.996654 -8.491196 -1.038929,-2.44574 -8.368786 -0.5764428,-2.862942 -7.813022 -0.1656625,-2.880537 -7.236238 0.2348388,-2.543871 -6.944704 0.5754104,-2.65211 -6.321313 -0.4573424,-2.78763 -5.453586 -0.0630278,-2.84985 -4.90037 0.1881435,-2.874657 -4.349474 0.3810867,-2.297921 -6.226677 -0.4188513,-2.31046 -6.153635 0.2497272,-2.31046 -6.153635 0.2497272,-2.376589 -7.438666 0.4046854,-1.956143 -6.344947 -0.3140224,-1.995494 -6.403686 0.2848889,-2.091281 -7.166727 0.3704149,-2.147077 -7.552404 0.3169644,-1.62991 -6.590906 -0.1669496,-1.656584 -6.461687 0.2237074,-1.783347 -7.035823 0.2939914,-1.856217 -7.362384 0.2708507,-8.410589 -8.496111 -1.832773,-7.917458 -8.167025 -1.510912,-7.5468 -7.477228 -1.185659,-7.552463 -6.708505 -0.882853,-7.780174 -6.066637 -0.617681,-7.599727 -6.231905 -1.72948,-7.389019 -5.134763 -1.481822,-7.29157 -4.418752 -1.28783,-7.23189 -3.77311 -1.156987,-7.942379 -6.174921 -1.623304,-7.831907 -5.388643 -1.139539,-7.848023 -6.258825 -0.9617637,-7.876796 -6.931831 -0.9778733,-8.276045 -6.246957 -1.447271,-8.147766 -5.745522 -0.8886738,-8.107908 -6.655739 -0.7338082,-8.132793 -7.268846 -0.8076584,-8.618609 -6.436388 -1.239629,-8.474309 -5.916659 -0.8898683,-8.392152 -6.554479 -0.8333604,-8.383332 -7.043996 -0.9127566,4.110, 2
-1.989512 -8.507368 -0.8848315,-2.439757 -8.360882 -0.407173,-2.84714 -7.816392 1.430511E-06,-2.843949 -7.236152 0.3724728,-2.494486 -6.966663 0.6785347,-2.651864 -6.32535 -0.2173302,-2.805065 -5.485889 0.2160382,-2.889085 -4.956689 0.4800477,-2.92849 -4.414467 0.6715127,-2.294351 -6.218009 -0.1923777,-2.294174 -6.158897 0.4683135,-2.294174 -6.158897 0.4683135,-2.376098 -7.441659 0.5766755,-1.95277 -6.34062 -0.09923744,-1.975847 -6.38417 0.5216525,-2.087394 -7.159021 0.5790911,-2.153294 -7.541532 0.5154216,-1.634338 -6.599972 0.03472018,-1.637267 -6.44827 0.4433537,-1.768377 -7.027523 0.5032287,-1.845514 -7.35926 0.4807924,-8.412963 -8.538015 -1.827674,-7.9219 -8.222813 -1.495964,-7.520664 -7.54141 -1.183751,-7.517115 -6.789052 -0.8996885,-7.774519 -6.179393 -0.6508358,-7.588694 -6.261676 -1.668067,-7.390282 -5.176927 -1.373997,-7.304938 -4.471357 -1.137396,-7.252835 -3.831377 -0.9724116,-7.939666 -6.222515 -1.558254,-7.841022 -5.530267 -1.035,-7.853164 -6.396629 -0.8114778,-7.877509 -7.062988 -0.7860367,-8.278687 -6.313686 -1.383784,-8.165485 -5.92102 -0.8121994,-8.117373 -6.799652 -0.6500975,-8.124232 -7.386467 -0.7022663,-8.626694 -6.516559 -1.17352,-8.489318 -6.103771 -0.8030862,-8.403016 -6.728141 -0.7369549,-8.375146 -7.18091 -0.8134222,4.210, 2
-1.981701 -8.506445 -1.062174,-2.434883 -8.337599 -0.5878415,-2.838239 -7.775182 -0.2169578,-2.841959 -7.197237 0.1316549,-2.512043 -6.95141 0.4273577,-2.645825 -6.337951 -0.4731449,-2.775289 -5.523197 -0.08684736,-2.837435 -5.01489 0.1659371,-2.85849 -4.495962 0.3626869,-2.290664 -6.246362 -0.4552925,-2.264351 -6.120792 0.1848202,-2.264351 -6.120792 0.1848202,-2.341671 -7.437454 0.3588058,-1.948593 -6.366402 -0.3721605,-1.951656 -6.32842 0.2369864,-2.055845 -7.10039 0.3252115,-2.121209 -7.531419 0.2739054,-1.624136 -6.622394 -0.2503948,-1.623061 -6.374553 0.1752939,-1.744812 -6.938613 0.2510991,-1.819007 -7.29383 0.2296337,-8.414392 -8.615177 -1.937591,-7.917013 -8.258345 -1.67236,-7.518512 -7.631716 -1.378617,-7.502079 -6.903942 -1.093008,-7.747351 -6.350452 -0.8118972,-7.608124 -6.389493 -1.880004,-7.434904 -5.39782 -1.618228,-7.36824 -4.794352 -1.389004,-7.326046 -4.26999 -1.240651,-7.940419 -6.324049 -1.748315,-7.825603 -5.596722 -1.282175,-7.836225 -6.431339 -1.034317,-7.871711 -7.133217 -0.9786735,-8.263479 -6.402068 -1.55744,-8.145238 -5.955005 -1.044203,-8.103626 -6.80916 -0.8496912,-8.115137 -7.417745 -0.8676435,-8.601163 -6.600899 -1.335145,-8.477594 -6.142543 -0.9685953,-8.397703 -6.732757 -0.8674541,-8.373226 -7.212148 -0.9019727,4.310, 2
-1.997103 -8.409126 -1.059617,-2.437629 -8.254572 -0.6270936,-2.828877 -7.691316 -0.2654932,-2.822125 -7.094065 0.07855332,-2.510932 -6.782932 0.3751285,-2.650084 -6.274885 -0.4837973,-2.767666 -5.507136 -0.1018593,-2.809148 -5.038983 0.1411989,-2.812083 -4.574001 0.323212,-2.296167 -6.145194 -0.4590804,-2.252674 -6.136451 0.1510031,-2.252674 -6.136451 0.1510031,-2.33599 -7.380164 0.3422307,-1.956552 -6.248214 -0.3750967,-1.944416 -6.360343 0.165655,-2.043999 -7.101186 0.2436403,-2.12662 -7.474369 0.2027936,-1.636314 -6.491554 -0.2478925,-1.621398 -6.424749 0.1160204,-1.740395 -6.997566 0.1780353,-1.827424 -7.311061 0.1593144,-8.40546 -8.612066 -1.944608,-7.915437 -8.237774 -1.669362,-7.515821 -7.603961 -1.37819,-7.503587 -6.884818 -1.09548,-7.75026 -6.344654 -0.8067636,-7.613873 -6.39783 -1.880332,-7.453281 -5.463525 -1.589205,-7.406366 -4.894971 -1.33782,-7.390051 -4.416538 -1.17941,-7.949675 -6.319213 -1.756271,-7.868955 -5.658808 -1.293457,-7.878527 -6.477686 -1.039915,-7.903756 -7.172923 -0.9711284,-8.276215 -6.39874 -1.577183,-8.190769 -5.968866 -1.080097,-8.145649 -6.809346 -0.8916854,-8.146037 -7.426795 -0.9062296,-8.618885 -6.604429 -1.35975,-8.520459 -6.167421 -0.9908845,-8.435331 -6.753994 -0.8815335,-8.399271 -7.232791 -0.9059346,4.410, 2
-1.99265 -8.353565 -1.122972,-2.427242 -8.217888 -0.6887184,-2.820631 -7.64438 -0.3372481,-2.839311 -7.054035 0.003198743,-2.539532 -6.755298 0.3068609,-2.660906 -6.241682 -0.5500817,-2.780802 -5.508218 -0.1662117,-2.81767 -5.035524 0.08563733,-2.814918 -4.57278 0.2866824,-2.306016 -6.110994 -0.5205252,-2.248973 -6.060661 0.09570086,-2.248973 -6.060661 0.09570086,-2.324413 -7.338748 0.3316518,-1.962904 -6.213483 -0.4353019,-1.937706 -6.29533 0.1131356,-2.030206 -7.045404 0.2058229,-2.116335 -7.451931 0.1674601,-1.642351 -6.464284 -0.3105572,-1.616874 -6.371428 0.08552408,-1.728474 -6.955978 0.1582702,-1.819679 -7.291662 0.1384214,-8.347335 -8.483322 -1.837546,-7.898158 -8.173313 -1.487557,-7.487001 -7.547554 -1.150772,-7.484558 -6.900344 -0.8347915,-7.786509 -6.524259 -0.4862481,-7.626225 -6.255292 -1.590373,-7.507751 -5.465219 -1.233076,-7.453889 -4.956796 -0.9166751,-7.405955 -4.543452 -0.699191,-7.975187 -6.163586 -1.484119,-7.888628 -5.64325 -0.9924713,-7.849135 -6.423589 -0.7112187,-7.859493 -7.099559 -0.5947721,-8.309459 -6.271856 -1.321329,-8.218526 -5.985493 -0.8040701,-8.13472 -6.800627 -0.6016117,-8.124393 -7.411521 -0.5998071,-8.654197 -6.532521 -1.12143,-8.550416 -6.25522 -0.6734347,-8.433414 -6.842124 -0.5460658,-8.37957 -7.310525 -0.5611353,4.510, 2
-2.005224 -8.238537 -1.239816,-2.429467 -8.132923 -0.8306168,-2.835619 -7.577491 -0.4898745,-2.909221 -6.979913 -0.1460514,-2.623406 -6.64656 0.167438,-2.715294 -6.20305 -0.7203969,-2.853241 -5.517385 -0.3490562,-2.890903 -5.067863 -0.09315825,-2.890068 -4.619108 0.09746122,-2.370577 -6.028423 -0.677159,-2.322723 -6.005291 -0.09675407,-2.322723 -6.005291 -0.09675407,-2.360975 -7.190025 0.1792728,-2.028591 -6.097583 -0.5835598,-2.014612 -6.22848 -0.07639205,-2.078636 -6.968956 0.0285989,-2.139703 -7.353462 0.004012704,-1.698306 -6.321062 -0.4460099,-1.685779 -6.254671 -0.08279979,-1.782646 -6.827564 -0.006921053,-1.860099 -7.15611 -0.02189851,-8.320981 -8.382275 -1.802568,-7.878559 -8.125677 -1.384578,-7.463987 -7.530932 -0.9958351,-7.449281 -6.940214 -0.6487759,-7.735778 -6.544146 -0.2822587,-7.595319 -6.202981 -1.444776,-7.483568 -5.516271 -1.027973,-7.452742 -5.038687 -0.6579216,-7.420979 -4.632018 -0.3875152,-7.953898 -6.065088 -1.368939,-7.885324 -5.608129 -0.8475637,-7.848789 -6.330263 -0.5494196,-7.839676 -6.959777 -0.4233271,-8.307471 -6.166213 -1.22952,-8.210119 -6.049566 -0.6904176,-8.123724 -6.847234 -0.5128173,-8.09467 -7.412401 -0.535583,-8.661032 -6.452564 -1.052504,-8.533285 -6.33024 -0.6023104,-8.409764 -6.932964 -0.488711,-8.341781 -7.374155 -0.5243908,4.610, 2
-2.018218 -8.210798 -1.221032,-2.44425 -8.11821 -0.8055294,-2.8532 -7.576455 -0.455942,-2.932755 -7.0035 -0.1004349,-2.653825 -6.67344 0.2172258,-2.726846 -6.186041 -0.6787625,-2.863931 -5.532955 -0.2769806,-2.90556 -5.090412 -0.006447554,-2.912598 -4.628421 0.1954682,-2.383327 -6.000327 -0.6378769,-2.334344 -6.028089 -0.04444122,-2.334344 -6.028089 -0.04444122,-2.379716 -7.191396 0.1862867,-2.044569 -6.073379 -0.5399334,-2.024018 -6.23419 -0.03281951,-2.089942 -6.97265 0.03909707,-2.156689 -7.31232 0.0006312132,-1.720458 -6.304933 -0.3978294,-1.695533 -6.262855 -0.05494463,-1.795488 -6.832575 0.006795049,-1.878407 -7.13362 -0.008439302,-8.324492 -8.346312 -1.840964,-7.876353 -8.116186 -1.418672,-7.461106 -7.521158 -1.029418,-7.43594 -6.927952 -0.6829144,-7.718715 -6.55163 -0.317698,-7.592009 -6.197788 -1.464218,-7.487867 -5.514179 -1.009854,-7.448652 -5.028165 -0.6180664,-7.408654 -4.609161 -0.3447905,-7.949761 -6.044151 -1.394414,-7.886819 -5.632078 -0.851487,-7.851997 -6.377784 -0.5733188,-7.846973 -6.983214 -0.4804332,-8.304082 -6.138498 -1.257471,-8.21562 -6.038581 -0.7010607,-8.123528 -6.836913 -0.5454521,-8.090655 -7.385166 -0.5945902,-8.65833 -6.424465 -1.084471,-8.532402 -6.316591 -0.6250066,-8.403602 -6.925917 -0.5230439,-8.332033 -7.36745 -0.5778306,4.710, 2
-2.030948 -8.179266 -1.25709,-2.444707 -8.123804 -0.8171225,-2.845701 -7.579572 -0.4645392,-2.886071 -7.021484 -0.1186306,-2.610555 -6.74381 0.2084416,-2.725293 -6.181589 -0.6261205,-2.851768 -5.546535 -0.203199,-2.895313 -5.097276 0.07133496,-2.89887 -4.6253 0.2849191,-2.380339 -5.997693 -0.6007761,-2.314635 -5.975078 1.490116E-05,-2.314635 -5.975078 1.490116E-05,-2.35696 -7.171135 0.2603951,-2.034734 -6.064855 -0.524438,-1.987324 -6.168716 0.01453662,-2.065846 -6.916322 0.09664261,-2.147474 -7.289793 0.05945098,-1.710938 -6.292781 -0.4043702,-1.672234 -6.224039 -0.03071868,-1.77763 -6.807931 0.02325618,-1.874908 -7.123476 -0.002445698,-8.326017 -8.298704 -2.096579,-7.883396 -8.084538 -1.660403,-7.468626 -7.471157 -1.273094,-7.452242 -6.867769 -0.9261101,-7.749245 -6.51075 -0.5695792,-7.600797 -6.198514 -1.743947,-7.486785 -5.480205 -1.288857,-7.440369 -4.97489 -0.9102564,-7.410541 -4.524713 -0.6501992,-7.957995 -6.066505 -1.672249,-7.892056 -5.624339 -1.084134,-7.850912 -6.39118 -0.8217969,-7.848975 -6.997566 -0.7587643,-8.313858 -6.153958 -1.529224,-8.224895 -6.010471 -0.9242334,-8.123478 -6.843048 -0.7838259,-8.093888 -7.406642 -0.8692839,-8.668176 -6.418813 -1.349694,-8.548407 -6.267972 -0.8700593,-8.415924 -6.900528 -0.7876097,-8.348124 -7.348752 -0.8728467,4.810, 2
-2.020493 -8.136173 -1.434108,-2.439382 -8.102488 -0.9804293,-2.854106 -7.584917 -0.5927925,-2.921329 -7.033359 -0.2109766,-2.624007 -6.739479 0.1343479,-2.706863 -6.183124 -0.7978356,-2.834799 -5.513988 -0.3939222,-2.884556 -5.040959 -0.1440926,-2.901126 -4.558815 0.05551052,-2.365666 -6.010488 -0.7679487,-2.291483 -6.011348 -0.1622469,-2.291483 -6.011348 -0.1622469,-2.351153 -7.141943 0.07068717,-2.027047 -6.096509 -0.684769,-1.980669 -6.23867 -0.1587356,-2.052869 -6.962188 -0.07719481,-2.132325 -7.306703 -0.1111662,-1.712244 -6.340207 -0.5591577,-1.660062 -6.250887 -0.2051926,-1.761855 -6.800844 -0.1479038,-1.857424 -7.104753 -0.1690094,-8.312244 -8.271099 -2.260085,-7.879185 -8.0709 -1.797995,-7.466517 -7.49872 -1.378277,-7.414854 -6.921675 -0.9975132,-7.684531 -6.526158 -0.6134117,-7.604988 -6.200366 -1.885029,-7.482223 -5.426673 -1.459803,-7.436528 -4.890036 -1.092949,-7.406574 -4.403106 -0.8062407,-7.954633 -6.088559 -1.81947,-7.849748 -5.595989 -1.200004,-7.796578 -6.414781 -0.9375368,-7.804402 -7.070487 -0.8871317,-8.311533 -6.190239 -1.670607,-8.196013 -5.907392 -1.07951,-8.101404 -6.735588 -0.9341594,-8.080565 -7.32905 -1.006874,-8.671943 -6.439502 -1.486512,-8.540377 -6.173664 -1.010717,-8.413706 -6.78628 -0.9170599,-8.356801 -7.262907 -0.9799448,4.910, 2
-2.039311 -8.12225 -1.802674,-2.452143 -8.104549 -1.311815,-2.860643 -7.573202 -0.9243148,-2.928711 -7.003093 -0.5575907,-2.635393 -6.731866 -0.2456535,-2.703211 -6.225227 -1.156664,-2.847356 -5.433393 -0.7211372,-2.929814 -4.86705 -0.4387586,-2.976264 -4.292955 -0.2243043,-2.364955 -6.104628 -1.138693,-2.321978 -5.975269 -0.4804924,-2.321978 -5.975269 -0.4804924,-2.36325 -7.14579 -0.3314359,-2.030694 -6.209072 -1.052786,-2.016877 -6.191873 -0.4471225,-2.094693 -6.936258 -0.3625412,-2.161677 -7.307014 -0.4148668,-1.712023 -6.442345 -0.925648,-1.686596 -6.208729 -0.5113868,-1.791164 -6.760828 -0.437986,-1.875926 -7.086822 -0.4587573,-8.293523 -8.193556 -2.484539,-7.868124 -8.052134 -2.100198,-7.446133 -7.462541 -1.742026,-7.380483 -6.837907 -1.401516,-7.640718 -6.403171 -1.066083,-7.612442 -6.182271 -2.161541,-7.453969 -5.240633 -1.80547,-7.385807 -4.53678 -1.486365,-7.34331 -3.921868 -1.223564,-7.959159 -6.06652 -2.079299,-7.82058 -5.558977 -1.524118,-7.784495 -6.377779 -1.328708,-7.799056 -7.037666 -1.338541,-8.30624 -6.152771 -1.91737,-8.158149 -5.852436 -1.370172,-8.087731 -6.667323 -1.228866,-8.073877 -7.264842 -1.293581,-8.651569 -6.36631 -1.735244,-8.476734 -6.112413 -1.293867,-8.362192 -6.705539 -1.206104,-8.315157 -7.166355 -1.268065,5.010, 2
-2.023682 -8.237419 -2.026394,-2.451749 -8.232876 -1.505617,-2.887062 -7.636121 -1.188465,-2.975022 -6.971504 -0.8954332,-2.687718 -6.52677 -0.6554307,-2.767477 -6.332979 -1.548863,-2.961338 -5.347973 -1.209832,-3.093582 -4.6629 -0.9509405,-3.189903 -4.075374 -0.7376168,-2.430422 -6.250834 -1.541898,-2.485202 -5.888742 -0.8989421,-2.485202 -5.888742 -0.8989421,-2.447328 -7.245278 -0.8326935,-2.095156 -6.319966 -1.453774,-2.17451 -6.040441 -0.7873497,-2.221497 -6.834942 -0.6375793,-2.225328 -7.368518 -0.6939653,-1.743855 -6.483896 -1.321495,-1.826805 -6.055479 -0.8402308,-1.941552 -6.608324 -0.7245967,-1.997555 -7.043998 -0.7194911,-8.311235 -8.331347 -2.712422,-7.857608 -8.163488 -2.428266,-7.412759 -7.558197 -2.103747,-7.317443 -6.886997 -1.77801,-7.55101 -6.38919 -1.526682,-7.558163 -6.345006 -2.521213,-7.347277 -5.164329 -2.246058,-7.236976 -4.40871 -2.019571,-7.177463 -3.73253 -1.819921,-7.874788 -6.274541 -2.398935,-7.635277 -5.573175 -1.881764,-7.583504 -6.349229 -1.71632,-7.626705 -6.936693 -1.716563,-8.195218 -6.334259 -2.203455,-7.947301 -5.855957 -1.702085,-7.884418 -6.647745 -1.6014,-7.917089 -7.187151 -1.651541,-8.519942 -6.494176 -1.984655,-8.265104 -6.016272 -1.655201,-8.159361 -6.577623 -1.59519,-8.161213 -7.014802 -1.628756,5.110, 2
-1.957041 -8.416513 -2.003702,-2.421504 -8.373425 -1.585834,-2.879588 -7.810977 -1.316536,-3.016281 -7.143394 -1.048008,-2.778353 -6.610178 -0.8384875,-2.789598 -6.532274 -1.641804,-3.061979 -5.515646 -1.329204,-3.24272 -4.860733 -1.053278,-3.373854 -4.281874 -0.8335239,-2.476955 -6.427854 -1.618533,-2.608803 -6.036334 -1.053297,-2.608803 -6.036334 -1.053297,-2.508025 -7.349611 -0.96769,-2.151839 -6.450548 -1.524396,-2.308342 -6.140102 -0.9395127,-2.331042 -6.924225 -0.7719074,-2.27791 -7.437218 -0.7843871,-1.801247 -6.551677 -1.399106,-1.962703 -6.104694 -0.9799424,-2.065298 -6.656406 -0.8640226,-2.07739 -7.081445 -0.832477,-8.354978 -8.534369 -2.557025,-7.850765 -8.381777 -2.305933,-7.362644 -7.818264 -2.035351,-7.204842 -7.154613 -1.767661,-7.37986 -6.561772 -1.589778,-7.474628 -6.575525 -2.466942,-7.216516 -5.44013 -2.23661,-7.058977 -4.736843 -2.019194,-6.943995 -4.101381 -1.813507,-7.773396 -6.456333 -2.325691,-7.453668 -5.791487 -1.860403,-7.430451 -6.564874 -1.644978,-7.513602 -7.176033 -1.583093,-8.088933 -6.47175 -2.113648,-7.767595 -5.971811 -1.622257,-7.735946 -6.772226 -1.474524,-7.800642 -7.359506 -1.476839,-8.42116 -6.602264 -1.879639,-8.129626 -6.130088 -1.555791,-8.013009 -6.686906 -1.464285,-8.011072 -7.165487 -1.454348,5.210, 2
-1.860484 -8.656603 -1.816601,-2.420001 -8.644552 -1.611078,-2.960199 -8.143795 -1.364227,-3.216456 -7.579503 -1.051794,-3.13863 -7.154617 -0.7807838,-2.958603 -6.896616 -1.633852,-3.328358 -5.973913 -1.212897,-3.566193 -5.420763 -0.8949221,-3.757902 -4.890444 -0.6866276,-2.643574 -6.689498 -1.473751,-2.991801 -6.573532 -0.7563885,-2.991801 -6.573532 -0.7563885,-2.708263 -7.553743 -0.585731,-2.313038 -6.626911 -1.240013,-2.659959 -6.61223 -0.6554646,-2.589546 -7.298387 -0.6035701,-2.45922 -7.532521 -0.6790843,-1.969441 -6.651388 -0.9830763,-2.311992 -6.622043 -0.6382965,-2.370223 -7.212776 -0.611688,-2.312339 -7.508466 -0.6569108,-8.327228 -8.879375 -1.948684,-7.776992 -8.814003 -1.894239,-7.246922 -8.319584 -1.680649,-6.963356 -7.772758 -1.411452,-7.023275 -7.23484 -1.155399,-7.350209 -6.806375 -2.05618,-7.02127 -5.866445 -1.852088,-6.783419 -5.264186 -1.677175,-6.575251 -4.713686 -1.504406,-7.63295 -6.645496 -1.799683,-7.171217 -6.313449 -1.350814,-7.049645 -6.955716 -1.02042,-7.100454 -7.535027 -0.8772409,-7.912819 -6.670946 -1.504878,-7.45427 -6.387859 -1.045483,-7.329685 -7.092006 -0.8034811,-7.363914 -7.777603 -0.7176447,-8.184456 -6.853155 -1.197186,-7.791845 -6.70799 -0.8395265,-7.633514 -7.236721 -0.6942409,-7.602365 -7.792215 -0.6285733,5.310, 2
-1.828653 -8.624922 -0.6683081,-2.445021 -8.521841 -0.9848232,-2.909654 -8.017012 -0.889228,-3.234314 -7.680776 -0.6816394,-3.488663 -7.331419 -0.5229988,-2.756761 -6.401947 -0.9524271,-3.183334 -5.742816 -0.7204176,-3.493349 -5.214902 -0.508583,-3.733007 -4.721328 -0.2772081,-2.497658 -6.248762 -0.5208035,-3.239885 -6.629447 -0.1411105,-3.239885 -6.629447 -0.1411105,-2.915635 -7.719363 -0.272947,-2.300711 -6.397663 -0.04600197,-3.020897 -6.951211 0.3338048,-2.851312 -7.588424 0.1346644,-2.600915 -7.641832 -0.02125442,-2.162342 -6.756191 0.4262921,-2.780606 -7.235187 0.5754905,-2.708703 -7.724048 0.3872157,-2.462485 -7.779957 0.2772529,-8.321867 -8.871151 -1.026502,-7.628717 -8.786034 -1.31733,-7.129749 -8.306379 -1.20574,-6.766798 -7.920097 -0.9667327,-6.616077 -7.393882 -0.7362252,-7.407537 -6.530815 -1.268145,-6.949282 -5.851106 -1.083741,-6.629866 -5.352812 -0.9696785,-6.390323 -4.89633 -0.8502938,-7.640118 -6.358377 -0.8836948,-6.829926 -6.666141 -0.7264309,-6.852177 -7.469771 -0.7580581,-7.084081 -7.856157 -0.8403114,-7.781799 -6.52461 -0.4716231,-6.997947 -6.990396 -0.2721272,-7.090475 -7.768069 -0.3834018,-7.323674 -8.135653 -0.4907895,-7.841951 -6.942875 -0.06434458,-7.168332 -7.36774 0.02589464,-7.191779 -7.950905 -0.1433644,-7.39801 -8.226921 -0.2798131,5.410, 4
-1.84823 -8.585024 -0.5261825,-2.490702 -8.395575 -0.9771147,-2.93425 -7.818561 -0.9361038,-3.255688 -7.480505 -0.7756969,-3.538313 -7.191589 -0.6664247,-2.720656 -6.243067 -0.7443538,-3.216467 -5.683928 -0.590514,-3.543262 -5.197809 -0.4468158,-3.779227 -4.680713 -0.2360341,-2.501631 -6.169453 -0.2893492,-3.318356 -6.702877 -0.0285615,-3.318356 -6.702877 -0.0285615,-2.945871 -7.553045 -0.2333558,-2.360661 -6.428665 0.18442,-3.166117 -7.006117 0.3915241,-3.004484 -7.515282 0.1719456,-2.767256 -7.537813 0.05640614,-2.277116 -6.885691 0.6443385,-2.941685 -7.293265 0.6738487,-2.89913 -7.706003 0.4964691,-2.687953 -7.781106 0.4194931,-8.304075 -8.780424 -0.9970629,-7.580572 -8.641136 -1.440084,-7.113571 -8.16959 -1.392963,-6.751766 -7.838652 -1.171675,-6.511054 -7.428335 -0.9222428,-7.332583 -6.390934 -1.334553,-6.862521 -5.780593 -1.153187,-6.53897 -5.325736 -1.015653,-6.294558 -4.909021 -0.9054141,-7.551308 -6.276705 -0.9092619,-6.729988 -6.650974 -0.8373924,-6.80143 -7.434325 -0.9201281,-7.044842 -7.727268 -1.018239,-7.683847 -6.506329 -0.4604105,-6.869182 -6.97804 -0.3455025,-6.994607 -7.73945 -0.5269086,-7.237999 -8.018644 -0.6633588,-7.743534 -6.987733 -0.02054948,-7.043361 -7.335295 -0.0009545088,-7.076933 -7.862003 -0.1993165,-7.28929 -8.071997 -0.3316385,5.510, 4
-1.934638 -8.459579 -0.534112,-2.582081 -8.251913 -1.035024,-3.036203 -7.628222 -0.9921688,-3.376785 -7.243204 -0.8246,-3.716612 -6.921766 -0.6954292,-2.791095 -6.103244 -0.7708193,-3.287313 -5.512985 -0.6038644,-3.634721 -5.031009 -0.4471964,-3.890429 -4.554159 -0.2307701,-2.602466 -6.050029 -0.2997698,-3.420611 -6.495157 -0.05611938,-3.420611 -6.495157 -0.05611938,-3.117608 -7.445342 -0.1931946,-2.497989 -6.311903 0.1717673,-3.303498 -6.867985 0.3072826,-3.163113 -7.446184 0.06726068,-2.929574 -7.524525 -0.01905924,-2.458941 -6.764851 0.638867,-3.10274 -7.25275 0.5716428,-3.022018 -7.695217 0.3647775,-2.78793 -7.765821 0.2910991,-8.33462 -8.490152 -1.028856,-7.586753 -8.293081 -1.714819,-7.129781 -7.775888 -1.749365,-6.768783 -7.509941 -1.550041,-6.484156 -7.24884 -1.320153,-7.346951 -6.04701 -1.532428,-6.825133 -5.472629 -1.434861,-6.453871 -5.10921 -1.339179,-6.182971 -4.783624 -1.260448,-7.533282 -6.009645 -1.018782,-6.619596 -6.364641 -1.031777,-6.714645 -7.108528 -1.173315,-6.986627 -7.312042 -1.274294,-7.619494 -6.300643 -0.5077195,-6.700704 -6.730662 -0.5381047,-6.843507 -7.454838 -0.7652192,-7.108464 -7.63504 -0.8995724,-7.625178 -6.812061 -0.02756846,-6.873773 -7.177022 -0.1679347,-6.947343 -7.663139 -0.4257604,-7.188844 -7.784567 -0.5423666,5.610, 4
-1.940619 -8.361719 -0.2686836,-2.572763 -8.127518 -0.7085339,-3.035233 -7.505257 -0.6573116,-3.383444 -7.133893 -0.5056272,-3.711685 -6.853853 -0.3824546,-2.757911 -5.918746 -0.4479781,-3.270521 -5.379743 -0.263659,-3.639154 -4.991102 -0.1100491,-3.92853 -4.611219 0.0953359,-2.546126 -5.860069 -0.006562799,-3.375647 -6.362603 0.2425506,-3.375647 -6.362603 0.2425506,-3.029858 -7.318397 0.06541845,-2.426363 -6.128603 0.4538604,-3.242339 -6.690945 0.64465,-3.074177 -7.275938 0.4124349,-2.826666 -7.340132 0.323187,-2.377009 -6.600132 0.9083812,-3.041515 -7.032182 0.8945733,-2.952172 -7.473905 0.6909763,-2.714408 -7.533992 0.6150628,-8.411128 -8.335501 -0.6237108,-7.64278 -8.106148 -1.374712,-7.198367 -7.599326 -1.413639,-6.84087 -7.353826 -1.199258,-6.550999 -7.115791 -0.9577613,-7.3753 -5.808975 -1.164788,-6.853619 -5.276542 -1.088343,-6.477502 -4.985437 -1.005232,-6.185957 -4.77436 -0.9277952,-7.571231 -5.745778 -0.6146799,-6.675194 -6.230762 -0.6813801,-6.80217 -6.94454 -0.8285481,-7.062141 -7.084787 -0.9025619,-7.667727 -6.049769 -0.08076644,-6.764091 -6.560552 -0.1553809,-6.92728 -7.252825 -0.3742818,-7.174452 -7.389968 -0.4877123,-7.692042 -6.578147 0.4164158,-6.934031 -7.015625 0.2488441,-7.034707 -7.52057 -0.01888275,-7.284704 -7.621234 -0.1414446,5.710, 4
-1.903153 -8.313057 -0.3078694,-2.542789 -8.073471 -0.7209113,-3.017111 -7.484895 -0.6315264,-3.387787 -7.139193 -0.4492852,-3.741732 -6.87261 -0.2711866,-2.753546 -5.90455 -0.4357142,-3.233196 -5.3617 -0.221368,-3.605238 -4.984689 -0.03793612,-3.912834 -4.655845 0.1937615,-2.527525 -5.832739 -0.001423597,-3.36484 -6.304712 0.2496679,-3.36484 -6.304712 0.2496679,-3.074356 -7.41281 0.04181826,-2.393093 -6.098121 0.4500846,-3.212927 -6.675581 0.6679926,-3.057641 -7.316509 0.4118509,-2.803781 -7.414629 0.2977809,-2.329018 -6.568624 0.8899013,-2.992088 -7.033439 0.9093136,-2.895484 -7.490114 0.687686,-2.644352 -7.535579 0.5933169,-8.47753 -8.319962 -0.6475962,-7.72023 -8.09339 -1.391196,-7.251814 -7.579824 -1.436202,-6.872801 -7.336433 -1.231192,-6.562379 -7.087364 -0.9937611,-7.414294 -5.78222 -1.177799,-6.892761 -5.232257 -1.099002,-6.506945 -4.97723 -1.022066,-6.208858 -4.823297 -0.9488522,-7.614713 -5.745025 -0.6306665,-6.736535 -6.181728 -0.6843864,-6.862327 -6.900319 -0.8344308,-7.122203 -7.056926 -0.922166,-7.717713 -6.067023 -0.09890044,-6.828389 -6.51221 -0.1634096,-6.991979 -7.2082 -0.3952732,-7.240758 -7.360324 -0.5262856,-7.747776 -6.602035 0.3922697,-6.996289 -6.984057 0.2477213,-7.085909 -7.475627 -0.0149278,-7.32651 -7.580598 -0.1482169,5.810, 4
-1.87332 -8.241154 -0.4715789,-2.500262 -8.029673 -0.8768835,-2.987704 -7.455272 -0.7713841,-3.372686 -7.145545 -0.565855,-3.736893 -6.916368 -0.3619522,-2.761378 -5.883977 -0.5762624,-3.222784 -5.359804 -0.3269444,-3.599458 -5.005701 -0.1276164,-3.918365 -4.717865 0.112318,-2.520319 -5.819458 -0.1342148,-3.332303 -6.279094 0.1452537,-3.332303 -6.279094 0.1452537,-3.060726 -7.412143 -0.06887391,-2.363816 -6.080929 0.3257607,-3.155205 -6.661895 0.5699583,-3.004217 -7.318515 0.2980911,-2.757149 -7.40715 0.1625662,-2.272339 -6.552331 0.7736157,-2.91745 -7.050718 0.7904956,-2.824353 -7.506097 0.5460985,-2.574545 -7.527313 0.4249215,-8.57844 -8.342909 -0.3689118,-7.782038 -8.111574 -1.097633,-7.307777 -7.594226 -1.148294,-6.928581 -7.365388 -0.9469798,-6.601406 -7.160479 -0.6968356,-7.437429 -5.74563 -0.9178795,-6.911359 -5.235698 -0.7998943,-6.51326 -5.038446 -0.6928258,-6.199918 -4.945242 -0.5988983,-7.659257 -5.703018 -0.3759325,-6.788574 -6.199545 -0.3793502,-6.911774 -6.936624 -0.5018183,-7.173553 -7.086366 -0.5865895,-7.793482 -6.035483 0.1637517,-6.908686 -6.497283 0.1735827,-7.054585 -7.208129 -0.07905671,-7.297121 -7.374158 -0.2503371,-7.8694 -6.583557 0.6616057,-7.12096 -6.922592 0.5896018,-7.173038 -7.412527 0.3192396,-7.396076 -7.531257 0.1405051,5.910, 4
-1.879001 -8.12538 -0.4951656,-2.49448 -7.942109 -0.8277723,-2.984097 -7.393285 -0.6991207,-3.352144 -7.075098 -0.486192,-3.656904 -6.803208 -0.2801667,-2.786617 -5.824129 -0.5252536,-3.251207 -5.267358 -0.2648232,-3.608599 -4.843423 -0.05463368,-3.916442 -4.461749 0.1919714,-2.537452 -5.721275 -0.1083003,-3.33482 -6.237932 0.2080797,-3.33482 -6.237932 0.2080797,-3.045853 -7.360349 -0.008156478,-2.362615 -5.954854 0.3334981,-3.128035 -6.593644 0.6307248,-2.971469 -7.232358 0.3712829,-2.736374 -7.332983 0.2233567,-2.244642 -6.405724 0.7652763,-2.867196 -6.93872 0.8436863,-2.789886 -7.400869 0.6157393,-2.567675 -7.452703 0.4997615,-8.674126 -8.376369 -0.2172516,-7.864371 -8.135057 -0.8934605,-7.379815 -7.608941 -0.931206,-6.987839 -7.358828 -0.723989,-6.685878 -7.154047 -0.452498,-7.51816 -5.758584 -0.7502435,-6.996988 -5.229177 -0.6162067,-6.607767 -4.978717 -0.4962931,-6.285787 -4.824411 -0.404814,-7.747656 -5.693187 -0.223812,-6.906974 -6.177131 -0.1907336,-7.020496 -6.862393 -0.2733068,-7.280626 -7.002792 -0.3320125,-7.885615 -6.00724 0.3059158,-7.021801 -6.47743 0.3416697,-7.149676 -7.144463 0.113933,-7.390161 -7.319013 -0.05898364,-7.968639 -6.531353 0.8067558,-7.247537 -6.853782 0.7745214,-7.260826 -7.299219 0.5372694,-7.455108 -7.443905 0.3810731,6.010, 4
-1.913422 -8.108709 -0.5647072,-2.524422 -7.971735 -0.8447331,-2.99587 -7.441099 -0.6976998,-3.352804 -7.097303 -0.4795968,-3.652678 -6.784069 -0.2720678,-2.814085 -5.836301 -0.5445628,-3.268307 -5.259235 -0.2518385,-3.62266 -4.821935 -0.006223381,-3.922273 -4.43201 0.2633407,-2.568401 -5.730815 -0.1408679,-3.339506 -6.203029 0.1982799,-3.339506 -6.203029 0.1982799,-3.07794 -7.35372 0.01936448,-2.397036 -5.956426 0.2873393,-3.137848 -6.578753 0.6164889,-2.988704 -7.215047 0.3737463,-2.758471 -7.324277 0.2301979,-2.28231 -6.4025 0.7097962,-2.876751 -6.939577 0.8214836,-2.794944 -7.389125 0.6048348,-2.569988 -7.435549 0.4838269,-8.71394 -8.371363 -0.1506241,-7.890488 -8.136883 -0.8550889,-7.39965 -7.574813 -0.9348508,-7.029277 -7.279981 -0.767342,-6.752715 -7.035015 -0.5506937,-7.54959 -5.750331 -0.7385275,-7.025546 -5.184743 -0.6236233,-6.639112 -4.914071 -0.5355202,-6.330667 -4.711935 -0.4601269,-7.777844 -5.671915 -0.2074361,-6.898418 -6.152727 -0.1938072,-7.026215 -6.924264 -0.3058527,-7.30863 -7.096821 -0.4126286,-7.916448 -5.970401 0.3361332,-7.031527 -6.445945 0.3484597,-7.187821 -7.175098 0.1117922,-7.453767 -7.351611 -0.05130198,-7.995558 -6.5021 0.8514575,-7.262884 -6.809091 0.7794746,-7.306352 -7.285806 0.5425698,-7.530332 -7.429701 0.4034032,6.110, 4
-1.932339 -8.144028 -0.539882,-2.53312 -7.999455 -0.7636595,-3.007832 -7.48216 -0.5797925,-3.36342 -7.143783 -0.328694,-3.640393 -6.813377 -0.08665606,-2.823749 -5.875415 -0.4652517,-3.252989 -5.27885 -0.1465305,-3.596195 -4.804672 0.1066839,-3.889768 -4.401466 0.368603,-2.554883 -5.758365 -0.07123655,-3.316408 -6.260448 0.314606,-3.316408 -6.260448 0.314606,-3.062305 -7.403034 0.1313092,-2.362689 -5.973798 0.3525538,-3.084839 -6.606494 0.7277997,-2.938921 -7.251504 0.5026029,-2.712334 -7.372284 0.365926,-2.225605 -6.408008 0.77873,-2.809489 -6.917648 0.926764,-2.755438 -7.38133 0.7218512,-2.559186 -7.463733 0.6190115,-8.800963 -8.450872 -0.1851132,-7.96407 -8.245316 -0.9165542,-7.457233 -7.699362 -1.006639,-7.076509 -7.392878 -0.8374938,-6.779704 -7.102079 -0.6098657,-7.571545 -5.872565 -0.8025762,-7.049594 -5.264688 -0.6895479,-6.670882 -4.946712 -0.6080666,-6.370747 -4.70193 -0.525183,-7.803363 -5.784371 -0.2548096,-6.955143 -6.225935 -0.2371819,-7.05938 -6.966562 -0.316006,-7.336152 -7.166417 -0.4030055,-7.957481 -6.077869 0.3023336,-7.081678 -6.499891 0.3414117,-7.199748 -7.208568 0.1025763,-7.447654 -7.407614 -0.08333115,-8.059435 -6.597036 0.8277473,-7.321554 -6.852762 0.7784901,-7.304309 -7.313762 0.537484,-7.474637 -7.482578 0.3663503,6.210, 4
-1.95015 -8.18149 -0.4851824,-2.539597 -8.041697 -0.7045466,-3.004071 -7.5278 -0.5446416,-3.353764 -7.210369 -0.3065436,-3.656052 -6.941051 -0.08286804,-2.845086 -5.904147 -0.455955,-3.244985 -5.265453 -0.116638,-3.571411 -4.75433 0.1593975,-3.84942 -4.30775 0.4438521,-2.560952 -5.767839 -0.06296217,-3.299119 -6.253902 0.3961846,-3.299119 -6.253902 0.3961846,-3.021106 -7.330472 0.2480556,-2.346803 -5.962821 0.3640931,-3.042835 -6.598357 0.8131944,-2.897987 -7.235517 0.6155303,-2.67622 -7.295206 0.4728487,-2.186428 -6.365795 0.7902769,-2.771821 -6.893563 1.022036,-2.736588 -7.376885 0.8512824,-2.548757 -7.430942 0.7567099,-8.75532 -8.551016 0.07773353,-7.963469 -8.325232 -0.5799393,-7.458356 -7.727706 -0.6387772,-7.078326 -7.392662 -0.4485455,-6.778973 -7.047891 -0.2204543,-7.595869 -5.888504 -0.5743617,-7.089821 -5.244241 -0.4445456,-6.707827 -4.871908 -0.3336038,-6.400343 -4.565127 -0.2339227,-7.835895 -5.779364 -0.04872511,-6.98781 -6.148898 0.003496975,-7.093628 -6.929962 -0.05210336,-7.365915 -7.148521 -0.1459558,-7.990267 -6.037629 0.5040485,-7.110967 -6.415666 0.583599,-7.239699 -7.187274 0.3689512,-7.492982 -7.423719 0.183323,-8.084212 -6.531982 1.030182,-7.34187 -6.785652 1.010048,-7.330894 -7.289129 0.7831383,-7.515148 -7.496233 0.6175197,6.310, 4
-2.091941 -8.465714 -0.9229908,-2.615947 -8.27931 -0.7661521,-3.123343 -7.70361 -0.5227655,-3.353043 -7.135861 -0.2192919,-3.252653 -6.750365 0.0480541,-2.906233 -6.271904 -0.7522037,-3.225907 -5.319595 -0.3176912,-3.45885 -4.756 0.03532332,-3.646028 -4.209518 0.2749565,-2.580199 -6.146343 -0.5450988,-2.994048 -6.057556 0.1948589,-2.994048 -6.057556 0.1948589,-2.77258 -7.217332 0.3885103,-2.262384 -6.207082 -0.2743941,-2.687542 -6.29286 0.380565,-2.654866 -7.05096 0.4233052,-2.498698 -7.253265 0.3379971,-1.948729 -6.376442 0.02074248,-2.318795 -6.413277 0.379326,-2.378363 -7.011879 0.3513868,-2.268103 -7.207184 0.2880147,-8.514507 -8.717861 -0.3182785,-7.859663 -8.46896 -0.4288257,-7.292882 -7.89554 -0.268159,-6.977269 -7.343685 0.02078184,-7.019204 -6.849292 0.33863,-7.44834 -6.208932 -0.5456837,-7.100877 -5.246654 -0.3142858,-6.848982 -4.687652 -0.1537769,-6.641571 -4.169454 -0.04405069,-7.769567 -6.010082 -0.2305878,-7.201471 -5.831743 0.06458592,-7.171873 -6.587141 0.2219082,-7.358786 -7.113767 0.2161282,-8.057679 -6.101349 0.1478163,-7.47398 -6.11633 0.5179045,-7.460509 -6.934303 0.5964593,-7.642376 -7.513978 0.5585562,-8.290306 -6.422993 0.5253351,-7.776737 -6.586436 0.8032734,-7.687432 -7.179936 0.8237985,-7.788468 -7.593116 0.7851528,6.410, 2
-2.261683 -8.619265 -0.8627586,-2.777354 -8.403502 -0.3857749,-3.222602 -7.678967 -0.07597399,-3.248446 -6.92987 0.2181541,-2.936714 -6.59074 0.4152654,-3.024668 -6.331369 -0.4219016,-3.217871 -5.349069 -0.03082091,-3.347865 -4.694314 0.2120535,-3.448193 -4.070646 0.3964891,-2.64807 -6.283882 -0.3726976,-2.743253 -5.999771 0.370874,-2.743253 -5.999771 0.370874,-2.706244 -7.505683 0.4195188,-2.277942 -6.380912 -0.2362704,-2.397701 -6.204332 0.5148422,-2.459743 -7.055025 0.6115896,-2.459274 -7.588341 0.5230222,-1.909933 -6.586481 -0.06486982,-2.02647 -6.23155 0.440159,-2.155997 -6.80487 0.523241,-2.203221 -7.210611 0.4963455,-8.255303 -9.090944 -0.8637254,-7.681183 -8.877953 -0.6681345,-7.176579 -8.164856 -0.4021418,-7.022285 -7.479776 -0.08439845,-7.185047 -6.985754 0.2494361,-7.261584 -6.618307 -0.8232611,-6.997881 -5.551939 -0.5393459,-6.854169 -4.870198 -0.3193728,-6.714449 -4.257998 -0.1554079,-7.644171 -6.518672 -0.6326569,-7.383817 -6.059734 -0.2106817,-7.35718 -6.884067 0.03835517,-7.420823 -7.47311 0.1167583,-7.982684 -6.620595 -0.383225,-7.702543 -6.451595 0.1155155,-7.660876 -7.320166 0.263422,-7.743679 -7.869359 0.2593426,-8.301104 -6.850778 -0.09908205,-7.98177 -6.745065 0.2397405,-7.913282 -7.369701 0.2628708,-7.972088 -7.780662 0.1849725,6.510, 2
-2.325561 -8.661127 -0.7889621,-2.812011 -8.42931 -0.2752869,-3.210936 -7.72565 0.06783026,-3.2003 -7.011892 0.3823904,-2.89146 -6.677913 0.6167833,-3.027462 -6.366975 -0.2062801,-3.192427 -5.363625 0.202676,-3.296341 -4.723403 0.4624188,-3.365849 -4.118875 0.6606934,-2.642713 -6.323019 -0.1736444,-2.664915 -6.041542 0.5548145,-2.664915 -6.041542 0.5548145,-2.704955 -7.524889 0.6502588,-2.268075 -6.43911 -0.06344646,-2.32979 -6.253199 0.6462783,-2.410353 -7.071472 0.7371198,-2.452937 -7.596273 0.6636454,-1.89889 -6.680275 0.08449662,-1.946021 -6.284484 0.582602,-2.07425 -6.837314 0.6550184,-2.14624 -7.232633 0.6235697,-8.260809 -9.118759 -1.144913,-7.676943 -8.896461 -0.9465843,-7.163843 -8.20302 -0.6816442,-7.023521 -7.532733 -0.3649381,-7.231347 -7.103862 -0.06656682,-7.276067 -6.699346 -1.055601,-7.002889 -5.609035 -0.7257841,-6.853848 -4.907503 -0.4835407,-6.725876 -4.285129 -0.322252,-7.658529 -6.63149 -0.8723497,-7.411332 -6.212902 -0.3728225,-7.412548 -7.063781 -0.1439674,-7.501836 -7.642888 -0.1178672,-7.993042 -6.74054 -0.6186029,-7.734051 -6.567815 -0.09687757,-7.702499 -7.41139 0.005370021,-7.78287 -7.922414 -0.04235244,-8.312805 -6.959272 -0.3356273,-8.029422 -6.807163 0.01386833,-7.950866 -7.431617 0.03642595,-7.98813 -7.823453 -0.049348,6.610, 2
-2.27088 -8.774361 -0.7281625,-2.753796 -8.474445 -0.2777139,-3.117889 -7.823648 -0.01157552,-3.06757 -7.179681 0.2275314,-2.73471 -6.950386 0.4106141,-2.909672 -6.433376 -0.2514195,-3.039613 -5.503397 0.08024979,-3.105697 -4.929424 0.310964,-3.141035 -4.403449 0.5054014,-2.536912 -6.382598 -0.2383115,-2.526769 -6.134346 0.4304686,-2.526769 -6.134346 0.4304686,-2.602244 -7.555845 0.6831142,-2.178091 -6.526093 -0.1662415,-2.197997 -6.421295 0.5006887,-2.289383 -7.161186 0.6547756,-2.361882 -7.707897 0.6083459,-1.837445 -6.805992 -0.06038219,-1.849592 -6.510862 0.4521722,-1.976248 -7.039925 0.5796561,-2.065252 -7.458294 0.5566374,-8.252169 -9.146727 -1.049781,-7.663863 -8.922955 -0.8146213,-7.165007 -8.269369 -0.5349035,-7.083615 -7.592666 -0.2336431,-7.365726 -7.214342 0.08721924,-7.29167 -6.718965 -0.8048677,-7.031642 -5.648422 -0.4142511,-6.903878 -4.999115 -0.1375281,-6.800077 -4.44873 0.03544402,-7.685681 -6.643638 -0.6278299,-7.534299 -6.236963 -0.06802988,-7.513579 -7.05276 0.2322284,-7.543771 -7.700096 0.314123,-8.029668 -6.785646 -0.4062167,-7.865543 -6.687686 0.1387154,-7.794298 -7.474665 0.2896014,-7.795757 -8.024643 0.2630562,-8.358378 -7.048196 -0.1455377,-8.171215 -6.996368 0.2520607,-8.06035 -7.582065 0.3314033,-8.015742 -7.99933 0.2768689,6.710, 2
-2.218427 -8.768948 -0.3482101,-2.672206 -8.503368 0.1029521,-3.029655 -7.872024 0.436585,-2.931834 -7.25089 0.7130545,-2.577763 -7.061369 0.9320028,-2.753741 -6.468788 0.3648983,-2.846365 -5.666259 0.7961895,-2.877175 -5.157018 1.068041,-2.858062 -4.652215 1.293172,-2.376931 -6.3081 0.3560529,-2.286051 -6.46153 0.9308431,-2.286051 -6.46153 0.9308431,-2.461369 -7.702883 1.11699,-2.027509 -6.444994 0.4072598,-1.97605 -6.726449 0.9601334,-2.110154 -7.435251 0.9913731,-2.233427 -7.783874 0.9356573,-1.723455 -6.744731 0.51364,-1.640032 -6.757612 0.8886806,-1.791543 -7.293996 0.9297559,-1.928412 -7.586185 0.893473,-8.265882 -9.2166 -0.934672,-7.665998 -8.94451 -0.603164,-7.200234 -8.256895 -0.2588745,-7.221303 -7.612739 0.05642051,-7.457539 -7.25337 0.1741568,-7.296947 -6.775819 -0.6037062,-7.068988 -5.737444 -0.1995999,-6.962188 -5.097919 0.08416128,-6.876331 -4.562129 0.2627918,-7.690545 -6.692784 -0.4492068,-7.584892 -6.258249 0.1106263,-7.549347 -7.029611 0.4276801,-7.538176 -7.673395 0.553237,-8.040188 -6.81724 -0.2550867,-7.924329 -6.721699 0.2902622,-7.842701 -7.483648 0.461529,-7.810876 -8.03528 0.4687548,-8.381069 -7.06807 -0.02164686,-8.238971 -6.98827 0.391773,-8.117395 -7.571329 0.5053176,-8.040939 -8.018784 0.4856255,6.810, 2
-2.194416 -8.711536 -0.2595694,-2.644366 -8.497007 0.2278286,-3.008821 -7.821629 0.5762216,-2.875027 -7.243639 0.8551141,-2.501546 -7.095415 1.074381,-2.721872 -6.413036 0.5364791,-2.799411 -5.682858 1.018098,-2.811876 -5.17531 1.308248,-2.776191 -4.663145 1.542291,-2.34108 -6.242293 0.5077443,-2.223176 -6.449215 1.078044,-2.223176 -6.449215 1.078044,-2.424078 -7.675661 1.243052,-1.989193 -6.377611 0.5370339,-1.913719 -6.728 1.073073,-2.055402 -7.446966 1.104377,-2.204284 -7.777563 1.049223,-1.694304 -6.683682 0.620454,-1.601678 -6.780195 0.9795114,-1.761434 -7.34354 1.003158,-1.923891 -7.623415 0.9567941,-8.268122 -9.157513 -0.9830083,-7.698449 -8.927286 -0.6388848,-7.238302 -8.239159 -0.2793795,-7.260738 -7.618354 0.06331205,-7.587555 -7.297735 0.4342114,-7.378044 -6.74089 -0.5231858,-7.198863 -5.85868 -0.05940616,-7.138704 -5.277636 0.3035781,-7.10525 -4.809876 0.5233639,-7.777201 -6.657166 -0.3737442,-7.709986 -6.149932 0.2154269,-7.637798 -6.93519 0.5368892,-7.606993 -7.625988 0.6920521,-8.13112 -6.815513 -0.186437,-8.060726 -6.682733 0.4027727,-7.939033 -7.501617 0.5854112,-7.890991 -8.09972 0.5877328,-8.472281 -7.142647 0.0460844,-8.395517 -7.049039 0.5260134,-8.245244 -7.659464 0.6434307,-8.146725 -8.107273 0.6289468,6.910, 2
-2.167812 -8.567696 -0.2959912,-2.612624 -8.357527 0.2322257,-2.978522 -7.701704 0.6348653,-2.827056 -7.16114 0.9711514,-2.434685 -7.019135 1.24207,-2.693099 -6.294603 0.5241582,-2.769031 -5.626905 1.019538,-2.779153 -5.116758 1.313307,-2.749574 -4.585859 1.534963,-2.291808 -6.11151 0.4820755,-2.198282 -6.420399 1.050697,-2.198282 -6.420399 1.050697,-2.392135 -7.599658 1.173213,-1.929225 -6.241254 0.4991163,-1.876287 -6.685127 1.035259,-2.008719 -7.405755 1.068234,-2.14987 -7.733202 0.9971783,-1.629255 -6.549271 0.574289,-1.543437 -6.65616 0.9128637,-1.697682 -7.220675 0.9250877,-1.854939 -7.527417 0.8676007,-8.228419 -8.989214 -1.243649,-7.694135 -8.753 -0.8519627,-7.255288 -8.116726 -0.4541077,-7.245462 -7.496149 -0.07714033,-7.562663 -7.126533 0.3336593,-7.375886 -6.614472 -0.7538742,-7.200006 -5.669721 -0.2813488,-7.124757 -5.038238 0.1110879,-7.074181 -4.516256 0.3679413,-7.781898 -6.558979 -0.6319203,-7.732739 -6.068777 -0.01330125,-7.669091 -6.879524 0.3027159,-7.64022 -7.554561 0.4244211,-8.141695 -6.724505 -0.4600891,-8.079041 -6.577418 0.1363869,-7.954169 -7.394062 0.301468,-7.893832 -7.964094 0.2823881,-8.48124 -7.049347 -0.2435526,-8.415373 -6.93329 0.2102252,-8.262033 -7.520896 0.3122615,-8.152476 -7.931877 0.2764484,7.010, 2
-2.133646 -8.517292 -0.5668453,-2.58979 -8.346884 -0.04084814,-2.962392 -7.693396 0.338642,-2.835515 -7.143093 0.6539586,-2.439518 -7.025102 0.9033128,-2.676475 -6.322268 0.2646521,-2.758207 -5.623697 0.7611498,-2.765793 -5.108797 1.058176,-2.734304 -4.589509 1.284795,-2.282983 -6.148008 0.2235427,-2.17439 -6.36558 0.7905804,-2.17439 -6.36558 0.7905804,-2.373966 -7.559467 0.9312078,-1.921477 -6.271371 0.232851,-1.851623 -6.6424 0.7695462,-1.985003 -7.348503 0.8016013,-2.137893 -7.693359 0.7295154,-1.621488 -6.565521 0.2992452,-1.525308 -6.643358 0.66197,-1.675403 -7.197853 0.6882814,-1.840112 -7.509379 0.6337312,-8.233064 -8.937103 -1.489453,-7.689172 -8.699203 -1.074765,-7.25758 -8.090384 -0.6648802,-7.230069 -7.481428 -0.2836635,-7.522796 -7.060297 0.1120929,-7.380395 -6.600418 -1.020699,-7.206361 -5.604312 -0.5616233,-7.117026 -4.940902 -0.1741221,-7.058952 -4.377288 0.08651876,-7.782648 -6.576113 -0.897754,-7.734819 -5.968253 -0.2575758,-7.670046 -6.787592 0.06884861,-7.640418 -7.492595 0.1887834,-8.14306 -6.756348 -0.7208018,-8.079304 -6.467044 -0.0872519,-7.953492 -7.287946 0.09779143,-7.889723 -7.895572 0.07730973,-8.482589 -7.078612 -0.5008387,-8.423431 -6.822698 -0.0189929,-8.271684 -7.391735 0.09602439,-8.161799 -7.835379 0.07075739,7.110, 2
-2.135813 -8.523621 -0.2866984,-2.588765 -8.39904 0.3196946,-2.989142 -7.752288 0.7691522,-2.876344 -7.234612 1.144803,-2.434305 -7.055813 1.444191,-2.669886 -6.330442 0.6723186,-2.747561 -5.735862 1.226972,-2.743936 -5.25818 1.540221,-2.71182 -4.727266 1.756128,-2.256891 -6.107085 0.6148651,-2.189308 -6.488262 1.235992,-2.189308 -6.488262 1.235992,-2.380595 -7.628065 1.314305,-1.876384 -6.213206 0.6204959,-1.834984 -6.767719 1.182835,-1.985917 -7.479131 1.155746,-2.144515 -7.789454 1.036483,-1.567229 -6.520853 0.694025,-1.511409 -6.802101 1.022806,-1.686949 -7.38734 0.9857244,-1.86747 -7.678551 0.9027852,-8.269417 -8.809464 -1.457387,-7.733157 -8.590031 -1.071266,-7.268288 -7.912143 -0.7123598,-7.259298 -7.221221 -0.3794312,-7.566981 -6.792379 -0.0424,-7.424528 -6.466995 -1.008714,-7.214623 -5.398448 -0.5813513,-7.106886 -4.652254 -0.2326202,-7.044353 -4.003219 -0.008288741,-7.825867 -6.42933 -0.9000298,-7.736134 -5.829504 -0.2860568,-7.67439 -6.670115 -0.02250504,-7.66369 -7.37788 0.04903293,-8.189393 -6.579942 -0.7341818,-8.078338 -6.266428 -0.1157818,-7.969042 -7.113252 0.0464648,-7.940364 -7.745891 0.01226199,-8.53896 -6.848037 -0.5298239,-8.421869 -6.555274 -0.05302513,-8.288161 -7.17093 0.03456783,-8.220477 -7.645058 -0.009638548,7.210, 2
-2.150034 -8.567444 -0.1282523,-2.605471 -8.429543 0.4854674,-3.007728 -7.823793 0.9654608,-2.893947 -7.366354 1.371838,-2.459398 -7.182758 1.702418,-2.701538 -6.373125 0.8760486,-2.761801 -5.821335 1.443861,-2.766421 -5.354356 1.755566,-2.737646 -4.805271 1.979204,-2.282991 -6.120354 0.8189073,-2.222511 -6.656875 1.46974,-2.222511 -6.656875 1.46974,-2.422426 -7.70305 1.490686,-1.898629 -6.248132 0.8406925,-1.863802 -6.929443 1.399344,-2.032568 -7.614326 1.347074,-2.18006 -7.839855 1.216495,-1.591652 -6.579162 0.9218373,-1.530742 -6.986366 1.213733,-1.714408 -7.542844 1.162421,-1.885579 -7.758462 1.083545,-8.354374 -8.777412 -1.455121,-7.818071 -8.487724 -1.084116,-7.377436 -7.753919 -0.7586163,-7.360958 -7.020082 -0.4583734,-7.635695 -6.539018 -0.1681324,-7.53245 -6.370011 -1.071185,-7.325028 -5.163621 -0.6510823,-7.209748 -4.350953 -0.2953367,-7.148507 -3.650689 -0.06400776,-7.929932 -6.376594 -0.9736457,-7.84519 -5.699995 -0.3367087,-7.792484 -6.645607 -0.09758985,-7.79311 -7.380861 -0.07815623,-8.292287 -6.536186 -0.8115723,-8.183739 -6.060598 -0.1945841,-8.069816 -6.954633 -0.05840874,-8.038599 -7.595359 -0.127066,-8.636738 -6.79919 -0.6111773,-8.527251 -6.381473 -0.1516844,-8.38826 -7.006393 -0.07397354,-8.31929 -7.484972 -0.1302359,7.310, 2
-2.15385 -8.585442 -0.2606874,-2.613804 -8.451061 0.3487571,-3.019119 -7.838344 0.8244953,-2.915518 -7.3708 1.225594,-2.487884 -7.197415 1.563763,-2.721895 -6.437086 0.7484577,-2.781547 -5.84443 1.327977,-2.779863 -5.358235 1.649862,-2.75111 -4.807004 1.879316,-2.307832 -6.183364 0.6943458,-2.225615 -6.6452 1.364773,-2.225615 -6.6452 1.364773,-2.419134 -7.714128 1.394528,-1.918009 -6.289123 0.7111516,-1.86549 -6.938542 1.292058,-2.025112 -7.637212 1.242951,-2.180151 -7.88528 1.107551,-1.606308 -6.591232 0.7882915,-1.53274 -6.992845 1.099819,-1.70862 -7.572855 1.039912,-1.885042 -7.807317 0.9456635,-8.374554 -8.771444 -1.190426,-7.84342 -8.450346 -0.7910247,-7.409784 -7.728925 -0.4320757,-7.38473 -7.017309 -0.09343123,-7.64875 -6.532698 0.2439619,-7.562937 -6.283773 -0.8086399,-7.350996 -5.072475 -0.3888695,-7.241035 -4.262603 -0.03371692,-7.178156 -3.554169 0.1976544,-7.960893 -6.290349 -0.7103817,-7.868748 -5.606761 -0.05207026,-7.833679 -6.585247 0.2010131,-7.841727 -7.356571 0.2177008,-8.32665 -6.450159 -0.5426496,-8.207561 -5.97491 0.09162068,-8.108976 -6.877839 0.2516063,-8.086523 -7.540549 0.1914983,-8.679477 -6.724903 -0.3364092,-8.556787 -6.288925 0.1313105,-8.42104 -6.898912 0.2218015,-8.355378 -7.38576 0.17094,7.410, 2
-2.201408 -8.574223 -0.6521025,-2.676727 -8.465269 -0.07475215,-3.06057 -7.831165 0.349471,-2.968445 -7.35743 0.7146142,-2.558401 -7.225746 1.023542,-2.752048 -6.463398 0.2413229,-2.840308 -5.809896 0.7710165,-2.865422 -5.307949 1.073698,-2.858532 -4.807889 1.290633,-2.344255 -6.250972 0.1970664,-2.280476 -6.619581 0.8244127,-2.280476 -6.619581 0.8244127,-2.449443 -7.735374 0.9011415,-1.964446 -6.372318 0.2193819,-1.929971 -6.938127 0.7900939,-2.074843 -7.606783 0.8053182,-2.227268 -7.928334 0.7077775,-1.648644 -6.674016 0.2982817,-1.57478 -6.954285 0.6273419,-1.737344 -7.518259 0.6282973,-1.912721 -7.80511 0.5700004,-8.416791 -8.802465 -0.8062568,-7.869115 -8.430161 -0.4024033,-7.429606 -7.638837 -0.03298271,-7.420813 -6.884824 0.3155112,-7.716513 -6.407388 0.6604904,-7.600504 -6.170821 -0.4572957,-7.39409 -4.956787 -0.04964066,-7.291822 -4.152928 0.2876936,-7.225497 -3.439672 0.5079626,-8.008492 -6.205224 -0.3380419,-7.912105 -5.500195 0.3197364,-7.882479 -6.484205 0.5788016,-7.897116 -7.251454 0.5960767,-8.383733 -6.396318 -0.1476679,-8.266513 -5.902919 0.4926598,-8.165751 -6.824948 0.6563972,-8.14793 -7.487163 0.592106,-8.748551 -6.70627 0.08746731,-8.621853 -6.237981 0.541274,-8.485882 -6.862252 0.6246294,-8.431841 -7.345098 0.5579643,7.510, 2
-2.256913 -8.584995 -0.9905251,-2.729119 -8.461029 -0.4252042,-3.082695 -7.835977 -0.03886384,-2.980127 -7.393741 0.3026927,-2.595953 -7.24331 0.6092929,-2.818374 -6.511787 -0.1518762,-2.917496 -5.796732 0.3169218,-2.956903 -5.291925 0.6137283,-2.969883 -4.82965 0.8606101,-2.417009 -6.354335 -0.173528,-2.344436 -6.539503 0.4366124,-2.344436 -6.539503 0.4366124,-2.461651 -7.762886 0.6733865,-2.038906 -6.503518 -0.1388693,-2.003424 -6.879282 0.4476396,-2.120291 -7.595201 0.5685865,-2.244009 -8.025566 0.5481334,-1.713017 -6.808383 -0.05681014,-1.636588 -6.86132 0.3409463,-1.771837 -7.410711 0.423799,-1.921796 -7.754597 0.4235795,-8.471472 -8.790024 -0.6672487,-7.917754 -8.42819 -0.2664883,-7.461144 -7.666465 0.1009384,-7.420323 -6.911703 0.4508215,-7.7106 -6.431329 0.8078394,-7.628424 -6.132916 -0.3129885,-7.424515 -4.917717 0.1146955,-7.32541 -4.118565 0.4708467,-7.259451 -3.416651 0.698935,-8.037588 -6.157311 -0.1918986,-7.943449 -5.524667 0.4643164,-7.918644 -6.494541 0.7562897,-7.928001 -7.240736 0.798794,-8.414615 -6.348119 -0.003484607,-8.296465 -5.941085 0.6184628,-8.200034 -6.847689 0.7946941,-8.173359 -7.491582 0.7541184,-8.780038 -6.664121 0.2283804,-8.643243 -6.275783 0.67458,-8.510741 -6.904392 0.7679268,-8.447681 -7.374809 0.709107,7.610, 2
