TiagoOliveira98/Thesis-Project/Difficulty_0/Motor_Task/Unity_Project/DataLogging/JointData/Logs(1646876593)_tttttt_Motor.csv
WRIST,THUMB_CMC,THUMB_MCP,THUMB_IP,THUMB_TIP,INDEX_FINGER_MCP,INDEX_FINGER_PIP,INDEX_FINGER_DIP,INDEX_FINGER_TIP,MIDDLE_FINGER_MCP,MIDDLE_FINGER_PIP,MIDDLE_FINGER_DIP,MIDDLE_FINGER_TIP,RING_FINGER_MCP,RING_FINGER_PIP,RING_FINGER_DIP,RING_FINGER_TIP,PINKY_MCP,PINKY_PIP,PINKY_DIP,PINKY_TIP,WRIST2,THUMB_CMC2,THUMB_MCP2,THUMB_IP2,THUMB_TIP2,INDEX_FINGER_MCP2,INDEX_FINGER_PIP2,INDEX_FINGER_DIP2,INDEX_FINGER_TIP2,MIDDLE_FINGER_MCP2,MIDDLE_FINGER_PIP2,MIDDLE_FINGER_DIP2,MIDDLE_FINGER_TIP2,RING_FINGER_MCP2,RING_FINGER_PIP2,RING_FINGER_DIP2,RING_FINGER_TIP2,PINKY_MCP2,PINKY_PIP2,PINKY_DIP2,PINKY_TIP2,Timestamp,Event
-2.280038 -7.670235 0.0004472655,-2.969013 -7.401297 0.2346347,-3.563217 -6.813016 0.3651198,-3.994894 -6.272559 0.4885314,-4.33599 -6.003324 0.6242175,-3.071253 -5.113077 0.08334105,-3.296577 -4.026247 0.2542354,-3.410238 -3.389723 0.4126643,-3.503881 -2.814882 0.5370734,-2.693343 -4.872438 0.1613641,-2.835762 -3.603707 0.3604982,-2.835762 -3.603707 0.3604982,-2.996387 -2.120875 0.7337052,-2.319894 -4.883396 0.3072315,-2.395379 -3.667697 0.527474,-2.465187 -2.890974 0.705281,-2.553682 -2.260393 0.8542506,-1.925249 -5.122531 0.4807456,-1.801202 -4.179739 0.6821815,-1.735007 -3.556489 0.8322977,-1.706656 -2.974679 0.9811831,-8.439302 -7.557582 0.0009342952,-7.837726 -7.275598 0.3010968,-7.265656 -6.640981 0.5491245,-6.845318 -6.099868 0.8221667,-6.460582 -5.869384 1.110446,-7.67296 -4.848627 0.2867692,-7.526073 -3.726267 0.4794197,-7.476277 -3.026062 0.6736708,-7.442432 -2.414108 0.8319092,-8.039419 -4.647605 0.3389868,-7.895264 -3.35996 0.5170759,-7.813315 -2.530267 0.7662788,-7.76029 -1.81267 0.9842376,-8.403878 -4.710998 0.4191626,-8.311239 -3.517797 0.5800198,-8.243463 -2.756559 0.7469807,-8.173296 -2.106658 0.8851879,-8.787543 -4.991573 0.5300835,-8.829275 -4.071641 0.6888633,-8.832373 -3.485507 0.8069269,-8.813902 -2.931842 0.9024856,0.010,39 1 0
-2.30018 -7.647354 -0.158995,-2.973075 -7.404718 0.128843,-3.564572 -6.84185 0.3009113,-3.998058 -6.309149 0.4534758,-4.332838 -6.028049 0.6162174,-3.073495 -5.137193 0.03342646,-3.28997 -4.022514 0.2299059,-3.403955 -3.367911 0.4033208,-3.498213 -2.777244 0.5425918,-2.695068 -4.899974 0.09450954,-2.831677 -3.611246 0.3222539,-2.831677 -3.611246 0.3222539,-2.989634 -2.114359 0.7195888,-2.322273 -4.905063 0.2251622,-2.395675 -3.692572 0.4590471,-2.46795 -2.908123 0.6447085,-2.551653 -2.263011 0.8006967,-1.93168 -5.126938 0.3823117,-1.804379 -4.185277 0.5875401,-1.737958 -3.573245 0.7314795,-1.707096 -2.998626 0.8768954,-8.443739 -7.56422 -0.0167527,-7.838285 -7.279325 0.2995762,-7.264719 -6.649842 0.5521263,-6.836795 -6.110372 0.8268844,-6.452731 -5.876864 1.115382,-7.667808 -4.854087 0.277143,-7.526123 -3.725572 0.4707374,-7.473527 -3.021524 0.6683357,-7.436129 -2.407371 0.8304181,-8.037306 -4.659976 0.318801,-7.89914 -3.361183 0.4932975,-7.81469 -2.52807 0.7408871,-7.756224 -1.801193 0.9605872,-8.40247 -4.720666 0.3921434,-8.318357 -3.525382 0.5531009,-8.253378 -2.766269 0.7175728,-8.181947 -2.115883 0.8494628,-8.785981 -4.992153 0.4990292,-8.834845 -4.075964 0.6579975,-8.837761 -3.490991 0.7681115,-8.816112 -2.935771 0.8517192,0.110,39 1 0
-2.338191 -7.660685 -0.09156045,-3.008936 -7.412248 0.1881768,-3.590168 -6.835092 0.3446251,-4.004547 -6.297936 0.4895388,-4.329134 -6.014884 0.6483855,-3.093813 -5.112068 0.0342506,-3.307587 -3.999996 0.2060857,-3.420712 -3.349753 0.3624945,-3.515723 -2.766734 0.4906409,-2.706379 -4.884715 0.09427039,-2.8349 -3.606602 0.282942,-2.8349 -3.606602 0.282942,-2.988431 -2.131222 0.652441,-2.329761 -4.89802 0.2254165,-2.396395 -3.691105 0.4378787,-2.465539 -2.912204 0.614116,-2.550325 -2.274559 0.7621883,-1.937708 -5.136672 0.3857685,-1.809515 -4.199491 0.5823241,-1.745445 -3.580077 0.7335927,-1.717987 -2.995385 0.8819656,-8.449241 -7.585647 0.01702198,-7.852654 -7.307854 0.3327934,-7.274743 -6.675064 0.5881852,-6.846878 -6.130481 0.8715162,-6.453334 -5.881306 1.173288,-7.674973 -4.869913 0.3226387,-7.527437 -3.729649 0.5239348,-7.476397 -3.026625 0.7179967,-7.441092 -2.413454 0.8744391,-8.043629 -4.675363 0.3846023,-7.89723 -3.375556 0.5742707,-7.812818 -2.544186 0.8248725,-7.754729 -1.824009 1.039851,-8.409425 -4.746889 0.4775051,-8.316083 -3.539176 0.6609616,-8.246161 -2.77211 0.8420567,-8.169106 -2.112566 0.9853418,-8.794715 -5.037742 0.6018327,-8.837818 -4.09817 0.7876039,-8.836656 -3.497672 0.9174801,-8.807873 -2.927435 1.013608,0.210,39 1 0
-2.281876 -7.772678 0.1591284,-2.97442 -7.48509 0.3651727,-3.563109 -6.868425 0.4766557,-3.984302 -6.300167 0.5893569,-4.321318 -5.992982 0.7208864,-3.080418 -5.155792 0.1322377,-3.288309 -4.044174 0.2625027,-3.39917 -3.391778 0.392473,-3.488259 -2.820433 0.4995725,-2.702338 -4.925815 0.2035706,-2.82292 -3.64763 0.3280437,-2.82292 -3.64763 0.3280437,-2.970815 -2.158372 0.6378236,-2.330149 -4.932136 0.3462565,-2.390877 -3.726487 0.4975429,-2.457472 -2.947204 0.6416482,-2.542417 -2.313062 0.7642647,-1.940696 -5.159978 0.51755,-1.809963 -4.205711 0.6720478,-1.745991 -3.582424 0.7991325,-1.723984 -3.009382 0.9292938,-8.452088 -7.586756 0.03801729,-7.857475 -7.307934 0.3513678,-7.28701 -6.656497 0.6006025,-6.856533 -6.106897 0.8832894,-6.447433 -5.863555 1.188021,-7.673799 -4.859467 0.301312,-7.526563 -3.726799 0.4859142,-7.472496 -3.017298 0.6733776,-7.434082 -2.406436 0.8278258,-8.0441 -4.664678 0.3544716,-7.901031 -3.362265 0.5228221,-7.816404 -2.530295 0.7594354,-7.754253 -1.81136 0.9614751,-8.406995 -4.730674 0.4424883,-8.323397 -3.520083 0.6078466,-8.256006 -2.762903 0.7755012,-8.178241 -2.111861 0.9043947,-8.785742 -5.014955 0.5634387,-8.834255 -4.088148 0.7358541,-8.834222 -3.495837 0.8613167,-8.804104 -2.929279 0.9497176,0.310,39 1 0
-2.275973 -7.726362 0.02121045,-2.955475 -7.488047 0.3082618,-3.549467 -6.908798 0.4769784,-3.96072 -6.336361 0.6335742,-4.294464 -5.992799 0.803967,-3.078205 -5.174482 0.1685346,-3.292109 -4.044881 0.3394178,-3.39567 -3.392534 0.5000002,-3.484078 -2.815758 0.6320142,-2.69203 -4.925493 0.2218848,-2.817236 -3.643605 0.4031445,-2.817236 -3.643605 0.4031445,-2.970282 -2.14272 0.7671813,-2.315654 -4.915166 0.3424433,-2.386529 -3.706407 0.5423148,-2.460367 -2.923969 0.7026067,-2.55108 -2.283758 0.8413224,-1.919891 -5.129108 0.4918485,-1.799553 -4.178998 0.6797543,-1.739322 -3.540267 0.8245164,-1.717662 -2.946867 0.9647632,-8.458714 -7.60679 0.1215096,-7.865572 -7.306389 0.451667,-7.295476 -6.654127 0.7182989,-6.860372 -6.101888 1.014964,-6.445016 -5.862513 1.333305,-7.681263 -4.858826 0.4136339,-7.532034 -3.733951 0.599188,-7.476803 -3.031389 0.7859104,-7.439409 -2.432334 0.941654,-8.049501 -4.663593 0.4640556,-7.903954 -3.363899 0.6414054,-7.819778 -2.535591 0.8747504,-7.760416 -1.82295 1.075134,-8.411826 -4.731508 0.5470817,-8.323539 -3.516447 0.7151411,-8.254633 -2.75575 0.87822,-8.178811 -2.100141 1.000829,-8.792751 -5.021079 0.6660004,-8.835001 -4.094909 0.8363782,-8.83526 -3.505065 0.956196,-8.81113 -2.939161 1.038596,0.410,39 1 0
-2.282002 -7.739683 0.02645312,-2.964335 -7.490783 0.3019426,-3.554502 -6.906271 0.456703,-3.974638 -6.339448 0.6046135,-4.305765 -6.014226 0.7673363,-3.081622 -5.173299 0.1070062,-3.296209 -4.049171 0.2627475,-3.402451 -3.388394 0.4181098,-3.486078 -2.802967 0.5512058,-2.69958 -4.933673 0.1627638,-2.830737 -3.651382 0.3238249,-2.830737 -3.651382 0.3238249,-2.981038 -2.152472 0.6801309,-2.326041 -4.931251 0.2903757,-2.397079 -3.727169 0.4759534,-2.472215 -2.940984 0.6383035,-2.559717 -2.300042 0.7762982,-1.934139 -5.154726 0.4491594,-1.81255 -4.220867 0.6276377,-1.758327 -3.590024 0.7646811,-1.740504 -3.008386 0.898983,-8.472554 -7.60761 0.1310975,-7.874311 -7.323343 0.4634479,-7.299876 -6.660293 0.7232736,-6.868034 -6.098882 1.012202,-6.45502 -5.862468 1.317433,-7.679586 -4.862373 0.4217271,-7.534663 -3.740876 0.6016473,-7.484381 -3.033739 0.783746,-7.452564 -2.430279 0.9333427,-8.053473 -4.661582 0.4610663,-7.912582 -3.361898 0.6291814,-7.831684 -2.529916 0.8570929,-7.774755 -1.812103 1.054074,-8.418654 -4.722423 0.5334652,-8.336613 -3.503479 0.6924933,-8.272915 -2.745952 0.8478867,-8.201567 -2.095706 0.9618051,-8.802512 -5.000968 0.6398404,-8.841941 -4.071439 0.8009261,-8.840794 -3.483241 0.9100795,-8.816147 -2.917374 0.9856029,0.510,39 1 0
-2.298766 -7.71256 -0.01384623,-2.980139 -7.47112 0.2661332,-3.561754 -6.899892 0.4267749,-3.968973 -6.33139 0.583453,-4.289907 -5.998266 0.753476,-3.088756 -5.154466 0.07667696,-3.30302 -4.028436 0.2410944,-3.408396 -3.377629 0.3980147,-3.492769 -2.799051 0.5287596,-2.708752 -4.917636 0.1337664,-2.84075 -3.639139 0.2940444,-2.84075 -3.639139 0.2940444,-2.987977 -2.152266 0.6554962,-2.334695 -4.920791 0.2637514,-2.411348 -3.716626 0.45305,-2.486183 -2.936954 0.6153928,-2.571349 -2.299485 0.7575634,-1.938142 -5.149531 0.4248355,-1.816304 -4.214988 0.6021724,-1.758379 -3.584523 0.7436573,-1.734347 -2.997144 0.8787132,-8.469419 -7.617731 0.1700323,-7.874586 -7.31288 0.4960347,-7.302122 -6.663804 0.7604737,-6.869655 -6.110988 1.052802,-6.457766 -5.871426 1.367191,-7.690339 -4.853908 0.4630502,-7.53965 -3.729935 0.6478784,-7.485274 -3.018658 0.8388255,-7.449121 -2.408954 0.9994569,-8.061698 -4.659843 0.5091628,-7.915378 -3.361502 0.6816242,-7.831717 -2.525995 0.9194127,-7.774611 -1.802525 1.124488,-8.424941 -4.730319 0.5863802,-8.340577 -3.523728 0.7511904,-8.273056 -2.764509 0.9166694,-8.198742 -2.110855 1.041973,-8.804325 -5.019524 0.7007263,-8.853417 -4.101445 0.8684812,-8.852891 -3.516091 0.9898202,-8.827509 -2.952381 1.074072,0.610,39 1 0
-2.297557 -7.74943 0.02156049,-2.971691 -7.49802 0.3013226,-3.555916 -6.884124 0.4586855,-3.969912 -6.306504 0.6029448,-4.296421 -5.981247 0.7666079,-3.081784 -5.188138 0.1477437,-3.29715 -4.071023 0.3220963,-3.406347 -3.417112 0.4867541,-3.500515 -2.831808 0.621877,-2.700521 -4.945404 0.2048659,-2.831756 -3.667659 0.3871218,-2.831756 -3.667659 0.3871218,-2.987049 -2.164227 0.7671065,-2.325123 -4.943288 0.333005,-2.397881 -3.727199 0.5373796,-2.47051 -2.933431 0.7125378,-2.562844 -2.289014 0.8633845,-1.931258 -5.174604 0.4878334,-1.810451 -4.218798 0.6828931,-1.747867 -3.578527 0.8339059,-1.723644 -2.988443 0.9803089,-8.476405 -7.616228 0.1304889,-7.876947 -7.314416 0.4641678,-7.305421 -6.662501 0.7231613,-6.873055 -6.103685 1.007275,-6.462205 -5.864189 1.314712,-7.690802 -4.865539 0.4426436,-7.541725 -3.73314 0.6356663,-7.484549 -3.023659 0.828438,-7.446343 -2.407394 0.984739,-8.064525 -4.672348 0.4860203,-7.926959 -3.364398 0.668403,-7.84227 -2.52496 0.9110016,-7.782578 -1.795314 1.115323,-8.428758 -4.743736 0.5621856,-8.354365 -3.528959 0.7387058,-8.285998 -2.768155 0.9170021,-8.20901 -2.112524 1.050414,-8.807594 -5.030624 0.6719939,-8.859869 -4.105407 0.858081,-8.858139 -3.511559 0.9930617,-8.828668 -2.939801 1.08489,0.710,39 1 0
-2.286825 -7.719293 -0.03029775,-2.960152 -7.490072 0.2547275,-3.547131 -6.910753 0.4247942,-3.956059 -6.337078 0.584546,-4.281929 -5.989622 0.7654019,-3.078033 -5.176479 0.1053654,-3.294068 -4.055646 0.2779522,-3.401479 -3.41143 0.4345235,-3.493036 -2.839315 0.5637057,-2.699448 -4.932519 0.1660824,-2.827922 -3.657529 0.3466983,-2.827922 -3.657529 0.3466983,-2.982504 -2.175348 0.7081034,-2.326911 -4.928609 0.2977832,-2.405742 -3.721286 0.4957016,-2.484293 -2.940351 0.6569732,-2.576128 -2.305511 0.8009909,-1.931136 -5.151655 0.4585069,-1.810075 -4.20252 0.6409776,-1.749655 -3.559378 0.7882683,-1.725713 -2.966301 0.93428,-8.479712 -7.606514 0.1165519,-7.884505 -7.308717 0.434048,-7.31135 -6.650845 0.6881714,-6.87543 -6.090621 0.9712111,-6.465302 -5.848678 1.274307,-7.691581 -4.86103 0.4043043,-7.543275 -3.738148 0.5867732,-7.49122 -3.027719 0.7760819,-7.457658 -2.413673 0.9344416,-8.061107 -4.665456 0.4535459,-7.920605 -3.365874 0.6315432,-7.840376 -2.521387 0.8769407,-7.785765 -1.793476 1.086449,-8.424043 -4.734399 0.5341423,-8.344921 -3.521721 0.708223,-8.276957 -2.755497 0.8837518,-8.201084 -2.097902 1.01426,-8.802919 -5.021699 0.6479477,-8.847091 -4.099227 0.8293419,-8.84613 -3.508447 0.9607351,-8.820696 -2.943233 1.050954,0.810,39 1 0
-2.236203 -7.753692 -0.01748775,-2.911636 -7.52745 0.3063422,-3.493555 -6.928734 0.4792085,-3.894215 -6.310043 0.6367391,-4.232836 -5.942043 0.8118013,-3.076211 -5.210691 0.1277431,-3.279299 -4.080797 0.3051648,-3.377519 -3.423933 0.4700555,-3.457403 -2.825827 0.6175116,-2.699457 -4.970073 0.1620796,-2.83492 -3.695341 0.330246,-2.83492 -3.695341 0.330246,-2.969284 -2.196722 0.7108179,-2.325551 -4.973102 0.2715348,-2.416759 -3.779681 0.4591914,-2.488585 -3.007935 0.6381904,-2.56988 -2.354437 0.7974153,-1.929623 -5.19576 0.4177924,-1.842677 -4.256168 0.5960335,-1.805728 -3.646729 0.7503748,-1.799254 -3.082079 0.8994812,-8.475417 -7.609039 0.1107726,-7.872949 -7.313471 0.4317359,-7.309909 -6.650209 0.6910709,-6.887053 -6.08706 0.9804358,-6.479149 -5.844737 1.291633,-7.698456 -4.857229 0.4321908,-7.55488 -3.709301 0.6362656,-7.500601 -2.990828 0.8350338,-7.461956 -2.366441 0.9956636,-8.075841 -4.672256 0.490885,-7.941552 -3.355847 0.6771847,-7.857504 -2.509378 0.9192292,-7.799065 -1.780352 1.124267,-8.443728 -4.751795 0.5795288,-8.365479 -3.521004 0.7618399,-8.293701 -2.750954 0.9408599,-8.214377 -2.088363 1.074379,-8.826068 -5.04766 0.7014612,-8.872435 -4.109511 0.8925036,-8.867356 -3.507786 1.028571,-8.837046 -2.926725 1.120883,0.910,39 1 0
-2.225999 -7.885126 0.2094042,-2.902848 -7.548689 0.5192468,-3.464338 -6.849552 0.6488073,-3.825867 -6.153444 0.7904838,-4.187724 -5.766523 0.9725081,-3.063029 -5.238492 0.2146152,-3.24684 -4.179122 0.3924139,-3.343472 -3.555093 0.561921,-3.444921 -2.955839 0.7181445,-2.679255 -5.028947 0.2660268,-2.797202 -3.861591 0.4302026,-2.797202 -3.861591 0.4302026,-2.938911 -2.451472 0.8130383,-2.301299 -5.054037 0.3976104,-2.38034 -3.93269 0.5888499,-2.457444 -3.219751 0.8102666,-2.548093 -2.604556 0.9849135,-1.906496 -5.291656 0.5758595,-1.854567 -4.414159 0.7858927,-1.875745 -3.841248 0.9728097,-1.932452 -3.314969 1.135057,-8.475572 -7.598876 0.1084905,-7.881836 -7.312535 0.4348087,-7.318317 -6.644107 0.6950889,-6.896631 -6.075934 0.9835884,-6.489591 -5.829757 1.29072,-7.703908 -4.848037 0.420249,-7.566681 -3.703643 0.6147447,-7.517746 -2.989837 0.8045932,-7.484026 -2.374626 0.9579604,-8.082293 -4.659577 0.4701269,-7.954804 -3.338956 0.6512378,-7.875411 -2.498461 0.8865114,-7.818528 -1.778135 1.083492,-8.450489 -4.735303 0.5505969,-8.37566 -3.501895 0.7320332,-8.306126 -2.733868 0.9072595,-8.228016 -2.077775 1.036135,-8.831764 -5.028902 0.6631689,-8.875814 -4.086845 0.8520418,-8.872682 -3.4873 0.984697,-8.844158 -2.914306 1.072966,1.010,39 1 0
-2.148485 -8.03117 -0.0225219,-2.815255 -7.696977 0.252795,-3.316523 -6.810627 0.4001334,-3.569817 -5.96927 0.6005332,-3.88632 -5.325826 0.8550411,-3.090229 -5.384737 -0.1805805,-3.273064 -4.464567 0.01753327,-3.404902 -3.809137 0.3206315,-3.500448 -3.212947 0.6222268,-2.715905 -5.262657 -0.03868159,-2.809498 -4.210565 0.4438692,-2.809498 -4.210565 0.4438692,-2.855044 -4.329105 1.275842,-2.337308 -5.296337 0.1778756,-2.393966 -4.284091 0.6361287,-2.500319 -4.330398 1.141965,-2.5302 -4.689849 1.41839,-1.918319 -5.472665 0.4347884,-1.958545 -4.671594 0.901781,-2.089695 -4.844781 1.293616,-2.141569 -5.292028 1.554127,-8.470904 -7.602803 0.1439386,-7.874038 -7.30606 0.4479903,-7.308444 -6.628242 0.6917686,-6.887113 -6.063447 0.969395,-6.489315 -5.820242 1.26733,-7.697042 -4.835977 0.4172947,-7.556775 -3.707605 0.5989878,-7.50743 -3.00044 0.7847508,-7.476198 -2.396041 0.9343091,-8.072497 -4.650856 0.4795895,-7.947206 -3.339185 0.6469783,-7.870253 -2.499128 0.88146,-7.819585 -1.784817 1.079905,-8.439425 -4.728887 0.5718396,-8.367042 -3.509403 0.7440511,-8.29738 -2.738647 0.9200652,-8.217264 -2.083039 1.051355,-8.820257 -5.024979 0.6985059,-8.873639 -4.099258 0.881729,-8.875728 -3.505202 1.011079,-8.849203 -2.936645 1.0983,1.110,39 1 0
-2.176392 -8.031267 -0.09774827,-2.804655 -7.648963 0.2285343,-3.243352 -6.749401 0.4280075,-3.480967 -5.911093 0.6621217,-3.814545 -5.231208 0.9156203,-3.125375 -5.391078 -0.1494156,-3.266081 -4.49868 0.1435493,-3.399255 -3.833485 0.4459815,-3.517382 -3.165817 0.6898578,-2.746883 -5.285785 -0.04442887,-2.849545 -4.319162 0.6924898,-2.849545 -4.319162 0.6924898,-2.951134 -5.798363 1.181327,-2.353227 -5.354009 0.1431479,-2.418433 -4.489084 0.7913713,-2.585874 -5.386304 1.055159,-2.604918 -6.030975 1.041787,-1.921497 -5.561059 0.3551976,-2.014374 -4.910785 0.848623,-2.197729 -5.460983 1.038805,-2.237385 -5.963103 1.061711,-8.455116 -7.597446 0.1044094,-7.858989 -7.304334 0.4114431,-7.297612 -6.62461 0.6567147,-6.883106 -6.057182 0.9319067,-6.487432 -5.813379 1.223206,-7.688829 -4.83955 0.4040232,-7.551266 -3.698811 0.5982153,-7.499073 -2.988628 0.7899356,-7.464426 -2.371658 0.9378811,-8.066824 -4.65817 0.4617526,-7.944247 -3.336782 0.6403719,-7.866879 -2.49007 0.8770454,-7.81535 -1.768794 1.0722,-8.43254 -4.738216 0.5499356,-8.365822 -3.516751 0.7289645,-8.302339 -2.743989 0.9025614,-8.23145 -2.087037 1.030953,-8.808819 -5.032524 0.6696693,-8.859738 -4.098209 0.8634407,-8.85877 -3.493881 0.9968085,-8.832997 -2.917164 1.081004,1.210,39 1 0
-2.146313 -8.006613 -0.5959136,-2.75381 -7.6618 -0.30466,-3.217913 -6.704287 -0.1718879,-3.427917 -5.858337 -0.006438553,-3.740646 -5.234569 0.1682993,-3.111702 -5.522726 -0.5052178,-3.33448 -4.659919 -0.1644531,-3.492314 -4.021122 0.1075463,-3.646675 -3.400415 0.3707147,-2.738301 -5.417484 -0.4140291,-2.904498 -4.646842 0.2667876,-2.904498 -4.646842 0.2667876,-2.823475 -6.312099 0.5176556,-2.333732 -5.49183 -0.2414977,-2.47808 -4.861822 0.4165168,-2.536658 -5.882652 0.5139991,-2.51765 -6.584587 0.4563707,-1.9048 -5.71636 -0.04835176,-2.037782 -5.174369 0.4741824,-2.174592 -5.874096 0.5527809,-2.221624 -6.440946 0.4921883,-8.463583 -7.620992 0.148751,-7.859863 -7.310057 0.4340991,-7.294375 -6.627849 0.6718432,-6.875195 -6.060746 0.9474176,-6.480615 -5.820881 1.24328,-7.694508 -4.8428 0.3955984,-7.556482 -3.704606 0.5713857,-7.50679 -2.995554 0.7585728,-7.47156 -2.383246 0.9087425,-8.074337 -4.663839 0.4609144,-7.949585 -3.343432 0.6167662,-7.871041 -2.500277 0.8429906,-7.82022 -1.781385 1.034555,-8.442327 -4.745498 0.5547909,-8.367518 -3.516646 0.7075561,-8.298774 -2.746453 0.8653389,-8.224986 -2.093077 0.9818533,-8.82222 -5.038974 0.6838506,-8.868435 -4.094918 0.848998,-8.866221 -3.492401 0.9638934,-8.843507 -2.917943 1.036505,1.310,39 1 0
-2.157885 -7.969633 -0.7376407,-2.763356 -7.607781 -0.4385807,-3.237899 -6.659544 -0.2877021,-3.448961 -5.809129 -0.1142938,-3.760864 -5.215324 0.07140476,-3.084752 -5.524971 -0.5273204,-3.368698 -4.685186 -0.0250783,-3.568054 -4.107928 0.3244805,-3.768347 -3.549275 0.5869061,-2.700552 -5.42255 -0.4365705,-2.882243 -4.933284 0.3611766,-2.882243 -4.933284 0.3611766,-2.804209 -6.620059 0.5143083,-2.293825 -5.522763 -0.2696222,-2.465422 -5.197937 0.4795985,-2.51831 -6.246446 0.5076098,-2.491057 -6.835937 0.3823212,-1.877007 -5.769303 -0.08470887,-2.034007 -5.372276 0.4677374,-2.169188 -6.104045 0.5096449,-2.207463 -6.599409 0.4275204,-8.495426 -7.63804 0.2081415,-7.897088 -7.328765 0.5032637,-7.328862 -6.65273 0.7554204,-6.905602 -6.087209 1.045908,-6.502361 -5.83286 1.354305,-7.714863 -4.854431 0.471858,-7.577139 -3.720157 0.6532029,-7.52928 -3.004859 0.8352184,-7.497144 -2.395814 0.9818406,-8.091627 -4.667516 0.5377705,-7.963284 -3.349453 0.7061332,-7.885378 -2.509038 0.9371334,-7.83685 -1.791485 1.133169,-8.459647 -4.743721 0.633355,-8.383043 -3.513014 0.7957488,-8.314716 -2.744024 0.964274,-8.241472 -2.087088 1.087891,-8.841782 -5.039808 0.7622709,-8.884733 -4.09058 0.9341424,-8.878559 -3.494599 1.059325,-8.851481 -2.924242 1.146575,1.410,39 1 0
-2.168781 -7.944442 -0.8659618,-2.763525 -7.61167 -0.533566,-3.252707 -6.662923 -0.3274593,-3.464797 -5.81813 -0.1076561,-3.797867 -5.225031 0.1412508,-3.093962 -5.574358 -0.4757634,-3.385251 -4.799872 0.1078857,-3.565273 -4.255737 0.4982911,-3.736793 -3.7127 0.7844115,-2.697319 -5.463481 -0.3681071,-2.88006 -5.098196 0.4818436,-2.88006 -5.098196 0.4818436,-2.77509 -6.793642 0.589309,-2.271542 -5.562198 -0.1963887,-2.43517 -5.365402 0.5900121,-2.496151 -6.430244 0.5391417,-2.458463 -6.961105 0.3730295,-1.8359 -5.806146 0.002399623,-1.976063 -5.458432 0.5408045,-2.119766 -6.207965 0.5210236,-2.15506 -6.656751 0.4180045,-8.487794 -7.647279 0.192904,-7.892495 -7.314062 0.4879049,-7.333594 -6.644018 0.7477149,-6.910816 -6.085557 1.045232,-6.503523 -5.832739 1.372033,-7.717339 -4.854139 0.506694,-7.57534 -3.690816 0.7098806,-7.51987 -2.971369 0.910164,-7.480211 -2.348869 1.060768,-8.095267 -4.687462 0.5863227,-7.973739 -3.341341 0.7769265,-7.897001 -2.490626 1.011633,-7.846334 -1.768312 1.202135,-8.45927 -4.780574 0.6936718,-8.393935 -3.536925 0.88091,-8.328856 -2.756435 1.057905,-8.257397 -2.09384 1.184042,-8.829923 -5.086736 0.8352723,-8.882415 -4.12812 1.037696,-8.881371 -3.517119 1.173901,-8.857453 -2.932897 1.256316,1.510,39 1 0
-2.178727 -7.905105 -0.4805833,-2.755372 -7.615875 -0.0731661,-3.246479 -6.64256 0.1828187,-3.469822 -5.807546 0.4377588,-3.82299 -5.261127 0.7369872,-3.07057 -5.516992 0.1648327,-3.343998 -4.887615 0.8400341,-3.509474 -4.379473 1.269686,-3.659643 -3.848401 1.5846,-2.654958 -5.347637 0.2238989,-2.790824 -5.199517 1.082619,-2.790824 -5.199517 1.082619,-2.69098 -6.98467 1.120687,-2.196987 -5.444882 0.3448936,-2.30362 -5.435858 1.15673,-2.365757 -6.540176 1.071153,-2.349535 -7.080499 0.8871095,-1.750386 -5.723411 0.4936715,-1.863162 -5.574457 1.05138,-1.997087 -6.373416 1.017416,-2.039315 -6.797897 0.8928093,-8.489226 -7.646186 0.2279207,-7.88988 -7.333539 0.5182617,-7.326791 -6.652067 0.7687873,-6.910321 -6.07917 1.053188,-6.511511 -5.832088 1.360921,-7.721433 -4.856243 0.5297879,-7.578493 -3.714333 0.7181811,-7.525339 -3.012057 0.9033604,-7.490887 -2.405431 1.046035,-8.099614 -4.673019 0.5997679,-7.972254 -3.333845 0.7751636,-7.893661 -2.49108 1.003664,-7.841678 -1.773983 1.194283,-8.465822 -4.752479 0.6977968,-8.395679 -3.51057 0.8663021,-8.330085 -2.739122 1.029266,-8.254897 -2.081739 1.151691,-8.841548 -5.048729 0.8281087,-8.891669 -4.093383 1.014951,-8.889324 -3.482952 1.143352,-8.863305 -2.903068 1.222684,1.610,39 1 0
-2.186851 -7.916187 -0.543986,-2.768023 -7.616425 -0.08330333,-3.256512 -6.646703 0.193918,-3.484947 -5.827573 0.4436055,-3.824818 -5.305369 0.7397878,-3.025862 -5.571134 0.2770178,-3.289165 -4.972824 1.003255,-3.476206 -4.464353 1.438348,-3.648627 -3.933448 1.753246,-2.597999 -5.410645 0.3042395,-2.714936 -5.264191 1.169142,-2.714936 -5.264191 1.169142,-2.656929 -7.066829 1.106677,-2.139102 -5.508195 0.3974385,-2.221729 -5.470506 1.234886,-2.299245 -6.572378 1.092644,-2.310822 -7.14707 0.8676441,-1.700378 -5.785783 0.5169332,-1.786217 -5.600355 1.09517,-1.929447 -6.388231 1.025376,-1.996926 -6.832269 0.8644594,-8.48059 -7.634778 0.1907774,-7.875216 -7.317354 0.4782406,-7.309814 -6.647842 0.7250592,-6.887704 -6.083745 1.007456,-6.489963 -5.832202 1.309037,-7.705401 -4.850406 0.4662718,-7.564573 -3.70738 0.6583204,-7.511324 -2.993228 0.8521919,-7.47644 -2.375077 0.9963871,-8.080305 -4.670476 0.5349789,-7.956953 -3.345698 0.7021346,-7.881098 -2.50045 0.9323391,-7.833139 -1.783086 1.119366,-8.445176 -4.744128 0.6339007,-8.379848 -3.532181 0.7935171,-8.314208 -2.771897 0.9517822,-8.241863 -2.133607 1.06719,-8.819298 -5.028583 0.7676395,-8.877735 -4.092018 0.9481659,-8.877501 -3.483398 1.070677,-8.850879 -2.903629 1.142736,1.710,39 1 0
-2.196868 -7.790025 -0.7609787,-2.777578 -7.565759 -0.1899179,-3.260119 -6.651163 0.1792752,-3.479302 -5.905172 0.4887319,-3.830601 -5.37671 0.8738835,-3.002172 -5.601154 0.3646945,-3.228186 -5.034399 1.158255,-3.410982 -4.502603 1.620935,-3.582117 -3.981175 1.951754,-2.551664 -5.450843 0.3532255,-2.671529 -5.251529 1.267022,-2.671529 -5.251529 1.267022,-2.609206 -7.213867 1.106019,-2.078677 -5.530788 0.4151117,-2.166708 -5.42634 1.30316,-2.249481 -6.583632 1.13297,-2.283615 -7.253253 0.875807,-1.626106 -5.765165 0.5081066,-1.723205 -5.552999 1.117236,-1.875207 -6.362764 1.019298,-1.962774 -6.836425 0.8412884,-8.478083 -7.657085 0.2517797,-7.880507 -7.342456 0.5293227,-7.314656 -6.640687 0.7624613,-6.896306 -6.066719 1.035287,-6.498651 -5.839263 1.327022,-7.698907 -4.857616 0.5035982,-7.565795 -3.724064 0.677717,-7.519009 -3.014615 0.8575701,-7.486735 -2.404532 1.002986,-8.074157 -4.673786 0.5799454,-7.954526 -3.355313 0.7404536,-7.878785 -2.510494 0.9646097,-7.829919 -1.791277 1.153854,-8.439445 -4.749885 0.6857526,-8.370617 -3.524647 0.8492491,-8.302307 -2.75339 1.010917,-8.229442 -2.096002 1.134379,-8.816923 -5.044368 0.8244209,-8.869579 -4.109025 1.001279,-8.873338 -3.507123 1.125138,-8.858404 -2.929222 1.205752,1.810,39 1 0
-2.2303 -7.780269 -0.5104864,-2.794037 -7.578247 0.1394217,-3.252767 -6.659442 0.5262946,-3.453393 -5.913796 0.8371413,-3.817057 -5.380538 1.258705,-2.991995 -5.537572 0.6752096,-3.21154 -5.022431 1.462405,-3.390045 -4.506554 1.93406,-3.554779 -3.998527 2.284557,-2.538596 -5.372149 0.6404063,-2.664562 -5.277355 1.569224,-2.664562 -5.277355 1.569224,-2.583575 -7.284667 1.445921,-2.069299 -5.476499 0.691566,-2.152685 -5.471073 1.629449,-2.227738 -6.612096 1.512648,-2.250656 -7.3145 1.279016,-1.619159 -5.746541 0.7757957,-1.695904 -5.594038 1.451783,-1.843786 -6.378879 1.410245,-1.932028 -6.848361 1.279409,-8.486063 -7.660215 0.2870429,-7.886681 -7.343284 0.573146,-7.315991 -6.651212 0.8127733,-6.896194 -6.074622 1.09222,-6.497706 -5.837772 1.391193,-7.704988 -4.855196 0.5284765,-7.566134 -3.733545 0.6917,-7.519476 -3.02709 0.8638287,-7.491524 -2.426014 1.006059,-8.081985 -4.66435 0.59298,-7.959572 -3.349795 0.7454908,-7.883358 -2.504935 0.9654983,-7.836053 -1.787307 1.154555,-8.447649 -4.735431 0.6858187,-8.379555 -3.512282 0.8385938,-8.313575 -2.739549 0.9943306,-8.239646 -2.081901 1.111852,-8.826295 -5.024677 0.8152663,-8.876066 -4.092396 0.9796748,-8.875838 -3.49952 1.095163,-8.853066 -2.936632 1.171495,1.910,39 1 0
-2.181922 -7.782709 -0.2144392,-2.769368 -7.622753 0.5581443,-3.238537 -6.719861 1.017475,-3.448097 -5.95682 1.367379,-3.832552 -5.440784 1.845056,-3.024323 -5.534887 1.133988,-3.172466 -5.1168 2.03885,-3.317888 -4.621106 2.593222,-3.444565 -4.092477 3.00309,-2.542401 -5.335248 1.034621,-2.586423 -5.363155 2.008472,-2.586423 -5.363155 2.008472,-2.499726 -7.330823 1.807063,-2.044783 -5.459953 1.037765,-2.062887 -5.563245 2.030382,-2.171679 -6.724432 1.840445,-2.223263 -7.366317 1.544293,-1.583138 -5.766005 1.087522,-1.627187 -5.758691 1.837029,-1.799376 -6.58861 1.747805,-1.900553 -7.009502 1.574037,-8.502589 -7.656636 0.2588275,-7.894541 -7.322732 0.5367249,-7.324282 -6.641311 0.7859756,-6.901809 -6.071607 1.075038,-6.504038 -5.824417 1.386442,-7.718708 -4.855241 0.5455528,-7.57935 -3.71298 0.7327406,-7.527467 -3.003841 0.9234066,-7.493397 -2.396148 1.073909,-8.096787 -4.676277 0.6274674,-7.976815 -3.342253 0.8056512,-7.898703 -2.498439 1.042425,-7.848682 -1.776276 1.239133,-8.462358 -4.758523 0.7361454,-8.396699 -3.516292 0.913526,-8.327449 -2.740365 1.088876,-8.251484 -2.074467 1.218419,-8.838858 -5.057251 0.8767138,-8.893594 -4.111351 1.059388,-8.89216 -3.509323 1.187665,-8.87017 -2.928705 1.272098,2.010,39 1 0
-2.018896 -7.881292 -1.15834,-2.715229 -7.523017 -0.629512,-3.255339 -6.626734 -0.1110547,-3.508934 -5.810185 0.2784004,-3.746396 -5.201507 0.6822153,-2.96748 -6.414783 0.7540562,-3.137634 -5.538998 1.682077,-3.28454 -4.764951 2.159136,-3.430243 -4.098744 2.518157,-2.419153 -6.248943 0.6946056,-2.507439 -5.336946 1.370911,-2.507439 -5.336946 1.370911,-2.517734 -6.815835 0.8086801,-1.88167 -6.187162 0.6722276,-1.99315 -5.401355 1.377827,-2.090554 -6.273073 0.9405577,-2.141242 -6.966224 0.6143912,-1.410102 -6.206904 0.6781316,-1.521616 -5.557945 1.190314,-1.673553 -6.131569 0.962059,-1.745903 -6.610908 0.7621415,-8.495553 -7.659532 0.2383262,-7.898302 -7.329562 0.5156348,-7.337908 -6.639437 0.7693139,-6.923339 -6.063845 1.066069,-6.527747 -5.808713 1.381196,-7.732768 -4.85601 0.5210331,-7.600146 -3.706996 0.7177021,-7.551665 -2.991716 0.9133683,-7.51851 -2.375967 1.067713,-8.110979 -4.682827 0.6111808,-7.992085 -3.34304 0.8007541,-7.916673 -2.49172 1.041891,-7.873192 -1.767374 1.247601,-8.476254 -4.766149 0.7312779,-8.412901 -3.522956 0.9181952,-8.346993 -2.741765 1.092764,-8.277978 -2.072064 1.225175,-8.854091 -5.069733 0.8831888,-8.903681 -4.107552 1.07709,-8.90313 -3.49768 1.206879,-8.885971 -2.909566 1.294308,2.110,39 1 0
-2.023603 -7.922269 -1.128455,-2.715888 -7.522584 -0.6132621,-3.216148 -6.591309 -0.0124141,-3.450342 -5.708608 0.4215139,-3.695047 -5.11787 0.8523016,-2.912664 -6.949529 1.188294,-3.087643 -5.774568 2.153212,-3.264992 -4.772398 2.600427,-3.416113 -3.963837 2.927755,-2.385849 -6.842052 1.108162,-2.474342 -5.454545 1.72756,-2.474342 -5.454545 1.72756,-2.514959 -6.055643 0.9693862,-1.884241 -6.729925 1.053398,-1.974039 -5.374351 1.642199,-2.064192 -5.7278 1.147055,-2.100443 -6.259087 0.8167899,-1.432482 -6.637928 1.015242,-1.497873 -5.557763 1.441109,-1.64975 -5.717968 1.237532,-1.719023 -6.078546 1.115733,-8.493856 -7.626147 0.1882866,-7.885771 -7.306653 0.478284,-7.323843 -6.640266 0.7353097,-6.90797 -6.07015 1.031148,-6.512529 -5.814809 1.347299,-7.724889 -4.839914 0.4833038,-7.593704 -3.68062 0.6794593,-7.546377 -2.968795 0.8752112,-7.51025 -2.355103 1.025568,-8.109561 -4.663198 0.5552877,-7.998194 -3.311685 0.7295685,-7.924103 -2.463979 0.957663,-7.875929 -1.744691 1.149974,-8.478498 -4.74032 0.6551737,-8.419566 -3.490768 0.8203524,-8.35642 -2.713331 0.9847472,-8.286966 -2.053455 1.106954,-8.853753 -5.032257 0.7874554,-8.904641 -4.074321 0.9616579,-8.900711 -3.466247 1.084127,-8.876842 -2.887275 1.162069,2.210,39 1 0
-1.985654 -7.455278 -1.287126,-2.704958 -7.390111 -0.5025195,-3.207339 -6.609639 0.09272814,-3.455081 -5.764488 0.4747972,-3.695042 -5.165143 0.813108,-2.914845 -6.617149 1.050417,-3.075606 -5.742064 2.120347,-3.309521 -4.928337 2.794734,-3.519194 -4.054952 3.267684,-2.375546 -6.369442 0.8908439,-2.498613 -5.493783 1.66318,-2.498613 -5.493783 1.66318,-2.663817 -6.06295 1.359067,-1.862292 -6.215791 0.774117,-1.930128 -5.502603 1.655636,-2.077639 -6.132745 1.473382,-2.206798 -6.574171 1.292016,-1.433693 -6.14805 0.6978887,-1.494541 -5.69168 1.361443,-1.672786 -6.099926 1.347731,-1.803656 -6.38909 1.340247,-8.493252 -7.655272 0.2324304,-7.894768 -7.334485 0.5160997,-7.325844 -6.633846 0.7627782,-6.902508 -6.057464 1.049473,-6.502375 -5.81065 1.35136,-7.72177 -4.853096 0.4926507,-7.585506 -3.711945 0.679355,-7.536194 -2.988338 0.8665171,-7.503788 -2.364699 1.018507,-8.100836 -4.676391 0.5639675,-7.973421 -3.355757 0.7425823,-7.897758 -2.500182 0.9800387,-7.855791 -1.769236 1.185723,-8.469069 -4.757765 0.6646081,-8.391826 -3.533988 0.8353685,-8.322806 -2.751752 0.9997535,-8.254589 -2.08843 1.125803,-8.8512 -5.058517 0.7983285,-8.885965 -4.101811 0.9748172,-8.882069 -3.499282 1.095694,-8.864079 -2.924657 1.183956,2.310,39 1 0
-2.046816 -7.47211 -0.5459453,-2.731161 -7.237268 0.1566567,-3.201426 -6.402124 0.8159118,-3.463041 -5.543756 1.237632,-3.673896 -4.954866 1.611365,-2.928163 -6.980993 2.174989,-3.102478 -5.940588 3.286281,-3.323178 -4.979339 3.88907,-3.516579 -4.107913 4.289513,-2.404371 -6.848551 2.032244,-2.552864 -5.475344 2.757151,-2.552864 -5.475344 2.757151,-2.735063 -4.885076 2.296958,-1.88853 -6.6847 1.904872,-1.978512 -5.460393 2.651483,-2.143742 -5.33535 2.410982,-2.272545 -5.461689 2.249489,-1.45124 -6.538463 1.815579,-1.471487 -5.658837 2.328216,-1.625498 -5.45857 2.353849,-1.735904 -5.424539 2.444791,-8.491026 -7.653594 0.2340724,-7.888217 -7.335493 0.5128483,-7.321457 -6.637321 0.7566148,-6.908569 -6.061141 1.042184,-6.51413 -5.817242 1.345249,-7.718789 -4.852899 0.517752,-7.583594 -3.708368 0.7091802,-7.537173 -3.001192 0.8960174,-7.506256 -2.38724 1.046055,-8.10104 -4.678183 0.6018968,-7.98221 -3.341282 0.783598,-7.909786 -2.490969 1.021054,-7.86573 -1.764909 1.22035,-8.469913 -4.763116 0.7145978,-8.403213 -3.519812 0.8958608,-8.337664 -2.734997 1.071118,-8.268923 -2.063672 1.20374,-8.849227 -5.065374 0.8587468,-8.894986 -4.106232 1.044575,-8.894092 -3.497812 1.17271,-8.87663 -2.913694 1.258582,2.410,46 -1 1
-1.942575 -7.482591 -1.094222,-2.593333 -7.479058 -0.2570134,-3.060778 -6.768638 0.3700072,-3.284477 -5.979281 0.7811052,-3.499076 -5.404656 1.159286,-2.886551 -6.577865 1.200207,-3.055016 -5.839284 2.278091,-3.277067 -5.204504 2.970666,-3.515217 -4.450906 3.46126,-2.370254 -6.26609 1.070581,-2.502093 -5.348367 2.014285,-2.502093 -5.348367 2.014285,-2.932806 -4.552339 2.442681,-1.844632 -6.119287 0.9627787,-1.883761 -5.405632 1.915238,-2.052065 -5.787947 1.858436,-2.21903 -6.041931 1.714145,-1.368599 -6.129943 0.9091302,-1.364241 -5.66749 1.641399,-1.51895 -5.919922 1.729872,-1.652673 -6.047801 1.770137,-8.502657 -7.652513 0.232147,-7.896802 -7.323417 0.5004282,-7.329738 -6.636095 0.7423971,-6.911379 -6.061704 1.028349,-6.51353 -5.820915 1.334256,-7.725287 -4.856544 0.5038877,-7.590929 -3.703493 0.6913188,-7.543786 -2.99308 0.8787174,-7.512662 -2.381167 1.029649,-8.105451 -4.677848 0.5935296,-7.985121 -3.335315 0.7679781,-7.91172 -2.484143 1.000462,-7.866199 -1.760247 1.198538,-8.473558 -4.756772 0.7094309,-8.405124 -3.510797 0.8854781,-8.340596 -2.726762 1.057855,-8.272625 -2.055516 1.188438,-8.854617 -5.05493 0.8573421,-8.901256 -4.094521 1.042497,-8.903051 -3.485994 1.169333,-8.886683 -2.902997 1.254452,2.510,46 -1 1
-1.89108 -7.50996 -0.5047947,-2.5564 -7.220447 0.1691375,-3.058704 -6.546842 0.8852557,-3.354918 -5.804325 1.384203,-3.523197 -5.208256 1.841636,-2.867428 -7.07179 2.15452,-3.042998 -6.142572 3.317508,-3.250106 -5.304525 3.951028,-3.43589 -4.538826 4.345457,-2.342969 -6.957739 2.086932,-2.455309 -5.571519 2.959055,-2.455309 -5.571519 2.959055,-2.794284 -4.526316 2.891586,-1.816945 -6.798693 2.01405,-1.844835 -5.486898 2.794006,-2.037905 -5.315704 2.574365,-2.228012 -5.429018 2.397039,-1.374267 -6.647669 1.985689,-1.325115 -5.683749 2.490538,-1.508079 -5.502712 2.488175,-1.683111 -5.517194 2.505056,-8.490993 -7.660909 0.2750094,-7.897408 -7.323915 0.5453724,-7.340477 -6.632722 0.7884048,-6.92239 -6.054687 1.075727,-6.517999 -5.802587 1.383778,-7.735487 -4.841221 0.5218788,-7.601755 -3.703571 0.695453,-7.551455 -2.987321 0.8816019,-7.515863 -2.375459 1.030715,-8.110192 -4.668249 0.6069145,-7.993983 -3.336858 0.7704116,-7.919892 -2.489502 1.001662,-7.872971 -1.770678 1.194255,-8.471166 -4.753524 0.7204847,-8.414356 -3.523151 0.8891729,-8.351997 -2.747333 1.058876,-8.281262 -2.081041 1.181866,-8.843978 -5.056351 0.8659954,-8.904154 -4.111436 1.049785,-8.907715 -3.507881 1.176109,-8.890976 -2.923915 1.255915,2.610,46 -1 1
-1.85115 -7.322599 -0.6037788,-2.505477 -7.358189 0.0648762,-3.128967 -6.859834 0.7500695,-3.438688 -6.309473 1.244959,-3.544096 -5.668851 1.695188,-2.846817 -6.695957 1.957373,-2.946615 -5.760168 3.14319,-3.133833 -5.040218 3.776992,-3.355042 -4.3117 4.157739,-2.286939 -6.56624 1.90872,-2.307038 -5.34551 2.892231,-2.307038 -5.34551 2.892231,-2.616872 -4.589492 2.864465,-1.719464 -6.449649 1.899432,-1.713631 -5.444042 2.820292,-1.913201 -5.389722 2.620363,-2.091987 -5.474775 2.41181,-1.219897 -6.392991 1.917523,-1.172652 -5.676085 2.589762,-1.319072 -5.60473 2.682608,-1.472589 -5.649487 2.738224,-8.508214 -7.643493 0.2101954,-7.907872 -7.30343 0.4940555,-7.350365 -6.632928 0.749275,-6.929497 -6.06026 1.045837,-6.527346 -5.802616 1.363783,-7.744108 -4.853249 0.5067878,-7.607923 -3.69495 0.709654,-7.555434 -2.984426 0.9127733,-7.517863 -2.37102 1.068819,-8.123194 -4.675776 0.5889327,-8.005064 -3.320995 0.7746837,-7.93003 -2.47037 1.01422,-7.884221 -1.746856 1.212526,-8.488663 -4.75637 0.697772,-8.428559 -3.502582 0.8782927,-8.36588 -2.715122 1.055012,-8.297087 -2.045131 1.183931,-8.862568 -5.056102 0.8406249,-8.916752 -4.092469 1.030956,-8.917407 -3.477515 1.164442,-8.898919 -2.888283 1.248599,2.710,46 -1 1
-1.772423 -7.238178 -0.8845895,-2.384823 -7.500834 0.1432747,-2.951089 -7.001674 0.8821056,-3.219849 -6.333219 1.379407,-3.386468 -5.680169 1.886072,-2.819431 -6.2602 1.436831,-2.946036 -5.626016 2.526256,-3.095308 -5.127331 3.252136,-3.335311 -4.500158 3.765413,-2.265717 -5.880977 1.253057,-2.312567 -5.195348 2.392678,-2.312567 -5.195348 2.392678,-2.735507 -4.916156 3.111172,-1.704275 -5.727149 1.132602,-1.725904 -5.384236 2.170508,-1.833776 -6.242469 2.236638,-1.991241 -6.842256 2.114311,-1.204623 -5.841398 1.064257,-1.193727 -5.812528 1.917154,-1.259326 -6.514081 2.008353,-1.374931 -7.015669 1.97818,-8.512865 -7.652092 0.2052181,-7.913246 -7.324321 0.494631,-7.350136 -6.648283 0.7505745,-6.928046 -6.076158 1.046083,-6.523724 -5.810814 1.367255,-7.73912 -4.855006 0.486412,-7.609163 -3.693642 0.6758863,-7.560537 -2.97669 0.865893,-7.528176 -2.354408 1.013572,-8.118932 -4.685007 0.568447,-8.002948 -3.34792 0.7418029,-7.926884 -2.495341 0.9728191,-7.884373 -1.768101 1.166603,-8.486812 -4.774465 0.6828675,-8.426221 -3.534532 0.8607616,-8.357437 -2.747945 1.041727,-8.285246 -2.079077 1.17574,-8.866507 -5.080154 0.8275971,-8.922792 -4.111123 1.020705,-8.916836 -3.494745 1.157117,-8.892038 -2.90403 1.243652,2.810,46 -1 1
-1.765883 -7.672916 -0.892055,-2.432559 -7.510464 -0.1153406,-2.942864 -6.818777 0.6011485,-3.223789 -6.102537 1.125585,-3.390318 -5.498318 1.63126,-2.728653 -6.891216 1.558323,-2.904851 -5.958488 2.71732,-3.100948 -5.16843 3.369121,-3.285003 -4.371915 3.803815,-2.208396 -6.694826 1.451354,-2.349627 -5.437841 2.32931,-2.349627 -5.437841 2.32931,-2.605661 -5.093454 2.185891,-1.688034 -6.543678 1.378588,-1.754333 -5.456048 2.295252,-1.934985 -5.682882 2.077536,-2.099802 -6.000206 1.835891,-1.235722 -6.47561 1.356866,-1.230427 -5.662967 2.040771,-1.417023 -5.754239 2.089482,-1.579206 -5.935512 2.0946,-8.526608 -7.651237 0.1981288,-7.932253 -7.31753 0.4949439,-7.370465 -6.646778 0.7605488,-6.949213 -6.075927 1.061122,-6.54853 -5.807525 1.38259,-7.762962 -4.857736 0.5228308,-7.63146 -3.700859 0.7250572,-7.587039 -2.978191 0.9259772,-7.556858 -2.358995 1.084603,-8.14037 -4.690155 0.5996216,-8.019077 -3.351934 0.7919906,-7.946006 -2.505702 1.037185,-7.904269 -1.779219 1.24739,-8.505643 -4.783975 0.7031105,-8.437946 -3.547185 0.8872416,-8.373554 -2.775103 1.064556,-8.309071 -2.111261 1.202196,-8.884763 -5.093865 0.837202,-8.933377 -4.136888 1.026292,-8.932267 -3.537061 1.15642,-8.916915 -2.958155 1.249924,2.910,46 -1 1
-1.871858 -8.118427 -0.8942122,-2.471806 -7.89299 -0.08124727,-2.928704 -6.960203 0.3151294,-3.157719 -6.111484 0.6315161,-3.500003 -5.505836 0.9278708,-2.629385 -5.857431 0.1707979,-2.782104 -5.126952 1.005932,-2.868166 -4.539459 1.436654,-2.9427 -3.915314 1.699349,-2.186918 -5.740125 0.04710352,-2.191777 -5.273579 1.197328,-2.191777 -5.273579 1.197328,-2.210664 -7.169778 1.178678,-1.736331 -5.813187 0.04136312,-1.709516 -5.411083 1.1165,-1.791698 -6.593194 1.077003,-1.855489 -7.300774 0.777281,-1.300724 -6.066473 0.07360691,-1.232084 -5.574632 0.8567892,-1.363503 -6.358818 0.8993807,-1.476774 -6.953826 0.7126665,-8.575969 -7.700431 0.2152399,-7.965759 -7.379284 0.5016108,-7.401325 -6.697227 0.7487054,-6.983172 -6.11844 1.032929,-6.585594 -5.859218 1.333017,-7.810383 -4.895088 0.4733186,-7.68256 -3.74136 0.6436856,-7.639737 -3.019681 0.8291019,-7.610411 -2.405061 0.9770015,-8.190424 -4.724799 0.53906,-8.080792 -3.38689 0.7017809,-8.011143 -2.534031 0.9343859,-7.968143 -1.806091 1.140335,-8.556396 -4.809757 0.6337401,-8.494224 -3.568691 0.790378,-8.432217 -2.787061 0.9561364,-8.36314 -2.122385 1.082762,-8.932015 -5.113962 0.7591081,-8.98554 -4.158718 0.9226105,-8.991484 -3.559435 1.040914,-8.981175 -2.98509 1.125576,3.010,46 -1 1
-1.853219 -8.10346 -1.066113,-2.433072 -7.807645 -0.4541078,-2.915052 -6.817199 -0.1491937,-3.229328 -5.981859 0.09582853,-3.632584 -5.429328 0.3615242,-2.573578 -5.789358 -0.4010127,-2.771164 -5.053096 0.2397605,-2.875475 -4.446416 0.6142997,-2.966614 -3.843042 0.8749629,-2.154308 -5.666179 -0.4660931,-2.237848 -5.047351 0.4702988,-2.237848 -5.047351 0.4702988,-2.190649 -6.882055 0.5101115,-1.736287 -5.749943 -0.4335157,-1.770531 -5.177974 0.4806821,-1.851417 -6.311302 0.5015367,-1.892921 -7.030921 0.2920918,-1.317242 -5.999319 -0.3639203,-1.292253 -5.412429 0.2490844,-1.436976 -6.10945 0.2807248,-1.537695 -6.670949 0.1531129,-8.576954 -7.716806 0.2227856,-7.970075 -7.382619 0.5205134,-7.406803 -6.701864 0.7848052,-6.987771 -6.120794 1.083362,-6.584268 -5.861843 1.402988,-7.809108 -4.914775 0.5098754,-7.684056 -3.761937 0.6962588,-7.642881 -3.033897 0.8907475,-7.61369 -2.414076 1.047014,-8.192261 -4.742082 0.5748298,-8.082424 -3.407067 0.7480402,-8.014762 -2.552533 0.9886438,-7.977196 -1.816649 1.201416,-8.560822 -4.827151 0.6660787,-8.49937 -3.593248 0.8308148,-8.437731 -2.819335 0.9992871,-8.373869 -2.154542 1.12936,-8.941131 -5.128881 0.7911955,-8.991174 -4.170063 0.9639693,-8.995755 -3.567667 1.082134,-8.985863 -2.982904 1.168265,3.110,46 -1 1
-1.798257 -8.033682 -1.002416,-2.444255 -7.820766 -0.4692569,-2.921902 -6.90485 -0.2206004,-3.173953 -6.037942 0.003010869,-3.438971 -5.31175 0.2143095,-2.553037 -5.668433 -0.8127282,-2.68649 -4.812685 -0.4663552,-2.779514 -4.117395 -0.130431,-2.83491 -3.51077 0.1726838,-2.169429 -5.521684 -0.8130061,-2.209398 -4.540241 -0.1085376,-2.209398 -4.540241 -0.1085376,-2.308685 -5.151966 0.5604199,-1.768836 -5.569167 -0.7065702,-1.768398 -4.594688 0.01321161,-1.898812 -5.193456 0.4185712,-1.916827 -5.884552 0.5026333,-1.322934 -5.764918 -0.5522605,-1.318652 -5.02132 0.06783426,-1.454165 -5.375463 0.3975497,-1.496081 -5.889993 0.5294116,-8.544358 -7.682655 0.1944042,-7.936917 -7.372999 0.5011119,-7.372223 -6.698989 0.7543883,-6.955544 -6.123323 1.040807,-6.562506 -5.854625 1.338293,-7.773514 -4.889985 0.4888802,-7.646404 -3.728925 0.686288,-7.595814 -3.011467 0.884842,-7.554446 -2.389963 1.037272,-8.155228 -4.717523 0.5530705,-8.052467 -3.3792 0.7261452,-7.986357 -2.530632 0.9599615,-7.941937 -1.805045 1.158385,-8.522525 -4.804813 0.6462951,-8.460741 -3.560535 0.8141617,-8.402023 -2.782412 0.9888163,-8.337085 -2.116808 1.116353,-8.89869 -5.109857 0.7736614,-8.952863 -4.157984 0.9562614,-8.960278 -3.548771 1.08268,-8.949091 -2.963831 1.160541,3.210,46 -1 1
-1.778764 -8.044374 -0.6406185,-2.436419 -7.75283 -0.2367564,-2.912277 -6.834383 -0.05035836,-3.129449 -5.940448 0.152583,-3.33341 -5.130392 0.3372014,-2.524407 -5.529247 -0.8667107,-2.687064 -4.571131 -0.7921749,-2.798078 -3.858349 -0.5771968,-2.858009 -3.235657 -0.3162597,-2.154578 -5.427669 -0.8209196,-2.243791 -4.371168 -0.4325009,-2.243791 -4.371168 -0.4325009,-2.34095 -4.421846 0.2904186,-1.778506 -5.467762 -0.6919944,-1.820969 -4.375612 -0.2815701,-1.9673 -4.399899 0.2240933,-2.013222 -4.803352 0.4694773,-1.36665 -5.634233 -0.5035381,-1.357238 -4.709179 -0.135617,-1.500574 -4.660539 0.2114131,-1.584485 -5.043746 0.4129363,-8.523327 -7.673364 0.1697153,-7.920799 -7.35075 0.462144,-7.362815 -6.666304 0.7147606,-6.950199 -6.0911 1.00617,-6.55521 -5.834589 1.313907,-7.759997 -4.883744 0.4690061,-7.630313 -3.725528 0.6650869,-7.5876 -3.015199 0.8600969,-7.559035 -2.402927 1.011241,-8.143744 -4.716203 0.5448785,-8.028465 -3.368316 0.7249284,-7.960346 -2.517297 0.9615868,-7.920094 -1.793582 1.160347,-8.51059 -4.807806 0.6485192,-8.447469 -3.554161 0.8306075,-8.386723 -2.765541 1.010761,-8.322073 -2.093681 1.144722,-8.885911 -5.116665 0.7846043,-8.933534 -4.15315 0.9726949,-8.93663 -3.542686 1.104149,-8.921591 -2.956245 1.190795,3.310,46 -1 1
-1.814143 -7.997837 -0.3409257,-2.487733 -7.732766 0.04868037,-2.965731 -6.843986 0.1812711,-3.192612 -5.953249 0.3397619,-3.385007 -5.138404 0.4673434,-2.575606 -5.456563 -0.6869653,-2.750389 -4.455667 -0.6981848,-2.844374 -3.761433 -0.5770152,-2.911963 -3.190925 -0.4062094,-2.19186 -5.311827 -0.6931127,-2.301818 -4.251571 -0.5393755,-2.301818 -4.251571 -0.5393755,-2.428311 -3.774701 0.07911891,-1.816748 -5.347944 -0.6122142,-1.870705 -4.299076 -0.3982939,-1.994463 -4.001789 0.07690182,-2.091522 -4.129913 0.3689622,-1.413599 -5.542108 -0.4773814,-1.396644 -4.67239 -0.2557344,-1.52276 -4.402124 0.06977871,-1.655868 -4.543285 0.2818527,-8.515861 -7.698671 0.2281111,-7.926403 -7.383656 0.5130287,-7.365757 -6.67691 0.7662464,-6.951191 -6.083222 1.057063,-6.550117 -5.816111 1.366028,-7.76093 -4.891437 0.5165877,-7.643066 -3.743271 0.7044957,-7.599342 -3.032297 0.8925291,-7.569263 -2.416947 1.040017,-8.141475 -4.723081 0.5965462,-8.038549 -3.385322 0.7766181,-7.971134 -2.527866 1.012475,-7.933228 -1.795863 1.215028,-8.507373 -4.815873 0.7065842,-8.455842 -3.574228 0.8828155,-8.398669 -2.787526 1.054248,-8.337468 -2.111722 1.187692,-8.884382 -5.129695 0.8445441,-8.928963 -4.154488 1.036762,-8.927126 -3.538201 1.165675,-8.91051 -2.94918 1.253405,3.410,46 -1 1
-1.931116 -8.014931 0.3482224,-2.60006 -7.663828 0.6239411,-3.04835 -6.748966 0.7116505,-3.281902 -5.864595 0.868523,-3.552184 -5.054044 1.034897,-2.674572 -5.286954 -0.04824048,-2.828506 -4.303146 0.007888079,-2.909686 -3.651252 0.1437658,-2.984461 -3.071318 0.2879899,-2.288215 -5.123998 0.01271141,-2.386572 -4.131359 0.08443436,-2.386572 -4.131359 0.08443436,-2.612229 -3.290782 0.6150727,-1.906161 -5.181783 0.1564584,-1.922674 -4.196743 0.2922463,-2.03868 -3.749427 0.652257,-2.188521 -3.616905 0.9113932,-1.506399 -5.442373 0.3565053,-1.469696 -4.579697 0.5218275,-1.570133 -4.170145 0.7692809,-1.727098 -4.068834 0.9496272,-8.568741 -7.776156 0.3662338,-7.951346 -7.417212 0.6587672,-7.378175 -6.704565 0.8811928,-6.961077 -6.113477 1.13395,-6.561906 -5.832256 1.401366,-7.778083 -4.912975 0.5526578,-7.627346 -3.812619 0.6775311,-7.571003 -3.133222 0.8263589,-7.542233 -2.553768 0.9504769,-8.172346 -4.74886 0.5861791,-8.080157 -3.54851 0.6772919,-8.043373 -2.813455 0.8563716,-8.036997 -2.209477 1.011652,-8.539661 -4.82397 0.6655831,-8.496743 -3.697013 0.7617624,-8.464079 -3.03124 0.8870999,-8.435153 -2.486849 0.9797256,-8.915153 -5.098173 0.7770917,-8.945898 -4.226345 0.8969921,-8.943295 -3.673645 0.9983313,-8.929213 -3.152492 1.069812,3.510,46 -1 1
-1.947806 -8.015499 0.4986729,-2.642757 -7.627726 0.7180277,-3.091881 -6.688852 0.7666512,-3.332106 -5.794052 0.8927446,-3.631739 -5.035387 1.042518,-2.730505 -5.254634 0.05744964,-2.89116 -4.262096 0.1186856,-2.974065 -3.631822 0.2381656,-3.053935 -3.044527 0.3692013,-2.340499 -5.090527 0.1223525,-2.447694 -4.093029 0.1535862,-2.447694 -4.093029 0.1535862,-2.65764 -3.171616 0.5881909,-1.953036 -5.142087 0.2710845,-1.991186 -4.154126 0.3735209,-2.115515 -3.646792 0.6757665,-2.262248 -3.385536 0.90938,-1.548818 -5.399942 0.474887,-1.535295 -4.552566 0.621543,-1.63316 -4.094575 0.8560827,-1.784386 -3.851329 1.049251,-8.603671 -7.808244 0.2910618,-7.997634 -7.490531 0.5861443,-7.425673 -6.728398 0.7628274,-7.023409 -6.079924 0.985723,-6.647315 -5.720493 1.255792,-7.771962 -4.972158 0.2600315,-7.576715 -3.937794 0.3237332,-7.515304 -3.284197 0.4494804,-7.477018 -2.697784 0.565075,-8.176957 -4.798779 0.2810728,-8.1032 -3.797243 0.262518,-8.091258 -3.239543 0.3705851,-8.094055 -2.823704 0.4510121,-8.54378 -4.852474 0.3700058,-8.51075 -3.916255 0.3807542,-8.474813 -3.384095 0.4791688,-8.435303 -3.000945 0.5520588,-8.914273 -5.087959 0.5099839,-8.94169 -4.326312 0.602019,-8.935334 -3.90111 0.704603,-8.908093 -3.571282 0.7737569,3.610,46 -1 1
-1.993015 -8.010006 0.6011181,-2.711753 -7.640029 0.8164994,-3.17341 -6.687875 0.8546134,-3.393105 -5.755501 0.9563957,-3.662317 -4.986375 1.082016,-2.832664 -5.227177 0.2504125,-2.954132 -4.190908 0.3739975,-3.049054 -3.575136 0.53947,-3.148699 -3.00987 0.6998001,-2.440025 -5.054426 0.2996574,-2.540803 -3.987787 0.3504255,-2.540803 -3.987787 0.3504255,-2.750538 -2.927347 0.7302494,-2.050675 -5.094297 0.4420122,-2.112881 -4.063918 0.5414835,-2.231355 -3.450956 0.7814475,-2.36315 -2.981685 0.9777923,-1.643133 -5.336208 0.6346254,-1.664177 -4.479429 0.7760284,-1.759263 -3.957281 0.9747441,-1.88213 -3.533299 1.148081,-8.652478 -7.894907 -0.3109663,-8.069506 -7.588205 0.1330474,-7.58551 -6.903091 0.4791017,-7.432857 -6.057065 0.7856846,-7.593214 -5.381999 1.041303,-7.735228 -5.276151 -0.05407393,-7.499418 -4.231047 0.1405155,-7.397095 -3.518163 0.4204816,-7.309861 -2.918302 0.6779312,-8.130419 -5.088771 -0.03534931,-8.018473 -3.842897 0.3050083,-8.025604 -3.884656 0.7152536,-8.085658 -4.280496 0.9687045,-8.501592 -5.113018 0.01571846,-8.434944 -3.999892 0.2756786,-8.407119 -3.987054 0.549449,-8.421363 -4.299596 0.6875364,-8.904962 -5.301795 0.1187205,-8.906654 -4.380855 0.3790082,-8.854205 -4.323516 0.5650297,-8.816298 -4.61834 0.6487107,3.710,46 -1 1
-1.99866 -7.967596 0.6767832,-2.700049 -7.549465 0.8123017,-3.156173 -6.581445 0.8156843,-3.381655 -5.639987 0.9004107,-3.676556 -4.885837 1.044748,-2.792183 -5.159627 0.2483121,-2.964165 -4.144436 0.3086142,-3.09236 -3.527491 0.4071622,-3.209921 -2.940982 0.504415,-2.431795 -4.991554 0.3426273,-2.568682 -3.873153 0.3375808,-2.568682 -3.873153 0.3375808,-2.809904 -2.654626 0.611753,-2.070361 -5.032159 0.5196055,-2.156386 -3.948789 0.5726354,-2.29153 -3.293335 0.7755465,-2.423528 -2.736315 0.9388325,-1.67967 -5.27506 0.7422838,-1.732048 -4.372133 0.8534582,-1.840647 -3.790363 1.033346,-1.959136 -3.284682 1.187938,-8.803254 -8.004993 -0.5235165,-8.203486 -7.815481 0.1778126,-7.729279 -7.189479 0.6309681,-7.648191 -6.350548 1.038432,-7.893112 -5.762433 1.387066,-7.81457 -5.542751 -0.2193183,-7.565309 -4.606864 0.2860976,-7.430925 -4.025539 0.7220792,-7.316804 -3.493123 1.001656,-8.218565 -5.276128 -0.2233903,-8.075396 -4.233747 0.6212995,-8.137261 -5.133785 1.102294,-8.22626 -5.888425 1.179959,-8.627861 -5.207508 -0.1064326,-8.545105 -4.222265 0.6526561,-8.567881 -5.098754 1.022944,-8.619572 -5.838799 1.009506,-9.08147 -5.305654 0.05519515,-8.971395 -4.424188 0.5238447,-8.871523 -4.722385 0.7751338,-8.83624 -5.2653 0.8249193,3.810,46 -1 1
-2.010655 -8.006887 0.8307122,-2.713946 -7.579659 0.9306945,-3.161032 -6.600971 0.9103253,-3.373829 -5.650791 0.9718989,-3.663628 -4.909064 1.091728,-2.801275 -5.157518 0.3697488,-2.96421 -4.128179 0.4262995,-3.088707 -3.507337 0.5249219,-3.209386 -2.940223 0.6245116,-2.436246 -4.987644 0.4738863,-2.573578 -3.863334 0.4487436,-2.573578 -3.863334 0.4487436,-2.824662 -2.631219 0.7089645,-2.071233 -5.034135 0.6587966,-2.156895 -3.934557 0.6962844,-2.283423 -3.249428 0.8802649,-2.413296 -2.681558 1.031696,-1.675938 -5.28095 0.8890421,-1.728767 -4.356346 0.9844009,-1.832843 -3.763238 1.14306,-1.948445 -3.261249 1.281387,-8.834782 -7.924612 -0.8398513,-8.249794 -7.794784 -0.08162707,-7.783619 -7.182458 0.3809358,-7.702719 -6.334033 0.7772735,-7.921727 -5.709209 1.136213,-7.865301 -5.536259 -0.4344787,-7.634225 -4.637079 0.09646165,-7.526547 -4.053909 0.5754431,-7.442554 -3.561639 0.8848673,-8.288361 -5.290284 -0.4633386,-8.213628 -4.298084 0.4469459,-8.290681 -5.169573 0.9815692,-8.367382 -5.984621 1.115315,-8.714808 -5.245416 -0.3757558,-8.688836 -4.294666 0.4351621,-8.707412 -5.143354 0.8414088,-8.728391 -5.911542 0.84422,-9.168784 -5.370962 -0.2408303,-9.211254 -4.507087 0.3307357,-9.159806 -4.956987 0.6207249,-9.11459 -5.552951 0.6681733,3.910,46 -1 1
-1.977354 -8.015263 0.9427567,-2.694084 -7.574807 1.058002,-3.164012 -6.626699 1.052047,-3.400097 -5.677059 1.123096,-3.680527 -4.933494 1.241606,-2.811821 -5.15655 0.484089,-2.983511 -4.118703 0.5254257,-3.099584 -3.498722 0.5965408,-3.206709 -2.942896 0.6734704,-2.451961 -4.972623 0.5702809,-2.606847 -3.823199 0.5120446,-2.606847 -3.823199 0.5120446,-2.850692 -2.54258 0.7131174,-2.093256 -5.002695 0.7403458,-2.193128 -3.885223 0.7393601,-2.326118 -3.207438 0.8716965,-2.461427 -2.642072 0.9843552,-1.706452 -5.235706 0.9590212,-1.761427 -4.30809 1.023728,-1.86407 -3.714685 1.150245,-1.977836 -3.206303 1.262686,-8.961402 -7.781452 -1.108066,-8.397795 -7.798004 -0.2466354,-7.942391 -7.133209 0.2189416,-7.890247 -6.259313 0.5803001,-8.101374 -5.687696 0.91708,-8.044373 -5.506837 -0.5240293,-7.837626 -4.684446 0.08527172,-7.744924 -4.130954 0.5764111,-7.658799 -3.628904 0.8911585,-8.472651 -5.23563 -0.6077932,-8.452661 -4.336097 0.3517652,-8.527677 -5.246137 0.7890043,-8.571173 -6.016944 0.8084188,-8.916086 -5.196929 -0.5553343,-8.939693 -4.328379 0.3229096,-8.963861 -5.219294 0.6896273,-8.955657 -5.946761 0.6485798,-9.369118 -5.334905 -0.4463997,-9.448968 -4.526118 0.1563951,-9.399174 -4.99136 0.4430232,-9.331342 -5.559158 0.4906143,4.010,46 -1 1
-2.009971 -8.042614 1.025261,-2.714813 -7.589173 1.129086,-3.180902 -6.648817 1.124979,-3.414295 -5.708297 1.205032,-3.686862 -4.965576 1.33054,-2.814891 -5.157741 0.5417478,-2.993257 -4.117049 0.5895401,-3.115547 -3.48767 0.6699257,-3.225219 -2.917735 0.7500274,-2.45377 -4.972136 0.6462655,-2.605114 -3.813184 0.5908898,-2.605114 -3.813184 0.5908898,-2.851461 -2.510398 0.79746,-2.096102 -5.010059 0.8339422,-2.188832 -3.885398 0.8463296,-2.318653 -3.191331 0.9967113,-2.447217 -2.613443 1.114348,-1.709414 -5.25341 1.072162,-1.75383 -4.326105 1.145955,-1.852624 -3.724943 1.286969,-1.960401 -3.208582 1.406728,-8.997118 -7.779024 -1.291121,-8.451351 -7.796329 -0.4407132,-8.012451 -7.105523 0.02627361,-7.975945 -6.219105 0.3815281,-8.192029 -5.664878 0.7159729,-8.138938 -5.555003 -0.6303597,-7.937298 -4.753397 -0.02926016,-7.8421 -4.168277 0.458835,-7.756834 -3.619714 0.7936687,-8.572197 -5.295761 -0.6998587,-8.568333 -4.364554 0.2444208,-8.607958 -5.209871 0.7087975,-8.626966 -5.950994 0.7863259,-9.019892 -5.261943 -0.6433688,-9.059534 -4.314985 0.2248117,-9.056408 -5.150378 0.6186036,-9.03704 -5.865478 0.6299059,-9.471812 -5.396081 -0.5296699,-9.575229 -4.567611 0.04660487,-9.508076 -4.929515 0.3370626,-9.428908 -5.43811 0.4283301,4.110,46 -1 1
-1.981021 -8.063202 1.085154,-2.694553 -7.616355 1.212303,-3.169209 -6.68543 1.213442,-3.418217 -5.738837 1.295261,-3.694017 -4.992387 1.425345,-2.816056 -5.180098 0.6038398,-3.013577 -4.135152 0.6116942,-3.134338 -3.497438 0.6629494,-3.233433 -2.919579 0.7239957,-2.460959 -4.983722 0.6825485,-2.624392 -3.816238 0.5792271,-2.624392 -3.816238 0.5792271,-2.862947 -2.499238 0.73192,-2.110414 -5.002939 0.8448718,-2.211753 -3.878012 0.8096682,-2.346518 -3.193306 0.9276693,-2.473487 -2.622511 1.022554,-1.731205 -5.218509 1.064964,-1.778162 -4.294385 1.10206,-1.877786 -3.695703 1.214726,-1.982643 -3.180215 1.31585,-9.140716 -7.667246 -1.412018,-8.597137 -7.772576 -0.4741127,-8.155433 -7.074205 0.04757249,-8.170586 -6.207231 0.4276346,-8.410407 -5.663414 0.7701108,-8.291303 -5.547632 -0.5397843,-8.10951 -4.783014 0.1744659,-8.050289 -4.231404 0.7042482,-8.009107 -3.662789 1.059448,-8.746021 -5.263614 -0.6463055,-8.759557 -4.391191 0.3745012,-8.799309 -5.304174 0.7810602,-8.82871 -6.028141 0.8059671,-9.214802 -5.200593 -0.6171787,-9.274769 -4.274992 0.2936836,-9.280891 -5.19557 0.586671,-9.278144 -5.885288 0.5059987,-9.674265 -5.321403 -0.5230727,-9.795228 -4.549563 0.08529544,-9.7465 -5.020759 0.3083267,-9.686183 -5.548154 0.3239416,4.210,46 -1 1
-2.00332 -8.125145 1.274235,-2.718844 -7.64505 1.362955,-3.193277 -6.701917 1.341369,-3.435144 -5.737334 1.406936,-3.711786 -4.994926 1.513581,-2.822327 -5.197479 0.7003941,-3.001369 -4.146623 0.6961482,-3.119117 -3.507032 0.7523763,-3.226917 -2.942804 0.8182129,-2.467695 -4.999097 0.7945086,-2.622877 -3.827857 0.6778477,-2.622877 -3.827857 0.6778477,-2.885192 -2.510746 0.8428337,-2.117806 -5.008556 0.9719456,-2.222644 -3.868465 0.9317727,-2.370519 -3.175065 1.041118,-2.513286 -2.614877 1.127923,-1.737845 -5.212917 1.205936,-1.794412 -4.277908 1.235319,-1.900621 -3.676437 1.33594,-2.014728 -3.164566 1.426221,-9.224864 -7.71613 -0.9030823,-8.700523 -7.751579 0.1025106,-8.276773 -7.075373 0.6591834,-8.285429 -6.227392 1.075602,-8.547786 -5.642562 1.47488,-8.395174 -5.514362 0.1641098,-8.234679 -4.799537 1.016553,-8.203424 -4.301645 1.61489,-8.180924 -3.780064 1.997209,-8.864261 -5.206261 0.02130497,-8.917795 -4.356538 1.114467,-8.962831 -5.354697 1.523128,-8.985878 -6.110683 1.540082,-9.341668 -5.143863 0.02315617,-9.449102 -4.278566 1.009381,-9.45095 -5.270551 1.287697,-9.435787 -5.99289 1.196126,-9.802658 -5.287354 0.0919165,-9.990932 -4.535043 0.7594974,-9.946024 -5.045784 0.9959065,-9.87006 -5.609265 1.009686,4.310,46 -1 1
-1.993536 -8.130087 1.250492,-2.704274 -7.655178 1.31886,-3.170683 -6.717058 1.283053,-3.414333 -5.759931 1.341798,-3.702082 -5.035048 1.448794,-2.816959 -5.208601 0.6653362,-3.013449 -4.157316 0.6497537,-3.139616 -3.512689 0.6878789,-3.247831 -2.941281 0.7446829,-2.467094 -5.011666 0.7752696,-2.626255 -3.829669 0.6496959,-2.626255 -3.829669 0.6496959,-2.886894 -2.511325 0.7899468,-2.120728 -5.023352 0.9674892,-2.222789 -3.874036 0.9176569,-2.369416 -3.178243 1.018143,-2.50657 -2.612248 1.098637,-1.744889 -5.230039 1.216964,-1.791043 -4.287937 1.241153,-1.896774 -3.679305 1.336585,-2.010884 -3.160691 1.423953,-9.240574 -7.691936 -0.8680934,-8.719796 -7.746567 0.1849537,-8.316136 -7.09252 0.7809116,-8.332171 -6.23342 1.223302,-8.591173 -5.610691 1.629345,-8.417745 -5.521606 0.3065661,-8.253322 -4.807548 1.240373,-8.220035 -4.339132 1.845163,-8.19239 -3.841755 2.207494,-8.892752 -5.203149 0.1432831,-8.949162 -4.356695 1.298078,-9.002172 -5.422781 1.662828,-9.015235 -6.150615 1.622435,-9.376298 -5.131853 0.1317928,-9.482396 -4.259849 1.154061,-9.486603 -5.301903 1.355333,-9.46408 -5.988153 1.1944,-9.841238 -5.260769 0.1930548,-10.04362 -4.470741 0.8841832,-9.996103 -5.028039 1.084266,-9.910855 -5.601379 1.046381,4.410,46 -1 1
-1.988417 -8.143715 1.247892,-2.692626 -7.672229 1.34138,-3.168151 -6.744703 1.334013,-3.412603 -5.793006 1.414261,-3.707081 -5.078556 1.540526,-2.817627 -5.201454 0.7376483,-3.003797 -4.15468 0.7624728,-3.13048 -3.520602 0.8169934,-3.245568 -2.95235 0.8805639,-2.464623 -5.016622 0.8423849,-2.621227 -3.84741 0.7724068,-2.621227 -3.84741 0.7724068,-2.891629 -2.525792 0.9544101,-2.117785 -5.040534 1.032092,-2.221272 -3.903474 1.024084,-2.372633 -3.214136 1.145792,-2.518248 -2.644047 1.243138,-1.741175 -5.264237 1.276114,-1.77944 -4.329032 1.326825,-1.884091 -3.729781 1.441267,-2.000422 -3.214262 1.539539,-9.276245 -7.714601 -0.4693266,-8.762298 -7.742704 0.6391479,-8.35056 -7.102563 1.268443,-8.369253 -6.24448 1.742378,-8.663054 -5.583548 2.16791,-8.464698 -5.438337 0.74488,-8.296906 -4.765266 1.727666,-8.266838 -4.31114 2.367509,-8.23843 -3.825247 2.750263,-8.943295 -5.1096 0.5656909,-9.015838 -4.294254 1.753095,-9.08728 -5.399608 2.131426,-9.102016 -6.15683 2.095126,-9.428627 -5.04194 0.5485715,-9.558972 -4.217775 1.61095,-9.570745 -5.331691 1.828532,-9.531971 -6.066668 1.658691,-9.896793 -5.184654 0.6101748,-10.12881 -4.428817 1.337417,-10.0843 -5.050886 1.539858,-9.979297 -5.66728 1.489504,4.510,46 -1 1
-1.996789 -8.166599 1.269333,-2.699441 -7.690687 1.367025,-3.177204 -6.740603 1.361766,-3.420612 -5.778173 1.445741,-3.708448 -5.056158 1.573621,-2.813847 -5.215047 0.7608811,-2.998282 -4.169694 0.7841811,-3.121712 -3.536067 0.8427594,-3.230217 -2.958421 0.9106817,-2.461619 -5.03106 0.8677469,-2.614497 -3.866436 0.8041327,-2.614497 -3.866436 0.8041327,-2.880173 -2.539927 1.005277,-2.115067 -5.056459 1.059035,-2.213032 -3.925796 1.060435,-2.367177 -3.235511 1.192165,-2.514418 -2.664789 1.298642,-1.73938 -5.282396 1.303237,-1.774785 -4.34712 1.362374,-1.880575 -3.750221 1.483643,-2.000268 -3.240186 1.591288,-9.293616 -7.722008 -0.3200794,-8.770495 -7.7439 0.79296,-8.347024 -7.097777 1.429186,-8.37348 -6.244014 1.903573,-8.682284 -5.576356 2.329834,-8.472133 -5.416578 0.9203398,-8.306669 -4.741724 1.917792,-8.275961 -4.305667 2.560218,-8.2502 -3.840048 2.941613,-8.956788 -5.082853 0.7437828,-9.020462 -4.272747 1.951652,-9.096101 -5.402768 2.339329,-9.125275 -6.201183 2.319938,-9.451405 -5.010011 0.7279876,-9.57791 -4.208986 1.799761,-9.5977 -5.359768 2.034153,-9.571748 -6.142154 1.878216,-9.93123 -5.139921 0.7914094,-10.15378 -4.414688 1.535334,-10.11478 -5.076622 1.754467,-10.01912 -5.726828 1.727001,4.610,46 -1 1
-2.003366 -8.178801 1.213725,-2.712073 -7.688671 1.271834,-3.189869 -6.751455 1.238102,-3.436445 -5.807407 1.29584,-3.733736 -5.133597 1.403521,-2.826363 -5.25014 0.6845741,-3.024542 -4.212583 0.7024896,-3.15222 -3.574623 0.7659217,-3.262358 -2.989252 0.8363607,-2.478213 -5.06174 0.8061074,-2.639348 -3.904451 0.7392005,-2.639348 -3.904451 0.7392005,-2.908146 -2.569203 0.9506176,-2.13207 -5.082754 1.011187,-2.231481 -3.952529 1.00575,-2.381573 -3.271172 1.138845,-2.520564 -2.701511 1.246249,-1.755668 -5.304295 1.267149,-1.784935 -4.370941 1.316136,-1.887524 -3.774051 1.437499,-1.999018 -3.2567 1.541302,-9.306437 -7.827981 -0.1153785,-8.793963 -7.829864 1.02843,-8.351545 -7.18048 1.672653,-8.36084 -6.319721 2.143639,-8.697769 -5.668344 2.558195,-8.499027 -5.515727 1.288736,-8.324047 -4.835458 2.352435,-8.303371 -4.38454 3.041042,-8.297156 -3.981454 3.456331,-8.998594 -5.181924 1.08982,-9.067881 -4.336466 2.313563,-9.139012 -5.462283 2.688621,-9.168831 -6.309079 2.68254,-9.496819 -5.139955 1.049051,-9.629628 -4.306932 2.144099,-9.644627 -5.44078 2.393414,-9.60873 -6.234444 2.270095,-9.973433 -5.303699 1.086424,-10.2212 -4.507695 1.875441,-10.18116 -5.126042 2.133465,-10.07071 -5.766357 2.15065,4.710,46 -1 1
-2.023479 -8.186653 1.215757,-2.72765 -7.696943 1.281737,-3.211876 -6.743295 1.257294,-3.466873 -5.792599 1.322339,-3.760393 -5.093217 1.430887,-2.841824 -5.25057 0.7065539,-3.026567 -4.216213 0.7378697,-3.147459 -3.590465 0.8045985,-3.258488 -3.014561 0.8786041,-2.492795 -5.066102 0.8243951,-2.64486 -3.912316 0.7827145,-2.64486 -3.912316 0.7827145,-2.914636 -2.595393 1.015966,-2.145692 -5.087631 1.024942,-2.243865 -3.962368 1.047526,-2.395039 -3.286849 1.190484,-2.54238 -2.724604 1.304331,-1.76934 -5.312225 1.274156,-1.793728 -4.388797 1.349606,-1.89176 -3.791062 1.484981,-2.004389 -3.270559 1.599272,-9.313706 -7.887289 -0.03104941,-8.797379 -7.910164 1.123552,-8.354666 -7.260137 1.789122,-8.367063 -6.41451 2.278117,-8.701991 -5.758686 2.719441,-8.49935 -5.60577 1.443861,-8.320059 -4.96462 2.528175,-8.311154 -4.526189 3.20822,-8.320477 -4.152852 3.615286,-9.003817 -5.250232 1.249659,-9.079646 -4.419033 2.468693,-9.152878 -5.569241 2.806113,-9.173113 -6.435511 2.791623,-9.507872 -5.201923 1.211729,-9.645515 -4.361099 2.318459,-9.662181 -5.509655 2.559099,-9.620381 -6.327236 2.447575,-9.989738 -5.364999 1.250205,-10.23777 -4.57714 2.061366,-10.20166 -5.217514 2.322518,-10.09087 -5.872892 2.355738,4.810,46 -1 1
-2.028853 -8.194143 1.158846,-2.727798 -7.69815 1.228191,-3.213421 -6.770236 1.213981,-3.471653 -5.829382 1.288526,-3.767303 -5.136473 1.400565,-2.856152 -5.274652 0.6844214,-3.051105 -4.242406 0.721406,-3.174862 -3.612901 0.7920325,-3.286438 -3.030484 0.872517,-2.505578 -5.08687 0.8041388,-2.664021 -3.937908 0.770443,-2.664021 -3.937908 0.770443,-2.935309 -2.605075 1.015905,-2.157876 -5.107828 1.00222,-2.261683 -3.992646 1.024031,-2.41707 -3.317383 1.170304,-2.569905 -2.759529 1.287013,-1.782529 -5.33052 1.252354,-1.81136 -4.406219 1.323544,-1.9157 -3.816883 1.456195,-2.039232 -3.313078 1.568905,-9.285332 -8.031534 0.0313228,-8.748166 -8.02915 1.201493,-8.31929 -7.398145 1.915048,-8.322641 -6.556285 2.457424,-8.655587 -5.88549 2.965847,-8.482539 -5.71939 1.53325,-8.279991 -5.058259 2.622198,-8.292402 -4.648592 3.297284,-8.3321 -4.330955 3.691882,-8.988822 -5.384707 1.335955,-9.034922 -4.547294 2.568085,-9.116046 -5.693066 2.913522,-9.141488 -6.538671 2.901801,-9.499614 -5.338449 1.294985,-9.608008 -4.484622 2.39494,-9.628825 -5.62882 2.637308,-9.592853 -6.44029 2.510489,-9.993493 -5.489166 1.324469,-10.22396 -4.665617 2.137103,-10.18117 -5.334902 2.378929,-10.06979 -6.020065 2.379869,4.910,46 -1 1
-1.993391 -8.23163 1.207508,-2.702191 -7.739837 1.297108,-3.177413 -6.791728 1.284184,-3.424488 -5.840516 1.3589,-3.713717 -5.1254 1.477642,-2.82115 -5.303182 0.7077785,-3.014501 -4.274423 0.7489156,-3.143243 -3.640659 0.8242424,-3.255753 -3.059143 0.9007508,-2.469693 -5.113315 0.8255475,-2.627641 -3.961104 0.7848963,-2.627641 -3.961104 0.7848963,-2.896811 -2.636487 1.005776,-2.118703 -5.139831 1.02776,-2.214375 -4.018244 1.049533,-2.36275 -3.330904 1.204165,-2.502599 -2.766843 1.323876,-1.736825 -5.370718 1.281964,-1.76856 -4.442384 1.359046,-1.875299 -3.840494 1.50117,-1.994068 -3.330476 1.619176,-9.286913 -7.999942 -0.1453401,-8.756122 -8.016083 0.9857287,-8.301893 -7.341782 1.640081,-8.34135 -6.498411 2.134391,-8.693498 -5.898246 2.544633,-8.49244 -5.724464 1.291781,-8.295235 -5.072349 2.416233,-8.288417 -4.673503 3.090601,-8.302175 -4.293573 3.464047,-9.005232 -5.386894 1.116072,-9.061844 -4.539842 2.355206,-9.119024 -5.688961 2.704436,-9.134041 -6.464765 2.659222,-9.509749 -5.330404 1.094351,-9.629707 -4.474187 2.201645,-9.640414 -5.597257 2.378712,-9.612855 -6.320596 2.196228,-9.991036 -5.487924 1.157048,-10.23223 -4.690372 1.907222,-10.18682 -5.29184 2.101692,-10.09106 -5.886348 2.047956,5.010,46 -1 2
-1.98556 -8.251125 1.262839,-2.695615 -7.759159 1.334571,-3.168531 -6.800348 1.318625,-3.414244 -5.85284 1.398294,-3.725058 -5.152864 1.528673,-2.803781 -5.297523 0.7542682,-2.991213 -4.264555 0.7878279,-3.124052 -3.63749 0.8601524,-3.243663 -3.071809 0.9365705,-2.446661 -5.114298 0.8818306,-2.595387 -3.961999 0.8383167,-2.595387 -3.961999 0.8383167,-2.874446 -2.653061 1.065077,-2.09387 -5.149547 1.093857,-2.181498 -4.02238 1.116137,-2.334994 -3.339287 1.263968,-2.481035 -2.775885 1.38181,-1.715203 -5.388721 1.35518,-1.740963 -4.460208 1.428217,-1.846518 -3.852668 1.567721,-1.966453 -3.328454 1.685359,-9.288155 -8.052637 -0.1012702,-8.771877 -8.011574 1.0516,-8.3356 -7.266861 1.705767,-8.408165 -6.420996 2.189208,-8.763847 -5.895164 2.59832,-8.561115 -5.686047 1.288896,-8.380543 -4.97786 2.36208,-8.354992 -4.592601 3.018456,-8.3547 -4.264051 3.385876,-9.070165 -5.395386 1.108629,-9.115718 -4.514041 2.386335,-9.136032 -5.664836 2.771364,-9.129988 -6.462816 2.750584,-9.57649 -5.371986 1.089292,-9.679397 -4.45297 2.231306,-9.658208 -5.556816 2.444216,-9.625092 -6.289621 2.289901,-10.05776 -5.56083 1.145133,-10.28707 -4.710224 1.932259,-10.22531 -5.263213 2.168703,-10.12937 -5.851011 2.147751,5.110,46 -1 2
-1.996439 -8.30788 1.22243,-2.69822 -7.785779 1.282584,-3.178948 -6.826559 1.276882,-3.44179 -5.876962 1.366371,-3.751827 -5.173184 1.496999,-2.805095 -5.366273 0.7234234,-2.971883 -4.3222 0.7855066,-3.09729 -3.713553 0.8854138,-3.224005 -3.176303 0.9814475,-2.456984 -5.181262 0.8541014,-2.602589 -4.026172 0.8392694,-2.602589 -4.026172 0.8392694,-2.914135 -2.736861 1.112125,-2.105035 -5.202077 1.067557,-2.201164 -4.064045 1.113066,-2.366719 -3.389779 1.269397,-2.533658 -2.835227 1.392035,-1.725499 -5.428283 1.328267,-1.746963 -4.484436 1.409802,-1.845934 -3.883444 1.545667,-1.965349 -3.364269 1.664538,-9.490371 -7.95363 0.1242159,-8.937542 -7.961982 1.285069,-8.518357 -7.166419 1.933968,-8.679337 -6.359291 2.414275,-8.963848 -5.794902 2.810284,-8.751483 -5.524257 1.521714,-8.612733 -4.829895 2.665243,-8.645115 -4.48084 3.363406,-8.728184 -4.277687 3.743812,-9.296856 -5.222796 1.332328,-9.436947 -4.383176 2.644276,-9.473531 -5.598725 2.912418,-9.454108 -6.463722 2.758322,-9.825014 -5.194584 1.314127,-10.01572 -4.4044 2.474514,-10.00624 -5.59517 2.618512,-9.958528 -6.344097 2.405056,-10.3134 -5.365043 1.374327,-10.55904 -4.662015 2.138818,-10.52781 -5.287643 2.312047,-10.44979 -5.85915 2.229541,5.210,46 -1 2
-1.989566 -8.321167 1.279759,-2.700735 -7.819383 1.354848,-3.18221 -6.838982 1.341817,-3.441145 -5.882432 1.421564,-3.738764 -5.141729 1.546798,-2.813017 -5.374975 0.7567679,-2.991537 -4.339017 0.807973,-3.116983 -3.718986 0.9058129,-3.237714 -3.164251 1.001395,-2.464016 -5.183942 0.8788227,-2.611776 -4.030554 0.8465774,-2.611776 -4.030554 0.8465774,-2.904804 -2.721657 1.109338,-2.114094 -5.199445 1.084588,-2.212502 -4.07239 1.104102,-2.372833 -3.396636 1.244637,-2.532984 -2.845142 1.365098,-1.733766 -5.420028 1.343103,-1.762722 -4.481863 1.40908,-1.868054 -3.891035 1.533452,-1.991758 -3.401421 1.640291,-9.516094 -7.909488 0.3332046,-8.976747 -7.945848 1.549227,-8.565153 -7.179224 2.26354,-8.709481 -6.337007 2.786128,-9.055659 -5.732051 3.25154,-8.797793 -5.535126 1.960922,-8.681033 -4.852384 3.175742,-8.74627 -4.492557 3.916094,-8.844299 -4.271324 4.335358,-9.349658 -5.212989 1.753036,-9.505864 -4.43377 3.107137,-9.548224 -5.627593 3.420618,-9.523823 -6.482073 3.370921,-9.891422 -5.177504 1.708083,-10.09859 -4.463926 2.891314,-10.07764 -5.646436 3.021364,-10.0039 -6.408082 2.835633,-10.38887 -5.343313 1.750252,-10.67165 -4.6609 2.566821,-10.61281 -5.340717 2.758124,-10.48286 -5.965425 2.703352,5.310,46 -1 2
-1.984894 -8.338127 1.276592,-2.691625 -7.846948 1.368779,-3.176868 -6.888851 1.366267,-3.435349 -5.937791 1.452013,-3.745106 -5.234379 1.583696,-2.810057 -5.382066 0.7944862,-2.995729 -4.341545 0.8400936,-3.118656 -3.709056 0.9184006,-3.226474 -3.134931 0.9981971,-2.458388 -5.198118 0.9044169,-2.608022 -4.043813 0.8779424,-2.608022 -4.043813 0.8779424,-2.88217 -2.73407 1.11317,-2.110094 -5.220809 1.100531,-2.203559 -4.096965 1.125978,-2.356673 -3.427978 1.264064,-2.505706 -2.884188 1.380206,-1.733017 -5.446717 1.348918,-1.755439 -4.519205 1.420191,-1.852489 -3.93156 1.548893,-1.962948 -3.43601 1.6576,-9.492526 -7.975097 0.296329,-8.928538 -7.991495 1.588425,-8.496404 -7.241521 2.377741,-8.634115 -6.441269 2.979144,-9.099168 -5.864034 3.468818,-8.823932 -5.61654 2.042137,-8.691313 -4.892854 3.332804,-8.769123 -4.525239 4.085839,-8.862825 -4.290821 4.513528,-9.386698 -5.338214 1.808266,-9.518435 -4.499828 3.179381,-9.55405 -5.676015 3.526938,-9.499476 -6.432031 3.498865,-9.918397 -5.322849 1.729937,-10.10228 -4.460369 2.919291,-10.07102 -5.605052 3.042411,-9.970361 -6.288108 2.828421,-10.41619 -5.504005 1.75345,-10.71831 -4.707303 2.582902,-10.65231 -5.333704 2.753513,-10.49396 -5.92501 2.672649,5.410,46 -1 2
-1.960158 -8.370905 1.270138,-2.67484 -7.875467 1.360126,-3.151451 -6.914602 1.357152,-3.399328 -5.945957 1.438055,-3.70883 -5.22038 1.560163,-2.799013 -5.425207 0.7820256,-2.990881 -4.385515 0.8296702,-3.121712 -3.746345 0.9193175,-3.235555 -3.169856 1.0083,-2.44501 -5.234394 0.8989566,-2.599334 -4.07596 0.8670864,-2.599334 -4.07596 0.8670864,-2.882525 -2.763925 1.105176,-2.090766 -5.263509 1.100956,-2.18256 -4.133695 1.124971,-2.334673 -3.44486 1.281296,-2.483308 -2.888745 1.40961,-1.707705 -5.499685 1.355552,-1.726615 -4.568388 1.431393,-1.826897 -3.961693 1.578896,-1.944666 -3.447902 1.703172,-9.340876 -8.192865 0.7867739,-8.813455 -7.975513 1.915414,-8.421022 -7.21062 2.686922,-8.538461 -6.477852 3.318291,-8.960134 -6.027156 3.889596,-8.688926 -5.604123 2.343067,-8.560065 -4.830707 3.486557,-8.573783 -4.448968 4.129691,-8.605136 -4.284235 4.494046,-9.228062 -5.331342 2.172609,-9.310183 -4.464632 3.39366,-9.310363 -5.493909 3.775856,-9.269333 -6.323742 3.826426,-9.742483 -5.357664 2.139108,-9.886855 -4.439825 3.184231,-9.846906 -5.462669 3.414387,-9.771804 -6.216568 3.352662,-10.2552 -5.600957 2.197634,-10.5315 -4.721385 2.982175,-10.45345 -5.175583 3.236517,-10.29671 -5.722484 3.28224,5.510,46 -1 2
-1.927288 -8.454319 1.263297,-2.647419 -7.95449 1.372485,-3.13545 -6.987825 1.389897,-3.395532 -6.024009 1.490706,-3.706116 -5.299963 1.629402,-2.763704 -5.488206 0.8123592,-2.938928 -4.443236 0.8801979,-3.060829 -3.806171 0.9784637,-3.16913 -3.217849 1.074144,-2.40112 -5.313962 0.9290591,-2.539921 -4.155029 0.9225253,-2.539921 -4.155029 0.9225253,-2.798824 -2.829594 1.184037,-2.038223 -5.359437 1.133311,-2.113931 -4.225896 1.181234,-2.260294 -3.537524 1.356138,-2.401196 -2.97622 1.499293,-1.651651 -5.616857 1.387028,-1.66688 -4.693748 1.484752,-1.765658 -4.090723 1.653193,-1.883367 -3.570805 1.797592,-9.150842 -8.107712 -0.3948469,-8.581676 -7.784647 0.389344,-8.219928 -7.174955 1.025061,-8.157382 -6.410842 1.546117,-8.399684 -5.696914 2.056869,-8.35341 -5.748128 0.6266297,-8.147165 -4.869003 1.368932,-8.025153 -4.170475 1.98339,-7.902308 -3.578441 2.464743,-8.804985 -5.469512 0.6086911,-8.818417 -4.467184 1.564312,-8.808423 -5.204988 2.047055,-8.812006 -5.914672 2.260104,-9.259866 -5.417469 0.7010173,-9.347403 -4.417055 1.498543,-9.310329 -5.240144 1.814522,-9.295069 -5.990335 1.869331,-9.732433 -5.577212 0.8460472,-9.92626 -4.695407 1.454737,-9.823622 -5.030633 1.681188,-9.694454 -5.5748 1.757987,5.610,46 -1 2
-1.919886 -8.536818 1.180358,-2.641186 -8.053457 1.28156,-3.124926 -7.088972 1.303078,-3.381345 -6.11309 1.408561,-3.702511 -5.374735 1.554356,-2.773969 -5.597496 0.7671598,-2.947437 -4.547212 0.8900474,-3.074417 -3.928494 1.031378,-3.203062 -3.350204 1.157162,-2.409991 -5.417571 0.9024169,-2.552706 -4.261045 0.9795634,-2.552706 -4.261045 0.9795634,-2.849038 -2.97213 1.321797,-2.040853 -5.458864 1.124364,-2.127534 -4.321119 1.25141,-2.283408 -3.631223 1.474414,-2.441894 -3.060017 1.646988,-1.647785 -5.718755 1.390689,-1.654877 -4.792587 1.545552,-1.750314 -4.17659 1.752932,-1.872032 -3.626988 1.92722,-8.892521 -7.9094 -0.717566,-8.308447 -7.802291 0.1104263,-7.876146 -7.131336 0.6423658,-7.790837 -6.280059 1.097314,-7.939454 -5.4822 1.528089,-8.043618 -5.472014 -0.09081542,-7.852671 -4.477891 0.3983102,-7.749818 -3.719523 0.8520696,-7.654668 -3.063988 1.245631,-8.489578 -5.248443 -0.144839,-8.423852 -4.130878 0.7002958,-8.420064 -4.881812 1.228541,-8.447363 -5.651733 1.392942,-8.944788 -5.26563 -0.07793218,-8.937848 -4.180013 0.644863,-8.919247 -4.986784 1.071741,-8.904418 -5.791849 1.145073,-9.428456 -5.42973 0.04969263,-9.532626 -4.4971 0.6334649,-9.447526 -4.810668 0.942903,-9.3654 -5.421665 1.022217,5.710,46 -1 2
-1.930642 -8.529739 1.162342,-2.646335 -8.071815 1.266569,-3.125352 -7.078514 1.291243,-3.362129 -6.078474 1.396932,-3.67784 -5.330089 1.551827,-2.786082 -5.593217 0.7666459,-2.96283 -4.545422 0.8998295,-3.092774 -3.930585 1.04729,-3.224255 -3.354599 1.173607,-2.416504 -5.413837 0.8984659,-2.565895 -4.271129 1.001586,-2.565895 -4.271129 1.001586,-2.863208 -3.026445 1.365889,-2.046362 -5.45401 1.118686,-2.13852 -4.326288 1.263392,-2.293437 -3.654905 1.502247,-2.454176 -3.101604 1.683554,-1.658257 -5.713684 1.38017,-1.662586 -4.793453 1.541392,-1.753393 -4.192444 1.753345,-1.868321 -3.656181 1.931127,-8.869011 -7.931671 -0.7148063,-8.252354 -7.877645 0.07838565,-7.79789 -7.126417 0.5501269,-7.700311 -6.231052 0.9654189,-7.807 -5.486818 1.336881,-7.988439 -5.466094 -0.2189699,-7.789575 -4.384089 0.227623,-7.679461 -3.568207 0.6523269,-7.586126 -2.856285 1.009813,-8.425381 -5.250182 -0.2802724,-8.347398 -4.05201 0.5624397,-8.32975 -4.755476 1.106478,-8.345576 -5.509186 1.270059,-8.877647 -5.231813 -0.2195428,-8.870515 -4.064121 0.4884239,-8.826643 -4.838394 0.9213371,-8.778078 -5.637212 0.998798,-9.357072 -5.365889 -0.1028126,-9.445965 -4.409784 0.4471238,-9.349452 -4.701641 0.7589623,-9.249878 -5.314374 0.8613627,5.810,46 -1 2
-1.931731 -8.498579 1.124512,-2.643086 -8.065039 1.333624,-3.09323 -7.07793 1.415475,-3.287422 -6.073888 1.559715,-3.581739 -5.278965 1.761611,-2.839257 -5.576288 0.7859004,-3.013319 -4.533807 0.9208946,-3.141912 -3.913543 1.131429,-3.275358 -3.349658 1.338108,-2.451891 -5.397701 0.8784219,-2.602303 -4.359285 0.972235,-2.602303 -4.359285 0.972235,-2.914884 -3.394996 1.502605,-2.064265 -5.433053 1.060217,-2.155983 -4.40158 1.216897,-2.320649 -3.7903 1.54561,-2.496797 -3.376588 1.827296,-1.662976 -5.668113 1.293895,-1.684206 -4.774004 1.490969,-1.783229 -4.225353 1.742328,-1.914656 -3.769992 1.983951,-8.794001 -8.030218 -0.3066862,-8.173845 -7.89471 0.4363959,-7.668706 -7.146833 0.8775585,-7.532395 -6.247473 1.279278,-7.648175 -5.523962 1.613537,-7.885462 -5.406926 -0.00299117,-7.669035 -4.284635 0.4233578,-7.571119 -3.456024 0.8711849,-7.500938 -2.742041 1.22221,-8.310151 -5.21446 -0.04528609,-8.210005 -3.968423 0.7682745,-8.190744 -4.760335 1.302976,-8.215 -5.574608 1.443353,-8.747991 -5.210506 0.03967035,-8.710112 -4.019126 0.7343112,-8.649778 -4.84341 1.16554,-8.614332 -5.65467 1.233311,-9.224386 -5.373238 0.1763451,-9.284575 -4.432386 0.7139853,-9.17495 -4.769631 1.036622,-9.080225 -5.39936 1.133157,5.910,46 -1 2
-1.925471 -8.512566 1.128567,-2.641228 -8.088284 1.353566,-3.085243 -7.087525 1.43724,-3.272035 -6.069871 1.584986,-3.559959 -5.238729 1.7777,-2.832475 -5.589367 0.7656848,-3.0172 -4.546922 0.8531553,-3.154593 -3.914264 1.03839,-3.299685 -3.327402 1.245045,-2.44052 -5.411631 0.8583435,-2.583234 -4.38296 0.96933,-2.583234 -4.38296 0.96933,-2.902659 -3.536897 1.570511,-2.053713 -5.45404 1.034759,-2.133779 -4.437301 1.208836,-2.303619 -3.857988 1.591728,-2.487877 -3.539926 1.901862,-1.651174 -5.687534 1.261435,-1.676623 -4.801815 1.468901,-1.78656 -4.264341 1.749853,-1.931865 -3.862146 2.014034,-8.750244 -8.104546 -0.2191267,-8.129129 -7.938489 0.4645253,-7.626476 -7.133499 0.883288,-7.494864 -6.189978 1.276231,-7.645944 -5.435701 1.595109,-7.859477 -5.419345 -0.03113212,-7.649229 -4.282417 0.3333508,-7.547006 -3.45733 0.748283,-7.476746 -2.726201 1.097297,-8.277966 -5.254983 -0.04072592,-8.170348 -3.995482 0.7342075,-8.144105 -4.801876 1.250978,-8.173174 -5.622364 1.389951,-8.710562 -5.257776 0.07416177,-8.654604 -4.032268 0.742426,-8.591798 -4.829055 1.154478,-8.568197 -5.644889 1.219452,-9.186201 -5.412849 0.2357639,-9.225634 -4.443201 0.7396255,-9.104705 -4.756256 1.038651,-9.013089 -5.373077 1.121457,6.010,46 -1 2
-1.881901 -8.566332 1.166913,-2.616644 -8.103708 1.43789,-3.077155 -7.088432 1.541524,-3.251 -6.047282 1.704875,-3.471733 -5.137613 1.885831,-2.805575 -5.626049 0.8066256,-3.005213 -4.576051 0.861604,-3.144626 -3.939553 1.028321,-3.290779 -3.366271 1.220844,-2.400892 -5.456813 0.8756116,-2.538948 -4.423649 0.9808484,-2.538948 -4.423649 0.9808484,-2.830325 -3.669084 1.611483,-2.015194 -5.500205 1.025329,-2.086223 -4.496248 1.197975,-2.241329 -3.939967 1.599138,-2.416493 -3.699262 1.924133,-1.615118 -5.722011 1.232662,-1.634596 -4.854974 1.426025,-1.746585 -4.33185 1.700017,-1.89548 -3.972688 1.968364,-8.720635 -8.205502 -0.1297111,-8.099174 -7.989666 0.5823543,-7.621179 -7.202367 1.024256,-7.503994 -6.26612 1.433452,-7.645666 -5.503797 1.770958,-7.838734 -5.484628 0.125386,-7.625919 -4.318361 0.5054052,-7.514851 -3.503116 0.9085097,-7.442397 -2.77915 1.231153,-8.254352 -5.332757 0.1008813,-8.140376 -4.07932 0.9055705,-8.107223 -4.908431 1.436195,-8.134951 -5.730463 1.585993,-8.679084 -5.337748 0.1944512,-8.615706 -4.114767 0.8790492,-8.543322 -4.912536 1.295025,-8.521441 -5.730736 1.356254,-9.146986 -5.491943 0.3367741,-9.1706 -4.521591 0.843017,-9.040752 -4.813628 1.154135,-8.945104 -5.423355 1.239335,6.110,46 -1 2
-1.900225 -8.59704 1.256196,-2.624047 -8.109552 1.553148,-3.069613 -7.072292 1.680872,-3.23119 -6.020408 1.860602,-3.438286 -5.088602 2.047879,-2.807152 -5.618856 0.9230891,-3.012514 -4.579148 0.9824221,-3.146446 -3.948246 1.165813,-3.286752 -3.396102 1.374689,-2.393768 -5.455543 0.9863621,-2.517393 -4.411378 1.113224,-2.517393 -4.411378 1.113224,-2.803819 -3.744294 1.814836,-2.00114 -5.518306 1.132443,-2.065916 -4.510389 1.32458,-2.222885 -3.976726 1.756576,-2.398494 -3.791185 2.093303,-1.594333 -5.766025 1.334535,-1.6087 -4.907677 1.545323,-1.715191 -4.380906 1.83501,-1.858469 -4.0247 2.115234,-8.75599 -8.264084 -0.03409226,-8.122382 -8.05094 0.6710414,-7.654243 -7.252576 1.10334,-7.536522 -6.320604 1.500964,-7.676051 -5.550781 1.829608,-7.873944 -5.514755 0.2077227,-7.669997 -4.351028 0.6059706,-7.545771 -3.561364 1.012912,-7.466108 -2.867926 1.311948,-8.286987 -5.363094 0.1849358,-8.158429 -4.122477 0.9863163,-8.120646 -4.988664 1.49904,-8.159156 -5.803935 1.616465,-8.711022 -5.372804 0.2770583,-8.634598 -4.161142 0.9775331,-8.557179 -4.992229 1.382805,-8.552197 -5.809425 1.415575,-9.181259 -5.526945 0.4113178,-9.186835 -4.552412 0.9351404,-9.048914 -4.893915 1.237984,-8.965555 -5.524276 1.305917,6.210,46 -1 2
-1.897975 -8.620499 1.211377,-2.603109 -8.131432 1.514771,-3.054314 -7.131925 1.668924,-3.241283 -6.14636 1.869283,-3.48831 -5.257923 2.07758,-2.795094 -5.647171 0.9355246,-3.012033 -4.60967 1.013999,-3.158056 -3.958777 1.211115,-3.30457 -3.400646 1.43264,-2.384248 -5.484962 1.022594,-2.516223 -4.440467 1.229032,-2.516223 -4.440467 1.229032,-2.81717 -3.923105 2.028572,-1.99738 -5.555941 1.189472,-2.064002 -4.535533 1.435892,-2.238206 -4.014865 1.919426,-2.423188 -3.902216 2.290436,-1.597363 -5.815901 1.405497,-1.615035 -4.931595 1.661415,-1.733613 -4.392982 2.001796,-1.89505 -4.056553 2.319757,-8.758471 -8.299088 -0.06571735,-8.136587 -8.072355 0.6277627,-7.66361 -7.285828 1.061685,-7.547455 -6.342174 1.4691,-7.701125 -5.579664 1.798193,-7.89131 -5.549842 0.1375671,-7.679371 -4.377727 0.5315377,-7.568185 -3.573495 0.9541309,-7.496662 -2.870784 1.273978,-8.304633 -5.40256 0.1206305,-8.182232 -4.136335 0.9209698,-8.145859 -4.991288 1.444057,-8.174431 -5.824982 1.571922,-8.726657 -5.414709 0.2233572,-8.657344 -4.183663 0.897895,-8.582046 -5.013561 1.284807,-8.566179 -5.831615 1.317455,-9.190942 -5.580405 0.3714253,-9.205846 -4.608558 0.8809671,-9.073524 -4.94009 1.170866,-8.979549 -5.561271 1.231405,6.310,46 -1 2
-1.877453 -8.614817 1.020551,-2.597544 -8.186062 1.367782,-3.062407 -7.145858 1.525161,-3.233646 -6.096042 1.718848,-3.458394 -5.148612 1.9066,-2.789042 -5.707437 0.7070874,-3.033268 -4.6545 0.7270197,-3.175809 -3.995164 0.8975964,-3.295892 -3.461469 1.099304,-2.375092 -5.542131 0.7541472,-2.518342 -4.449485 0.9171346,-2.518342 -4.449485 0.9171346,-2.777361 -4.034921 1.728574,-1.984719 -5.596826 0.8859473,-2.049707 -4.554842 1.087385,-2.189077 -4.076608 1.617808,-2.328334 -4.051691 2.010766,-1.582376 -5.825258 1.070426,-1.600638 -4.940478 1.306219,-1.705194 -4.446113 1.656504,-1.839988 -4.198398 1.973945,-8.739953 -8.290394 -0.0362757,-8.128009 -8.046318 0.6767878,-7.661961 -7.261651 1.13387,-7.546173 -6.331934 1.557311,-7.713264 -5.576154 1.905201,-7.891803 -5.526374 0.2287409,-7.684564 -4.362491 0.6249866,-7.578049 -3.561296 1.050547,-7.508339 -2.847301 1.384763,-8.308225 -5.386602 0.2116198,-8.197948 -4.158246 1.029268,-8.16476 -5.032379 1.547716,-8.187056 -5.870655 1.680233,-8.730442 -5.40378 0.313234,-8.669395 -4.186761 0.9958115,-8.595888 -5.010553 1.379692,-8.576252 -5.831112 1.412811,-9.191043 -5.578327 0.463131,-9.211617 -4.613571 0.9751737,-9.08521 -4.93816 1.267107,-8.992672 -5.548873 1.332457,6.410,46 -1 2
-1.86748 -8.585835 1.018025,-2.576609 -8.181831 1.375952,-3.054852 -7.162673 1.529796,-3.249189 -6.150985 1.725705,-3.487179 -5.243154 1.903109,-2.785969 -5.685815 0.6850838,-3.020918 -4.645565 0.7010834,-3.15999 -3.977602 0.8484971,-3.274598 -3.440664 1.027138,-2.373875 -5.516777 0.7356889,-2.522326 -4.427246 0.9240921,-2.522326 -4.427246 0.9240921,-2.765794 -4.138045 1.722093,-1.986356 -5.566052 0.8673473,-2.060377 -4.526227 1.089018,-2.215212 -4.126163 1.633082,-2.360924 -4.21116 2.012968,-1.580592 -5.793746 1.053851,-1.598524 -4.918867 1.300328,-1.728607 -4.466484 1.674239,-1.888662 -4.316995 1.997003,-8.75295 -8.254065 -0.1017684,-8.135724 -8.016575 0.5757653,-7.668949 -7.236721 1.020352,-7.550007 -6.309713 1.443165,-7.694421 -5.545211 1.78935,-7.893601 -5.502997 0.1297193,-7.685365 -4.319711 0.5172849,-7.574566 -3.504594 0.9386255,-7.503589 -2.791069 1.264282,-8.309608 -5.369142 0.123523,-8.199215 -4.110085 0.9066145,-8.166094 -4.946755 1.422615,-8.191496 -5.774368 1.561753,-8.730875 -5.392399 0.2312073,-8.671282 -4.171144 0.8938711,-8.593863 -4.98323 1.278576,-8.57409 -5.799661 1.321933,-9.193363 -5.569767 0.3822216,-9.212301 -4.594976 0.8820617,-9.080997 -4.935821 1.167901,-8.985984 -5.562376 1.233437,6.510,46 -1 2
-1.866 -8.60034 1.027719,-2.571307 -8.18593 1.372657,-3.049213 -7.174255 1.537713,-3.23666 -6.169679 1.747936,-3.468094 -5.228242 1.950695,-2.784642 -5.704057 0.6862401,-3.026655 -4.683982 0.6920652,-3.167469 -4.008832 0.8394836,-3.277422 -3.465441 1.023052,-2.376254 -5.529073 0.7455168,-2.521602 -4.453586 0.9201603,-2.521602 -4.453586 0.9201603,-2.75528 -4.164575 1.707259,-1.989931 -5.560673 0.8835381,-2.062052 -4.512077 1.085899,-2.209436 -4.138789 1.613379,-2.349026 -4.27028 1.984706,-1.585714 -5.764236 1.077285,-1.605492 -4.866102 1.318878,-1.74845 -4.460662 1.678022,-1.918995 -4.407696 1.986422,-8.763208 -8.262506 0.003637312,-8.14436 -8.024389 0.705442,-7.673584 -7.240337 1.154626,-7.553985 -6.299668 1.572349,-7.71094 -5.537061 1.906501,-7.90019 -5.494015 0.2447402,-7.692714 -4.33957 0.6330186,-7.581838 -3.536088 1.041077,-7.512723 -2.827631 1.360568,-8.314788 -5.347761 0.2282534,-8.20789 -4.123974 1.025716,-8.176375 -4.97841 1.543035,-8.210559 -5.798629 1.680353,-8.736974 -5.357978 0.327912,-8.678111 -4.153859 1.008889,-8.60507 -4.979114 1.403779,-8.597391 -5.797947 1.445845,-9.198948 -5.516766 0.4710695,-9.217003 -4.554033 0.9801575,-9.089737 -4.900779 1.274718,-9.00423 -5.525308 1.345891,6.610,46 -1 2
-1.866269 -8.587845 0.9865974,-2.576699 -8.167265 1.324943,-3.056096 -7.163801 1.479432,-3.242988 -6.139285 1.677168,-3.463818 -5.172761 1.857954,-2.783549 -5.700845 0.6534807,-3.034281 -4.677814 0.6487377,-3.172903 -4.014035 0.7784549,-3.279664 -3.482028 0.943391,-2.375659 -5.52877 0.7004301,-2.52251 -4.457653 0.8526631,-2.52251 -4.457653 0.8526631,-2.760433 -4.129028 1.618093,-1.991631 -5.565059 0.825753,-2.062934 -4.525684 1.010695,-2.21452 -4.143884 1.52497,-2.356936 -4.251801 1.893208,-1.5916 -5.76581 1.004142,-1.608351 -4.872543 1.239976,-1.746641 -4.460554 1.594311,-1.916329 -4.385782 1.897466,-8.75909 -8.281294 -0.0505881,-8.128948 -8.055399 0.644345,-7.652313 -7.265073 1.0766,-7.541705 -6.316778 1.474178,-7.719926 -5.581504 1.795979,-7.885041 -5.539237 0.1936095,-7.678607 -4.378206 0.5828166,-7.571816 -3.568674 1.001746,-7.504271 -2.863321 1.33098,-8.305733 -5.383467 0.1793259,-8.198911 -4.142654 0.9811214,-8.167714 -4.988731 1.505373,-8.196153 -5.828314 1.648981,-8.732267 -5.386225 0.2800464,-8.676987 -4.171588 0.9552541,-8.606763 -4.982382 1.353308,-8.59054 -5.806988 1.400668,-9.194907 -5.541507 0.4264967,-9.225414 -4.575355 0.9342652,-9.100036 -4.895334 1.231178,-9.006288 -5.512502 1.305286,6.710,46 -1 2
-1.896347 -8.525106 0.9145616,-2.609176 -8.142515 1.26275,-3.081888 -7.135572 1.423876,-3.258839 -6.122592 1.621004,-3.509056 -5.177129 1.796909,-2.809242 -5.654245 0.6244985,-3.052595 -4.625999 0.6523071,-3.190681 -3.963823 0.7955775,-3.300364 -3.438641 0.9744766,-2.399879 -5.481319 0.683619,-2.559333 -4.400159 0.9068143,-2.559333 -4.400159 0.9068143,-2.803894 -4.134796 1.709718,-2.011827 -5.525922 0.8209143,-2.10074 -4.470853 1.073377,-2.273765 -4.100107 1.603739,-2.435359 -4.225749 1.978602,-1.603424 -5.748243 1.00551,-1.632725 -4.843055 1.278725,-1.781712 -4.417941 1.650069,-1.961754 -4.325646 1.968233,-8.801198 -8.384726 -0.04717047,-8.162774 -8.146915 0.7227949,-7.684959 -7.373958 1.22035,-7.578127 -6.43898 1.670202,-7.813741 -5.701116 2.033577,-7.923725 -5.646532 0.3076666,-7.728216 -4.514448 0.7745258,-7.619812 -3.774963 1.205586,-7.547763 -3.112794 1.511365,-8.35242 -5.495128 0.2854603,-8.281345 -4.354225 1.198898,-8.266434 -5.314096 1.697251,-8.297338 -6.145264 1.76368,-8.785592 -5.505673 0.3884972,-8.759645 -4.371318 1.18364,-8.701473 -5.270433 1.583847,-8.693679 -6.087119 1.565299,-9.249567 -5.664576 0.5438466,-9.298323 -4.668791 1.100975,-9.182113 -5.048681 1.388818,-9.100607 -5.676261 1.416935,6.810,46 -1 2
-1.930147 -8.470343 0.8634841,-2.634693 -8.065874 1.155873,-3.102062 -7.078182 1.297,-3.293394 -6.092855 1.482628,-3.573669 -5.170262 1.665287,-2.832617 -5.610716 0.5418808,-3.087421 -4.60079 0.5635892,-3.232102 -3.935468 0.7038807,-3.355267 -3.396802 0.8894076,-2.428629 -5.44107 0.6254457,-2.58376 -4.366188 0.8371018,-2.58376 -4.366188 0.8371018,-2.843703 -4.073162 1.625443,-2.047713 -5.465185 0.7841024,-2.139354 -4.386646 1.027673,-2.329497 -4.030472 1.540565,-2.506068 -4.173004 1.904943,-1.652973 -5.663803 0.9839758,-1.698797 -4.732421 1.250931,-1.860686 -4.317436 1.606364,-2.052446 -4.242632 1.913998,-8.8733 -8.369925 -0.1680606,-8.249167 -8.14226 0.6360441,-7.785192 -7.443076 1.142892,-7.704068 -6.55981 1.588027,-7.959131 -5.907671 1.961846,-7.987159 -5.697835 0.2209456,-7.786782 -4.650669 0.75822,-7.682661 -4.047237 1.203774,-7.60211 -3.526967 1.468317,-8.422686 -5.519046 0.1911076,-8.362071 -4.460512 1.164156,-8.394784 -5.47252 1.637963,-8.440547 -6.298222 1.646574,-8.862921 -5.538396 0.2962037,-8.858889 -4.533412 1.163758,-8.832833 -5.471364 1.5394,-8.819309 -6.240663 1.474446,-9.33091 -5.71975 0.4528074,-9.399751 -4.773761 1.062708,-9.315394 -5.228408 1.377247,-9.236126 -5.830762 1.406381,6.910,46 -1 2
-1.954065 -8.407705 0.7462397,-2.648202 -8.051565 1.016716,-3.109672 -7.054523 1.14021,-3.281155 -6.059371 1.307654,-3.561865 -5.174324 1.469136,-2.861103 -5.587798 0.4064648,-3.115632 -4.59099 0.4287718,-3.254487 -3.928019 0.5688276,-3.36371 -3.411556 0.7474704,-2.461057 -5.413896 0.5087619,-2.628294 -4.319568 0.7384138,-2.628294 -4.319568 0.7384138,-2.899582 -4.073164 1.532661,-2.078326 -5.458238 0.6870759,-2.186025 -4.37172 0.9739362,-2.385426 -4.005994 1.508817,-2.566535 -4.155933 1.879605,-1.676646 -5.683335 0.9019189,-1.716698 -4.759243 1.193397,-1.87498 -4.317209 1.565257,-2.071534 -4.196561 1.888382,-8.898881 -8.259197 -0.3228348,-8.288929 -8.129433 0.5442724,-7.813967 -7.450963 1.057145,-7.750187 -6.58109 1.488875,-8.029263 -5.984586 1.852734,-7.990867 -5.671804 0.150085,-7.780639 -4.667903 0.7584127,-7.698162 -4.051748 1.260055,-7.639667 -3.480743 1.560661,-8.433537 -5.461901 0.08119851,-8.412997 -4.52281 1.103594,-8.480944 -5.529907 1.592471,-8.52464 -6.335426 1.604172,-8.884683 -5.468779 0.1606649,-8.914292 -4.588495 1.051726,-8.922035 -5.555346 1.408234,-8.902337 -6.31063 1.328429,-9.354584 -5.647528 0.3001148,-9.443079 -4.806264 0.9160924,-9.37943 -5.366226 1.203762,-9.292813 -6.007753 1.197931,7.010,46 -1 2
-1.94579 -8.438528 0.7506863,-2.652873 -8.069504 1.003584,-3.108739 -7.080886 1.107709,-3.278656 -6.09309 1.275501,-3.545424 -5.211444 1.451325,-2.846278 -5.625877 0.3415542,-3.092541 -4.635633 0.363098,-3.238796 -3.976082 0.5105581,-3.352114 -3.455234 0.6789434,-2.454862 -5.450246 0.4421831,-2.599679 -4.387468 0.5839058,-2.599679 -4.387468 0.5839058,-2.864627 -4.023564 1.28571,-2.079722 -5.488321 0.6220862,-2.157436 -4.433788 0.8269798,-2.326674 -4.053428 1.323487,-2.486524 -4.17741 1.671763,-1.686376 -5.696536 0.8456841,-1.70504 -4.776395 1.093441,-1.851982 -4.360267 1.435949,-2.032642 -4.298164 1.725085,-8.922963 -8.127439 -0.4276433,-8.347259 -8.11467 0.4925047,-7.872451 -7.407513 1.009732,-7.822069 -6.530017 1.43975,-8.096319 -5.932909 1.817538,-8.035562 -5.590243 0.08027261,-7.825961 -4.600132 0.6812414,-7.753244 -3.940063 1.183971,-7.694511 -3.310945 1.515627,-8.483384 -5.358785 -0.008046746,-8.465112 -4.394317 1.032184,-8.51131 -5.415307 1.528461,-8.526812 -6.25476 1.534368,-8.94971 -5.365486 0.05672935,-8.991388 -4.426364 0.9655483,-8.982193 -5.409822 1.345747,-8.934747 -6.197847 1.264573,-9.428926 -5.542459 0.1824393,-9.532754 -4.682436 0.8305432,-9.465858 -5.222208 1.110293,-9.368767 -5.881087 1.094646,7.110,46 -1 2
-1.924278 -8.454042 0.6874965,-2.623374 -8.111609 0.9486225,-3.08555 -7.123777 1.05988,-3.269507 -6.137571 1.224537,-3.548851 -5.271612 1.391951,-2.829264 -5.663373 0.3295618,-3.08057 -4.669502 0.3343206,-3.224206 -4.004913 0.4713268,-3.338505 -3.487018 0.6460919,-2.434758 -5.481382 0.4095387,-2.596051 -4.42707 0.5200047,-2.596051 -4.42707 0.5200047,-2.864748 -4.034797 1.182422,-2.052756 -5.516801 0.569582,-2.149434 -4.478336 0.7423465,-2.325641 -4.072817 1.208851,-2.492054 -4.164297 1.546995,-1.650972 -5.720746 0.7710103,-1.685598 -4.826236 0.9849563,-1.830278 -4.389913 1.30264,-2.013062 -4.269081 1.580281,-8.921534 -8.063038 -0.4996188,-8.354499 -8.059341 0.4547047,-7.882576 -7.33896 0.961694,-7.848881 -6.456432 1.356749,-8.146589 -5.854063 1.684751,-8.046707 -5.544779 0.06549174,-7.833258 -4.561058 0.6779717,-7.766267 -3.904739 1.174241,-7.714758 -3.267933 1.510312,-8.495316 -5.317583 -0.05270067,-8.477257 -4.378072 0.9990199,-8.528601 -5.407705 1.470788,-8.546137 -6.239801 1.455604,-8.96811 -5.325046 -0.0103634,-9.010817 -4.417309 0.9221823,-9.001356 -5.423618 1.289518,-8.945009 -6.197958 1.192446,-9.456149 -5.498096 0.09455585,-9.549335 -4.663278 0.7636557,-9.478676 -5.253546 1.047342,-9.37775 -5.920898 1.036066,7.210,46 -1 2
-1.933615 -8.472755 0.7156349,-2.622436 -8.127184 0.9455756,-3.079946 -7.126382 1.049944,-3.263709 -6.151632 1.219167,-3.549305 -5.278522 1.402136,-2.828714 -5.670515 0.3142479,-3.080477 -4.68692 0.3264578,-3.224981 -4.021017 0.4762792,-3.339619 -3.494485 0.663919,-2.433505 -5.490942 0.4289383,-2.592895 -4.439842 0.5744306,-2.592895 -4.439842 0.5744306,-2.872658 -4.079486 1.281937,-2.051515 -5.531328 0.6224169,-2.141541 -4.483303 0.822888,-2.327058 -4.090503 1.317225,-2.503936 -4.195105 1.669776,-1.653713 -5.748544 0.8555685,-1.676847 -4.844956 1.089647,-1.822927 -4.3977 1.421338,-2.010376 -4.274061 1.712698,-8.940258 -8.058508 -0.5315749,-8.373109 -8.070238 0.4334043,-7.898144 -7.383083 0.9638506,-7.853161 -6.524726 1.380584,-8.137981 -5.899975 1.728642,-8.042812 -5.557779 0.05917734,-7.830192 -4.584945 0.6851547,-7.768297 -3.944286 1.194308,-7.721396 -3.320344 1.533994,-8.493578 -5.33108 -0.05290106,-8.469358 -4.390134 1.016143,-8.513824 -5.434328 1.498222,-8.527095 -6.246593 1.489815,-8.967754 -5.345951 -0.002694726,-9.002514 -4.427902 0.9369968,-8.98677 -5.447853 1.305786,-8.929676 -6.204574 1.215409,-9.459415 -5.529335 0.1107475,-9.550937 -4.689399 0.7849029,-9.475756 -5.275265 1.07021,-9.376589 -5.924224 1.068258,7.310,46 -1 2
-1.98046 -8.415564 0.5738925,-2.65793 -8.090916 0.8521884,-3.112995 -7.1226 0.9894762,-3.291761 -6.162705 1.166199,-3.566802 -5.297485 1.353894,-2.861761 -5.641878 0.3120727,-3.127405 -4.643766 0.3501566,-3.275223 -3.963069 0.5125065,-3.390802 -3.426372 0.7030324,-2.461709 -5.463488 0.3929366,-2.624653 -4.412443 0.5880435,-2.624653 -4.412443 0.5880435,-2.864873 -4.045703 1.304791,-2.083396 -5.496376 0.5524296,-2.182826 -4.440864 0.7885429,-2.353834 -4.053892 1.273292,-2.505654 -4.15753 1.623545,-1.691137 -5.706833 0.7482237,-1.73466 -4.794143 1.019483,-1.884476 -4.384838 1.365185,-2.060604 -4.300268 1.669467,-8.982466 -8.080372 -0.4410784,-8.428628 -8.10059 0.6100321,-7.983471 -7.362214 1.176259,-7.98329 -6.510481 1.609924,-8.256289 -5.938354 2.018781,-8.139881 -5.59184 0.343273,-7.941399 -4.66398 1.006497,-7.890635 -4.024902 1.538931,-7.845271 -3.406747 1.89801,-8.60223 -5.349489 0.199814,-8.613246 -4.408104 1.313134,-8.654442 -5.45548 1.782519,-8.642846 -6.292762 1.768672,-9.079517 -5.352962 0.2121226,-9.143547 -4.421482 1.199466,-9.134315 -5.433452 1.572446,-9.06589 -6.206701 1.488934,-9.556866 -5.530535 0.2955078,-9.684566 -4.690301 0.9845299,-9.626859 -5.232336 1.275314,-9.521654 -5.845041 1.293835,7.410,46 -1 2
-1.997162 -8.425213 0.6087261,-2.678316 -8.082058 0.8431929,-3.124695 -7.099563 0.9555462,-3.312874 -6.140703 1.128846,-3.603654 -5.290889 1.309361,-2.871759 -5.648868 0.2381603,-3.136471 -4.664831 0.2607712,-3.281485 -3.996419 0.4200185,-3.390818 -3.464865 0.6154079,-2.480473 -5.468828 0.3536501,-2.648371 -4.421222 0.5320292,-2.648371 -4.421222 0.5320292,-2.907747 -4.069242 1.26369,-2.10008 -5.508098 0.5475018,-2.196144 -4.455188 0.7763938,-2.380964 -4.066925 1.277534,-2.547933 -4.17135 1.630355,-1.702455 -5.726092 0.7754515,-1.730558 -4.815206 1.034463,-1.87953 -4.36955 1.37666,-2.065306 -4.232986 1.672884,-9.035196 -8.040533 -0.6433285,-8.470402 -8.08033 0.3610948,-8.002769 -7.388202 0.8938391,-7.991184 -6.529163 1.291975,-8.293155 -5.944421 1.645467,-8.175779 -5.635034 0.1228642,-7.979727 -4.721672 0.8027567,-7.93406 -4.066841 1.346858,-7.897703 -3.420592 1.717016,-8.637499 -5.368684 -0.01684356,-8.648147 -4.43048 1.050315,-8.697616 -5.452684 1.511583,-8.703299 -6.291906 1.513268,-9.120373 -5.358629 -0.00389117,-9.197133 -4.44464 0.9651825,-9.196009 -5.462983 1.343382,-9.13601 -6.257133 1.257764,-9.6017 -5.533002 0.07426375,-9.741139 -4.705925 0.7604921,-9.681591 -5.263658 1.026945,-9.576647 -5.913091 1.019197,7.510,46 -1 2
-1.978605 -8.44318 0.5405999,-2.664498 -8.130463 0.7713672,-3.134062 -7.15918 0.8645322,-3.32615 -6.188197 1.016521,-3.600266 -5.332414 1.171484,-2.891121 -5.703002 0.142121,-3.148135 -4.715417 0.1437847,-3.287859 -4.043859 0.279345,-3.389282 -3.505897 0.4494399,-2.497667 -5.51699 0.2402606,-2.657242 -4.471332 0.3754527,-2.657242 -4.471332 0.3754527,-2.87857 -4.061918 1.007799,-2.117049 -5.541386 0.4194254,-2.210907 -4.499505 0.6059759,-2.367297 -4.102507 1.066256,-2.506793 -4.202587 1.381418,-1.717793 -5.735876 0.6382658,-1.747108 -4.830184 0.8707782,-1.889216 -4.420953 1.19949,-2.058518 -4.343758 1.470595,-9.0817 -7.971832 -0.613483,-8.531238 -8.044415 0.4470887,-8.076807 -7.399105 1.014193,-8.06221 -6.575454 1.435746,-8.339491 -5.964778 1.830165,-8.223164 -5.603424 0.3020635,-8.03907 -4.751571 1.08231,-7.99004 -4.127769 1.678462,-7.947087 -3.50443 2.061439,-8.695633 -5.324339 0.1471546,-8.738306 -4.439893 1.284803,-8.782908 -5.516706 1.726191,-8.781616 -6.363058 1.709412,-9.188023 -5.30956 0.153452,-9.289033 -4.435557 1.190756,-9.275666 -5.518482 1.552108,-9.212681 -6.33443 1.445458,-9.662982 -5.489519 0.2253754,-9.833714 -4.730038 0.9653305,-9.773306 -5.303865 1.240384,-9.664674 -5.937943 1.244253,7.610,46 -1 2
-1.968404 -8.471888 0.5889202,-2.662693 -8.134338 0.8207216,-3.124016 -7.153951 0.9135985,-3.310359 -6.18617 1.070693,-3.590941 -5.333141 1.244218,-2.881404 -5.716761 0.2015352,-3.138464 -4.731103 0.2376626,-3.276615 -4.076681 0.4062831,-3.373583 -3.572458 0.5949736,-2.484878 -5.529726 0.3029413,-2.64326 -4.499319 0.4548083,-2.64326 -4.499319 0.4548083,-2.87722 -4.082448 1.145779,-2.09987 -5.564683 0.4869127,-2.196078 -4.532058 0.6888151,-2.356239 -4.121014 1.167995,-2.502493 -4.211462 1.504049,-1.699485 -5.775329 0.7074606,-1.721699 -4.871091 0.9561852,-1.85677 -4.4403 1.295336,-2.021701 -4.347467 1.572453,-9.045395 -8.039148 -0.6937119,-8.504516 -8.06085 0.3827281,-8.07496 -7.417448 0.9662812,-8.067156 -6.578593 1.391901,-8.365495 -5.93645 1.777097,-8.239025 -5.676988 0.2363995,-8.037165 -4.790237 0.9932786,-7.987904 -4.162127 1.572054,-7.951394 -3.522654 1.962652,-8.71036 -5.411035 0.07480377,-8.742661 -4.465673 1.191023,-8.780093 -5.527111 1.643429,-8.778705 -6.352624 1.654723,-9.195204 -5.399803 0.0701133,-9.304037 -4.463441 1.089129,-9.283426 -5.537271 1.467057,-9.214242 -6.344769 1.375387,-9.665854 -5.585349 0.132462,-9.849134 -4.767419 0.8632057,-9.783684 -5.344613 1.12913,-9.669977 -5.986333 1.135159,7.710,46 -1 2
-1.945511 -8.48826 0.6879713,-2.633549 -8.161194 0.9285015,-3.091923 -7.160429 1.032534,-3.278506 -6.178402 1.197664,-3.56608 -5.31414 1.372826,-2.844957 -5.703655 0.2891951,-3.100439 -4.726519 0.2787153,-3.235415 -4.074136 0.4005443,-3.330313 -3.552963 0.5671507,-2.450145 -5.516767 0.3862585,-2.616477 -4.489997 0.5089097,-2.616477 -4.489997 0.5089097,-2.847114 -4.107313 1.159595,-2.065004 -5.553741 0.5617061,-2.16107 -4.526745 0.7458149,-2.319793 -4.140117 1.229233,-2.463057 -4.236948 1.573508,-1.665106 -5.763578 0.7753459,-1.688938 -4.866479 1.01302,-1.825116 -4.440213 1.348587,-1.997229 -4.33577 1.630849,-9.048603 -8.0882 -0.7034175,-8.492027 -8.067511 0.3200467,-8.059446 -7.437398 0.8951474,-8.039295 -6.609338 1.330197,-8.342695 -5.959251 1.705334,-8.23127 -5.719903 0.1572016,-8.029884 -4.822933 0.9131386,-7.972794 -4.219154 1.462313,-7.927136 -3.575371 1.834085,-8.688122 -5.454002 0.02154386,-8.691394 -4.562064 1.128465,-8.749676 -5.637216 1.555054,-8.783108 -6.434791 1.530979,-9.178126 -5.42354 0.04422444,-9.261137 -4.543693 1.024238,-9.258138 -5.628807 1.351104,-9.221812 -6.421425 1.222607,-9.671092 -5.571455 0.134199,-9.812317 -4.79802 0.8218614,-9.733904 -5.427228 1.051765,-9.631576 -6.088892 1.007113,7.810,46 -1 2
