TiagoOliveira98/Thesis-Project/Difficulty_0/Motor_Task/Unity_Project/DataLogging/JointData/Logs(1646876472)_gfgggggg_Motor.csv
WRIST,THUMB_CMC,THUMB_MCP,THUMB_IP,THUMB_TIP,INDEX_FINGER_MCP,INDEX_FINGER_PIP,INDEX_FINGER_DIP,INDEX_FINGER_TIP,MIDDLE_FINGER_MCP,MIDDLE_FINGER_PIP,MIDDLE_FINGER_DIP,MIDDLE_FINGER_TIP,RING_FINGER_MCP,RING_FINGER_PIP,RING_FINGER_DIP,RING_FINGER_TIP,PINKY_MCP,PINKY_PIP,PINKY_DIP,PINKY_TIP,WRIST2,THUMB_CMC2,THUMB_MCP2,THUMB_IP2,THUMB_TIP2,INDEX_FINGER_MCP2,INDEX_FINGER_PIP2,INDEX_FINGER_DIP2,INDEX_FINGER_TIP2,MIDDLE_FINGER_MCP2,MIDDLE_FINGER_PIP2,MIDDLE_FINGER_DIP2,MIDDLE_FINGER_TIP2,RING_FINGER_MCP2,RING_FINGER_PIP2,RING_FINGER_DIP2,RING_FINGER_TIP2,PINKY_MCP2,PINKY_PIP2,PINKY_DIP2,PINKY_TIP2,Timestamp,Event
-2.122396 -7.356898 0.0004661068,-2.83251 -7.028682 0.2359534,-3.416924 -6.411073 0.3799048,-3.850395 -5.835115 0.5298792,-4.183499 -5.485696 0.7249491,-2.921906 -4.680515 -0.01444741,-3.155199 -3.553327 0.1703416,-3.275794 -2.900122 0.3499695,-3.38327 -2.322422 0.4790104,-2.539642 -4.427221 0.07194737,-2.670402 -3.146098 0.2194642,-2.670402 -3.146098 0.2194642,-2.824139 -1.625224 0.5768955,-2.147141 -4.429942 0.2350611,-2.229924 -3.186816 0.3875618,-2.307483 -2.380874 0.5451538,-2.405703 -1.728717 0.678459,-1.727574 -4.660326 0.4320746,-1.623731 -3.651762 0.583899,-1.579795 -2.968055 0.7166278,-1.567503 -2.343469 0.8519971,-8.317622 -7.450704 0.0006177208,-7.689596 -7.10849 0.2437304,-7.122293 -6.374749 0.4315534,-6.731315 -5.72841 0.6769434,-6.370187 -5.418214 0.9350721,-7.548776 -4.52988 0.07646866,-7.412899 -3.404787 0.1806082,-7.359998 -2.68011 0.3365122,-7.322225 -2.067394 0.4730296,-7.923511 -4.339662 0.1363297,-7.812431 -3.021696 0.208779,-7.741191 -2.175014 0.4332423,-7.688662 -1.452455 0.6158068,-8.292771 -4.403566 0.2360036,-8.229397 -3.204335 0.3036949,-8.169971 -2.450286 0.4398949,-8.099264 -1.819491 0.5423381,-8.673641 -4.68475 0.3722131,-8.761094 -3.757415 0.4771694,-8.785489 -3.166172 0.5758494,-8.780228 -2.608042 0.6390682,0.010,15 1 0
-2.122937 -7.380237 0.06285501,-2.822644 -7.053098 0.3023224,-3.401559 -6.415411 0.4589303,-3.834942 -5.819583 0.6235051,-4.175776 -5.464659 0.8282564,-2.91497 -4.677515 0.0746968,-3.145593 -3.553089 0.2529194,-3.274606 -2.904122 0.4196925,-3.388969 -2.326097 0.5472555,-2.538215 -4.433013 0.1604659,-2.672738 -3.143615 0.3116715,-2.672738 -3.143615 0.3116715,-2.837377 -1.620388 0.6779265,-2.153251 -4.438934 0.3200423,-2.237554 -3.186039 0.4806852,-2.320597 -2.365766 0.6497662,-2.423625 -1.700948 0.7940231,-1.74195 -4.678733 0.5148525,-1.625313 -3.662453 0.6605917,-1.573336 -2.976024 0.7985423,-1.554997 -2.348915 0.9493616,-8.313019 -7.441439 -0.002928843,-7.697853 -7.103408 0.2705637,-7.137506 -6.380428 0.4876249,-6.753128 -5.734107 0.7539158,-6.388434 -5.409471 1.037298,-7.552403 -4.524589 0.1425221,-7.4202 -3.396432 0.2703857,-7.376693 -2.678282 0.4379113,-7.346364 -2.066565 0.5804347,-7.929031 -4.333883 0.2008512,-7.81713 -3.008893 0.2989501,-7.746602 -2.159318 0.528284,-7.695386 -1.436511 0.7146924,-8.299922 -4.401481 0.2998521,-8.242085 -3.199963 0.3933846,-8.184048 -2.441382 0.5357654,-8.115277 -1.808875 0.6459452,-8.683805 -4.691204 0.4358549,-8.764999 -3.758895 0.5570366,-8.78414 -3.160476 0.6557572,-8.775363 -2.596498 0.718485,0.110,15 1 0
-2.099666 -7.450523 0.1907457,-2.81142 -7.142014 0.4322205,-3.394576 -6.448041 0.5501513,-3.816402 -5.80264 0.6900367,-4.158522 -5.420481 0.87546,-2.924603 -4.726775 0.1172416,-3.1513 -3.579076 0.2403123,-3.272877 -2.897316 0.381287,-3.380993 -2.303944 0.4967727,-2.534511 -4.467557 0.1851656,-2.658648 -3.172078 0.2611592,-2.658648 -3.172078 0.2611592,-2.830473 -1.628803 0.5847988,-2.145143 -4.460628 0.3316583,-2.221038 -3.201504 0.4385172,-2.310106 -2.376075 0.5786364,-2.415397 -1.715678 0.7018199,-1.732183 -4.694633 0.5170995,-1.62075 -3.675807 0.6318042,-1.578917 -2.988103 0.7593604,-1.567986 -2.369903 0.8957427,-8.343989 -7.460601 0.006727567,-7.712255 -7.126623 0.2695026,-7.147213 -6.387643 0.4779164,-6.755356 -5.727584 0.7356428,-6.383206 -5.407171 1.003911,-7.562933 -4.542731 0.1384175,-7.436192 -3.405729 0.2539173,-7.388039 -2.677392 0.4196904,-7.351796 -2.057562 0.5605024,-7.943779 -4.350887 0.1873223,-7.840928 -3.02487 0.2715016,-7.768261 -2.166662 0.4867423,-7.714222 -1.434098 0.6701974,-8.315658 -4.412175 0.2741442,-8.262726 -3.197496 0.3446543,-8.204348 -2.439491 0.4602003,-8.13495 -1.809213 0.545296,-8.701361 -4.69363 0.3969501,-8.77485 -3.737574 0.4942118,-8.792439 -3.136554 0.5680586,-8.786521 -2.572049 0.6114466,0.210,15 1 0
-2.125227 -7.450455 0.3013912,-2.839302 -7.152522 0.5466985,-3.42152 -6.458217 0.6719556,-3.828272 -5.788326 0.813798,-4.173153 -5.394167 0.999281,-2.937329 -4.683036 0.2007193,-3.160224 -3.547422 0.294735,-3.283619 -2.882074 0.4147539,-3.392874 -2.282476 0.5226484,-2.546056 -4.433788 0.2649232,-2.665431 -3.142922 0.3256065,-2.665431 -3.142922 0.3256065,-2.827895 -1.605672 0.6515841,-2.160658 -4.435367 0.4085161,-2.224248 -3.18679 0.4911236,-2.31698 -2.369124 0.6309285,-2.415546 -1.701147 0.7646521,-1.750434 -4.674891 0.5910703,-1.628541 -3.667225 0.6841094,-1.578382 -2.974336 0.8193136,-1.551153 -2.328691 0.9677094,-8.345051 -7.451542 0.02159118,-7.718087 -7.119248 0.2626361,-7.155575 -6.371074 0.460724,-6.763527 -5.714136 0.7120414,-6.389168 -5.408948 0.9753324,-7.576533 -4.528459 0.1366407,-7.453353 -3.392123 0.2437761,-7.406193 -2.672277 0.3995714,-7.369656 -2.060504 0.5297993,-7.954493 -4.335961 0.1956191,-7.846247 -3.001523 0.2818395,-7.774173 -2.152544 0.4871137,-7.716627 -1.430945 0.6556087,-8.320712 -4.398839 0.2924564,-8.275343 -3.166196 0.3793462,-8.221762 -2.400238 0.5017343,-8.152028 -1.761728 0.5866801,-8.697895 -4.68262 0.4183412,-8.781236 -3.724826 0.5312495,-8.801656 -3.118566 0.6169019,-8.792156 -2.548234 0.6636457,0.310,15 1 0
-2.13084 -7.46162 0.3371324,-2.838993 -7.155933 0.589366,-3.41983 -6.458463 0.7163895,-3.830173 -5.780855 0.8540344,-4.178787 -5.386604 1.038282,-2.94173 -4.686425 0.2477294,-3.16687 -3.550436 0.3409352,-3.284215 -2.879859 0.4591024,-3.386454 -2.275299 0.5677549,-2.552838 -4.43469 0.3088404,-2.67795 -3.141331 0.3670156,-2.67795 -3.141331 0.3670156,-2.837646 -1.612314 0.6818154,-2.169993 -4.435068 0.4507673,-2.237116 -3.17645 0.5339456,-2.326563 -2.357008 0.6731737,-2.421331 -1.688299 0.8054282,-1.759526 -4.67737 0.6322116,-1.64238 -3.653505 0.7223678,-1.593852 -2.948904 0.8585293,-1.563297 -2.292758 1.010286,-8.36469 -7.45675 0.03995594,-7.731683 -7.121904 0.2833208,-7.163567 -6.379264 0.4759336,-6.764817 -5.721506 0.7236854,-6.391343 -5.40726 0.9861888,-7.579897 -4.525495 0.1129827,-7.450875 -3.389559 0.2134475,-7.401627 -2.663974 0.3710964,-7.365078 -2.050326 0.4991586,-7.957067 -4.335624 0.1627364,-7.849617 -3.004017 0.2348934,-7.781311 -2.159838 0.4393611,-7.729029 -1.430911 0.6071447,-8.322522 -4.399692 0.2525678,-8.27266 -3.183635 0.3155854,-8.220793 -2.435482 0.4195584,-8.154877 -1.800783 0.4936241,-8.69866 -4.685032 0.376729,-8.783752 -3.739319 0.463028,-8.807195 -3.145084 0.5357329,-8.802601 -2.5788 0.5780972,0.410,15 1 0
-2.127341 -7.440778 0.3134882,-2.838016 -7.125873 0.603497,-3.422315 -6.442333 0.7665623,-3.834545 -5.772129 0.9395884,-4.177897 -5.371866 1.161484,-2.953138 -4.664175 0.2757596,-3.17417 -3.522209 0.4042983,-3.29134 -2.856056 0.5527327,-3.396036 -2.268905 0.6763434,-2.55884 -4.421941 0.3271768,-2.679286 -3.130471 0.4014103,-2.679286 -3.130471 0.4014103,-2.828671 -1.599105 0.7413815,-2.168853 -4.429562 0.4638515,-2.236337 -3.18209 0.559804,-2.325153 -2.358426 0.7109755,-2.427378 -1.686681 0.8499772,-1.757294 -4.672538 0.6430271,-1.635366 -3.658614 0.7470266,-1.586003 -2.968509 0.8818591,-1.562023 -2.334653 1.029325,-8.355839 -7.489297 0.0958601,-7.726742 -7.137977 0.3433424,-7.159535 -6.390026 0.5425919,-6.766938 -5.716785 0.7964801,-6.396111 -5.389885 1.065443,-7.580585 -4.539449 0.1933029,-7.450138 -3.406016 0.3068982,-7.400165 -2.685482 0.4752612,-7.364988 -2.07347 0.6142499,-7.958775 -4.35221 0.2527607,-7.852835 -3.028017 0.3341123,-7.785456 -2.179316 0.5527291,-7.734312 -1.452601 0.7334757,-8.32662 -4.427093 0.35364,-8.283233 -3.22019 0.4324679,-8.229608 -2.468507 0.5584308,-8.161696 -1.839311 0.6441339,-8.707077 -4.725345 0.4892299,-8.797983 -3.786678 0.604133,-8.821194 -3.185676 0.6929892,-8.813744 -2.613688 0.7392904,0.510,15 1 0
-2.113862 -7.449054 0.356556,-2.82592 -7.144968 0.6299994,-3.415154 -6.44585 0.774394,-3.831251 -5.784412 0.9350852,-4.177456 -5.401876 1.138736,-2.943571 -4.663665 0.2803212,-3.173267 -3.523819 0.3998563,-3.295846 -2.855775 0.5423123,-3.404512 -2.259893 0.6594458,-2.552242 -4.418819 0.3378348,-2.67753 -3.127489 0.4088928,-2.67753 -3.127489 0.4088928,-2.836269 -1.600194 0.7312815,-2.165285 -4.42429 0.4801268,-2.237667 -3.179733 0.577449,-2.332318 -2.365517 0.7196151,-2.436303 -1.693902 0.8504583,-1.751644 -4.66316 0.666145,-1.634622 -3.657085 0.7691581,-1.586942 -2.968323 0.8998543,-1.562847 -2.327422 1.04402,-8.346634 -7.474235 0.03718027,-7.716677 -7.121825 0.2728233,-7.15979 -6.379249 0.4661486,-6.774063 -5.712486 0.71683,-6.407096 -5.400146 0.9863687,-7.580074 -4.535663 0.1233156,-7.452683 -3.391248 0.2339712,-7.407944 -2.665294 0.4002828,-7.377645 -2.046789 0.5371923,-7.958769 -4.352914 0.1943334,-7.857426 -3.003076 0.2756222,-7.79189 -2.149765 0.4935956,-7.739104 -1.426696 0.6691108,-8.325354 -4.430913 0.3027489,-8.28076 -3.198163 0.3845277,-8.226505 -2.439382 0.5198333,-8.156768 -1.799572 0.6136123,-8.700267 -4.73056 0.44624,-8.794077 -3.792183 0.5609547,-8.819491 -3.184583 0.6576157,-8.813172 -2.602883 0.7101908,0.610,15 1 0
-2.119852 -7.454563 0.3245631,-2.83499 -7.143141 0.5834697,-3.419701 -6.451244 0.7194747,-3.832617 -5.771017 0.8728217,-4.175578 -5.367889 1.066468,-2.934343 -4.673353 0.2251607,-3.157471 -3.532972 0.3223861,-3.283234 -2.863854 0.4529998,-3.393606 -2.265349 0.566944,-2.545457 -4.43198 0.2814998,-2.673581 -3.136123 0.3405843,-2.673581 -3.136123 0.3405843,-2.833793 -1.603264 0.6615587,-2.164263 -4.431953 0.4206909,-2.234275 -3.177968 0.5055151,-2.327977 -2.360403 0.6463584,-2.424339 -1.68027 0.776246,-1.761039 -4.662378 0.5999966,-1.638486 -3.653832 0.6913971,-1.586802 -2.965306 0.8170208,-1.553542 -2.320913 0.9574113,-8.367415 -7.466735 0.09927854,-7.726011 -7.113864 0.353043,-7.161572 -6.375299 0.5483181,-6.772638 -5.703546 0.7933072,-6.405759 -5.381822 1.046469,-7.591667 -4.518836 0.1929061,-7.459354 -3.379059 0.3038157,-7.414256 -2.655781 0.4678183,-7.381333 -2.041492 0.5974842,-7.971217 -4.327915 0.2429584,-7.865557 -2.99321 0.3208438,-7.801941 -2.154737 0.5373753,-7.750122 -1.431566 0.7138867,-8.337797 -4.4011 0.3329189,-8.291761 -3.184058 0.412027,-8.240078 -2.440423 0.5408121,-8.171814 -1.805412 0.6276127,-8.714658 -4.695415 0.4560793,-8.805869 -3.759643 0.5728341,-8.83028 -3.165851 0.6697895,-8.821294 -2.595314 0.723266,0.710,15 1 0
-2.096339 -7.467065 0.3490227,-2.809182 -7.16361 0.6515422,-3.408553 -6.473734 0.8045882,-3.822454 -5.786712 0.9653786,-4.164958 -5.371704 1.172099,-2.925836 -4.685954 0.3211117,-3.15637 -3.558929 0.4334586,-3.274124 -2.881099 0.5659058,-3.373694 -2.261817 0.6850337,-2.531262 -4.438485 0.3630843,-2.67058 -3.162845 0.4352566,-2.67058 -3.162845 0.4352566,-2.836751 -1.632954 0.7883186,-2.145679 -4.433864 0.488501,-2.221897 -3.200015 0.5790209,-2.314323 -2.393693 0.7384465,-2.411141 -1.717228 0.8881132,-1.734398 -4.656522 0.6548138,-1.621661 -3.653143 0.7562056,-1.576272 -2.963916 0.9010972,-1.551972 -2.319822 1.062976,-8.369608 -7.486398 0.1088663,-7.731907 -7.127231 0.3539957,-7.173545 -6.382947 0.5440443,-6.78721 -5.702398 0.7853335,-6.419322 -5.375611 1.038185,-7.597566 -4.535697 0.1999165,-7.463056 -3.392618 0.3046215,-7.413459 -2.664395 0.4656001,-7.377688 -2.045756 0.597883,-7.977153 -4.344322 0.2522314,-7.869815 -3.008993 0.3246544,-7.803264 -2.160624 0.5410964,-7.751796 -1.436571 0.7154139,-8.34328 -4.412384 0.3431926,-8.296756 -3.19161 0.4116921,-8.24396 -2.44452 0.5348877,-8.176771 -1.818397 0.6195633,-8.719585 -4.696805 0.4669257,-8.809643 -3.749312 0.5753495,-8.829588 -3.146123 0.6674621,-8.817955 -2.572576 0.717467,0.810,15 1 0
-2.114456 -7.491682 0.4166952,-2.812731 -7.176132 0.7112311,-3.40319 -6.468889 0.8677047,-3.813602 -5.785249 1.041734,-4.153425 -5.36791 1.261223,-2.93335 -4.679912 0.3469706,-3.152417 -3.544676 0.4538223,-3.274487 -2.875119 0.5821122,-3.383293 -2.274621 0.6933226,-2.539323 -4.442167 0.3963607,-2.664222 -3.154165 0.4520576,-2.664222 -3.154165 0.4520576,-2.818518 -1.621123 0.7678025,-2.155976 -4.449958 0.5300832,-2.225717 -3.200519 0.6142895,-2.3179 -2.39029 0.7571796,-2.413146 -1.714249 0.888696,-1.750124 -4.689901 0.7089361,-1.636718 -3.675681 0.8009411,-1.590571 -2.982748 0.9308913,-1.559422 -2.332462 1.072191,-8.372598 -7.502515 0.1133219,-7.726722 -7.121858 0.3332049,-7.173847 -6.377627 0.5207233,-6.789942 -5.709562 0.7671109,-6.420861 -5.38383 1.03142,-7.600705 -4.5435 0.2040668,-7.461466 -3.399704 0.3200573,-7.407922 -2.670595 0.4892962,-7.371256 -2.043458 0.6210299,-7.979179 -4.360347 0.2780254,-7.874323 -3.018251 0.3636762,-7.81004 -2.165807 0.5903756,-7.760403 -1.438194 0.7698922,-8.341756 -4.440759 0.3865735,-8.297907 -3.21562 0.4664767,-8.246568 -2.45503 0.5998693,-8.182909 -1.817106 0.6923756,-8.710623 -4.740175 0.5262358,-8.801154 -3.794624 0.6465971,-8.818636 -3.177141 0.7474369,-8.808287 -2.592306 0.7999802,0.910,15 1 0
-2.09694 -7.50638 0.4002278,-2.814761 -7.200193 0.6843333,-3.412599 -6.487331 0.8296656,-3.820991 -5.793982 0.9874434,-4.152081 -5.383788 1.18822,-2.927308 -4.705522 0.3344907,-3.161005 -3.567511 0.4445646,-3.282858 -2.885377 0.5669219,-3.382127 -2.269502 0.6727971,-2.534348 -4.463371 0.3871655,-2.673104 -3.165144 0.4520635,-2.673104 -3.165144 0.4520635,-2.83159 -1.626579 0.7486225,-2.150862 -4.466853 0.5262784,-2.221273 -3.200737 0.6186947,-2.315341 -2.379773 0.7614464,-2.410161 -1.702576 0.8897275,-1.742822 -4.700154 0.7092326,-1.628111 -3.669644 0.8043596,-1.587302 -2.971851 0.9380219,-1.564268 -2.327315 1.083056,-8.394571 -7.527311 0.09917996,-7.742422 -7.172894 0.3444535,-7.190491 -6.42245 0.5414957,-6.822944 -5.719078 0.7928705,-6.462548 -5.344791 1.055511,-7.604629 -4.590517 0.2042213,-7.46803 -3.452672 0.3231013,-7.415319 -2.737808 0.4986728,-7.383532 -2.116919 0.6370643,-7.983054 -4.392068 0.2736401,-7.884535 -3.040903 0.3514143,-7.821867 -2.186276 0.5745766,-7.778048 -1.457128 0.7489321,-8.343699 -4.45792 0.3827456,-8.303483 -3.216707 0.4598476,-8.249231 -2.444086 0.6061445,-8.188973 -1.799362 0.7122542,-8.716198 -4.744153 0.5232999,-8.794566 -3.776458 0.6469433,-8.803123 -3.144037 0.7594935,-8.787996 -2.543443 0.8176489,1.010,15 1 0
-2.097089 -7.531642 0.4443176,-2.810482 -7.209589 0.7141445,-3.404606 -6.490209 0.8567913,-3.812228 -5.795695 1.020128,-4.150772 -5.388134 1.224169,-2.938373 -4.713634 0.3483997,-3.163888 -3.573806 0.4592996,-3.28252 -2.900944 0.5823644,-3.383081 -2.299125 0.6860646,-2.54588 -4.477775 0.4059824,-2.682839 -3.188707 0.4638656,-2.682839 -3.188707 0.4638656,-2.840197 -1.665139 0.7461971,-2.160816 -4.485178 0.5512856,-2.234145 -3.225849 0.6400344,-2.323333 -2.41295 0.7758286,-2.416154 -1.736866 0.8940943,-1.748679 -4.720578 0.7418534,-1.640468 -3.693109 0.8328369,-1.60058 -3.001034 0.9598954,-1.577816 -2.357377 1.093029,-8.459192 -7.682065 0.2221163,-7.833759 -7.262187 0.5392356,-7.343344 -6.406494 0.7539481,-7.019867 -5.589548 1.019616,-6.70864 -4.933374 1.271195,-7.638656 -4.684337 0.01787584,-7.452232 -3.58045 0.01387589,-7.38832 -2.905267 0.08587693,-7.338693 -2.286382 0.1496764,-8.028068 -4.512956 0.06580353,-7.939862 -3.385167 0.1709066,-7.902966 -3.068489 0.4292134,-7.880725 -2.979202 0.5953025,-8.384537 -4.567245 0.1565979,-8.354461 -3.497865 0.2627906,-8.307642 -3.094055 0.5147477,-8.251274 -2.931133 0.6713115,-8.758745 -4.814594 0.2949876,-8.758563 -3.948849 0.3771225,-8.709154 -3.448317 0.5282288,-8.626019 -3.061482 0.6374738,1.110,15 1 0
-2.076872 -7.518299 0.3984007,-2.796152 -7.204854 0.6649411,-3.395726 -6.497523 0.8060434,-3.811419 -5.815715 0.9616138,-4.164614 -5.422056 1.156782,-2.931654 -4.719315 0.3205088,-3.161003 -3.577359 0.417723,-3.280201 -2.896623 0.5289675,-3.377552 -2.290277 0.6246774,-2.537891 -4.479383 0.3728835,-2.678468 -3.177811 0.4308656,-2.678468 -3.177811 0.4308656,-2.836899 -1.651803 0.7028117,-2.154727 -4.483265 0.5089084,-2.233159 -3.218729 0.5974948,-2.323423 -2.400477 0.7333455,-2.415752 -1.720799 0.8516707,-1.745672 -4.714675 0.6898521,-1.646214 -3.693792 0.7827569,-1.611882 -2.999596 0.9162323,-1.591942 -2.353242 1.056394,-8.456038 -7.632312 -0.8469953,-7.845935 -7.230918 -0.2765098,-7.436788 -6.479574 0.1321513,-7.318892 -5.58476 0.5311654,-7.440683 -4.858839 0.8709918,-7.647859 -4.896614 -0.7591867,-7.513083 -3.75256 -0.4732322,-7.439163 -3.076859 -0.2081195,-7.394034 -2.437681 -0.01977301,-8.017046 -4.77083 -0.7476982,-7.938844 -3.540102 -0.09858251,-7.891237 -4.4398 0.3040233,-7.924109 -5.208549 0.3577685,-8.380818 -4.767915 -0.6486425,-8.334619 -3.551269 -0.05414104,-8.263473 -4.386364 0.264172,-8.28562 -5.151836 0.250737,-8.779354 -4.907639 -0.5167453,-8.775574 -3.911655 -0.09847271,-8.668666 -4.249263 0.1033973,-8.638121 -4.80162 0.08864278,1.210,15 1 0
-2.085439 -7.595868 0.5821652,-2.799159 -7.263502 0.8259236,-3.390526 -6.515312 0.9532883,-3.808647 -5.825374 1.107395,-4.160366 -5.452962 1.30776,-2.931144 -4.743474 0.4325126,-3.148523 -3.597807 0.5402153,-3.269122 -2.925861 0.6678181,-3.377866 -2.341178 0.7741091,-2.547805 -4.504922 0.504522,-2.684328 -3.212364 0.5534641,-2.684328 -3.212364 0.5534641,-2.850772 -1.690239 0.8265605,-2.167683 -4.513472 0.6633127,-2.258336 -3.253314 0.7647467,-2.353708 -2.438389 0.8909588,-2.455616 -1.752576 0.9963346,-1.755839 -4.758646 0.871709,-1.653782 -3.738172 0.9766513,-1.607699 -3.04603 1.092873,-1.577253 -2.396661 1.213601,-8.416265 -7.56286 -1.070829,-7.85616 -7.195504 -0.4909278,-7.460227 -6.456518 -0.1120127,-7.395264 -5.585887 0.2414461,-7.617306 -4.95844 0.5299901,-7.676949 -4.906922 -0.9974256,-7.540868 -3.836092 -0.6944693,-7.463506 -3.183022 -0.3958319,-7.412986 -2.592616 -0.1761896,-8.03637 -4.756837 -0.9933847,-7.956761 -3.62177 -0.3233378,-7.920395 -4.507301 0.1070336,-7.951741 -5.31595 0.1956738,-8.397291 -4.755056 -0.8916284,-8.354074 -3.621012 -0.2891471,-8.293801 -4.467559 0.04246247,-8.309216 -5.272623 0.04568589,-8.790332 -4.912467 -0.7535599,-8.803697 -3.960758 -0.3321468,-8.690305 -4.279334 -0.1240107,-8.634739 -4.865665 -0.1208481,1.310,15 1 0
-2.05299 -7.610292 0.5465496,-2.778183 -7.278262 0.8129703,-3.376157 -6.542227 0.9421982,-3.789165 -5.830936 1.09753,-4.132261 -5.407562 1.293498,-2.910975 -4.771427 0.4170827,-3.13635 -3.62325 0.5160974,-3.258238 -2.950035 0.6417226,-3.364168 -2.34919 0.7525835,-2.524626 -4.53086 0.4771417,-2.666736 -3.230319 0.5235268,-2.666736 -3.230319 0.5235268,-2.835488 -1.696618 0.8194115,-2.144216 -4.5361 0.6249017,-2.234575 -3.266713 0.7229964,-2.330001 -2.445602 0.8631362,-2.43128 -1.758171 0.9834811,-1.735097 -4.773591 0.822064,-1.637149 -3.760728 0.9169506,-1.601468 -3.068546 1.04045,-1.585957 -2.418257 1.168714,-8.424598 -7.410315 -1.435205,-7.874599 -7.111579 -0.8218261,-7.48654 -6.393114 -0.4372121,-7.460147 -5.524801 -0.08230281,-7.736779 -4.9458 0.2081032,-7.702041 -4.859759 -1.364634,-7.573357 -3.855126 -0.993558,-7.500293 -3.257642 -0.6217628,-7.454258 -2.748359 -0.3623414,-8.078204 -4.704405 -1.37361,-8.027914 -3.627145 -0.6423646,-8.004692 -4.472897 -0.1962988,-8.035288 -5.285828 -0.1158446,-8.457448 -4.721884 -1.269408,-8.440734 -3.652452 -0.6168214,-8.388252 -4.461195 -0.2842085,-8.394915 -5.258012 -0.3103691,-8.866477 -4.903818 -1.12505,-8.899146 -4.001066 -0.677907,-8.794671 -4.320159 -0.465892,-8.727715 -4.905923 -0.4617713,1.410,15 1 0
-2.052735 -7.622546 0.5898305,-2.77057 -7.289472 0.8216982,-3.363986 -6.540099 0.9308953,-3.778889 -5.828634 1.077321,-4.128336 -5.424103 1.259363,-2.901169 -4.761114 0.4067313,-3.121189 -3.621152 0.5053971,-3.237919 -2.951952 0.6250076,-3.339053 -2.357495 0.725615,-2.515757 -4.530241 0.4875962,-2.65541 -3.235686 0.5298567,-2.65541 -3.235686 0.5298567,-2.823709 -1.715998 0.7872208,-2.133906 -4.54483 0.6592765,-2.217751 -3.278577 0.7550623,-2.309385 -2.462204 0.8816466,-2.408072 -1.779844 0.9835809,-1.723228 -4.790477 0.8793793,-1.625129 -3.783779 0.9743911,-1.591548 -3.101367 1.083852,-1.581393 -2.467159 1.19578,-8.472605 -7.439911 -1.543744,-7.912167 -7.163198 -0.8794154,-7.51182 -6.425431 -0.48502,-7.495591 -5.54766 -0.1317757,-7.780716 -4.990012 0.1505257,-7.716712 -4.946924 -1.39871,-7.58655 -4.048141 -0.9821239,-7.52596 -3.499256 -0.5821415,-7.476728 -3.013275 -0.301747,-8.103772 -4.770249 -1.422922,-8.078342 -3.734128 -0.6667077,-8.075578 -4.577798 -0.2274178,-8.108807 -5.373903 -0.160714,-8.497706 -4.78638 -1.330914,-8.510707 -3.748152 -0.6301537,-8.472509 -4.568649 -0.2857515,-8.470766 -5.358915 -0.3245791,-8.92718 -4.967121 -1.191879,-8.977545 -4.069032 -0.7246779,-8.88016 -4.414052 -0.5241882,-8.813429 -5.006089 -0.5405841,1.510,15 1 0
-2.061382 -7.603624 0.5271289,-2.780809 -7.26221 0.7754377,-3.372414 -6.551827 0.9092343,-3.770927 -5.848693 1.072365,-4.110525 -5.425598 1.266917,-2.913785 -4.760914 0.3925627,-3.126654 -3.621713 0.4998276,-3.240555 -2.9632 0.6266523,-3.341696 -2.378189 0.7266713,-2.51791 -4.527427 0.4633506,-2.649231 -3.227071 0.5081938,-2.649231 -3.227071 0.5081938,-2.807217 -1.709937 0.7751359,-2.132025 -4.540017 0.6175667,-2.204689 -3.277096 0.7096618,-2.292435 -2.467868 0.8386261,-2.388102 -1.792356 0.9444583,-1.721881 -4.780791 0.8230757,-1.620489 -3.77224 0.9118166,-1.588202 -3.088116 1.022549,-1.579125 -2.452505 1.135898,-8.510188 -7.477403 -1.604494,-7.951665 -7.238046 -0.9117882,-7.553056 -6.509001 -0.5006649,-7.554339 -5.647741 -0.1343267,-7.834145 -5.140211 0.1760048,-7.749593 -5.026388 -1.320957,-7.625283 -4.166053 -0.7875085,-7.561866 -3.636755 -0.325327,-7.515284 -3.205299 -0.03180575,-8.151356 -4.83341 -1.349953,-8.147367 -3.804691 -0.5326557,-8.147847 -4.645538 -0.1219306,-8.172503 -5.410055 -0.1067631,-8.550608 -4.858497 -1.261919,-8.5844 -3.841833 -0.4948962,-8.542509 -4.653005 -0.1791888,-8.528654 -5.399757 -0.2655101,-8.974326 -5.060014 -1.124731,-9.048318 -4.158035 -0.6221216,-8.956172 -4.481607 -0.4329904,-8.88555 -5.027492 -0.4748935,1.610,15 1 0
-2.059251 -7.619634 0.5266529,-2.779858 -7.292264 0.7842566,-3.370502 -6.557324 0.9111464,-3.767105 -5.846735 1.066203,-4.112159 -5.423908 1.254624,-2.900251 -4.774257 0.3821304,-3.116932 -3.630968 0.474196,-3.240698 -2.965168 0.5934728,-3.352489 -2.377891 0.6910583,-2.509333 -4.543067 0.4443927,-2.642741 -3.244092 0.4824137,-2.642741 -3.244092 0.4824137,-2.816327 -1.724288 0.7601095,-2.128783 -4.559457 0.5951812,-2.206953 -3.29646 0.684671,-2.300086 -2.471216 0.8205055,-2.399831 -1.783634 0.9348919,-1.72277 -4.806896 0.7961884,-1.625809 -3.800393 0.8833047,-1.596023 -3.112835 1.00012,-1.585551 -2.473703 1.120355,-8.625791 -7.554307 -1.803839,-8.090756 -7.39701 -1.084012,-7.682925 -6.652566 -0.6706853,-7.701216 -5.809279 -0.304938,-7.998425 -5.400419 0.01228273,-7.908565 -5.185799 -1.387101,-7.789183 -4.377712 -0.7628399,-7.731458 -3.858931 -0.2527965,-7.695481 -3.426012 0.04583836,-8.31169 -4.979438 -1.411726,-8.351359 -3.996401 -0.5118548,-8.336485 -4.793931 -0.0785799,-8.332091 -5.526153 -0.06419384,-8.714522 -4.995519 -1.313204,-8.791968 -4.019773 -0.478791,-8.737689 -4.774921 -0.155647,-8.688803 -5.482001 -0.2363685,-9.127333 -5.188982 -1.166896,-9.260931 -4.286645 -0.6449536,-9.162302 -4.541383 -0.4437362,-9.057508 -5.050803 -0.4726977,1.710,15 1 0
-2.059487 -7.589031 0.5465195,-2.785642 -7.259424 0.7895314,-3.374818 -6.538825 0.9166668,-3.768749 -5.851122 1.078859,-4.108461 -5.44309 1.273681,-2.911194 -4.734713 0.3757325,-3.130443 -3.605586 0.464592,-3.248817 -2.947256 0.57761,-3.352362 -2.360364 0.6664914,-2.518449 -4.508474 0.4482744,-2.649293 -3.21714 0.4796715,-2.649293 -3.21714 0.4796715,-2.806567 -1.704849 0.7382684,-2.135862 -4.529422 0.6058679,-2.205905 -3.276124 0.6838663,-2.292233 -2.459043 0.8112683,-2.386313 -1.786 0.9143727,-1.727999 -4.778675 0.8150407,-1.631854 -3.769087 0.8934045,-1.605189 -3.07537 1.005885,-1.596739 -2.435181 1.118721,-8.699636 -7.555512 -1.901158,-8.176729 -7.451084 -1.109529,-7.782074 -6.723136 -0.6500092,-7.815031 -5.888069 -0.259201,-8.095326 -5.461673 0.07977271,-7.991728 -5.240074 -1.296155,-7.876689 -4.446221 -0.6167744,-7.824958 -3.92951 -0.0953424,-7.789826 -3.499259 0.2079203,-8.41073 -5.038179 -1.338334,-8.468225 -4.060888 -0.4016761,-8.45797 -4.816596 0.04390955,-8.45248 -5.537036 0.08856165,-8.822637 -5.079092 -1.257441,-8.921498 -4.096097 -0.40195,-8.870636 -4.803871 -0.05411148,-8.820035 -5.486493 -0.08438587,-9.232032 -5.300643 -1.125567,-9.393057 -4.423568 -0.5894338,-9.319411 -4.598472 -0.3541493,-9.226916 -5.03339 -0.3323951,1.810,15 1 0
-2.049776 -7.596134 0.4893773,-2.76985 -7.279253 0.7701137,-3.367239 -6.55946 0.9189173,-3.765357 -5.855381 1.092848,-4.103004 -5.425082 1.303513,-2.914635 -4.770343 0.3965357,-3.143333 -3.61776 0.5007279,-3.265127 -2.947341 0.6251973,-3.370148 -2.351981 0.7253491,-2.51723 -4.532055 0.450325,-2.661185 -3.227907 0.4957318,-2.661185 -3.227907 0.4957318,-2.824132 -1.707687 0.7615397,-2.129746 -4.543994 0.590006,-2.208359 -3.285764 0.6819736,-2.297437 -2.466451 0.8185847,-2.394835 -1.794777 0.9322778,-1.719465 -4.783433 0.78119,-1.625054 -3.778531 0.8716122,-1.594354 -3.088665 0.9942596,-1.586206 -2.455136 1.11658,-8.816332 -7.519685 -1.897195,-8.293368 -7.49258 -0.9873971,-7.904707 -6.749858 -0.4718233,-7.994463 -5.939802 -0.05509853,-8.273896 -5.474168 0.2976931,-8.114202 -5.249792 -1.076249,-7.997434 -4.497888 -0.3083146,-7.969574 -4.013654 0.2326545,-7.959979 -3.616958 0.5559002,-8.553683 -5.04512 -1.15502,-8.615606 -4.055265 -0.1361697,-8.620227 -4.774608 0.3578447,-8.624016 -5.464606 0.456817,-8.98547 -5.08196 -1.108565,-9.099348 -4.087714 -0.1781321,-9.058267 -4.765436 0.2090544,-9.009113 -5.41884 0.2086378,-9.408359 -5.304817 -1.002313,-9.59181 -4.456998 -0.391189,-9.544376 -4.551032 -0.09259915,-9.462892 -4.908935 -0.01742482,1.910,15 1 0
-2.057107 -7.657554 0.5912497,-2.783404 -7.322477 0.8612525,-3.371629 -6.584236 1.000687,-3.770625 -5.873115 1.17017,-4.115261 -5.459889 1.38411,-2.933238 -4.814722 0.4244583,-3.152905 -3.66991 0.5382538,-3.263395 -2.999172 0.671513,-3.360374 -2.412661 0.7745327,-2.540333 -4.568143 0.483184,-2.67015 -3.279041 0.5265349,-2.67015 -3.279041 0.5265349,-2.826485 -1.749401 0.7897921,-2.152492 -4.568779 0.6374374,-2.222513 -3.315151 0.7268642,-2.308664 -2.502442 0.8645973,-2.405833 -1.82606 0.9728622,-1.738089 -4.802465 0.8428459,-1.642774 -3.792 0.9388021,-1.607605 -3.10688 1.058207,-1.594497 -2.47036 1.173648,-8.913795 -7.537285 -1.619211,-8.385095 -7.517238 -0.6248844,-8.006677 -6.755229 -0.05666029,-8.165574 -5.939323 0.3755815,-8.45009 -5.435453 0.7218122,-8.232344 -5.236772 -0.6021583,-8.130529 -4.522956 0.2356919,-8.120167 -4.038846 0.8088257,-8.146046 -3.635173 1.143274,-8.696028 -5.028465 -0.7131564,-8.785762 -4.053516 0.3628469,-8.789536 -4.752658 0.8753471,-8.810061 -5.424695 1.017299,-9.142405 -5.054674 -0.7010138,-9.281806 -4.080052 0.2597228,-9.229841 -4.782913 0.6169124,-9.185297 -5.433702 0.609798,-9.573746 -5.279594 -0.6221365,-9.746478 -4.44845 0.01866591,-9.699755 -4.597587 0.309849,-9.63261 -4.972974 0.3813744,2.010,15 1 0
-2.031013 -7.683572 0.5829548,-2.758579 -7.359681 0.8487062,-3.354129 -6.626489 0.9758333,-3.750305 -5.899154 1.13564,-4.095023 -5.45674 1.332843,-2.899142 -4.84122 0.4340274,-3.124033 -3.704028 0.5325899,-3.24827 -3.041702 0.6589846,-3.357009 -2.454927 0.7663787,-2.507288 -4.594945 0.4917419,-2.649948 -3.301552 0.5175313,-2.649948 -3.301552 0.5175313,-2.826798 -1.788517 0.7831235,-2.124898 -4.602023 0.6386403,-2.206329 -3.344588 0.7180555,-2.299037 -2.529247 0.8529395,-2.399063 -1.854406 0.9664599,-1.714966 -4.838166 0.8393661,-1.624834 -3.843121 0.9211366,-1.599001 -3.161426 1.037925,-1.595274 -2.533399 1.150575,-9.061641 -7.502899 -1.549725,-8.508039 -7.546695 -0.508467,-8.092789 -6.80704 0.07072699,-8.236161 -6.008663 0.5147922,-8.566193 -5.485586 0.8659697,-8.339944 -5.235425 -0.4493843,-8.234742 -4.546539 0.4769516,-8.244924 -4.08948 1.131268,-8.295507 -3.775238 1.544354,-8.815813 -5.001283 -0.5747002,-8.908745 -4.029781 0.5526853,-8.932189 -4.800824 1.094981,-8.95969 -5.520271 1.255337,-9.27891 -4.995887 -0.5704269,-9.433945 -4.044116 0.4675775,-9.395517 -4.855568 0.8491371,-9.353142 -5.560476 0.8415384,-9.726559 -5.179662 -0.4932017,-9.950501 -4.342729 0.2288345,-9.886585 -4.646297 0.5359359,-9.781768 -5.149305 0.6008346,2.110,15 1 0
-2.029861 -7.670166 0.5467873,-2.752121 -7.332096 0.7858694,-3.346309 -6.611775 0.9101026,-3.753663 -5.907688 1.073049,-4.096445 -5.485893 1.271925,-2.889729 -4.826808 0.3687387,-3.118144 -3.688699 0.4667088,-3.242647 -3.030168 0.5877686,-3.35433 -2.448802 0.6831434,-2.504431 -4.592081 0.4434582,-2.648829 -3.296154 0.4777039,-2.648829 -3.296154 0.4777039,-2.824023 -1.790477 0.7324188,-2.12803 -4.600172 0.6058185,-2.212189 -3.342353 0.6913403,-2.302511 -2.528972 0.8186438,-2.40452 -1.851188 0.9219122,-1.72368 -4.836297 0.8209099,-1.631889 -3.838108 0.9025486,-1.600831 -3.157483 1.00859,-1.591161 -2.525938 1.110634,-9.118777 -7.58711 -0.8944754,-8.583477 -7.597602 0.2538955,-8.182495 -6.845695 0.9118818,-8.33343 -6.034202 1.422316,-8.686114 -5.504394 1.833102,-8.418359 -5.164685 0.3400885,-8.33862 -4.470138 1.44133,-8.389873 -4.084356 2.189314,-8.468129 -3.852703 2.616488,-8.915539 -4.910499 0.158408,-9.033107 -3.955787 1.416746,-9.064296 -4.895513 1.921622,-9.073539 -5.635874 1.974222,-9.395374 -4.902879 0.1275933,-9.571597 -3.978621 1.23379,-9.540624 -4.935211 1.508345,-9.482118 -5.637661 1.36865,-9.859178 -5.09869 0.1790165,-10.10866 -4.266374 0.921003,-10.04045 -4.696241 1.147354,-9.922527 -5.235691 1.084674,2.210,15 1 0
-2.040908 -7.687456 0.579268,-2.770139 -7.357319 0.8306056,-3.359861 -6.629783 0.9462475,-3.752127 -5.904613 1.097521,-4.092895 -5.469829 1.28794,-2.903505 -4.847141 0.3824516,-3.121957 -3.708795 0.4752066,-3.242439 -3.049922 0.6024559,-3.350626 -2.466684 0.7047103,-2.508148 -4.600017 0.4461725,-2.641411 -3.303305 0.4663627,-2.641411 -3.303305 0.4663627,-2.818039 -1.783508 0.727773,-2.1257 -4.60359 0.6001215,-2.195256 -3.346597 0.6702956,-2.285801 -2.536335 0.8023698,-2.384957 -1.866228 0.9126034,-1.71768 -4.835433 0.8071196,-1.625257 -3.846036 0.8764048,-1.598715 -3.160791 0.9891185,-1.593432 -2.524992 1.099657,-9.15565 -7.585302 -0.9544074,-8.611217 -7.592466 0.1962358,-8.208775 -6.835712 0.8605996,-8.352853 -6.01497 1.367515,-8.723795 -5.462593 1.774875,-8.447666 -5.194055 0.3256694,-8.371993 -4.490089 1.431777,-8.417864 -4.115749 2.174383,-8.49588 -3.89326 2.606869,-8.954295 -4.946815 0.1472018,-9.065955 -3.97516 1.391284,-9.088146 -4.949625 1.858984,-9.103809 -5.717865 1.909284,-9.439095 -4.949115 0.1202817,-9.612391 -3.9875 1.240622,-9.573697 -4.973199 1.514515,-9.520473 -5.71129 1.38447,-9.908957 -5.145402 0.1726079,-10.17087 -4.277595 0.9434789,-10.09757 -4.716562 1.186706,-9.977873 -5.279729 1.149411,2.310,15 1 0
-2.037548 -7.696983 0.5866042,-2.762998 -7.359817 0.8383301,-3.355364 -6.634271 0.9699548,-3.749401 -5.924791 1.138934,-4.086816 -5.498825 1.346482,-2.921884 -4.857246 0.3930941,-3.141412 -3.722736 0.5035306,-3.252291 -3.060939 0.6399554,-3.351059 -2.491442 0.7453285,-2.525864 -4.610219 0.4649222,-2.660819 -3.315582 0.5002825,-2.660819 -3.315582 0.5002825,-2.82092 -1.79708 0.7593587,-2.138109 -4.614505 0.628508,-2.215154 -3.370378 0.713055,-2.297611 -2.550012 0.8478156,-2.395184 -1.874348 0.9583054,-1.72362 -4.847728 0.8452928,-1.635965 -3.859458 0.9333453,-1.604903 -3.180731 1.044346,-1.600013 -2.555789 1.14852,-9.208412 -7.722692 -0.5589314,-8.662379 -7.715797 0.6432105,-8.23958 -6.939954 1.349785,-8.412325 -6.175651 1.885828,-8.814179 -5.642194 2.310125,-8.521767 -5.211751 0.7791754,-8.439867 -4.448955 1.917853,-8.499719 -4.106458 2.672953,-8.598888 -3.999515 3.114124,-9.046996 -4.976047 0.583971,-9.150023 -3.983718 1.881595,-9.160724 -5.006726 2.376681,-9.149772 -5.817211 2.442544,-9.539741 -4.994294 0.5400138,-9.714152 -4.01663 1.708215,-9.679289 -5.022508 2.032569,-9.612972 -5.792015 1.931903,-10.00966 -5.210248 0.5784373,-10.2784 -4.337663 1.3854,-10.20631 -4.766417 1.664113,-10.07656 -5.334812 1.646876,2.410,15 1 0
-2.043265 -7.682067 0.541812,-2.767576 -7.367541 0.7922794,-3.358719 -6.644146 0.9123006,-3.750405 -5.928043 1.067051,-4.09738 -5.505273 1.256833,-2.923901 -4.861124 0.3586491,-3.145084 -3.722222 0.4688421,-3.259753 -3.06149 0.6004117,-3.363701 -2.485054 0.6965851,-2.527504 -4.607494 0.4240415,-2.664755 -3.315856 0.4585934,-2.664755 -3.315856 0.4585934,-2.832767 -1.808894 0.7108487,-2.141299 -4.602767 0.5812348,-2.219277 -3.352236 0.667142,-2.305719 -2.54342 0.7990775,-2.40526 -1.870545 0.9023432,-1.72572 -4.824934 0.7925571,-1.639531 -3.842618 0.8769798,-1.609545 -3.175598 0.988722,-1.602748 -2.555093 1.089036,-9.247588 -7.76683 -0.421862,-8.694997 -7.751345 0.791404,-8.265343 -6.957059 1.524386,-8.460907 -6.20247 2.07889,-8.87641 -5.66655 2.494826,-8.560752 -5.228113 0.9622442,-8.473243 -4.475765 2.14502,-8.535024 -4.144971 2.896026,-8.636931 -4.046878 3.32999,-9.093458 -5.003183 0.7821157,-9.201343 -4.025423 2.123719,-9.198969 -5.061453 2.61393,-9.183116 -5.856522 2.664574,-9.589922 -5.034716 0.7526928,-9.771137 -4.061082 1.959453,-9.721785 -5.074361 2.262261,-9.650882 -5.816978 2.136468,-10.06612 -5.271362 0.8058759,-10.33774 -4.398281 1.637378,-10.26873 -4.802915 1.909835,-10.14845 -5.33533 1.874736,2.510,15 1 0
-2.051497 -7.683233 0.5285376,-2.765034 -7.360356 0.7951005,-3.353485 -6.641969 0.9329039,-3.750031 -5.93975 1.104542,-4.08952 -5.518781 1.314653,-2.925207 -4.855632 0.3674916,-3.147823 -3.7145 0.4858543,-3.261924 -3.052893 0.6155505,-3.36359 -2.47758 0.708603,-2.53075 -4.610908 0.4330287,-2.668874 -3.318544 0.4726485,-2.668874 -3.318544 0.4726485,-2.830678 -1.807544 0.7157787,-2.143725 -4.616884 0.5918495,-2.220377 -3.364419 0.6807742,-2.306901 -2.550215 0.8100877,-2.406811 -1.876871 0.9135653,-1.727383 -4.855181 0.8052365,-1.640381 -3.86518 0.8938236,-1.611256 -3.185895 1.006143,-1.604642 -2.554536 1.11132,-9.320168 -7.859783 -0.1869292,-8.762978 -7.865131 1.071912,-8.334632 -7.087083 1.856308,-8.540732 -6.323778 2.458045,-8.955264 -5.779884 2.923739,-8.629517 -5.312273 1.290668,-8.565564 -4.568162 2.576939,-8.638452 -4.268287 3.39124,-8.748361 -4.167547 3.840374,-9.178587 -5.05639 1.094439,-9.312233 -4.093565 2.499851,-9.306107 -5.208208 2.960752,-9.278876 -5.97273 2.966921,-9.690731 -5.061455 1.05072,-9.888895 -4.125011 2.299501,-9.837628 -5.223867 2.538568,-9.757401 -5.939435 2.355679,-10.17763 -5.270488 1.098468,-10.45559 -4.402387 1.925395,-10.37716 -4.933147 2.126227,-10.24399 -5.510807 2.013978,2.610,31 1 1
-2.041934 -7.683862 0.5152243,-2.766095 -7.358168 0.7793673,-3.355232 -6.645639 0.9167214,-3.750938 -5.943141 1.088927,-4.087826 -5.519292 1.301877,-2.914205 -4.858528 0.3342653,-3.133665 -3.725595 0.4447589,-3.252985 -3.068982 0.5851285,-3.359322 -2.502444 0.6895217,-2.519731 -4.616015 0.3954821,-2.659216 -3.332015 0.4202388,-2.659216 -3.332015 0.4202388,-2.829464 -1.826648 0.6669369,-2.136238 -4.62334 0.5514552,-2.212826 -3.374071 0.6287261,-2.302253 -2.562747 0.7566619,-2.400827 -1.889542 0.8597118,-1.725179 -4.858192 0.7624625,-1.632883 -3.865974 0.8367227,-1.601492 -3.188334 0.9455316,-1.591463 -2.560882 1.049363,-9.336705 -7.927873 0.02159107,-8.782128 -7.906837 1.26178,-8.343945 -7.118392 2.042104,-8.54033 -6.355525 2.640713,-8.97491 -5.808605 3.100515,-8.643875 -5.343397 1.514823,-8.57994 -4.602543 2.776348,-8.655882 -4.292959 3.559903,-8.760757 -4.1739 4.009638,-9.196094 -5.070913 1.329295,-9.330112 -4.132347 2.700731,-9.330827 -5.283098 3.136,-9.301669 -6.106406 3.150484,-9.713603 -5.076258 1.294749,-9.911932 -4.151586 2.527734,-9.86786 -5.290164 2.758287,-9.788271 -6.072896 2.586996,-10.20946 -5.289165 1.355981,-10.49393 -4.395542 2.199097,-10.41534 -4.945975 2.409494,-10.27683 -5.572228 2.318095,2.710,31 1 1
-2.023338 -7.692731 0.4079261,-2.743643 -7.367809 0.7352658,-3.341381 -6.691007 0.9164742,-3.744151 -5.98926 1.11486,-4.087515 -5.548349 1.352616,-2.914286 -4.903217 0.3665367,-3.145981 -3.766851 0.5064796,-3.262133 -3.098231 0.6638262,-3.363808 -2.482139 0.7889847,-2.516786 -4.656095 0.4086541,-2.661158 -3.35289 0.5075448,-2.661158 -3.35289 0.5075448,-2.836482 -1.805023 0.840687,-2.128652 -4.658607 0.5437242,-2.203414 -3.413669 0.6720119,-2.293719 -2.601757 0.8492606,-2.393235 -1.925848 0.995493,-1.712687 -4.881376 0.7292238,-1.625391 -3.894222 0.8507369,-1.600714 -3.216596 0.9994013,-1.60459 -2.582058 1.141467,-9.403782 -7.988713 0.08460489,-8.840422 -7.993167 1.333473,-8.40787 -7.207234 2.122822,-8.620475 -6.463481 2.731077,-9.053233 -5.913576 3.195126,-8.718916 -5.418131 1.630655,-8.662524 -4.696931 2.949084,-8.746778 -4.431774 3.767179,-8.8571 -4.376644 4.226686,-9.278223 -5.131565 1.436038,-9.426962 -4.217632 2.831694,-9.430405 -5.381518 3.24279,-9.391234 -6.202011 3.234951,-9.804593 -5.12343 1.392251,-10.01722 -4.239109 2.623621,-9.973928 -5.384053 2.812148,-9.884177 -6.145228 2.628379,-10.29953 -5.325527 1.446397,-10.58415 -4.472422 2.27408,-10.50333 -5.05945 2.456441,-10.3577 -5.692768 2.338328,2.810,31 1 1
-2.043803 -7.695803 0.4775451,-2.750252 -7.377403 0.7854164,-3.333181 -6.668939 0.9499713,-3.728506 -5.961072 1.13916,-4.080006 -5.532564 1.374549,-2.922376 -4.883928 0.3937677,-3.157095 -3.751675 0.5136097,-3.278643 -3.093608 0.6500369,-3.384291 -2.511823 0.7582623,-2.527603 -4.637769 0.4339608,-2.671206 -3.346572 0.4867639,-2.671206 -3.346572 0.4867639,-2.840347 -1.827987 0.7673789,-2.144889 -4.645091 0.566354,-2.218055 -3.396542 0.6671585,-2.303594 -2.572783 0.8220613,-2.402438 -1.900434 0.9482437,-1.736982 -4.884958 0.7519428,-1.649266 -3.906822 0.8494177,-1.617604 -3.225723 0.9797639,-1.609261 -2.6008 1.100823,-9.373037 -8.107523 0.1216283,-8.808827 -8.065092 1.435125,-8.400827 -7.290628 2.238578,-8.59029 -6.488563 2.853585,-9.046479 -5.89582 3.338598,-8.704818 -5.513374 1.732695,-8.633132 -4.788267 3.066809,-8.699883 -4.491882 3.929331,-8.799957 -4.381352 4.420877,-9.266752 -5.24791 1.494031,-9.419443 -4.276693 2.88957,-9.410102 -5.441337 3.303481,-9.36358 -6.242504 3.307156,-9.797035 -5.264818 1.419866,-10.02471 -4.280387 2.667132,-9.968467 -5.430364 2.880609,-9.874529 -6.19059 2.703743,-10.29834 -5.49614 1.441825,-10.60144 -4.609405 2.305364,-10.51174 -5.194103 2.51504,-10.35948 -5.824201 2.434066,2.910,31 1 1
-2.021518 -7.716411 0.5107118,-2.745979 -7.399584 0.8113132,-3.337353 -6.683362 0.9633737,-3.735235 -5.972999 1.141796,-4.083096 -5.534225 1.364742,-2.918573 -4.896726 0.3975418,-3.141855 -3.757414 0.5133215,-3.259691 -3.09143 0.655409,-3.365314 -2.50678 0.7714459,-2.521873 -4.651938 0.4409445,-2.661445 -3.366968 0.4809643,-2.661445 -3.366968 0.4809643,-2.838602 -1.848353 0.757701,-2.13665 -4.656611 0.5767742,-2.217058 -3.411663 0.6658027,-2.311903 -2.601055 0.8112439,-2.415384 -1.926406 0.9320161,-1.724463 -4.890302 0.7692222,-1.642857 -3.89435 0.8591109,-1.617932 -3.214807 0.9838355,-1.615011 -2.584557 1.10118,-9.31234 -8.057823 0.1171485,-8.749351 -8.009644 1.382224,-8.305421 -7.239249 2.146235,-8.477735 -6.388742 2.736642,-8.967155 -5.850006 3.177776,-8.648274 -5.496882 1.684233,-8.582565 -4.815107 2.977682,-8.611819 -4.502342 3.773915,-8.657913 -4.294179 4.216681,-9.192474 -5.189992 1.468192,-9.313276 -4.271348 2.852044,-9.307215 -5.402511 3.37095,-9.288459 -6.212847 3.440166,-9.710739 -5.157947 1.399242,-9.896091 -4.28463 2.626385,-9.84971 -5.426885 2.848701,-9.769418 -6.188674 2.663193,-10.21719 -5.353874 1.428015,-10.49834 -4.484 2.260303,-10.38679 -5.073269 2.452152,-10.21547 -5.736618 2.33763,3.010,31 1 1
-1.99763 -7.742334 0.4777436,-2.722809 -7.42296 0.7931909,-3.311838 -6.72178 0.9575281,-3.707481 -6.019613 1.146783,-4.047606 -5.55735 1.379718,-2.886936 -4.929674 0.3872312,-3.113594 -3.795705 0.5215438,-3.237621 -3.132666 0.6791359,-3.347076 -2.556871 0.8036977,-2.487443 -4.685253 0.431116,-2.630497 -3.391087 0.4860487,-2.630497 -3.391087 0.4860487,-2.811431 -1.859787 0.7757146,-2.098999 -4.695902 0.5698887,-2.18391 -3.44004 0.6689544,-2.283632 -2.627923 0.8218977,-2.38811 -1.954242 0.9508512,-1.686471 -4.933933 0.7672538,-1.608322 -3.942102 0.8664438,-1.592711 -3.268624 0.9953417,-1.601033 -2.65311 1.110053,-9.088074 -7.941332 -0.3480257,-8.577465 -7.751787 0.7097198,-8.193743 -7.110299 1.481079,-8.284152 -6.381758 2.139293,-8.679333 -5.88811 2.752763,-8.438367 -5.377943 0.9627426,-8.306579 -4.479187 2.13706,-8.295064 -4.105106 2.892044,-8.309355 -3.969467 3.285191,-8.953508 -5.149083 0.8450184,-8.990905 -4.022455 2.077573,-8.980525 -5.042278 2.589701,-8.99216 -5.842748 2.662665,-9.443509 -5.179824 0.854665,-9.574371 -4.083961 1.903161,-9.526174 -5.071872 2.204976,-9.478004 -5.79563 2.112517,-9.935822 -5.424554 0.9479656,-10.20688 -4.422254 1.666272,-10.0863 -4.823763 1.89559,-9.916434 -5.379206 1.870837,3.110,31 1 1
-2.002398 -7.794588 0.5608056,-2.717068 -7.462168 0.8665187,-3.29421 -6.733605 1.020932,-3.690907 -6.015045 1.209326,-4.047645 -5.558268 1.449109,-2.862286 -4.950321 0.4531601,-3.089837 -3.809891 0.5848593,-3.214584 -3.135868 0.7428218,-3.327064 -2.533503 0.8770412,-2.469642 -4.710021 0.5104793,-2.608111 -3.410202 0.5771636,-2.608111 -3.410202 0.5771636,-2.794632 -1.863604 0.9055712,-2.085047 -4.730318 0.6607003,-2.163373 -3.471429 0.7703422,-2.266202 -2.653661 0.9376765,-2.375773 -1.973117 1.077985,-1.675251 -4.988706 0.8672016,-1.588937 -4.004886 0.9785831,-1.571416 -3.32797 1.118616,-1.580663 -2.706813 1.247346,-8.950025 -7.772485 -0.7607291,-8.450656 -7.540058 0.2148699,-8.096148 -6.910749 0.8997627,-8.161497 -6.138963 1.455307,-8.517399 -5.576764 1.969629,-8.294206 -5.275041 0.4125618,-8.14448 -4.385082 1.401594,-8.09041 -3.893713 2.145162,-8.046943 -3.618227 2.621325,-8.773806 -5.055999 0.2997112,-8.835353 -3.909948 1.347709,-8.81375 -4.772012 1.860349,-8.811313 -5.567924 2.010756,-9.228511 -5.090517 0.3095534,-9.387295 -3.949472 1.192534,-9.337817 -4.767639 1.539744,-9.28225 -5.493873 1.546473,-9.680486 -5.330063 0.4035943,-9.966405 -4.352922 1.03187,-9.868717 -4.649076 1.294663,-9.705982 -5.16521 1.364186,3.210,31 1 1
-1.978341 -7.806749 0.544596,-2.701827 -7.480314 0.8125898,-3.298388 -6.769643 0.9531752,-3.711897 -6.073699 1.125664,-4.060478 -5.623796 1.340397,-2.847383 -4.967985 0.3974398,-3.064186 -3.823013 0.5084313,-3.192253 -3.148281 0.6525191,-3.306009 -2.550475 0.7716027,-2.456301 -4.729269 0.4600896,-2.587906 -3.429544 0.5093774,-2.587906 -3.429544 0.5093774,-2.778986 -1.900712 0.8007105,-2.072034 -4.739982 0.6141631,-2.142552 -3.487451 0.7077398,-2.238274 -2.673786 0.8587952,-2.341534 -2.006782 0.9849213,-1.660708 -4.979742 0.8223913,-1.568329 -3.997941 0.9152542,-1.540993 -3.32776 1.043405,-1.539396 -2.716659 1.165247,-8.809381 -7.602759 -0.9437107,-8.270195 -7.375898 -0.118884,-7.852134 -6.68127 0.3957914,-7.839936 -5.80448 0.8199786,-8.115689 -5.129126 1.156184,-8.049581 -5.024677 -0.3367794,-7.851306 -4.102671 0.2504704,-7.754796 -3.532878 0.7477756,-7.664157 -3.091786 1.132742,-8.490993 -4.807445 -0.3809546,-8.485343 -3.651145 0.4626603,-8.462069 -4.391227 0.9916465,-8.483484 -5.182859 1.173925,-8.926701 -4.876063 -0.3004744,-9.006005 -3.741677 0.4391305,-8.955035 -4.441808 0.9228512,-8.924558 -5.218105 1.053871,-9.377456 -5.133804 -0.1528745,-9.57316 -4.185108 0.369711,-9.492826 -4.279829 0.7129263,-9.372195 -4.725532 0.8670822,3.310,31 1 1
-1.998693 -7.819694 0.5707512,-2.714433 -7.497075 0.8678776,-3.297176 -6.768378 1.015394,-3.688431 -6.05067 1.192974,-4.034576 -5.587308 1.409558,-2.849357 -4.977285 0.4706717,-3.069714 -3.833961 0.5932335,-3.200081 -3.172189 0.7423011,-3.318022 -2.58599 0.8626428,-2.45211 -4.730166 0.521327,-2.589147 -3.429848 0.5833319,-2.589147 -3.429848 0.5833319,-2.786025 -1.898751 0.8815632,-2.065551 -4.741765 0.6648308,-2.13947 -3.489459 0.7667138,-2.237496 -2.679801 0.9221833,-2.34542 -2.005505 1.054064,-1.655865 -4.987295 0.862908,-1.569326 -4.010158 0.9573251,-1.544325 -3.339061 1.087603,-1.548661 -2.722372 1.210818,-8.745351 -7.576298 -1.020566,-8.193992 -7.333683 -0.2426937,-7.756591 -6.629255 0.2548546,-7.733191 -5.777116 0.6764914,-7.995987 -5.168095 1.017824,-7.993491 -4.989454 -0.4856035,-7.807487 -4.013477 0.01738179,-7.696708 -3.340454 0.4819344,-7.59932 -2.808879 0.8531089,-8.421527 -4.792644 -0.517916,-8.36446 -3.59336 0.2761351,-8.33561 -4.254596 0.8256944,-8.362449 -5.044537 1.047592,-8.851334 -4.814794 -0.4335119,-8.8756 -3.679317 0.2704202,-8.814984 -4.37508 0.7287254,-8.790951 -5.188713 0.856055,-9.313149 -4.999891 -0.2823198,-9.432672 -4.034185 0.2378207,-9.327026 -4.250553 0.5639948,-9.226501 -4.856882 0.7070587,3.410,31 1 1
-1.991581 -7.831548 0.5684481,-2.705136 -7.506267 0.8434387,-3.285338 -6.7576 0.9811306,-3.665359 -5.989643 1.151668,-4.002202 -5.470867 1.365026,-2.835768 -4.982817 0.4367929,-3.066015 -3.848163 0.5297028,-3.190979 -3.169181 0.6414387,-3.295496 -2.552675 0.7340707,-2.446158 -4.743549 0.4868591,-2.587814 -3.420139 0.5393542,-2.587814 -3.420139 0.5393542,-2.774628 -1.861389 0.8067892,-2.066729 -4.751492 0.6261222,-2.129374 -3.473438 0.7102342,-2.218361 -2.642004 0.870239,-2.313775 -1.95825 1.005489,-1.663977 -4.985362 0.8141772,-1.582282 -3.987091 0.895964,-1.55792 -3.301465 1.036827,-1.555956 -2.676666 1.169114,-8.678545 -7.538242 -0.8833198,-8.090119 -7.268137 -0.1929728,-7.663498 -6.517074 0.2105517,-7.624908 -5.602854 0.570038,-7.842267 -4.922 0.8589642,-7.850406 -4.884012 -0.6588253,-7.664283 -3.817934 -0.2467597,-7.569446 -3.092763 0.15601,-7.492093 -2.501133 0.4615147,-8.270552 -4.687187 -0.6925582,-8.1955 -3.477873 0.06956226,-8.181124 -4.213367 0.6093096,-8.214746 -5.04367 0.7792513,-8.691274 -4.695283 -0.6102054,-8.677881 -3.538496 0.05899256,-8.617741 -4.320074 0.5024354,-8.592834 -5.179307 0.5817443,-9.146982 -4.870393 -0.472298,-9.210788 -3.918546 0.02618736,-9.095376 -4.204198 0.3471867,-8.996631 -4.859867 0.4514558,3.510,31 1 1
-1.97831 -7.867052 0.6647786,-2.674414 -7.536924 0.9770763,-3.249833 -6.757255 1.122355,-3.624893 -5.959201 1.298429,-3.960825 -5.39203 1.522691,-2.828046 -4.995374 0.5599582,-3.062862 -3.856981 0.6583689,-3.189678 -3.176368 0.7737895,-3.293979 -2.546207 0.8745397,-2.441792 -4.752307 0.5925321,-2.589802 -3.438657 0.6360893,-2.589802 -3.438657 0.6360893,-2.779647 -1.892504 0.9138584,-2.064276 -4.756967 0.7207084,-2.132048 -3.492597 0.7977567,-2.228974 -2.676962 0.969375,-2.328218 -1.987087 1.119899,-1.664124 -4.985636 0.9013424,-1.584416 -4.002867 0.9820801,-1.565672 -3.330531 1.129591,-1.56987 -2.712162 1.272708,-8.678082 -7.576858 -0.85084,-8.07603 -7.312137 -0.1724398,-7.644954 -6.523805 0.2454764,-7.591824 -5.586375 0.6256734,-7.794248 -4.86981 0.9269439,-7.854595 -4.882999 -0.6763498,-7.653016 -3.813733 -0.2956128,-7.538682 -3.072745 0.1003966,-7.451082 -2.447882 0.4089632,-8.270214 -4.71454 -0.6899412,-8.173465 -3.469413 0.06478941,-8.146311 -4.231817 0.5915474,-8.175522 -5.070072 0.7576904,-8.691149 -4.735609 -0.5844513,-8.650393 -3.527601 0.08886886,-8.578153 -4.322029 0.5220386,-8.557192 -5.185462 0.5943383,-9.15459 -4.923843 -0.4354193,-9.192215 -3.955841 0.06460178,-9.065171 -4.269643 0.37433,-8.96218 -4.931386 0.4737591,3.610,31 1 1
-1.962376 -7.928813 0.806402,-2.662837 -7.583465 1.04601,-3.202445 -6.745752 1.128473,-3.520008 -5.896487 1.254851,-3.86388 -5.330284 1.423125,-2.803651 -5.005779 0.6239697,-3.03623 -3.885391 0.7260329,-3.160901 -3.193623 0.8233057,-3.256803 -2.537743 0.9143668,-2.427335 -4.774467 0.6976139,-2.586917 -3.480844 0.7848369,-2.586917 -3.480844 0.7848369,-2.793862 -1.963221 1.073107,-2.054613 -4.788748 0.8686513,-2.134892 -3.534087 0.9980123,-2.238897 -2.73162 1.171054,-2.344169 -2.02519 1.325066,-1.654572 -5.036684 1.082828,-1.57513 -4.060106 1.202558,-1.5591 -3.393178 1.363846,-1.565447 -2.764532 1.518397,-8.712129 -7.719285 -0.5860195,-8.111583 -7.374352 0.09252745,-7.710523 -6.55714 0.5131519,-7.654873 -5.647232 0.9106921,-7.814093 -4.921618 1.241156,-7.896013 -4.920906 -0.4243454,-7.693656 -3.8121 -0.06063229,-7.588734 -3.043587 0.3187483,-7.517318 -2.39166 0.6115919,-8.310716 -4.778686 -0.4425148,-8.210345 -3.522106 0.3111789,-8.187243 -4.328298 0.8262599,-8.217887 -5.172081 0.9639913,-8.728795 -4.811382 -0.3453387,-8.681026 -3.571619 0.3213355,-8.613459 -4.384467 0.7300792,-8.609463 -5.239055 0.7692312,-9.18761 -5.018119 -0.2089387,-9.216603 -4.022844 0.2789872,-9.091186 -4.33215 0.5637995,-9.002635 -4.96957 0.6268191,3.710,31 1 1
-1.96696 -8.043278 0.9868553,-2.649856 -7.676132 1.218849,-3.144051 -6.761777 1.282103,-3.411822 -5.842681 1.399281,-3.757761 -5.210982 1.564836,-2.78204 -5.056908 0.7556866,-3.007016 -3.938184 0.8644999,-3.141878 -3.227261 0.9727253,-3.241712 -2.554384 1.070461,-2.409395 -4.835817 0.8247761,-2.559955 -3.555827 0.8889752,-2.559955 -3.555827 0.8889752,-2.786922 -2.047696 1.14717,-2.038311 -4.861858 0.9972234,-2.105933 -3.618165 1.092332,-2.216171 -2.815702 1.273168,-2.312377 -2.112195 1.429238,-1.641917 -5.123073 1.214569,-1.567196 -4.147501 1.326297,-1.559071 -3.468784 1.497963,-1.558846 -2.833276 1.656233,-8.756089 -7.804925 -0.4181914,-8.147268 -7.458965 0.2441681,-7.749656 -6.619251 0.6442962,-7.705193 -5.696429 1.015729,-7.88719 -4.985401 1.31234,-7.9495 -4.960683 -0.2710437,-7.753145 -3.866672 0.05706853,-7.642786 -3.119889 0.4122484,-7.561295 -2.489536 0.6942136,-8.357244 -4.814697 -0.294158,-8.264174 -3.578495 0.3990621,-8.238202 -4.40294 0.8920543,-8.259871 -5.262815 1.025318,-8.769773 -4.85776 -0.2080859,-8.729901 -3.637184 0.4149494,-8.669457 -4.461835 0.8052797,-8.663486 -5.316919 0.8495711,-9.222375 -5.082576 -0.08604538,-9.255214 -4.099216 0.3821019,-9.13582 -4.425008 0.6511359,-9.046502 -5.061602 0.7108806,3.810,31 1 1
-1.946176 -8.044674 0.9307039,-2.650733 -7.675882 1.198388,-3.147562 -6.803332 1.306595,-3.39529 -5.871995 1.455336,-3.699665 -5.179075 1.646319,-2.808319 -5.110378 0.7615476,-3.080723 -4.027151 0.9009232,-3.216915 -3.330377 1.015194,-3.305756 -2.701778 1.114729,-2.414124 -4.855558 0.8038926,-2.593771 -3.577565 0.8747104,-2.593771 -3.577565 0.8747104,-2.83119 -2.060224 1.139956,-2.028741 -4.862491 0.9485968,-2.112008 -3.638337 1.049858,-2.257077 -2.841606 1.248073,-2.374605 -2.173411 1.420656,-1.617904 -5.110111 1.130802,-1.540465 -4.148568 1.255505,-1.556014 -3.485784 1.459873,-1.57878 -2.882432 1.641073,-8.771747 -7.832853 -0.4790184,-8.173522 -7.472721 0.1752512,-7.767035 -6.651186 0.5980796,-7.71644 -5.719398 0.9934844,-7.926682 -5.020818 1.305193,-7.971691 -4.99905 -0.3219242,-7.773032 -3.868946 0.04559255,-7.673653 -3.12107 0.4287031,-7.608782 -2.492976 0.72328,-8.381827 -4.85987 -0.335764,-8.297391 -3.618234 0.3915044,-8.264957 -4.478565 0.857103,-8.288135 -5.352054 0.9582307,-8.794654 -4.915813 -0.2325656,-8.76319 -3.702971 0.3929646,-8.68787 -4.563642 0.7412838,-8.6777 -5.421152 0.7484663,-9.240396 -5.160495 -0.08767483,-9.275292 -4.191652 0.3669593,-9.150452 -4.541677 0.6102275,-9.055876 -5.177383 0.6460547,3.910,31 1 1
-1.964742 -8.103605 0.8223048,-2.673222 -7.673963 1.059336,-3.150566 -6.793121 1.16159,-3.375529 -5.85629 1.31785,-3.690584 -5.138246 1.507575,-2.835546 -5.15641 0.6367961,-3.099941 -4.065217 0.7600378,-3.244764 -3.365894 0.858083,-3.347187 -2.723717 0.9559321,-2.438986 -4.94709 0.6880224,-2.622623 -3.694556 0.7526854,-2.622623 -3.694556 0.7526854,-2.877125 -2.296556 1.019354,-2.052568 -4.977401 0.8361508,-2.139584 -3.76603 0.9403117,-2.290123 -2.992392 1.147944,-2.419575 -2.3404 1.333474,-1.64176 -5.242372 1.019055,-1.587206 -4.289079 1.167269,-1.621217 -3.647207 1.386387,-1.660153 -3.051254 1.584979,-8.791197 -7.875288 -0.5416912,-8.190812 -7.470637 0.1053373,-7.798238 -6.666364 0.5217147,-7.758085 -5.744489 0.9193933,-7.963989 -5.055599 1.234599,-8.011952 -5.038402 -0.414186,-7.818739 -3.891988 -0.03958046,-7.714986 -3.13781 0.3495899,-7.657323 -2.493559 0.6330193,-8.418992 -4.916952 -0.4246921,-8.335892 -3.66061 0.3266028,-8.292212 -4.546443 0.7958091,-8.3143 -5.416999 0.8797848,-8.83105 -4.979645 -0.3156954,-8.801508 -3.756664 0.3347057,-8.713346 -4.640834 0.6824441,-8.702444 -5.495262 0.6778022,-9.277192 -5.223102 -0.1663944,-9.315681 -4.241134 0.2964225,-9.179423 -4.598058 0.5353374,-9.080787 -5.235282 0.5523336,4.010,31 1 1
-1.966814 -8.114799 0.8506342,-2.676877 -7.694524 1.195503,-3.147383 -6.833347 1.345898,-3.35535 -5.910739 1.540716,-3.640417 -5.147587 1.765564,-2.820554 -5.114999 0.7441543,-3.040308 -4.013851 0.8890575,-3.178617 -3.322305 1.039389,-3.289334 -2.67108 1.189309,-2.417468 -4.945141 0.7579278,-2.580787 -3.7339 0.8404348,-2.580787 -3.7339 0.8404348,-2.846168 -2.460794 1.167668,-2.02773 -5.003949 0.8756523,-2.103173 -3.82657 1.005024,-2.233042 -3.089727 1.252009,-2.355467 -2.466993 1.46527,-1.621616 -5.28367 1.041327,-1.587289 -4.349375 1.216669,-1.629114 -3.733553 1.449809,-1.675298 -3.160839 1.657073,-8.799855 -7.889591 -0.560412,-8.204332 -7.496179 0.09600043,-7.808895 -6.69386 0.5175682,-7.772417 -5.778915 0.9133272,-7.978646 -5.08714 1.228932,-8.025849 -5.062564 -0.3926601,-7.835402 -3.910871 -0.0270676,-7.733449 -3.146871 0.3604084,-7.670914 -2.499966 0.6574513,-8.433761 -4.937488 -0.4080902,-8.348978 -3.686391 0.3279059,-8.307791 -4.533854 0.8157778,-8.325382 -5.403434 0.9389606,-8.842549 -4.998939 -0.3086804,-8.811801 -3.787353 0.328078,-8.727864 -4.636467 0.7050678,-8.712512 -5.49999 0.7349963,-9.28807 -5.243816 -0.1686042,-9.32159 -4.276638 0.2993755,-9.188471 -4.61379 0.5665802,-9.086085 -5.259172 0.6121926,4.110,31 1 1
-1.968584 -8.067829 0.593922,-2.666476 -7.649208 0.9703413,-3.133098 -6.8136 1.166886,-3.340435 -5.907133 1.400649,-3.594879 -5.091157 1.667824,-2.841933 -5.119237 0.52156,-3.057343 -4.026323 0.6955417,-3.175889 -3.36491 0.8929465,-3.268261 -2.727006 1.078927,-2.430746 -4.97302 0.5415176,-2.582124 -3.827402 0.6698391,-2.582124 -3.827402 0.6698391,-2.804919 -2.73141 1.103601,-2.032484 -5.053781 0.6630371,-2.09402 -3.929732 0.8322258,-2.197933 -3.253059 1.133307,-2.306725 -2.710187 1.38718,-1.618224 -5.343382 0.8369514,-1.603176 -4.43116 1.038069,-1.645406 -3.840683 1.296361,-1.700341 -3.296003 1.524715,-8.801584 -7.878355 -0.5670736,-8.213599 -7.48871 0.07446718,-7.815228 -6.684758 0.4915936,-7.777617 -5.772175 0.8846599,-7.990411 -5.085424 1.196375,-8.021789 -5.052995 -0.4181959,-7.835644 -3.902074 -0.04126644,-7.738998 -3.139913 0.3575435,-7.676851 -2.493476 0.6581376,-8.431741 -4.928054 -0.4267996,-8.346115 -3.673233 0.315407,-8.303438 -4.532727 0.7951977,-8.321997 -5.396439 0.9061173,-8.843579 -4.993431 -0.3175783,-8.812805 -3.772211 0.3141233,-8.725079 -4.626598 0.6667937,-8.70483 -5.473918 0.6768199,-9.292614 -5.242048 -0.164527,-9.32795 -4.264524 0.2918372,-9.190531 -4.589809 0.5385053,-9.083914 -5.222395 0.5689088,4.210,31 1 1
-1.956127 -8.014666 0.378541,-2.670246 -7.638897 0.7999454,-3.153385 -6.798485 1.008615,-3.359076 -5.864881 1.241358,-3.578035 -5.012168 1.49593,-2.843461 -5.122087 0.3229517,-3.040319 -4.00439 0.4723533,-3.155613 -3.322662 0.6724074,-3.249477 -2.6671 0.8694244,-2.428166 -4.983705 0.3202968,-2.574463 -3.834577 0.4285121,-2.574463 -3.834577 0.4285121,-2.797826 -2.767565 0.9123308,-2.028376 -5.063337 0.4167978,-2.085525 -3.952447 0.569612,-2.179306 -3.290998 0.8870678,-2.278551 -2.754665 1.1545,-1.615047 -5.332181 0.5726801,-1.608565 -4.444253 0.7629754,-1.651068 -3.874189 1.013974,-1.698782 -3.350935 1.243632,-8.798777 -7.858353 -0.5831007,-8.212765 -7.458213 0.04368526,-7.820111 -6.650769 0.4504474,-7.78618 -5.731283 0.8380581,-7.989466 -5.038643 1.142179,-8.033125 -5.033839 -0.465988,-7.844712 -3.876632 -0.1048117,-7.737606 -3.116203 0.2759001,-7.668008 -2.469429 0.5587698,-8.437729 -4.910402 -0.470143,-8.348845 -3.65007 0.2594819,-8.307264 -4.512966 0.730103,-8.333544 -5.377965 0.8313764,-8.8456 -4.975944 -0.3546626,-8.813104 -3.752985 0.2715143,-8.723589 -4.615014 0.6172806,-8.708173 -5.463024 0.6233505,-9.29289 -5.226356 -0.1978185,-9.32476 -4.258735 0.2530364,-9.18643 -4.595108 0.4939244,-9.084814 -5.224996 0.5177845,4.310,31 1 1
-1.974746 -8.0375 0.3475736,-2.687072 -7.663484 0.7852386,-3.165909 -6.813417 1.010387,-3.353941 -5.858306 1.248247,-3.563732 -4.989705 1.502423,-2.846821 -5.155195 0.3358969,-3.04108 -4.059303 0.4899085,-3.161525 -3.392755 0.6860448,-3.26644 -2.735691 0.8775214,-2.431964 -5.01272 0.3243206,-2.569849 -3.897493 0.4524226,-2.569849 -3.897493 0.4524226,-2.799278 -2.878295 0.9554892,-2.034935 -5.090532 0.4063902,-2.09122 -4.009746 0.5716983,-2.192183 -3.376802 0.8917321,-2.303671 -2.860162 1.167785,-1.624231 -5.354763 0.5511929,-1.615184 -4.475139 0.744472,-1.656402 -3.914956 1.001314,-1.707451 -3.397174 1.243487,-8.799242 -7.840515 -0.5870979,-8.211563 -7.443089 0.05533612,-7.811673 -6.636011 0.4609444,-7.777138 -5.72273 0.8399358,-7.978934 -5.021745 1.135172,-8.026307 -5.020992 -0.4291388,-7.840353 -3.879617 -0.0702799,-7.745135 -3.106236 0.3201913,-7.683213 -2.454967 0.6259629,-8.437959 -4.895116 -0.442736,-8.359847 -3.640713 0.2797126,-8.31031 -4.463489 0.7811464,-8.318593 -5.327138 0.9289953,-8.847473 -4.960042 -0.3409206,-8.820602 -3.75737 0.2815962,-8.726131 -4.591749 0.6600959,-8.69423 -5.444268 0.7017785,-9.293964 -5.21072 -0.1954736,-9.334624 -4.264184 0.2716601,-9.195445 -4.577754 0.5414517,-9.080972 -5.200513 0.6001904,4.410,31 1 1
-1.96877 -8.043432 0.3130854,-2.690782 -7.701279 0.7531292,-3.175486 -6.869543 0.9764158,-3.368954 -5.935081 1.217973,-3.576141 -5.05238 1.463381,-2.861539 -5.17922 0.2593568,-3.039597 -4.081587 0.3833089,-3.153841 -3.428993 0.5699827,-3.259299 -2.786241 0.7624217,-2.441507 -5.031513 0.2529773,-2.576674 -3.93008 0.3817419,-2.576674 -3.93008 0.3817419,-2.803199 -2.994874 0.9252681,-2.03844 -5.10939 0.3414858,-2.102695 -4.034806 0.5125167,-2.203526 -3.415958 0.8639439,-2.314565 -2.954824 1.154958,-1.618789 -5.377819 0.4930764,-1.612399 -4.503677 0.6859863,-1.653776 -3.945991 0.9586031,-1.707456 -3.45232 1.212337,-8.809411 -7.857873 -0.6216668,-8.223252 -7.465683 0.02680534,-7.827514 -6.662134 0.4393058,-7.792662 -5.74589 0.8260947,-7.992784 -5.054771 1.130562,-8.035005 -5.048075 -0.4587505,-7.852376 -3.886358 -0.08706194,-7.760732 -3.107101 0.3059199,-7.705911 -2.44341 0.6051234,-8.445504 -4.922828 -0.4763752,-8.364913 -3.672306 0.2600915,-8.318814 -4.515951 0.7379414,-8.330239 -5.36664 0.8519703,-8.855573 -4.985073 -0.3749857,-8.827899 -3.779005 0.2554884,-8.735252 -4.624808 0.6054515,-8.706542 -5.463113 0.6201761,-9.29945 -5.232273 -0.2289567,-9.338531 -4.284248 0.239076,-9.200951 -4.609075 0.4935395,-9.090096 -5.228546 0.5338988,4.510,31 1 1
-1.978292 -8.057348 0.3561476,-2.689415 -7.701046 0.7892537,-3.153231 -6.849014 1.001402,-3.330717 -5.918402 1.235164,-3.564791 -5.074052 1.483481,-2.861671 -5.173757 0.2984123,-3.054236 -4.097782 0.4138704,-3.168013 -3.445613 0.5862164,-3.268443 -2.79706 0.7689814,-2.443246 -5.031902 0.2896814,-2.579433 -3.93474 0.4003237,-2.579433 -3.93474 0.4003237,-2.796043 -3.024407 0.9080312,-2.041363 -5.125669 0.3741471,-2.099396 -4.066883 0.5299488,-2.192068 -3.46453 0.8635222,-2.300021 -3.01962 1.138665,-1.625773 -5.408558 0.5223236,-1.610486 -4.539785 0.7019303,-1.65067 -3.989788 0.959656,-1.705614 -3.509641 1.194178,-8.816012 -7.884817 -0.6213556,-8.22487 -7.48513 -0.008816123,-7.829939 -6.663622 0.3820723,-7.793026 -5.744117 0.7541821,-8.009125 -5.068897 1.040589,-8.064731 -5.062698 -0.5134935,-7.87179 -3.909777 -0.1476052,-7.761782 -3.140393 0.2476404,-7.695839 -2.483731 0.5433253,-8.465227 -4.946326 -0.5164691,-8.376534 -3.696474 0.2062562,-8.319874 -4.54087 0.6842666,-8.331837 -5.393003 0.7938377,-8.870706 -5.00888 -0.4046721,-8.838521 -3.795009 0.2122927,-8.737432 -4.637863 0.5652813,-8.711882 -5.481401 0.5789559,-9.311005 -5.247938 -0.2523445,-9.344327 -4.281733 0.1958435,-9.198174 -4.611473 0.4364361,-9.08797 -5.249036 0.4665542,4.610,31 1 1
-1.978048 -8.090178 0.4158114,-2.697688 -7.709386 0.8284158,-3.166323 -6.840959 1.030904,-3.353244 -5.895417 1.259562,-3.555918 -5.006288 1.496196,-2.875174 -5.19981 0.26815,-3.074627 -4.139026 0.3548951,-3.196476 -3.50919 0.5282354,-3.300335 -2.877986 0.7201476,-2.449498 -5.050966 0.2763701,-2.580753 -3.99007 0.3834955,-2.580753 -3.99007 0.3834955,-2.792637 -3.160279 0.9713547,-2.046611 -5.135318 0.372546,-2.104041 -4.121726 0.5333669,-2.203725 -3.548305 0.9173552,-2.308424 -3.181118 1.230302,-1.630682 -5.398635 0.5343462,-1.627123 -4.55893 0.7251963,-1.684436 -4.0311 1.013998,-1.754985 -3.600437 1.277405,-8.816604 -7.875421 -0.6786107,-8.230949 -7.473689 -0.05001128,-7.844255 -6.666711 0.3508315,-7.804129 -5.766256 0.7323605,-8.001531 -5.077949 1.029975,-8.065771 -5.062065 -0.5405111,-7.881567 -3.897939 -0.1655709,-7.774703 -3.125833 0.2294912,-7.709765 -2.472595 0.5210431,-8.468809 -4.95398 -0.5511775,-8.386934 -3.701231 0.1919245,-8.329674 -4.546163 0.6734408,-8.341354 -5.393943 0.780583,-8.874792 -5.024024 -0.4453224,-8.849939 -3.815719 0.192874,-8.74736 -4.658542 0.5483686,-8.71689 -5.492467 0.5589271,-9.316881 -5.268071 -0.2986198,-9.359343 -4.308345 0.164965,-9.212809 -4.631786 0.412972,-9.098142 -5.256608 0.4445115,4.710,31 1 1
-1.971898 -8.118059 0.4565737,-2.693161 -7.743574 0.8791461,-3.176102 -6.876455 1.087438,-3.359258 -5.920011 1.3236,-3.552048 -5.012069 1.559321,-2.875511 -5.228143 0.3104824,-3.0693 -4.164623 0.3902468,-3.192269 -3.526399 0.5559799,-3.298435 -2.901525 0.7435267,-2.452007 -5.06826 0.3196221,-2.569959 -4.014574 0.4337223,-2.569959 -4.014574 0.4337223,-2.77791 -3.232869 1.032449,-2.049212 -5.144267 0.4141402,-2.101602 -4.13304 0.5858865,-2.199316 -3.590332 0.9895067,-2.305836 -3.308974 1.311874,-1.628032 -5.394804 0.5739318,-1.626653 -4.542553 0.773073,-1.69224 -4.036989 1.076475,-1.775671 -3.678669 1.350723,-8.813016 -7.882995 -0.6952935,-8.229064 -7.481851 -0.06579208,-7.839515 -6.668904 0.3327676,-7.80956 -5.746336 0.703501,-8.009968 -5.04434 0.9879913,-8.059232 -5.095957 -0.5323534,-7.87424 -3.925939 -0.1846043,-7.778837 -3.133547 0.191077,-7.720816 -2.451571 0.4815923,-8.461843 -4.967666 -0.5482841,-8.376266 -3.696055 0.148608,-8.324185 -4.52386 0.6154717,-8.332914 -5.370573 0.7359511,-8.863656 -5.025777 -0.452325,-8.831795 -3.811579 0.1606113,-8.738989 -4.662216 0.512826,-8.712477 -5.501436 0.5371872,-9.301301 -5.262334 -0.3141818,-9.332642 -4.294815 0.1453802,-9.194057 -4.625444 0.3896967,-9.086287 -5.261358 0.4254562,4.810,31 1 1
-1.978723 -8.117029 0.4329787,-2.70259 -7.733936 0.8539534,-3.174057 -6.887541 1.065204,-3.360572 -5.959315 1.305143,-3.563942 -5.06638 1.549287,-2.883599 -5.240266 0.2896799,-3.096395 -4.181301 0.3353831,-3.223326 -3.531768 0.47654,-3.326433 -2.894027 0.6539074,-2.456281 -5.073619 0.2972746,-2.584667 -4.025663 0.3973338,-2.584667 -4.025663 0.3973338,-2.788704 -3.272974 0.9622142,-2.049856 -5.139732 0.3902436,-2.105156 -4.132133 0.5454967,-2.200439 -3.604792 0.9507076,-2.303292 -3.35287 1.273023,-1.629465 -5.378347 0.547305,-1.637132 -4.524723 0.7276132,-1.704459 -4.01576 1.027635,-1.791397 -3.656457 1.295305,-8.803621 -7.905319 -0.6793975,-8.227345 -7.485712 -0.05585295,-7.838575 -6.679431 0.3416302,-7.807248 -5.769742 0.7178701,-8.004757 -5.074686 1.015607,-8.058347 -5.103538 -0.5199859,-7.874606 -3.933553 -0.1613113,-7.771096 -3.147229 0.2264612,-7.70817 -2.474142 0.51606,-8.458328 -4.984939 -0.5283712,-8.367497 -3.721258 0.1868206,-8.311265 -4.546768 0.6688155,-8.322416 -5.394248 0.7978837,-8.859327 -5.045893 -0.4234895,-8.825821 -3.83547 0.1961389,-8.728753 -4.669134 0.5435236,-8.702689 -5.503665 0.5672529,-9.298377 -5.281833 -0.276104,-9.330614 -4.301095 0.1792061,-9.188088 -4.609752 0.4180237,-9.079728 -5.237994 0.446642,4.910,31 1 1
-1.988738 -8.117935 0.363032,-2.706685 -7.734064 0.7827455,-3.181246 -6.888093 0.9986104,-3.36844 -5.956233 1.24473,-3.575503 -5.047935 1.480172,-2.887129 -5.256381 0.2285893,-3.100012 -4.190296 0.2797306,-3.227546 -3.552127 0.4140116,-3.338179 -2.920948 0.5805368,-2.462796 -5.093806 0.2364766,-2.587296 -4.041299 0.3424721,-2.587296 -4.041299 0.3424721,-2.804732 -3.344074 0.8985026,-2.061956 -5.162902 0.3291698,-2.111916 -4.155593 0.4817753,-2.215235 -3.643895 0.8756143,-2.332071 -3.40497 1.185455,-1.6468 -5.403181 0.4832522,-1.638315 -4.550533 0.6497463,-1.703685 -4.048873 0.9287059,-1.790829 -3.698452 1.179872,-8.824804 -7.903337 -0.6602896,-8.238121 -7.516698 -0.04273492,-7.842245 -6.700966 0.344313,-7.80092 -5.783411 0.7114962,-7.999246 -5.081228 0.9949671,-8.063373 -5.111681 -0.5336218,-7.874363 -3.928749 -0.2023783,-7.766999 -3.1452 0.162389,-7.698478 -2.483085 0.4489869,-8.462584 -4.978281 -0.5345198,-8.371986 -3.735091 0.1468151,-8.318919 -4.546657 0.6193236,-8.33195 -5.391917 0.7569828,-8.862755 -5.035327 -0.4215992,-8.827867 -3.837146 0.1684045,-8.731423 -4.6536 0.5207503,-8.704331 -5.48769 0.5590746,-9.300537 -5.272188 -0.2708218,-9.330685 -4.317043 0.1738942,-9.188787 -4.627546 0.4230587,-9.077833 -5.255609 0.4725415,5.010,31 1 1
-1.974542 -8.116417 0.4150863,-2.694602 -7.746157 0.8713919,-3.174728 -6.890153 1.098156,-3.36257 -5.947734 1.345469,-3.56426 -5.030142 1.577846,-2.90097 -5.250287 0.2742209,-3.090315 -4.185941 0.3190525,-3.210877 -3.547963 0.4697579,-3.320984 -2.928236 0.6572818,-2.479528 -5.083217 0.2663529,-2.595118 -4.051206 0.377275,-2.595118 -4.051206 0.377275,-2.803026 -3.369662 0.9981626,-2.077748 -5.145523 0.3486306,-2.129117 -4.157649 0.5068767,-2.226415 -3.659838 0.9297425,-2.340042 -3.445512 1.269141,-1.656829 -5.378877 0.4938768,-1.656251 -4.52803 0.6767502,-1.723128 -4.048521 0.979553,-1.814141 -3.736381 1.255068,-8.813184 -7.902625 -0.7253221,-8.233413 -7.515841 -0.1108164,-7.832334 -6.71668 0.2866753,-7.795434 -5.806493 0.6600796,-8.004024 -5.111535 0.9424105,-8.055583 -5.122968 -0.5693042,-7.865885 -3.962631 -0.225673,-7.762856 -3.176527 0.1516888,-7.696039 -2.504905 0.4519503,-8.457671 -4.996788 -0.5723867,-8.366623 -3.75212 0.1265275,-8.323743 -4.568105 0.6021193,-8.33884 -5.411308 0.7377199,-8.86258 -5.054221 -0.4650941,-8.826962 -3.851366 0.1303229,-8.737685 -4.66848 0.4772793,-8.709421 -5.499155 0.5089519,-9.306992 -5.293943 -0.3149317,-9.340439 -4.341146 0.1381763,-9.201359 -4.654565 0.3923016,-9.088094 -5.282904 0.4452333,5.110,31 1 1
-1.99654 -8.133923 0.4900886,-2.713668 -7.727212 0.9051635,-3.18149 -6.821069 1.104551,-3.364985 -5.848338 1.333272,-3.558496 -4.932284 1.553763,-2.90256 -5.240706 0.2716912,-3.111797 -4.183286 0.3187142,-3.237251 -3.552537 0.4720557,-3.346995 -2.940883 0.6564651,-2.481169 -5.07947 0.2778859,-2.596386 -4.03142 0.388153,-2.596386 -4.03142 0.388153,-2.807914 -3.361411 1.023079,-2.080696 -5.143405 0.3740375,-2.130409 -4.150335 0.5439406,-2.238549 -3.651226 0.9797067,-2.356391 -3.45773 1.318397,-1.664331 -5.377897 0.5339471,-1.661378 -4.522564 0.733906,-1.736203 -4.049303 1.044659,-1.833229 -3.760364 1.324296,-8.813661 -7.910125 -0.7862453,-8.236064 -7.523365 -0.1736024,-7.834985 -6.729993 0.2186301,-7.792606 -5.811363 0.5941957,-7.99037 -5.100258 0.8811023,-8.052127 -5.152246 -0.6530629,-7.869061 -3.978614 -0.3031058,-7.768674 -3.180201 0.07527661,-7.703849 -2.487166 0.3600483,-8.448424 -5.021829 -0.6592994,-8.352249 -3.762592 0.04104537,-8.305074 -4.587636 0.50756,-8.321934 -5.416291 0.619141,-8.848088 -5.07544 -0.5531509,-8.809517 -3.870601 0.05606019,-8.722834 -4.709862 0.3971021,-8.702196 -5.527896 0.413801,-9.287753 -5.303881 -0.4044991,-9.315384 -4.348326 0.04971957,-9.180226 -4.674522 0.2938989,-9.078932 -5.299858 0.3289237,5.210,31 1 1
-1.996772 -8.136314 0.5179687,-2.724168 -7.732752 0.9562539,-3.202034 -6.834283 1.159499,-3.384731 -5.845051 1.388855,-3.564388 -4.904294 1.600696,-2.914213 -5.245168 0.2916476,-3.109072 -4.178934 0.3208269,-3.225189 -3.538533 0.475964,-3.330999 -2.931058 0.6675565,-2.490058 -5.07682 0.2827751,-2.601823 -4.029256 0.3819043,-2.601823 -4.029256 0.3819043,-2.807392 -3.373672 1.032542,-2.086256 -5.133534 0.3647538,-2.131848 -4.135673 0.51537,-2.231435 -3.645772 0.9536534,-2.347097 -3.472947 1.296479,-1.66585 -5.359861 0.5119138,-1.659575 -4.496802 0.7011833,-1.731603 -4.029806 1.014126,-1.829722 -3.760847 1.297068,-8.815457 -7.900014 -0.7678847,-8.233405 -7.522285 -0.1533974,-7.832034 -6.713588 0.2344686,-7.790324 -5.799498 0.6078924,-7.990991 -5.105388 0.8977628,-8.054769 -5.130685 -0.6471993,-7.867137 -3.970863 -0.2900373,-7.758477 -3.20759 0.09061301,-7.688215 -2.562204 0.3801147,-8.450192 -5.005985 -0.6510003,-8.355816 -3.742942 0.06596571,-8.304132 -4.570447 0.5457784,-8.322083 -5.422231 0.6656547,-8.84837 -5.060632 -0.5389836,-8.808478 -3.845459 0.0766471,-8.716146 -4.668737 0.4244393,-8.694219 -5.497983 0.4433515,-9.285095 -5.291248 -0.386613,-9.318834 -4.33072 0.07775903,-9.180528 -4.637493 0.3315037,-9.071063 -5.257398 0.3732576,5.310,31 1 1
-1.985129 -8.136204 0.4249732,-2.71225 -7.742586 0.8647439,-3.193406 -6.864608 1.091167,-3.375483 -5.902032 1.344517,-3.556711 -4.96061 1.588792,-2.912147 -5.266485 0.2540492,-3.119223 -4.200435 0.294937,-3.237564 -3.544306 0.4644341,-3.333496 -2.932175 0.6693469,-2.486128 -5.1006 0.2558889,-2.610778 -4.040411 0.3861431,-2.610778 -4.040411 0.3861431,-2.81384 -3.435525 1.091331,-2.080577 -5.158855 0.3405892,-2.135092 -4.140765 0.5140411,-2.229007 -3.652096 0.9775259,-2.337888 -3.515019 1.338298,-1.656908 -5.387243 0.4879062,-1.657337 -4.520951 0.6897435,-1.726376 -4.05309 1.016355,-1.823152 -3.795796 1.310089,-8.817769 -7.897748 -0.7294051,-8.227161 -7.507392 -0.1417041,-7.824687 -6.690929 0.2224019,-7.785207 -5.763807 0.5724847,-7.989587 -5.066717 0.8358957,-8.05762 -5.119417 -0.6495966,-7.862701 -3.962131 -0.3188268,-7.750735 -3.191982 0.04562843,-7.680503 -2.536324 0.3264045,-8.45244 -4.991371 -0.6498902,-8.3534 -3.731862 0.0308699,-8.30089 -4.557729 0.5061288,-8.317686 -5.412847 0.6351877,-8.849862 -5.042356 -0.5392029,-8.80496 -3.826738 0.05491388,-8.710418 -4.658807 0.4042385,-8.686724 -5.498085 0.4340111,-9.287425 -5.269584 -0.3916965,-9.307886 -4.309589 0.05874884,-9.165262 -4.625031 0.3101897,-9.057292 -5.254459 0.3558881,5.410,31 1 1
-1.989089 -8.15357 0.4014155,-2.706198 -7.761919 0.8249267,-3.183646 -6.832815 1.033257,-3.342783 -5.821414 1.270718,-3.482622 -4.867769 1.480328,-2.898645 -5.300704 0.1812303,-3.118889 -4.222522 0.1852335,-3.232711 -3.556332 0.3211702,-3.323826 -2.953047 0.4930013,-2.478303 -5.125772 0.1865736,-2.597295 -4.056543 0.2787374,-2.597295 -4.056543 0.2787374,-2.79689 -3.511204 0.9631324,-2.075142 -5.168934 0.2748901,-2.1211 -4.155647 0.4186089,-2.213761 -3.676261 0.8836144,-2.321612 -3.58077 1.24467,-1.651567 -5.382889 0.4260874,-1.647895 -4.512678 0.6116647,-1.718416 -4.057607 0.921782,-1.819245 -3.844933 1.20874,-8.813456 -7.907209 -0.7606708,-8.23217 -7.51862 -0.1494229,-7.823286 -6.702915 0.2389541,-7.777267 -5.784936 0.6031884,-7.98228 -5.082119 0.88415,-8.052956 -5.133075 -0.6146133,-7.8648 -3.977441 -0.2798883,-7.761503 -3.200372 0.09114993,-7.698301 -2.543602 0.3885332,-8.450464 -5.011962 -0.6183917,-8.360868 -3.751337 0.07152188,-8.28949 -4.55128 0.5801239,-8.304701 -5.395771 0.7183082,-8.847068 -5.040863 -0.5103005,-8.804133 -3.842925 0.1045364,-8.705303 -4.672321 0.449194,-8.678617 -5.497671 0.4775354,-9.284353 -5.274425 -0.3587699,-9.308643 -4.318918 0.1099348,-9.164906 -4.643339 0.3571573,-9.053001 -5.275077 0.399987,5.510,31 1 1
-1.994789 -8.140108 0.3726382,-2.69896 -7.764326 0.7927307,-3.178885 -6.827779 0.9987683,-3.343109 -5.833674 1.242747,-3.480374 -4.886512 1.446389,-2.9082 -5.298247 0.1055509,-3.123796 -4.227159 0.1318868,-3.23512 -3.548835 0.2760163,-3.320235 -2.952392 0.4465739,-2.490754 -5.123585 0.1342339,-2.604879 -4.04529 0.2862732,-2.604879 -4.04529 0.2862732,-2.818298 -3.575902 1.040413,-2.092144 -5.159897 0.2472528,-2.136269 -4.13731 0.4493997,-2.244687 -3.715242 0.9771422,-2.370596 -3.720792 1.36844,-1.666324 -5.365106 0.4234887,-1.664926 -4.479928 0.6491504,-1.758948 -4.073861 1.008157,-1.886889 -3.986277 1.327422,-8.802663 -7.895275 -0.792757,-8.225846 -7.502752 -0.2057209,-7.8237 -6.685249 0.1737158,-7.782571 -5.76787 0.5400993,-7.986977 -5.081001 0.8245652,-8.058847 -5.121603 -0.6820429,-7.869228 -3.955763 -0.3214097,-7.761466 -3.177461 0.0710637,-7.698741 -2.517502 0.3643508,-8.450391 -5.006929 -0.6732524,-8.351579 -3.753839 0.03656024,-8.293927 -4.564204 0.518941,-8.308236 -5.405368 0.6476066,-8.845879 -5.066368 -0.5519334,-8.804793 -3.87079 0.05742335,-8.703382 -4.689577 0.3944485,-8.675377 -5.510667 0.4147506,-9.279876 -5.301387 -0.3927151,-9.307934 -4.344625 0.0761323,-9.163614 -4.669609 0.319404,-9.051666 -5.300657 0.3525764,5.610,31 1 1
-2.013275 -8.130316 0.328232,-2.712218 -7.776042 0.7702839,-3.185548 -6.812059 0.9849675,-3.340124 -5.801462 1.236846,-3.481203 -4.830133 1.451275,-2.903636 -5.301036 0.05172732,-3.133258 -4.230968 0.0815594,-3.241825 -3.546931 0.2406143,-3.311136 -2.975968 0.422689,-2.486447 -5.124268 0.07437611,-2.606612 -4.022727 0.2423663,-2.606612 -4.022727 0.2423663,-2.795721 -3.608016 1.047033,-2.088067 -5.161722 0.1835411,-2.139143 -4.117606 0.390087,-2.254508 -3.735727 0.9535236,-2.372983 -3.823343 1.364682,-1.664241 -5.364067 0.3572355,-1.663854 -4.479452 0.5950046,-1.77115 -4.098724 0.9876825,-1.902672 -4.080423 1.330844,-8.804775 -7.894741 -0.8703306,-8.228045 -7.508771 -0.2810667,-7.828797 -6.703056 0.1011128,-7.783004 -5.781013 0.4705102,-7.978794 -5.082843 0.7536292,-8.055513 -5.151727 -0.764096,-7.865944 -3.975266 -0.4080118,-7.75829 -3.193978 -0.0259409,-7.696187 -2.526844 0.2532357,-8.444139 -5.029345 -0.7619178,-8.344021 -3.765515 -0.06293392,-8.293322 -4.598528 0.382567,-8.313749 -5.43342 0.4690249,-8.839049 -5.083205 -0.6478541,-8.797368 -3.881604 -0.04607582,-8.704965 -4.723348 0.2672217,-8.684125 -5.537807 0.2605313,-9.27294 -5.309117 -0.4932902,-9.296666 -4.347034 -0.03740072,-9.154404 -4.686739 0.1907374,-9.048234 -5.314499 0.2098986,5.710,31 1 1
-2.001173 -8.11628 0.2832114,-2.710759 -7.755684 0.7306488,-3.199619 -6.8274 0.9499335,-3.36434 -5.828762 1.198203,-3.492418 -4.850849 1.404281,-2.91694 -5.304802 0.001140565,-3.128077 -4.233228 0.03701141,-3.238449 -3.561943 0.2167701,-3.310978 -3.03263 0.4139595,-2.498093 -5.128791 0.0110147,-2.604808 -4.011982 0.1850575,-2.604808 -4.011982 0.1850575,-2.793432 -3.668787 1.042666,-2.100177 -5.165573 0.1043599,-2.143201 -4.120636 0.3114761,-2.249511 -3.760485 0.8888958,-2.355866 -3.894079 1.309373,-1.675525 -5.362594 0.2599871,-1.668044 -4.4853 0.4935484,-1.770977 -4.127893 0.8960245,-1.898306 -4.14715 1.242018,-8.808533 -7.900274 -0.8612752,-8.227838 -7.530946 -0.2501614,-7.821946 -6.718486 0.1363605,-7.769844 -5.798185 0.5047606,-7.967146 -5.095214 0.7904826,-8.054573 -5.14907 -0.7367088,-7.864436 -3.985263 -0.3767449,-7.758376 -3.209646 0.01377982,-7.695605 -2.55451 0.3086811,-8.448215 -5.032577 -0.7435056,-8.348481 -3.768894 -0.03798753,-8.29338 -4.585721 0.4293846,-8.306034 -5.414972 0.5374775,-8.845319 -5.094547 -0.6381592,-8.804873 -3.88903 -0.03362,-8.706627 -4.706205 0.2953242,-8.677225 -5.509496 0.3046967,-9.278956 -5.331394 -0.4906535,-9.307228 -4.392774 -0.02683294,-9.165764 -4.721901 0.2220879,-9.052942 -5.336953 0.2636633,5.810,31 1 1
-2.016959 -8.047426 -0.03694788,-2.706426 -7.711994 0.4311345,-3.171869 -6.776058 0.6807448,-3.330155 -5.805572 0.9550713,-3.477426 -4.849754 1.20723,-2.916696 -5.300465 -0.213993,-3.145876 -4.222316 -0.1188219,-3.260222 -3.515856 0.1047755,-3.331777 -2.979293 0.3292225,-2.493513 -5.140543 -0.184009,-2.58981 -3.929061 0.1238251,-2.58981 -3.929061 0.1238251,-2.773794 -3.770026 1.067927,-2.096731 -5.18062 -0.07586768,-2.133853 -4.02749 0.2619325,-2.270666 -3.796088 0.9215638,-2.367574 -4.117459 1.372489,-1.677511 -5.372083 0.09258388,-1.660717 -4.473688 0.4142338,-1.801394 -4.189828 0.8889446,-1.933369 -4.362892 1.279759,-8.811778 -7.942499 -0.8548478,-8.233356 -7.5657 -0.2743502,-7.819465 -6.747403 0.09201908,-7.763175 -5.815826 0.4477217,-7.967232 -5.111183 0.7084007,-8.058588 -5.195016 -0.7674131,-7.863449 -4.01703 -0.4303671,-7.756626 -3.216661 -0.05846596,-7.696765 -2.519809 0.2199843,-8.447072 -5.072623 -0.7609847,-8.340455 -3.797967 -0.0779857,-8.284713 -4.615283 0.3785965,-8.302857 -5.444297 0.4797214,-8.841747 -5.12589 -0.6465656,-8.796707 -3.905655 -0.05122793,-8.701149 -4.737823 0.2689022,-8.680501 -5.551157 0.2700204,-9.276089 -5.353654 -0.4934097,-9.302272 -4.386775 -0.04421014,-9.15882 -4.713632 0.1885577,-9.053411 -5.337642 0.2113193,5.910,31 1 1
-2.013654 -8.043848 -0.2231357,-2.701587 -7.737634 0.2846509,-3.153107 -6.808357 0.5550222,-3.314877 -5.789218 0.835779,-3.514408 -4.811167 1.083009,-2.95282 -5.329651 -0.3243098,-3.150843 -4.253192 -0.1668324,-3.288635 -3.529048 0.08909377,-3.38998 -2.935615 0.3321333,-2.545619 -5.199533 -0.3447187,-2.612961 -3.929693 0.1499575,-2.612961 -3.929693 0.1499575,-2.723982 -4.139051 1.058815,-2.152927 -5.235006 -0.276699,-2.198545 -4.017122 0.2252651,-2.345927 -4.146135 0.8596301,-2.393454 -4.675542 1.194762,-1.719481 -5.403118 -0.1720703,-1.751596 -4.484081 0.2812765,-1.915887 -4.500352 0.7733057,-1.98766 -4.925659 1.116095,-8.796 -7.920647 -0.8758047,-8.218512 -7.539539 -0.2950549,-7.813135 -6.71319 0.06893218,-7.768018 -5.793828 0.420978,-7.977074 -5.104835 0.6926812,-8.059915 -5.175458 -0.7648109,-7.862695 -3.991586 -0.4280472,-7.74612 -3.190647 -0.05131865,-7.6753 -2.516692 0.2348468,-8.449381 -5.055604 -0.7544451,-8.346251 -3.79142 -0.06749171,-8.283866 -4.587207 0.4084055,-8.288231 -5.433979 0.5388976,-8.840496 -5.107446 -0.6371928,-8.796665 -3.907917 -0.04046071,-8.694042 -4.7163 0.3014126,-8.657283 -5.543592 0.3333277,-9.267182 -5.334014 -0.482701,-9.299335 -4.378478 -0.01967597,-9.151672 -4.691677 0.2265335,-9.028459 -5.32291 0.2700557,6.010,31 1 1
-2.010164 -8.029366 -0.201749,-2.716899 -7.722145 0.2485284,-3.172879 -6.720026 0.4659922,-3.335606 -5.654768 0.7180571,-3.505598 -4.64458 0.9210922,-2.977668 -5.340803 -0.4847672,-3.146845 -4.286216 -0.3944882,-3.268296 -3.596372 -0.1906961,-3.357645 -2.994017 0.01480691,-2.576302 -5.197912 -0.4944438,-2.635253 -3.970663 -0.05965343,-2.635253 -3.970663 -0.05965343,-2.754558 -4.38587 0.7468765,-2.182666 -5.207836 -0.4115183,-2.223824 -4.018669 0.03068757,-2.370579 -4.310351 0.5881389,-2.411099 -4.888481 0.8384982,-1.747706 -5.352712 -0.2857485,-1.796914 -4.430027 0.1318329,-1.962479 -4.556358 0.5506511,-2.020366 -5.059223 0.8160819,-8.817356 -7.931938 -0.8748671,-8.23505 -7.578415 -0.2744715,-7.823622 -6.75447 0.1123741,-7.768186 -5.827022 0.4845018,-7.974431 -5.133199 0.7688787,-8.062718 -5.188497 -0.7437923,-7.866963 -3.998138 -0.4002535,-7.757563 -3.203121 -0.02951002,-7.693102 -2.524367 0.2486186,-8.452481 -5.069335 -0.7430948,-8.345847 -3.802394 -0.05234045,-8.292309 -4.616393 0.4026481,-8.300939 -5.441225 0.4982014,-8.848651 -5.122064 -0.6342202,-8.8033 -3.919886 -0.03920335,-8.708272 -4.746521 0.2817962,-8.676946 -5.55345 0.2863868,-9.279881 -5.349102 -0.4881326,-9.306016 -4.400259 -0.02472806,-9.164424 -4.738929 0.2148995,-9.049035 -5.365058 0.243624,6.110,31 1 1
-2.036805 -8.122208 -0.2500469,-2.718996 -7.782182 0.1692573,-3.155493 -6.742797 0.3737161,-3.306743 -5.701496 0.6150998,-3.456103 -4.756807 0.8176616,-2.935058 -5.420994 -0.5224953,-3.064062 -4.406205 -0.3947345,-3.214318 -3.663575 -0.1646146,-3.340584 -2.941359 0.04624477,-2.549006 -5.289452 -0.4886666,-2.60575 -4.069918 0.005011082,-2.60575 -4.069918 0.005011082,-2.754711 -5.143499 0.5680462,-2.163242 -5.324544 -0.3616011,-2.190913 -4.110937 0.1918525,-2.396983 -4.762122 0.5947343,-2.431571 -5.488376 0.6673121,-1.733338 -5.493995 -0.1845265,-1.800342 -4.540479 0.2972933,-2.024204 -4.851192 0.5987542,-2.083921 -5.438306 0.7222115,-8.814101 -7.942817 -0.9017257,-8.236924 -7.556272 -0.3039376,-7.827435 -6.760943 0.09429443,-7.770519 -5.85749 0.4799712,-7.977414 -5.159833 0.7777288,-8.074518 -5.197103 -0.732365,-7.880069 -4.002086 -0.3960973,-7.77059 -3.196325 -0.0405491,-7.707128 -2.507868 0.2266202,-8.464281 -5.088676 -0.7224968,-8.357341 -3.828847 -0.0251047,-8.292641 -4.623135 0.4486512,-8.298527 -5.452629 0.5762249,-8.856694 -5.149683 -0.6098292,-8.80929 -3.964226 -0.004046321,-8.704479 -4.780977 0.3461597,-8.668048 -5.601301 0.3797764,-9.285209 -5.377621 -0.4573823,-9.312035 -4.427983 0.002617002,-9.162882 -4.749841 0.2538593,-9.040779 -5.374293 0.2966437,6.210,31 1 1
-2.034029 -8.096645 -0.36462,-2.707415 -7.751732 0.1110269,-3.141234 -6.73636 0.3747566,-3.30966 -5.686235 0.6736827,-3.48826 -4.681871 0.9430567,-2.967022 -5.434169 -0.55102,-3.10655 -4.44289 -0.3362458,-3.244818 -3.733263 -0.0676246,-3.368291 -3.037282 0.1475111,-2.571108 -5.297151 -0.5379866,-2.647484 -4.105248 0.05718741,-2.647484 -4.105248 0.05718741,-2.744096 -5.478687 0.5011266,-2.167344 -5.347427 -0.4218258,-2.212635 -4.202919 0.1928057,-2.386783 -5.104205 0.4864993,-2.392107 -5.803545 0.462696,-1.718773 -5.542618 -0.2661373,-1.795 -4.652047 0.2234805,-1.99166 -5.15602 0.4377293,-2.014469 -5.730287 0.4768285,-8.819689 -7.952208 -0.9161534,-8.241169 -7.582489 -0.3074411,-7.835131 -6.773412 0.09603524,-7.780354 -5.861682 0.4861603,-7.989793 -5.166795 0.7880285,-8.075983 -5.206285 -0.7664952,-7.88469 -4.005929 -0.4135931,-7.772408 -3.20434 -0.03485084,-7.706446 -2.516236 0.2447146,-8.465486 -5.101249 -0.7624458,-8.359858 -3.833473 -0.05349064,-8.301723 -4.655932 0.3985263,-8.310387 -5.480548 0.4891422,-8.860382 -5.16316 -0.6490521,-8.81391 -3.957908 -0.04013437,-8.71372 -4.785867 0.2837203,-8.682307 -5.59439 0.2896546,-9.292489 -5.394741 -0.4967536,-9.320131 -4.432031 -0.03371453,-9.173514 -4.769088 0.204983,-9.056954 -5.396536 0.2324123,6.310,31 1 1
-2.042147 -8.19681 -0.9275539,-2.693434 -7.941789 -0.4198623,-3.200285 -6.914691 -0.1748227,-3.375504 -5.854104 0.09291434,-3.472378 -4.918739 0.310935,-3.046949 -5.712883 -0.9358586,-3.224189 -4.685812 -0.6224142,-3.332134 -3.934559 -0.3311263,-3.438637 -3.236599 -0.06048656,-2.655837 -5.57277 -0.913399,-2.782959 -4.547231 -0.2318518,-2.782959 -4.547231 -0.2318518,-2.740529 -6.254239 0.08814657,-2.240906 -5.600422 -0.7742708,-2.362697 -4.666237 -0.05303037,-2.437087 -5.784362 0.1290678,-2.410514 -6.543401 0.06815773,-1.79555 -5.780538 -0.5969025,-1.938306 -5.109191 0.001538455,-2.063563 -5.894849 0.1444744,-2.065568 -6.507701 0.1299168,-8.839149 -7.952895 -0.9137205,-8.264523 -7.63246 -0.2856985,-7.846674 -6.811313 0.1324642,-7.779841 -5.8964 0.532732,-8.003734 -5.211601 0.8471446,-8.094475 -5.199293 -0.72802,-7.89284 -3.989809 -0.3558605,-7.781796 -3.1784 0.03700519,-7.721211 -2.480627 0.3257546,-8.482731 -5.10345 -0.7277428,-8.378111 -3.833979 0.0007181764,-8.323155 -4.662926 0.4562174,-8.325293 -5.484882 0.5407281,-8.878202 -5.179338 -0.6158793,-8.834966 -3.993355 0.007547855,-8.732631 -4.8402 0.3428924,-8.691919 -5.645006 0.3506848,-9.306406 -5.422922 -0.4658703,-9.332415 -4.488657 0.01176041,-9.190291 -4.86726 0.2597945,-9.072602 -5.49599 0.2962253,6.410,31 1 1
-2.074151 -8.226015 -0.9470428,-2.717745 -7.880037 -0.4546033,-3.208258 -6.871917 -0.216365,-3.389709 -5.895593 0.03723699,-3.512387 -5.046238 0.2547675,-3.019171 -5.701923 -0.7776664,-3.202481 -4.750196 -0.3892303,-3.347426 -4.047292 -0.05623239,-3.490784 -3.356825 0.2310392,-2.619684 -5.600264 -0.747678,-2.743804 -4.713568 -0.01663244,-2.743804 -4.713568 -0.01663244,-2.732104 -6.438711 0.2499397,-2.199669 -5.682966 -0.6066556,-2.322469 -4.851139 0.1414758,-2.436127 -5.953594 0.2693243,-2.417278 -6.677424 0.1884073,-1.762727 -5.919694 -0.4278529,-1.899761 -5.279428 0.1626567,-2.064494 -6.04113 0.2902926,-2.086469 -6.608652 0.2683623,-8.841421 -7.977641 -0.8781139,-8.260309 -7.619287 -0.264315,-7.847915 -6.807216 0.1456126,-7.788449 -5.893894 0.5363849,-8.003985 -5.211897 0.8398192,-8.09748 -5.20771 -0.7026348,-7.900955 -4.003035 -0.326569,-7.789589 -3.211406 0.06796277,-7.73034 -2.531895 0.3540996,-8.489465 -5.116933 -0.6992809,-8.38145 -3.850299 0.02700287,-8.321327 -4.689494 0.4813044,-8.330711 -5.512479 0.5649507,-8.885747 -5.19432 -0.5867881,-8.837148 -4.001771 0.02321094,-8.730777 -4.836133 0.3445582,-8.698455 -5.6294 0.3476026,-9.315184 -5.434824 -0.4355137,-9.336596 -4.493286 0.03038311,-9.192632 -4.863438 0.2781342,-9.082024 -5.485172 0.316926,6.510,31 1 1
-2.047993 -8.24926 -1.157998,-2.696949 -7.887045 -0.7159941,-3.207256 -6.851402 -0.4316998,-3.389405 -5.859424 -0.1390616,-3.495121 -5.024515 0.1350608,-3.000744 -5.860229 -0.7013086,-3.231802 -4.897802 -0.1855221,-3.370401 -4.22186 0.1791019,-3.503629 -3.605611 0.4536965,-2.591218 -5.733079 -0.6238697,-2.739534 -5.012245 0.1863356,-2.739534 -5.012245 0.1863356,-2.741091 -6.674198 0.4262741,-2.160596 -5.789657 -0.4656318,-2.327137 -5.163184 0.3009828,-2.41456 -6.236578 0.3260293,-2.38122 -6.882427 0.1895555,-1.722808 -6.013237 -0.2684659,-1.889994 -5.501207 0.2818233,-2.034518 -6.27922 0.3042818,-2.037729 -6.785678 0.2207412,-8.847495 -7.958576 -0.8069651,-8.265627 -7.586629 -0.1929528,-7.853214 -6.785249 0.2256742,-7.795784 -5.885351 0.6273631,-8.022756 -5.21343 0.9450104,-8.106143 -5.164443 -0.6284806,-7.911691 -3.971897 -0.2263265,-7.799778 -3.196926 0.1908129,-7.738148 -2.53245 0.4901822,-8.497349 -5.077682 -0.6197973,-8.387451 -3.84292 0.1268219,-8.330293 -4.722376 0.5848192,-8.344216 -5.557365 0.6652166,-8.89404 -5.1644 -0.5001242,-8.844475 -4.005178 0.1143311,-8.741475 -4.875967 0.4273796,-8.714231 -5.668012 0.4225708,-9.32463 -5.421772 -0.3398731,-9.342999 -4.493305 0.1248932,-9.197658 -4.900048 0.364135,-9.088836 -5.52922 0.3940855,6.610,31 1 1
-2.037382 -8.219954 -1.033025,-2.679893 -7.911553 -0.5689322,-3.220481 -6.904649 -0.3077038,-3.418371 -5.964708 -0.04202765,-3.550991 -5.209556 0.2225336,-2.992287 -5.819961 -0.4848469,-3.254663 -4.952661 0.1345941,-3.402245 -4.344439 0.5376465,-3.543924 -3.803961 0.8165382,-2.56596 -5.683597 -0.4104316,-2.740655 -5.238695 0.4708916,-2.740655 -5.238695 0.4708916,-2.677368 -7.016296 0.6151928,-2.130212 -5.760273 -0.2581564,-2.309648 -5.458578 0.5733497,-2.364172 -6.566534 0.5387346,-2.320774 -7.159284 0.3738112,-1.699521 -5.997802 -0.06262839,-1.874803 -5.669614 0.5119628,-2.014709 -6.463565 0.4956529,-2.019924 -6.933719 0.3881302,-8.86847 -7.956011 -0.8219927,-8.281161 -7.57666 -0.219661,-7.873862 -6.772962 0.1879056,-7.820223 -5.869339 0.5818778,-8.03956 -5.20539 0.897085,-8.1305 -5.163055 -0.6584054,-7.931413 -3.962708 -0.2482115,-7.81902 -3.186583 0.1753641,-7.758774 -2.519601 0.4698159,-8.519487 -5.078548 -0.6468813,-8.409778 -3.854083 0.1067557,-8.35403 -4.746952 0.5639336,-8.366896 -5.585783 0.6370884,-8.914846 -5.165723 -0.523327,-8.860337 -4.010459 0.0973258,-8.758142 -4.883554 0.4059854,-8.732026 -5.677896 0.3944939,-9.343696 -5.424152 -0.3615292,-9.356406 -4.495419 0.1087838,-9.209368 -4.909933 0.3449495,-9.102806 -5.543073 0.3661696,6.710,31 1 1
-1.98948 -8.252079 -1.134405,-2.653579 -7.990975 -0.781533,-3.25522 -7.025257 -0.4971548,-3.476086 -6.06501 -0.2125456,-3.5753 -5.290903 0.05612493,-3.00389 -5.958366 -0.5073593,-3.260029 -5.018577 0.08471632,-3.406768 -4.436887 0.4415501,-3.546965 -3.942495 0.6753374,-2.559831 -5.790216 -0.3856444,-2.725627 -5.353273 0.4423808,-2.725627 -5.353273 0.4423808,-2.635619 -7.02716 0.4909368,-2.103751 -5.829051 -0.2196234,-2.297753 -5.531415 0.5284735,-2.331017 -6.62321 0.420097,-2.272405 -7.143874 0.2512063,-1.657288 -6.023094 -0.01504314,-1.872499 -5.694215 0.457438,-1.988357 -6.485393 0.3769499,-1.966752 -6.90747 0.2606875,-8.882897 -7.976263 -0.8930826,-8.294742 -7.618642 -0.2885766,-7.884646 -6.80921 0.1139076,-7.816044 -5.898545 0.5027213,-8.026874 -5.214824 0.8016715,-8.146355 -5.200974 -0.7209763,-7.951455 -3.959602 -0.3496265,-7.833344 -3.166398 0.03014553,-7.768451 -2.484911 0.2957702,-8.532352 -5.119639 -0.7149195,-8.424537 -3.846583 0.01155853,-8.360724 -4.704635 0.4597753,-8.36633 -5.534812 0.5330327,-8.926798 -5.200655 -0.6036959,-8.876054 -4.01136 0.01280099,-8.770532 -4.867113 0.3400388,-8.739552 -5.672588 0.3390871,-9.353262 -5.438213 -0.456811,-9.364717 -4.469257 0.01166755,-9.216623 -4.850454 0.257952,-9.1068 -5.484129 0.2867665,6.810,31 1 1
-2.000953 -8.211697 -0.8143353,-2.668621 -7.92984 -0.5257576,-3.25076 -6.933986 -0.2441384,-3.471651 -5.983514 0.04670358,-3.577385 -5.287767 0.3250616,-3.001383 -5.86359 -0.1622559,-3.273504 -4.985151 0.4641392,-3.421352 -4.468784 0.7736533,-3.55707 -4.028007 0.9242493,-2.537143 -5.663661 -0.003698528,-2.723203 -5.505173 0.8472652,-2.723203 -5.505173 0.8472652,-2.630792 -7.036922 0.8033248,-2.068794 -5.712537 0.1956441,-2.272198 -5.652182 0.945227,-2.310505 -6.726976 0.7860374,-2.265587 -7.134443 0.5765747,-1.623633 -5.924308 0.4339714,-1.837128 -5.785254 0.9004221,-1.964339 -6.573967 0.7916443,-1.951556 -6.895961 0.6394272,-8.884268 -8.007036 -0.7833992,-8.299628 -7.613224 -0.1725519,-7.883854 -6.813807 0.2481989,-7.820518 -5.913337 0.6545123,-8.04369 -5.23402 0.9694499,-8.155732 -5.199917 -0.5700461,-7.958199 -3.964426 -0.1804817,-7.840637 -3.174399 0.2153452,-7.774466 -2.498357 0.4929476,-8.543273 -5.12111 -0.5561448,-8.436404 -3.869028 0.1940455,-8.372705 -4.734328 0.6553774,-8.380854 -5.573562 0.7402875,-8.936673 -5.208082 -0.4372196,-8.88923 -4.034293 0.183365,-8.781668 -4.895866 0.5145241,-8.752075 -5.702009 0.5182256,-9.363056 -5.45626 -0.281222,-9.378513 -4.505305 0.1893231,-9.23131 -4.90804 0.4397494,-9.124346 -5.546197 0.4720774,6.910,31 1 1
-2.011363 -8.220795 -0.1401733,-2.700467 -7.947038 0.2803167,-3.314895 -6.960714 0.6678997,-3.526716 -6.012698 1.011628,-3.599276 -5.252133 1.342878,-3.003993 -5.796723 0.8319204,-3.277608 -4.992286 1.56422,-3.462034 -4.549562 1.975029,-3.644941 -4.14922 2.212594,-2.518825 -5.556482 0.9410552,-2.712896 -5.438158 1.820483,-2.712896 -5.438158 1.820483,-2.662555 -7.093412 1.828057,-2.037317 -5.632713 1.082709,-2.232632 -5.653934 1.877477,-2.301685 -6.714147 1.709488,-2.284235 -7.178648 1.504272,-1.591359 -5.889989 1.27397,-1.781605 -5.805095 1.768936,-1.926756 -6.579315 1.65178,-1.950809 -6.93266 1.503792,-8.904233 -8.031548 -0.7013659,-8.319461 -7.640594 -0.1066628,-7.908115 -6.829793 0.3123329,-7.850193 -5.926199 0.7178336,-8.084303 -5.2714 1.030228,-8.17933 -5.197922 -0.5105975,-7.987785 -3.960024 -0.1252742,-7.873782 -3.160179 0.2583094,-7.812305 -2.46477 0.5292348,-8.564614 -5.120652 -0.4892407,-8.454884 -3.880388 0.2543883,-8.394905 -4.765857 0.6966386,-8.409314 -5.597574 0.7625834,-8.959986 -5.210058 -0.3612656,-8.913698 -4.034954 0.2471076,-8.808494 -4.896682 0.5632451,-8.784609 -5.694177 0.5571828,-9.390875 -5.465351 -0.1978773,-9.406137 -4.511485 0.2540106,-9.261658 -4.919928 0.4918989,-9.161599 -5.55824 0.5143601,7.010,31 1 1
-1.978868 -8.168188 -0.4629161,-2.682647 -7.920881 -0.09197119,-3.310188 -7.00246 0.3014624,-3.522729 -6.072249 0.6365632,-3.57778 -5.327693 0.9500853,-3.003361 -5.935499 0.6876032,-3.264709 -4.995485 1.393211,-3.44146 -4.526123 1.691117,-3.604514 -4.16184 1.837227,-2.492848 -5.688144 0.7942574,-2.69133 -5.447497 1.6311,-2.69133 -5.447497 1.6311,-2.652371 -7.003143 1.452348,-1.993596 -5.734302 0.9129847,-2.196585 -5.652244 1.668585,-2.272024 -6.662174 1.388497,-2.25547 -7.072124 1.117416,-1.540797 -5.929986 1.076305,-1.743161 -5.774956 1.564,-1.883677 -6.538965 1.419456,-1.891262 -6.873924 1.251975,-8.907227 -8.015778 -0.6817306,-8.320686 -7.610742 -0.07605833,-7.904572 -6.811508 0.3496809,-7.849985 -5.910469 0.7631932,-8.098127 -5.250843 1.084199,-8.179398 -5.175846 -0.4981247,-7.992244 -3.934783 -0.1000049,-7.87642 -3.156318 0.3029945,-7.808902 -2.48978 0.587728,-8.56903 -5.098306 -0.4805918,-8.464254 -3.853939 0.271161,-8.404848 -4.75802 0.7177899,-8.419767 -5.601673 0.7842038,-8.96298 -5.194112 -0.3520173,-8.919044 -4.021144 0.2598372,-8.812859 -4.902605 0.5673643,-8.789707 -5.701624 0.552714,-9.390327 -5.461397 -0.1864666,-9.407479 -4.505657 0.2696961,-9.262376 -4.927307 0.5025961,-9.16316 -5.568102 0.5219301,7.110,31 1 1
-1.978112 -8.116848 -0.1193308,-2.705773 -7.858954 0.2762248,-3.343857 -6.921694 0.7256511,-3.57066 -5.951002 1.107203,-3.60025 -5.187194 1.473573,-2.991571 -5.887466 1.193759,-3.232723 -5.054676 1.902612,-3.389946 -4.64326 2.112784,-3.532167 -4.357971 2.173987,-2.455365 -5.590226 1.276516,-2.644641 -5.492963 2.082529,-2.644641 -5.492963 2.082529,-2.626027 -7.0541 1.761536,-1.927691 -5.622612 1.379882,-2.143394 -5.659378 2.095202,-2.229395 -6.665219 1.74906,-2.227936 -7.114415 1.434631,-1.461976 -5.841475 1.5192,-1.682882 -5.81117 2.020852,-1.846657 -6.59928 1.868001,-1.879244 -6.95976 1.685624,-8.903954 -8.033588 -0.6642991,-8.313627 -7.596669 -0.07366258,-7.90803 -6.793523 0.3458599,-7.856646 -5.883903 0.7513269,-8.099892 -5.222361 1.062669,-8.184198 -5.182775 -0.464185,-7.996351 -3.925867 -0.06810349,-7.880443 -3.130876 0.3271528,-7.816782 -2.461902 0.6030301,-8.573888 -5.112062 -0.4367871,-8.471811 -3.864824 0.308021,-8.40962 -4.742433 0.7584785,-8.424003 -5.584559 0.8412514,-8.970083 -5.205011 -0.3036587,-8.928818 -4.030252 0.305899,-8.824674 -4.893457 0.6240073,-8.801013 -5.702545 0.6228752,-9.397749 -5.464082 -0.1331313,-9.420875 -4.499502 0.3226866,-9.273901 -4.901729 0.5645722,-9.169381 -5.550474 0.5927927,7.210,31 1 1
-1.962345 -8.137701 -1.004714,-2.776886 -7.649791 -0.6993713,-3.389095 -6.668787 -0.1372572,-3.622583 -5.53112 0.3003011,-3.607982 -4.615607 0.7223669,-2.948427 -6.720568 1.061301,-3.189951 -5.301268 1.461085,-3.256177 -5.287857 1.137574,-3.249538 -5.488952 0.8612096,-2.3596 -6.542632 1.102738,-2.553068 -5.337551 1.48611,-2.553068 -5.337551 1.48611,-2.544593 -6.518803 0.5870061,-1.838071 -6.41341 1.091265,-2.083257 -5.350357 1.35493,-2.219349 -6.034509 0.7807072,-2.201522 -6.586994 0.4962958,-1.396655 -6.338922 1.113399,-1.642572 -5.530021 1.342141,-1.80602 -6.080833 1.108384,-1.802156 -6.506038 1.005522,-8.903279 -8.028954 -0.6156384,-8.317823 -7.610391 -0.01774764,-7.900278 -6.797916 0.4080172,-7.8446 -5.892663 0.8183111,-8.094422 -5.242307 1.129557,-8.178156 -5.162418 -0.4076165,-7.981448 -3.93352 -0.02514917,-7.8719 -3.136907 0.3653091,-7.811867 -2.454914 0.6527002,-8.570769 -5.094343 -0.379794,-8.47294 -3.851384 0.3595173,-8.413582 -4.724771 0.8201574,-8.424846 -5.569102 0.9154661,-8.965443 -5.198828 -0.2472208,-8.932168 -4.02909 0.3531801,-8.829123 -4.892942 0.6806135,-8.802176 -5.695161 0.693971,-9.393867 -5.479177 -0.07644689,-9.422756 -4.547194 0.3730274,-9.281822 -4.954433 0.6213479,-9.176632 -5.584824 0.6634369,7.310,31 1 1
-1.995048 -8.044064 -0.9758038,-2.766468 -7.6028 -0.4842194,-3.316771 -6.680034 0.1978016,-3.528381 -5.640911 0.7143259,-3.590893 -4.755407 1.194423,-2.870436 -6.902244 1.403218,-3.063658 -5.512157 2.10053,-3.24586 -4.826478 2.002595,-3.356503 -4.410146 1.859726,-2.286944 -6.778615 1.369807,-2.43066 -5.335151 1.984511,-2.43066 -5.335151 1.984511,-2.599292 -6.280302 0.9720538,-1.784096 -6.670881 1.323915,-1.919446 -5.38409 1.828824,-2.135633 -5.840767 1.223951,-2.19551 -6.310995 0.8598555,-1.363895 -6.602214 1.31648,-1.448375 -5.590942 1.694084,-1.659223 -5.895822 1.511028,-1.723521 -6.266279 1.422497,-8.896708 -8.008261 -0.5799811,-8.315325 -7.606552 0.0434221,-7.893769 -6.792744 0.4899684,-7.834811 -5.886873 0.9154893,-8.079725 -5.223305 1.243314,-8.149749 -5.141215 -0.3519949,-7.956457 -3.922925 0.04132253,-7.851854 -3.12946 0.4435453,-7.791823 -2.442464 0.7382808,-8.548668 -5.065958 -0.3343373,-8.450032 -3.821926 0.4185903,-8.39397 -4.714168 0.8662431,-8.40307 -5.551219 0.9380593,-8.947482 -5.17556 -0.2056942,-8.917886 -4.007602 0.4056944,-8.813498 -4.896188 0.7176245,-8.781675 -5.688068 0.7088704,-9.378509 -5.466051 -0.03580356,-9.407463 -4.534614 0.4159168,-9.266771 -4.962181 0.6501858,-9.163258 -5.586826 0.6723787,7.410,31 1 1
-1.953478 -7.998102 -1.239535,-2.720813 -7.592979 -0.7282288,-3.245127 -6.718555 -0.05343819,-3.473223 -5.731662 0.4312046,-3.509287 -4.911497 0.8467689,-2.909678 -7.17662 1.290784,-3.106456 -5.577263 2.135446,-3.290474 -4.651895 2.254934,-3.390435 -4.104202 2.245327,-2.324842 -7.171489 1.203428,-2.400779 -5.319318 1.755404,-2.400779 -5.319318 1.755404,-2.642497 -5.499174 0.5054585,-1.794042 -7.125923 1.145992,-1.831628 -5.458401 1.672082,-2.068906 -5.253829 1.156854,-2.214947 -5.446863 0.8295703,-1.392738 -7.051029 1.115479,-1.340887 -5.766814 1.541282,-1.49273 -5.439666 1.553181,-1.584435 -5.412144 1.625859,-8.888324 -8.009039 -0.5798364,-8.3051 -7.602775 0.02586478,-7.892355 -6.787752 0.4570179,-7.834721 -5.887474 0.8674762,-8.070537 -5.225372 1.189214,-8.16233 -5.137368 -0.3537719,-7.966688 -3.911356 0.03094304,-7.853999 -3.122295 0.4237318,-7.790791 -2.445976 0.7069137,-8.5522 -5.065189 -0.335619,-8.448421 -3.83111 0.3827006,-8.391977 -4.716011 0.8268521,-8.404903 -5.556295 0.9080894,-8.946683 -5.170959 -0.212476,-8.907145 -4.014293 0.3785891,-8.805256 -4.889273 0.7020239,-8.779469 -5.687233 0.7102455,-9.374588 -5.452634 -0.04925311,-9.394053 -4.514036 0.396396,-9.252814 -4.941278 0.6390189,-9.151998 -5.580848 0.6728246,7.510,31 1 1
-1.915068 -7.907959 -1.531109,-2.701128 -7.497924 -0.9940696,-3.241648 -6.596232 -0.3212091,-3.470632 -5.644063 0.1627706,-3.496206 -4.844301 0.5645616,-2.905547 -7.019081 0.8553357,-3.098379 -5.617486 1.718457,-3.284029 -4.78159 1.96302,-3.391103 -4.176851 2.075859,-2.327435 -7.064589 0.8100421,-2.428635 -5.351741 1.456189,-2.428635 -5.351741 1.456189,-2.698622 -5.283792 0.6769145,-1.794239 -7.037193 0.7916276,-1.87931 -5.528215 1.407063,-2.098961 -5.275772 1.034961,-2.233039 -5.34698 0.808044,-1.373037 -6.976005 0.7941086,-1.396533 -5.807437 1.267535,-1.549698 -5.540779 1.284779,-1.634618 -5.507015 1.341715,-8.904381 -8.0205 -0.6310452,-8.314013 -7.605758 -0.04204834,-7.897982 -6.794872 0.3706053,-7.835561 -5.886865 0.771819,-8.078292 -5.234376 1.077883,-8.173038 -5.157773 -0.4592093,-7.977994 -3.917175 -0.05172592,-7.857802 -3.13852 0.3572456,-7.790071 -2.472908 0.6400739,-8.561246 -5.08853 -0.4363756,-8.453835 -3.837217 0.313135,-8.390748 -4.737083 0.7615184,-8.40445 -5.573335 0.8254045,-8.955145 -5.190077 -0.3044421,-8.913077 -4.015666 0.3043979,-8.804136 -4.891977 0.6132149,-8.77915 -5.682769 0.5984102,-9.381417 -5.462617 -0.1361679,-9.400603 -4.517953 0.3175986,-9.253557 -4.940025 0.5552348,-9.151552 -5.574428 0.5778457,7.610,31 1 1
-1.933403 -7.796937 -1.170053,-2.700794 -7.459684 -0.4796287,-3.207584 -6.655236 0.2803626,-3.400898 -5.767836 0.8222017,-3.393494 -4.995626 1.265582,-2.887946 -6.984121 1.356337,-3.062588 -5.764181 2.332661,-3.204576 -4.828819 2.732465,-3.309168 -4.033846 3.02818,-2.287729 -6.96628 1.29529,-2.421182 -5.434828 2.07846,-2.421182 -5.434828 2.07846,-2.752187 -5.301759 1.497759,-1.730926 -6.902007 1.264546,-1.817611 -5.562135 2.070096,-2.073259 -5.416421 1.718087,-2.270924 -5.574222 1.477416,-1.277035 -6.835935 1.270536,-1.294887 -5.780441 1.90994,-1.485826 -5.52971 1.9518,-1.616657 -5.5083 2.04787,-8.880215 -8.013681 -0.5943657,-8.301 -7.597284 0.03043854,-7.885071 -6.786918 0.4685669,-7.829238 -5.882921 0.8837456,-8.072251 -5.205249 1.197667,-8.152793 -5.149189 -0.3525895,-7.965712 -3.915219 0.03039587,-7.852156 -3.128589 0.4151331,-7.780139 -2.458808 0.6967094,-8.547369 -5.074916 -0.3352723,-8.451902 -3.832802 0.4027735,-8.390653 -4.721439 0.8567774,-8.398481 -5.579526 0.9497466,-8.947416 -5.179008 -0.2111505,-8.913427 -4.02457 0.4046563,-8.812729 -4.910278 0.7383887,-8.783474 -5.726807 0.7477748,-9.384561 -5.454452 -0.04807734,-9.40714 -4.506031 0.4098613,-9.265877 -4.937263 0.6588401,-9.160594 -5.592895 0.6964468,7.710,31 1 1
