TiagoOliveira98/Thesis-Project/Difficulty_0/Motor_Task/Unity_Project/DataLogging/JointData/Logs(1646876280)_gfgggggg_Motor.csv
WRIST,THUMB_CMC,THUMB_MCP,THUMB_IP,THUMB_TIP,INDEX_FINGER_MCP,INDEX_FINGER_PIP,INDEX_FINGER_DIP,INDEX_FINGER_TIP,MIDDLE_FINGER_MCP,MIDDLE_FINGER_PIP,MIDDLE_FINGER_DIP,MIDDLE_FINGER_TIP,RING_FINGER_MCP,RING_FINGER_PIP,RING_FINGER_DIP,RING_FINGER_TIP,PINKY_MCP,PINKY_PIP,PINKY_DIP,PINKY_TIP,WRIST2,THUMB_CMC2,THUMB_MCP2,THUMB_IP2,THUMB_TIP2,INDEX_FINGER_MCP2,INDEX_FINGER_PIP2,INDEX_FINGER_DIP2,INDEX_FINGER_TIP2,MIDDLE_FINGER_MCP2,MIDDLE_FINGER_PIP2,MIDDLE_FINGER_DIP2,MIDDLE_FINGER_TIP2,RING_FINGER_MCP2,RING_FINGER_PIP2,RING_FINGER_DIP2,RING_FINGER_TIP2,PINKY_MCP2,PINKY_PIP2,PINKY_DIP2,PINKY_TIP2,Timestamp,Event
-1.890866 -7.004829 -1.562803E-05,-2.513236 -6.683609 0.3116012,-3.09043 -6.085931 0.5040144,-3.554428 -5.550819 0.6918705,-3.938732 -5.30339 0.9181582,-2.645959 -4.242734 0.1247841,-2.893847 -3.102216 0.3063347,-3.021688 -2.383091 0.4716402,-3.112766 -1.752878 0.6166316,-2.27731 -3.997179 0.1775301,-2.435576 -2.690834 0.3187114,-2.435576 -2.690834 0.3187114,-2.597555 -1.099978 0.6939021,-1.897267 -4.009883 0.2919803,-1.963577 -2.738624 0.4449539,-2.021375 -1.900805 0.6328443,-2.09867 -1.209686 0.7879769,-1.496498 -4.271412 0.4512995,-1.332232 -3.305476 0.5915215,-1.223097 -2.617147 0.7386391,-1.14575 -1.962058 0.8946078,-8.701523 -7.132778 0.0008248559,-8.044868 -6.811239 0.2916479,-7.47499 -6.098073 0.5302052,-7.073936 -5.426116 0.8187669,-6.694828 -5.057747 1.122079,-7.955691 -4.150191 0.1739868,-7.832765 -2.943698 0.3409413,-7.788993 -2.196243 0.5378498,-7.7567 -1.561054 0.6917105,-8.350878 -3.963191 0.2466472,-8.256161 -2.560795 0.3889779,-8.207829 -1.648759 0.6330191,-8.185615 -0.885036 0.8459485,-8.731707 -4.054959 0.3583829,-8.689476 -2.750769 0.5031167,-8.649827 -1.898023 0.6860136,-8.598099 -1.181148 0.8290151,-9.122526 -4.388853 0.5037532,-9.223484 -3.391282 0.6617821,-9.256914 -2.736601 0.7935088,-9.256937 -2.10919 0.8855664,0.010, 1 0
-1.862901 -7.020147 -0.002265022,-2.497131 -6.706448 0.3510318,-3.083679 -6.117679 0.5656879,-3.550076 -5.581977 0.7678053,-3.936037 -5.337448 1.01161,-2.660591 -4.273815 0.1921846,-2.89582 -3.129758 0.3857644,-3.015714 -2.412879 0.5576445,-3.105569 -1.777798 0.7102807,-2.277947 -4.020492 0.22719,-2.432271 -2.71187 0.3783726,-2.432271 -2.71187 0.3783726,-2.594151 -1.118384 0.7616512,-1.887863 -4.037927 0.3280992,-1.955846 -2.759776 0.4915336,-2.012384 -1.919508 0.6965031,-2.090851 -1.223977 0.8683041,-1.479163 -4.306247 0.4748212,-1.320768 -3.34128 0.6279402,-1.218519 -2.652243 0.7913206,-1.148569 -1.995364 0.9611664,-8.725595 -7.135534 0.04459919,-8.068046 -6.836782 0.3506525,-7.490349 -6.112265 0.594862,-7.084825 -5.431159 0.8801118,-6.706671 -5.059499 1.173187,-7.968529 -4.153153 0.2459566,-7.839567 -2.95162 0.4135795,-7.794015 -2.209096 0.6112176,-7.760544 -1.580869 0.7694533,-8.361037 -3.956189 0.3062251,-8.258763 -2.563002 0.4471653,-8.208037 -1.653933 0.6882032,-8.183534 -0.8912969 0.901714,-8.740098 -4.044175 0.4064747,-8.698393 -2.74604 0.5484951,-8.662856 -1.896918 0.7326973,-8.612143 -1.178821 0.8822548,-9.129786 -4.379646 0.5388863,-9.225465 -3.38779 0.6954954,-9.257963 -2.741406 0.826683,-9.257214 -2.126652 0.9242599,0.110, 1 0
-1.798613 -7.012102 -0.02073471,-2.43358 -6.740198 0.3373551,-3.047132 -6.118795 0.5547844,-3.53159 -5.549064 0.7619582,-3.924326 -5.267152 1.006092,-2.626287 -4.28008 0.212694,-2.861922 -3.140354 0.419796,-2.986586 -2.422534 0.5937078,-3.080746 -1.790899 0.7542178,-2.246334 -4.025413 0.2437952,-2.401372 -2.718379 0.4143568,-2.401372 -2.718379 0.4143568,-2.548229 -1.117099 0.7930688,-1.857278 -4.043157 0.3409268,-1.930058 -2.786516 0.5235443,-1.99245 -1.94826 0.7111499,-2.064933 -1.246974 0.8750781,-1.447641 -4.311666 0.4821548,-1.291489 -3.358312 0.6413028,-1.195565 -2.689451 0.7942797,-1.12792 -2.047342 0.9488222,-8.720898 -7.137273 0.03701793,-8.073314 -6.849205 0.3457896,-7.503123 -6.118631 0.5988271,-7.110119 -5.435846 0.8979627,-6.742933 -5.058131 1.212565,-7.982004 -4.151685 0.2185891,-7.852811 -2.968423 0.3927117,-7.809604 -2.213436 0.5966572,-7.780433 -1.557964 0.7476957,-8.372385 -3.956649 0.2772819,-8.270902 -2.568645 0.4090374,-8.222912 -1.651746 0.6395162,-8.196216 -0.8822389 0.8347403,-8.749515 -4.045909 0.3836592,-8.70476 -2.718846 0.518662,-8.674112 -1.859401 0.7016431,-8.629546 -1.13697 0.8416753,-9.140349 -4.383537 0.5218734,-9.239705 -3.356052 0.67736,-9.277331 -2.693967 0.8114378,-9.281242 -2.07522 0.8993007,0.210, 1 0
-1.816212 -6.998027 0.0441865,-2.447759 -6.713507 0.3755443,-3.053083 -6.085661 0.5785795,-3.547621 -5.544282 0.7809935,-3.947012 -5.30238 1.023204,-2.631415 -4.241229 0.2158385,-2.873105 -3.138954 0.4164741,-3.006093 -2.434276 0.5941252,-3.109805 -1.813091 0.7524828,-2.25177 -3.986588 0.256321,-2.397676 -2.701691 0.4141425,-2.397676 -2.701691 0.4141425,-2.54081 -1.116588 0.7716977,-1.860913 -4.010799 0.3623069,-1.923523 -2.772135 0.5348121,-1.980617 -1.936775 0.7249616,-2.049443 -1.255227 0.870824,-1.451196 -4.289545 0.5128046,-1.294444 -3.366943 0.6647607,-1.196036 -2.71187 0.809559,-1.121058 -2.0809 0.9423195,-8.723459 -7.126068 -0.05452301,-8.066645 -6.846977 0.2518036,-7.504168 -6.128414 0.5183055,-7.113981 -5.447956 0.8285008,-6.741936 -5.068361 1.1488,-7.981915 -4.168166 0.1533413,-7.845233 -2.960723 0.3550823,-7.799246 -2.195172 0.5651739,-7.766999 -1.521262 0.7130417,-8.37536 -3.974331 0.2172507,-8.274115 -2.556766 0.3777159,-8.224617 -1.639821 0.610257,-8.191421 -0.8650002 0.8002712,-8.752495 -4.058 0.3285167,-8.713675 -2.69499 0.4850029,-8.686661 -1.83491 0.671157,-8.636197 -1.104733 0.8061161,-9.142505 -4.383798 0.4669814,-9.240709 -3.322994 0.6353394,-9.280915 -2.643596 0.7675259,-9.28317 -2.007021 0.8434526,0.310, 1 0
-1.828321 -7.015034 0.07225198,-2.457922 -6.723894 0.4276711,-3.057951 -6.08196 0.6406441,-3.543403 -5.517944 0.8476669,-3.935228 -5.259113 1.093882,-2.640591 -4.251818 0.2806936,-2.878006 -3.139667 0.4875636,-3.005093 -2.434743 0.6649449,-3.104539 -1.806188 0.8257117,-2.261054 -3.997177 0.3126354,-2.41093 -2.70505 0.4719235,-2.41093 -2.70505 0.4719235,-2.555096 -1.128787 0.8287167,-1.870866 -4.021732 0.4120589,-1.930546 -2.771475 0.5892686,-1.98766 -1.940403 0.7756416,-2.057875 -1.251861 0.929211,-1.463077 -4.299526 0.5577601,-1.297254 -3.36712 0.7176066,-1.190064 -2.715249 0.8653423,-1.107235 -2.082502 1.009705,-8.7288 -7.129335 -0.01812213,-8.072695 -6.842775 0.2725877,-7.507564 -6.122301 0.5314168,-7.113012 -5.439109 0.8356244,-6.744648 -5.063962 1.151356,-7.979097 -4.16374 0.1815508,-7.841981 -2.959751 0.3715106,-7.794628 -2.207063 0.577391,-7.76212 -1.545038 0.7238878,-8.372392 -3.96788 0.2519176,-8.268746 -2.551985 0.4029765,-8.218338 -1.631264 0.6379349,-8.187397 -0.8571496 0.8289719,-8.751364 -4.055133 0.3668125,-8.708499 -2.703329 0.5155762,-8.67795 -1.844896 0.695556,-8.62978 -1.121237 0.8289694,-9.142542 -4.38612 0.5065402,-9.239313 -3.332956 0.675289,-9.276288 -2.654251 0.8100097,-9.279132 -2.01747 0.8865258,0.410, 1 0
-1.815793 -7.018537 0.06555866,-2.443104 -6.731895 0.4169075,-3.045963 -6.094348 0.6181256,-3.521206 -5.514293 0.8150616,-3.909151 -5.24436 1.052516,-2.641403 -4.262147 0.256766,-2.88425 -3.155027 0.4607002,-3.011549 -2.448228 0.6373329,-3.112334 -1.813076 0.7940383,-2.259122 -4.002494 0.2843143,-2.404022 -2.705866 0.4428716,-2.404022 -2.705866 0.4428716,-2.536428 -1.107545 0.8010737,-1.868432 -4.015272 0.3790279,-1.926936 -2.771987 0.5489782,-1.978991 -1.943106 0.7302004,-2.042162 -1.254455 0.8755945,-1.461186 -4.27551 0.5195717,-1.297685 -3.339689 0.6737241,-1.192006 -2.684094 0.8210123,-1.108457 -2.048921 0.9584255,-8.708917 -7.135295 -0.003426988,-8.04958 -6.839695 0.2868813,-7.481446 -6.123653 0.5394004,-7.086891 -5.445367 0.8383621,-6.721882 -5.07271 1.152113,-7.970295 -4.155062 0.1677264,-7.8397 -2.946585 0.3424986,-7.792925 -2.192986 0.5466837,-7.759317 -1.538292 0.6916738,-8.367305 -3.964926 0.2283309,-8.269633 -2.548938 0.359185,-8.223804 -1.63082 0.5873898,-8.197147 -0.8607726 0.7781104,-8.746852 -4.060548 0.3316608,-8.709195 -2.727557 0.4574009,-8.679088 -1.876859 0.6223177,-8.632185 -1.160464 0.7470945,-9.133766 -4.399963 0.4647982,-9.232111 -3.371234 0.6244074,-9.265142 -2.708401 0.7501899,-9.262748 -2.085857 0.8224384,0.510, 1 0
-1.825046 -7.034954 0.0733486,-2.454828 -6.723016 0.4052603,-3.049341 -6.086933 0.6107607,-3.53433 -5.524713 0.8206038,-3.927567 -5.248617 1.067929,-2.632056 -4.257238 0.2416894,-2.868435 -3.146011 0.4492173,-2.995049 -2.437348 0.624898,-3.092798 -1.803992 0.7822071,-2.256625 -4.014684 0.2879597,-2.406498 -2.730426 0.4518943,-2.406498 -2.730426 0.4518943,-2.54998 -1.137226 0.8134075,-1.870624 -4.037429 0.4047283,-1.931684 -2.786005 0.5872748,-1.989067 -1.94795 0.7750024,-2.059526 -1.249942 0.9242901,-1.465082 -4.306741 0.5668584,-1.309803 -3.353424 0.7240739,-1.209555 -2.683919 0.8766819,-1.134152 -2.037286 1.019937,-8.707726 -7.157754 0.01426569,-8.061951 -6.861507 0.3036128,-7.499837 -6.124574 0.5536355,-7.111924 -5.428531 0.8489376,-6.739518 -5.052764 1.161577,-7.976986 -4.172233 0.192185,-7.849496 -2.971208 0.3630366,-7.802891 -2.212982 0.5574238,-7.767324 -1.55384 0.7023826,-8.374105 -3.982334 0.2582369,-8.272158 -2.564986 0.3955208,-8.219198 -1.646385 0.6216282,-8.184281 -0.8778062 0.8116639,-8.754259 -4.075418 0.3675491,-8.713751 -2.729437 0.5056812,-8.679976 -1.873603 0.6837713,-8.625141 -1.152134 0.8155894,-9.142434 -4.412831 0.5057958,-9.244775 -3.364579 0.6705458,-9.2836 -2.691701 0.80784,-9.284296 -2.060973 0.8927454,0.610, 1 0
-1.798587 -7.029625 0.08361781,-2.428545 -6.738454 0.4362767,-3.033319 -6.094991 0.6468052,-3.516563 -5.519752 0.8540716,-3.913023 -5.251542 1.104939,-2.642231 -4.265766 0.278112,-2.880515 -3.15974 0.4881878,-3.005632 -2.449084 0.6697855,-3.105144 -1.814636 0.8311632,-2.258974 -4.011486 0.3098876,-2.403172 -2.720152 0.4704566,-2.403172 -2.720152 0.4704566,-2.536456 -1.125688 0.8427994,-1.866601 -4.031507 0.4104306,-1.93014 -2.790452 0.5870978,-1.985332 -1.964637 0.7761421,-2.054313 -1.277551 0.9309902,-1.456437 -4.303507 0.5564612,-1.302351 -3.374056 0.7149472,-1.199934 -2.727304 0.8609627,-1.122113 -2.101879 1.000767,-8.734984 -7.160163 0.003313593,-8.07376 -6.876314 0.2704701,-7.512867 -6.133519 0.5112205,-7.125936 -5.443117 0.8040489,-6.747861 -5.065942 1.114083,-7.985914 -4.175888 0.1664831,-7.846786 -2.985758 0.343985,-7.795777 -2.231253 0.5416408,-7.761932 -1.564817 0.6865782,-8.379291 -3.990773 0.2530769,-8.281843 -2.579687 0.390712,-8.234118 -1.659596 0.6220906,-8.204076 -0.8849864 0.8137116,-8.756791 -4.084204 0.3827029,-8.72006 -2.739999 0.5224397,-8.687008 -1.878969 0.7024432,-8.634862 -1.155057 0.836491,-9.145593 -4.418445 0.5395992,-9.247518 -3.350807 0.7135264,-9.288509 -2.661784 0.8511062,-9.294527 -2.013772 0.9302292,0.710, 1 0
-1.801622 -7.036346 0.08431413,-2.433174 -6.726167 0.4372086,-3.029373 -6.105539 0.6554006,-3.508718 -5.540445 0.8686918,-3.904222 -5.267417 1.127872,-2.626874 -4.267295 0.283821,-2.866944 -3.153205 0.4920214,-2.994365 -2.439737 0.6738007,-3.093912 -1.810155 0.8342486,-2.24632 -4.015996 0.3154339,-2.395682 -2.720242 0.4756005,-2.395682 -2.720242 0.4756005,-2.533023 -1.119911 0.8428404,-1.855019 -4.037696 0.4108578,-1.915747 -2.794059 0.5809344,-1.968359 -1.968588 0.7684687,-2.033293 -1.284523 0.9160634,-1.447818 -4.307933 0.5542631,-1.289641 -3.376384 0.7122553,-1.187767 -2.721904 0.8646878,-1.107181 -2.087887 1.005562,-8.724033 -7.153572 0.01517152,-8.071959 -6.84929 0.3276503,-7.516912 -6.123991 0.5971118,-7.132528 -5.439744 0.9090289,-6.759513 -5.061226 1.237724,-7.994635 -4.165849 0.2454102,-7.859579 -2.975943 0.4441601,-7.810497 -2.22086 0.6565552,-7.776305 -1.562599 0.8071307,-8.392772 -3.982116 0.3116715,-8.291383 -2.560216 0.4641889,-8.240664 -1.644485 0.7048566,-8.20735 -0.8802066 0.9033127,-8.773302 -4.081764 0.4217164,-8.735352 -2.730099 0.5775166,-8.70539 -1.870632 0.7694443,-8.657194 -1.144557 0.9081737,-9.163157 -4.424155 0.5624131,-9.264453 -3.374926 0.7338009,-9.302466 -2.699831 0.8709729,-9.30416 -2.071943 0.9551073,0.810, 1 0
-1.781662 -7.03116 0.06295524,-2.417691 -6.739786 0.4193497,-3.019937 -6.113759 0.6368852,-3.495468 -5.536711 0.8519375,-3.882665 -5.243631 1.104541,-2.609896 -4.268781 0.2502925,-2.850928 -3.158523 0.4546418,-2.980325 -2.458756 0.6246447,-3.083405 -1.836833 0.7738841,-2.233116 -4.017072 0.2814233,-2.388912 -2.732193 0.4492047,-2.388912 -2.732193 0.4492047,-2.540385 -1.150848 0.8125523,-1.848616 -4.037319 0.3826905,-1.921435 -2.794212 0.5655153,-1.984906 -1.972972 0.7540876,-2.059258 -1.280643 0.9077202,-1.442344 -4.302948 0.5313829,-1.286574 -3.367097 0.6880639,-1.182943 -2.714641 0.839045,-1.102886 -2.077201 0.9810759,-8.739538 -7.17177 -0.008521212,-8.082446 -6.875167 0.2932531,-7.525036 -6.159464 0.5550286,-7.132894 -5.485145 0.8580338,-6.761704 -5.10695 1.174903,-8.005459 -4.187809 0.2009707,-7.879549 -2.969383 0.3938485,-7.830078 -2.215972 0.5978965,-7.795208 -1.554542 0.7343885,-8.40545 -4.00517 0.2622925,-8.316528 -2.568728 0.4082208,-8.270868 -1.657546 0.6327115,-8.242434 -0.8943582 0.8143384,-8.785048 -4.111406 0.3653829,-8.760305 -2.755765 0.519291,-8.740784 -1.901538 0.7022108,-8.702868 -1.177813 0.8304272,-9.170276 -4.461875 0.492581,-9.263774 -3.415635 0.6745163,-9.29066 -2.744494 0.8100213,-9.283209 -2.115476 0.8869658,0.910, 1 0
-1.78998 -7.0197 0.03225439,-2.430296 -6.730722 0.377044,-3.030985 -6.114643 0.5858897,-3.51079 -5.553764 0.7916055,-3.892464 -5.270942 1.030516,-2.611115 -4.262229 0.1924828,-2.850431 -3.158018 0.3884353,-2.982692 -2.461942 0.5633376,-3.089285 -1.844076 0.714306,-2.233618 -4.011415 0.2221609,-2.382222 -2.729471 0.373372,-2.382222 -2.729471 0.373372,-2.524766 -1.153448 0.7348069,-1.846873 -4.029853 0.3225468,-1.919701 -2.795401 0.4919716,-1.980425 -1.973345 0.6779051,-2.052692 -1.287653 0.8283381,-1.440577 -4.290981 0.4692147,-1.287277 -3.363477 0.6125846,-1.183642 -2.714656 0.7564427,-1.104016 -2.080792 0.8945605,-8.724227 -7.194953 0.02856037,-8.07683 -6.884397 0.3292646,-7.528273 -6.165467 0.5821704,-7.142845 -5.485017 0.8810359,-6.77369 -5.10489 1.190725,-8.0017 -4.199418 0.2490419,-7.875581 -2.994409 0.4280649,-7.830442 -2.239229 0.6265643,-7.795917 -1.57904 0.7663823,-8.40064 -4.017886 0.3145816,-8.313929 -2.590802 0.4627973,-8.268338 -1.677068 0.701361,-8.238248 -0.9114041 0.8961987,-8.779528 -4.119808 0.4183579,-8.751822 -2.76998 0.5713134,-8.722646 -1.914575 0.7637408,-8.67627 -1.191386 0.9049499,-9.164838 -4.463399 0.5476158,-9.269293 -3.431474 0.7256323,-9.302032 -2.764635 0.8678083,-9.299929 -2.135583 0.9522476,1.010, 1 0
-1.754937 -7.040783 -0.0532477,-2.406144 -6.767826 0.2863363,-3.011469 -6.12736 0.5005354,-3.483843 -5.522582 0.7136541,-3.85842 -5.19134 0.9568102,-2.600734 -4.317039 0.121152,-2.843438 -3.194944 0.3239079,-2.977679 -2.496481 0.5062926,-3.086878 -1.868109 0.6636984,-2.226308 -4.062976 0.1582325,-2.383644 -2.768311 0.3386977,-2.383644 -2.768311 0.3386977,-2.53501 -1.177633 0.7362385,-1.842382 -4.074907 0.2672451,-1.928094 -2.832345 0.4650121,-1.997292 -2.005844 0.6647978,-2.077433 -1.307727 0.8301353,-1.436452 -4.325668 0.4166881,-1.290895 -3.380523 0.5782165,-1.197172 -2.731807 0.7278877,-1.128797 -2.101712 0.87435,-8.770315 -7.290145 0.2572951,-8.121445 -6.92679 0.5768567,-7.593731 -6.138336 0.7967366,-7.263012 -5.369409 1.070102,-6.922878 -4.901128 1.336703,-8.021981 -4.225818 0.3694768,-7.889982 -3.042727 0.4991344,-7.841792 -2.300176 0.6665372,-7.808633 -1.650948 0.7883479,-8.418352 -4.041807 0.425389,-8.344368 -2.692278 0.5016288,-8.309236 -1.861585 0.7155345,-8.293282 -1.166836 0.8760679,-8.793862 -4.135437 0.5370806,-8.77066 -2.858908 0.6424675,-8.755709 -2.077192 0.8269662,-8.727513 -1.407352 0.9647807,-9.18152 -4.467987 0.6789578,-9.274496 -3.489087 0.8328172,-9.305063 -2.861482 0.9671679,-9.306049 -2.2486 1.048351,1.110, 1 0
-1.76797 -7.039974 -0.01285791,-2.41763 -6.782823 0.3014331,-3.020382 -6.143478 0.4968874,-3.492542 -5.534505 0.7023538,-3.868313 -5.195827 0.9392407,-2.614797 -4.305328 0.09050179,-2.851729 -3.187578 0.272963,-2.985533 -2.493881 0.4406322,-3.092591 -1.877296 0.5825287,-2.240319 -4.046949 0.1386085,-2.391061 -2.757635 0.2852843,-2.391061 -2.757635 0.2852843,-2.54245 -1.171186 0.6491883,-1.855031 -4.057411 0.2564526,-1.933646 -2.82482 0.4243119,-2.003726 -2.003664 0.6109246,-2.081322 -1.318617 0.7606205,-1.445179 -4.307756 0.4186011,-1.299834 -3.36797 0.5582861,-1.208629 -2.718713 0.7039781,-1.139692 -2.091294 0.8451925,-8.789663 -7.347414 0.2973248,-8.142685 -6.926942 0.6685483,-7.634489 -6.099926 0.9178314,-7.342702 -5.267568 1.213147,-7.027827 -4.68696 1.513372,-8.054771 -4.24952 0.4041356,-7.8982 -3.086235 0.5428762,-7.847427 -2.379364 0.7035934,-7.810349 -1.742839 0.82412,-8.46244 -4.083454 0.4317205,-8.379855 -2.810878 0.4923336,-8.363299 -2.073763 0.6722111,-8.36761 -1.465571 0.8058686,-8.836672 -4.182335 0.5259516,-8.80475 -2.94453 0.6218109,-8.797994 -2.218278 0.8074048,-8.78417 -1.596222 0.9441511,-9.219827 -4.510269 0.6565077,-9.273718 -3.565313 0.802712,-9.282632 -2.979094 0.9320365,-9.264207 -2.422973 1.019754,1.210, 1 0
-1.751269 -7.035394 -0.007663098,-2.416867 -6.76226 0.2871436,-3.021463 -6.129049 0.4683853,-3.48802 -5.503614 0.6610823,-3.86421 -5.16319 0.8787186,-2.610999 -4.299682 0.0545314,-2.85255 -3.173673 0.2189636,-2.981559 -2.483818 0.372717,-3.084476 -1.86156 0.5024123,-2.231819 -4.040331 0.1005651,-2.388535 -2.743069 0.2331052,-2.388535 -2.743069 0.2331052,-2.534218 -1.171165 0.5826844,-1.846963 -4.042088 0.2193325,-1.935452 -2.797716 0.373956,-2.002732 -1.980855 0.5552227,-2.079216 -1.290252 0.7006285,-1.438305 -4.278574 0.3809221,-1.305023 -3.333467 0.5083147,-1.221283 -2.696204 0.6485115,-1.160764 -2.076515 0.7887307,-8.784298 -7.289503 -0.3369865,-8.17482 -6.847499 0.06041127,-7.759604 -5.946191 0.2997162,-7.541586 -5.111578 0.557313,-7.250896 -4.395987 0.8213034,-8.059146 -4.268716 -0.2266429,-7.920763 -3.156324 -0.09542434,-7.889878 -2.439355 0.1095853,-7.862961 -1.786895 0.2723891,-8.457669 -4.207803 -0.1993674,-8.440902 -2.99275 0.06434971,-8.441192 -2.698308 0.4393671,-8.440013 -2.724226 0.6733307,-8.821431 -4.360297 -0.1297103,-8.86538 -3.25867 0.1375865,-8.84783 -3.001462 0.4622435,-8.81183 -3.044717 0.6537631,-9.189217 -4.713697 -0.01220581,-9.279836 -3.85412 0.3140895,-9.256343 -3.632661 0.567953,-9.184239 -3.662112 0.7021862,1.310, 1 0
-1.746078 -7.069941 0.05362866,-2.399959 -6.799306 0.3742651,-3.003777 -6.141933 0.5624518,-3.466257 -5.507648 0.7631152,-3.840707 -5.157976 0.9918449,-2.590126 -4.312269 0.1473049,-2.834064 -3.189825 0.3237398,-2.970536 -2.493894 0.4814978,-3.076847 -1.867823 0.6185043,-2.212245 -4.055957 0.1890026,-2.371902 -2.761711 0.3308906,-2.371902 -2.761711 0.3308906,-2.524013 -1.169874 0.6848563,-1.829791 -4.06556 0.3036611,-1.911754 -2.82515 0.4659286,-1.984263 -2.005745 0.6500034,-2.060025 -1.312803 0.8018779,-1.426983 -4.313795 0.4645035,-1.288329 -3.370909 0.5999915,-1.204998 -2.724508 0.7456661,-1.141821 -2.094125 0.888382,-8.836002 -7.421821 -1.184469,-8.214796 -6.940668 -0.5917719,-7.833929 -6.130138 -0.1741635,-7.749798 -5.206068 0.2249739,-7.878535 -4.446426 0.5655848,-8.076248 -4.632191 -1.058285,-7.960996 -3.472253 -0.6854675,-7.909057 -2.824579 -0.3547575,-7.899835 -2.262508 -0.1515763,-8.452709 -4.592203 -1.026462,-8.440671 -3.508657 -0.2570718,-8.418252 -4.434524 0.1847447,-8.450438 -5.238306 0.2445709,-8.837558 -4.671434 -0.894303,-8.839729 -3.662487 -0.1747097,-8.779148 -4.576816 0.1744401,-8.770444 -5.373762 0.1560855,-9.249968 -4.892308 -0.7234622,-9.291085 -3.970221 -0.1952956,-9.195534 -4.445138 0.08252978,-9.142331 -5.056254 0.1093792,1.410, 1 0
-1.730216 -7.057363 -0.03177024,-2.395577 -6.7947 0.2689091,-3.004105 -6.144107 0.4538843,-3.466719 -5.522808 0.6470862,-3.834667 -5.185131 0.8696479,-2.59467 -4.3252 0.05894971,-2.831148 -3.195281 0.2378976,-2.966253 -2.498928 0.403693,-3.072521 -1.874347 0.5452985,-2.216175 -4.071473 0.1079898,-2.373014 -2.775365 0.2608533,-2.373014 -2.775365 0.2608533,-2.519626 -1.189023 0.6251816,-1.832027 -4.077087 0.2299127,-1.917003 -2.834486 0.4036025,-1.988765 -2.01069 0.5854884,-2.063622 -1.318538 0.7375822,-1.425665 -4.318684 0.3937907,-1.287636 -3.371638 0.5309008,-1.202541 -2.728366 0.6719544,-1.138784 -2.104142 0.8121791,-8.891096 -7.323986 -1.228515,-8.297452 -6.926514 -0.6538492,-7.930801 -6.156539 -0.2692429,-7.898296 -5.264476 0.07905865,-8.106326 -4.640575 0.3875401,-8.170099 -4.61091 -1.013267,-8.046227 -3.516976 -0.6357768,-8.001922 -2.926832 -0.3223345,-8.007145 -2.430772 -0.1228845,-8.562515 -4.504262 -1.00865,-8.538532 -3.433746 -0.2822574,-8.53686 -4.347922 0.1397892,-8.56951 -5.169113 0.2066052,-8.948055 -4.552806 -0.9116408,-8.954952 -3.547553 -0.2596876,-8.904543 -4.452044 0.0635885,-8.888163 -5.256785 0.04446781,-9.354476 -4.765076 -0.7829792,-9.413812 -3.857648 -0.2794646,-9.326028 -4.314119 -0.03956759,-9.257727 -4.908019 -0.0352391,1.510, 1 0
-1.735871 -7.071411 0.02983354,-2.396843 -6.784202 0.3356124,-2.999015 -6.133551 0.5191336,-3.469334 -5.513883 0.720343,-3.839357 -5.173707 0.9404194,-2.585799 -4.314733 0.1023827,-2.82943 -3.181085 0.2792206,-2.963336 -2.475719 0.4329638,-3.066101 -1.853048 0.5639621,-2.210006 -4.06498 0.1514741,-2.370614 -2.758373 0.2936101,-2.370614 -2.758373 0.2936101,-2.51292 -1.166778 0.6418588,-1.826929 -4.075693 0.2717415,-1.915765 -2.822549 0.4358935,-1.986611 -1.986038 0.6188396,-2.062132 -1.298081 0.7689248,-1.424898 -4.326132 0.4347609,-1.287663 -3.371063 0.5723825,-1.206931 -2.717088 0.7230778,-1.145234 -2.087759 0.8686032,-9.019985 -7.12248 -1.668822,-8.462431 -6.778289 -1.036776,-8.115641 -5.976493 -0.6651574,-8.131561 -5.068388 -0.3338227,-8.366737 -4.448339 -0.02737272,-8.297588 -4.57787 -1.502362,-8.186445 -3.649404 -1.080828,-8.171294 -3.066102 -0.6706325,-8.195903 -2.574029 -0.3853099,-8.69994 -4.424746 -1.506085,-8.714588 -3.409206 -0.7261486,-8.707927 -4.242778 -0.2203912,-8.728512 -5.093179 -0.0852772,-9.101505 -4.452636 -1.401361,-9.15678 -3.449705 -0.6999185,-9.103372 -4.272804 -0.3442029,-9.069647 -5.10053 -0.3504856,-9.522604 -4.649539 -1.256798,-9.626928 -3.785069 -0.7400782,-9.529359 -4.183464 -0.5056103,-9.435402 -4.812137 -0.4919471,1.610, 1 0
-1.739235 -7.060885 0.04426179,-2.406926 -6.781233 0.3364521,-3.006056 -6.133275 0.5145802,-3.464993 -5.500431 0.7078916,-3.83767 -5.148815 0.9311398,-2.588161 -4.304573 0.08143835,-2.830985 -3.176526 0.2465925,-2.96773 -2.48515 0.3980719,-3.074934 -1.865231 0.5214649,-2.212262 -4.048872 0.1296389,-2.366749 -2.741621 0.259888,-2.366749 -2.741621 0.259888,-2.515148 -1.160854 0.5985137,-1.832989 -4.053552 0.250239,-1.916258 -2.799404 0.3966109,-1.986176 -1.984546 0.5688108,-2.060874 -1.298314 0.7086341,-1.433438 -4.29323 0.4167108,-1.295111 -3.345698 0.5361868,-1.211449 -2.707055 0.6718085,-1.149061 -2.083547 0.807725,-9.082755 -7.059217 -1.829792,-8.511914 -6.787847 -1.131705,-8.153879 -6.0072 -0.7599616,-8.18521 -5.065038 -0.4501861,-8.414713 -4.423653 -0.1729933,-8.310785 -4.615652 -1.578074,-8.189602 -3.754282 -1.130896,-8.172828 -3.202155 -0.7234327,-8.178939 -2.72548 -0.4503385,-8.721257 -4.416421 -1.621002,-8.725645 -3.396385 -0.8292069,-8.745075 -4.227332 -0.3462393,-8.782714 -5.10932 -0.2434379,-9.133062 -4.423213 -1.549353,-9.184124 -3.426769 -0.7953573,-9.149527 -4.288517 -0.4277194,-9.118827 -5.155982 -0.4522904,-9.569485 -4.605333 -1.428785,-9.669964 -3.746269 -0.8598799,-9.57496 -4.165658 -0.597936,-9.476486 -4.827415 -0.5619894,1.710, 1 0
-1.748371 -7.047878 -0.06553998,-2.41359 -6.778381 0.228724,-3.021517 -6.135726 0.4143587,-3.492312 -5.520752 0.6111276,-3.862064 -5.181307 0.8322481,-2.613936 -4.330199 0.02733695,-2.852671 -3.189501 0.2116092,-2.985375 -2.492769 0.369746,-3.088826 -1.873842 0.5013478,-2.239963 -4.073148 0.083564,-2.393007 -2.755807 0.2352655,-2.393007 -2.755807 0.2352655,-2.540794 -1.155262 0.5913177,-1.854771 -4.071649 0.2100779,-1.933229 -2.811891 0.3838459,-1.999067 -1.975612 0.5634222,-2.071389 -1.284144 0.7093323,-1.449017 -4.306043 0.3752017,-1.30629 -3.339427 0.5178146,-1.219492 -2.678251 0.6599199,-1.154849 -2.044229 0.7953177,-9.198093 -7.076396 -1.735879,-8.643881 -6.88339 -0.8916106,-8.296416 -6.09234 -0.437724,-8.350382 -5.182189 -0.07735693,-8.550243 -4.529816 0.2663186,-8.413054 -4.648602 -1.110368,-8.294402 -3.919013 -0.4935652,-8.274611 -3.393138 0.03952503,-8.269694 -2.95796 0.3930354,-8.845257 -4.448799 -1.212189,-8.893577 -3.461408 -0.3433981,-8.911999 -4.230451 0.1463039,-8.927893 -5.049256 0.2815003,-9.265805 -4.46838 -1.193136,-9.356586 -3.496939 -0.3580397,-9.31253 -4.31917 0.004438281,-9.259433 -5.142623 -0.01083934,-9.7007 -4.652862 -1.11413,-9.831088 -3.77021 -0.464326,-9.74107 -4.172628 -0.173175,-9.635341 -4.806773 -0.1046941,1.810, 1 0
-1.759411 -7.067113 0.01739478,-2.432357 -6.784296 0.2911783,-3.036348 -6.126173 0.4580003,-3.502864 -5.489915 0.6493136,-3.862495 -5.121448 0.8629283,-2.613329 -4.314052 0.03738748,-2.855131 -3.17657 0.2045825,-2.992261 -2.479581 0.351807,-3.096495 -1.861961 0.4708748,-2.241223 -4.064262 0.1031343,-2.398934 -2.761303 0.2332499,-2.398934 -2.761303 0.2332499,-2.553956 -1.168619 0.5716331,-1.858277 -4.06623 0.237809,-1.939813 -2.811853 0.3896466,-2.012875 -1.976072 0.5664576,-2.088395 -1.292894 0.7023073,-1.456758 -4.306809 0.4150114,-1.314021 -3.339806 0.541417,-1.231941 -2.680464 0.6805286,-1.167266 -2.055398 0.8130342,-9.249157 -7.065887 -1.732124,-8.709243 -6.916007 -0.8496671,-8.367197 -6.154792 -0.3625518,-8.434231 -5.289222 0.02754569,-8.64379 -4.652688 0.4053311,-8.487693 -4.635314 -1.072453,-8.373304 -3.939526 -0.3737029,-8.354256 -3.460418 0.2199236,-8.355086 -3.108323 0.5878284,-8.92755 -4.438354 -1.182797,-8.983862 -3.449535 -0.2727244,-8.991987 -4.267148 0.1771433,-8.986389 -5.074877 0.2524488,-9.358348 -4.471343 -1.156277,-9.460042 -3.505287 -0.2815549,-9.401796 -4.381277 0.06126106,-9.330469 -5.191128 0.001911998,-9.798141 -4.678521 -1.069054,-9.947152 -3.798402 -0.398618,-9.847947 -4.233491 -0.1233457,-9.72274 -4.869586 -0.08898664,1.910, 1 0
-1.737206 -7.070727 0.07059554,-2.414238 -6.779623 0.3482699,-3.020327 -6.12931 0.5185633,-3.490622 -5.490633 0.7085127,-3.861067 -5.142478 0.9240249,-2.6128 -4.30772 0.08158216,-2.853399 -3.174144 0.2411071,-2.98539 -2.484437 0.3789225,-3.087875 -1.87221 0.4929459,-2.239002 -4.055274 0.1385044,-2.396925 -2.745313 0.2519102,-2.396925 -2.745313 0.2519102,-2.54928 -1.170477 0.5740381,-1.856743 -4.059103 0.2700771,-1.943966 -2.793218 0.4120202,-2.012095 -1.97137 0.582271,-2.088827 -1.287227 0.7149264,-1.450524 -4.297561 0.4457288,-1.315367 -3.334305 0.5599895,-1.229919 -2.684934 0.6979823,-1.165272 -2.056294 0.8325462,-9.416862 -7.115261 -1.703777,-8.887259 -7.061607 -0.7287452,-8.513958 -6.343124 -0.1864727,-8.574773 -5.500825 0.2178423,-8.782437 -4.858926 0.583023,-8.665857 -4.756942 -0.8080951,-8.550968 -4.116991 -0.005086184,-8.548104 -3.67979 0.6358215,-8.558315 -3.403902 1.056848,-9.128764 -4.530395 -0.9366821,-9.170772 -3.558182 0.03819287,-9.199082 -4.348068 0.5493025,-9.211934 -5.104205 0.709612,-9.574913 -4.562979 -0.9278942,-9.677166 -3.588127 -0.001468897,-9.630814 -4.438849 0.3724405,-9.565067 -5.199946 0.3641266,-10.02439 -4.774978 -0.8575171,-10.17889 -3.930836 -0.14294,-10.09147 -4.362878 0.1589255,-9.962879 -4.96289 0.2385923,2.010, 1 0
-1.737188 -7.131324 0.1839076,-2.408025 -6.848312 0.4851535,-3.0147 -6.172742 0.6664883,-3.48243 -5.525241 0.8687297,-3.856392 -5.160339 1.099416,-2.610291 -4.343407 0.215613,-2.85421 -3.206233 0.3890381,-2.988799 -2.512434 0.5388799,-3.093004 -1.895936 0.6631187,-2.231373 -4.082301 0.2700934,-2.389809 -2.774143 0.3922748,-2.389809 -2.774143 0.3922748,-2.549378 -1.196173 0.7187009,-1.847244 -4.08874 0.4014609,-1.92872 -2.819633 0.5484252,-2.002049 -2.001096 0.7197858,-2.084092 -1.312826 0.8577507,-1.44367 -4.338045 0.5799124,-1.305128 -3.377299 0.7054001,-1.223304 -2.722963 0.8496054,-1.166307 -2.089455 0.985173,-9.584702 -7.236603 -1.547621,-9.065077 -7.308298 -0.4151065,-8.681793 -6.679399 0.2491328,-8.691029 -5.838909 0.7266636,-8.905895 -5.168651 1.169601,-8.764818 -5.065574 -0.15523,-8.666246 -4.477712 0.7847939,-8.663556 -4.018056 1.511364,-8.690402 -3.707457 2.021988,-9.25248 -4.783687 -0.3354031,-9.329835 -3.77139 0.6498179,-9.336985 -4.509923 1.142715,-9.356814 -5.189548 1.399793,-9.734182 -4.810462 -0.393802,-9.852676 -3.814344 0.5749094,-9.803282 -4.692144 0.9331789,-9.750268 -5.395378 0.9746835,-10.20085 -5.041367 -0.3841069,-10.38384 -4.158012 0.4101276,-10.31927 -4.59767 0.7137382,-10.206 -5.150032 0.8381977,2.110, 1 0
-1.740927 -7.14825 0.2294667,-2.410975 -6.8546 0.5048813,-3.00676 -6.183963 0.6690363,-3.468933 -5.54347 0.8652993,-3.843349 -5.193917 1.090721,-2.600173 -4.337385 0.2091628,-2.844919 -3.207859 0.3741338,-2.982679 -2.519828 0.5204539,-3.089867 -1.907932 0.640249,-2.228509 -4.084188 0.2806206,-2.387451 -2.771739 0.394668,-2.387451 -2.771739 0.394668,-2.544429 -1.195271 0.7190101,-1.849321 -4.098695 0.4258116,-1.929968 -2.832335 0.5718438,-1.999166 -2.010585 0.7403238,-2.077005 -1.326142 0.8742132,-1.448468 -4.359096 0.6200373,-1.305312 -3.408977 0.7446744,-1.221591 -2.758533 0.8815771,-1.161646 -2.129263 1.008387,-9.65307 -7.326355 -1.386916,-9.126633 -7.425901 -0.2098386,-8.718853 -6.815197 0.4945452,-8.725701 -5.940618 0.9954296,-8.954057 -5.242324 1.462698,-8.797867 -5.190798 0.09099567,-8.689676 -4.600315 1.138612,-8.691787 -4.162685 1.903643,-8.726649 -3.849569 2.406377,-9.29507 -4.856634 -0.1126481,-9.353127 -3.877502 0.9605881,-9.364257 -4.757825 1.37094,-9.387593 -5.473208 1.536737,-9.795017 -4.840397 -0.1707226,-9.904892 -3.891025 0.8518771,-9.853985 -4.885752 1.123965,-9.803115 -5.591272 1.092395,-10.28323 -5.020604 -0.1615744,-10.45083 -4.166479 0.6493925,-10.37531 -4.758761 0.8934883,-10.26229 -5.36185 0.964157,2.210, 1 0
-1.747087 -7.174457 0.2175352,-2.417448 -6.871749 0.4918266,-3.015524 -6.189872 0.6626182,-3.480785 -5.546751 0.8595848,-3.853708 -5.201417 1.08139,-2.598596 -4.359491 0.2288448,-2.843981 -3.21847 0.4079796,-2.97539 -2.525306 0.5573847,-3.078458 -1.902637 0.679082,-2.227158 -4.113572 0.307373,-2.391236 -2.799449 0.4497919,-2.391236 -2.799449 0.4497919,-2.550722 -1.220736 0.7942005,-1.848633 -4.127589 0.4623332,-1.939025 -2.854659 0.6351743,-2.009692 -2.028657 0.8085667,-2.088641 -1.325147 0.9489389,-1.446242 -4.386186 0.6610425,-1.306877 -3.424588 0.7999157,-1.218324 -2.77519 0.9373134,-1.152248 -2.13669 1.071496,-9.73447 -7.634673 -1.010405,-9.211578 -7.67979 0.2086146,-8.789696 -7.085986 0.955725,-8.771004 -6.229262 1.506084,-9.03601 -5.534112 1.979801,-8.875322 -5.39224 0.5394021,-8.772499 -4.809448 1.741773,-8.755885 -4.459032 2.588076,-8.764435 -4.263767 3.12144,-9.379007 -5.077293 0.3311226,-9.457689 -4.122767 1.496767,-9.462291 -5.114109 1.866582,-9.455271 -5.797817 1.943098,-9.878924 -5.080925 0.2847507,-10.02913 -4.103143 1.371727,-9.98932 -5.107527 1.586403,-9.925799 -5.7411 1.497448,-10.3623 -5.28972 0.3176422,-10.59301 -4.360136 1.121126,-10.52345 -4.899739 1.343465,-10.39514 -5.444343 1.373883,2.310, 1 0
-1.747982 -7.186752 0.2339092,-2.418146 -6.880254 0.5058481,-3.016043 -6.197326 0.6724589,-3.483076 -5.547458 0.8679168,-3.85421 -5.192684 1.091442,-2.600937 -4.365144 0.223579,-2.839556 -3.233434 0.3945031,-2.974624 -2.542204 0.5505481,-3.083353 -1.91828 0.6813143,-2.229652 -4.120756 0.2981358,-2.388458 -2.815996 0.428396,-2.388458 -2.815996 0.428396,-2.548144 -1.231501 0.7759433,-1.852466 -4.139004 0.4467801,-1.939235 -2.870173 0.6056418,-2.010234 -2.0518 0.7770921,-2.090749 -1.355082 0.9137918,-1.451927 -4.39713 0.6424538,-1.307383 -3.440081 0.7687966,-1.215995 -2.795222 0.9028415,-1.147464 -2.160259 1.031857,-9.768667 -7.782804 -0.8017069,-9.243548 -7.81623 0.469927,-8.812051 -7.230231 1.251765,-8.793558 -6.392988 1.825224,-9.069717 -5.685575 2.326794,-8.898154 -5.509782 0.8302813,-8.803101 -4.944617 2.08244,-8.771196 -4.609059 2.943726,-8.765055 -4.417476 3.474651,-9.412703 -5.199213 0.6180197,-9.49342 -4.256102 1.866385,-9.506181 -5.288814 2.284515,-9.504844 -5.991729 2.382874,-9.923894 -5.203722 0.566046,-10.0647 -4.256907 1.718035,-10.02786 -5.307146 1.959275,-9.969032 -5.950098 1.874619,-10.41916 -5.408615 0.594082,-10.63503 -4.490282 1.443335,-10.56714 -5.062868 1.685285,-10.44832 -5.616975 1.720435,2.410, 1 0
-1.759416 -7.174377 0.1517676,-2.425786 -6.863454 0.454805,-3.019654 -6.200622 0.6500111,-3.480934 -5.561872 0.8638485,-3.853749 -5.203729 1.105513,-2.612003 -4.375083 0.2092171,-2.856366 -3.234476 0.3954557,-2.986876 -2.542524 0.5501509,-3.092683 -1.922828 0.6758209,-2.236904 -4.133281 0.2746045,-2.398264 -2.814929 0.4209311,-2.398264 -2.814929 0.4209311,-2.55275 -1.243446 0.7786033,-1.856631 -4.153322 0.4178429,-1.94708 -2.873322 0.5944865,-2.015369 -2.038804 0.7824261,-2.097019 -1.334058 0.93396,-1.452538 -4.417155 0.6068157,-1.318117 -3.459289 0.7513816,-1.230855 -2.809553 0.8950725,-1.169501 -2.178505 1.035366,-9.786082 -7.978559 -0.6454559,-9.264647 -7.994876 0.6596944,-8.844226 -7.399989 1.482854,-8.853075 -6.615803 2.081378,-9.143739 -5.920534 2.627318,-8.951535 -5.700222 1.153688,-8.851251 -5.152523 2.407176,-8.830519 -4.809639 3.253126,-8.846031 -4.621585 3.799817,-9.49429 -5.433936 0.943347,-9.575411 -4.484088 2.220407,-9.580157 -5.506186 2.656117,-9.578939 -6.257816 2.802562,-10.02306 -5.463105 0.888746,-10.16497 -4.503948 2.079036,-10.11464 -5.527452 2.361429,-10.05479 -6.206899 2.327127,-10.52426 -5.691803 0.9160434,-10.77015 -4.783139 1.819601,-10.7038 -5.273695 2.123481,-10.58037 -5.809762 2.221153,2.510, 1 0
-1.75224 -7.207128 0.1746266,-2.426127 -6.889193 0.4522451,-3.019119 -6.225774 0.623225,-3.484547 -5.581428 0.821901,-3.852972 -5.219091 1.045442,-2.601893 -4.39956 0.1792491,-2.845763 -3.262203 0.358075,-2.974247 -2.567661 0.5192978,-3.073261 -1.946475 0.6550032,-2.231326 -4.158204 0.2534983,-2.395057 -2.845559 0.3833396,-2.395057 -2.845559 0.3833396,-2.551681 -1.265935 0.7374806,-1.852556 -4.177637 0.4017155,-1.938565 -2.909852 0.558839,-2.007422 -2.088681 0.7311015,-2.087184 -1.396114 0.8710737,-1.456751 -4.420026 0.6152816,-1.309952 -3.468984 0.7629091,-1.221512 -2.823471 0.9083956,-1.15666 -2.199903 1.04343,-9.844811 -8.063847 -0.4034531,-9.304457 -8.101606 0.9597797,-8.856798 -7.519767 1.834446,-8.87807 -6.71855 2.469906,-9.191603 -5.985286 3.033171,-8.959403 -5.834959 1.524327,-8.880491 -5.308593 2.873802,-8.871112 -4.971099 3.779351,-8.893529 -4.759284 4.337965,-9.511827 -5.506236 1.285903,-9.611061 -4.61351 2.631444,-9.629603 -5.687526 3.05394,-9.629568 -6.423927 3.166909,-10.05392 -5.48287 1.206938,-10.20479 -4.616541 2.423354,-10.16759 -5.73243 2.625717,-10.10608 -6.387992 2.53031,-10.57733 -5.654651 1.214652,-10.81406 -4.811867 2.105531,-10.73589 -5.466945 2.328439,-10.60972 -6.056047 2.341963,2.610, 1 0
-1.743433 -7.213911 0.2045642,-2.407819 -6.910032 0.5091786,-3.008127 -6.238771 0.697155,-3.476838 -5.593551 0.903258,-3.849222 -5.237487 1.139304,-2.59279 -4.402946 0.2839952,-2.839589 -3.261679 0.4685535,-2.973311 -2.561826 0.6314355,-3.077477 -1.937025 0.7676779,-2.223138 -4.158666 0.3450566,-2.388719 -2.844388 0.4920135,-2.388719 -2.844388 0.4920135,-2.54357 -1.257782 0.8546349,-1.844851 -4.180648 0.4765737,-1.930304 -2.914855 0.6480134,-2.001844 -2.095529 0.8261076,-2.0828 -1.401811 0.97221,-1.444673 -4.443214 0.6576892,-1.301569 -3.497336 0.8025817,-1.209714 -2.851372 0.9429518,-1.139968 -2.218082 1.078255,-9.845228 -8.271511 0.02161801,-9.324176 -8.313667 1.443156,-8.866617 -7.707954 2.376993,-8.936682 -6.965831 3.052758,-9.284224 -6.25894 3.657228,-9.001442 -6.039245 2.158976,-8.939314 -5.503014 3.581934,-8.94636 -5.173889 4.527606,-8.98339 -4.967966 5.107078,-9.570278 -5.688598 1.898554,-9.695313 -4.784467 3.266243,-9.715635 -5.917156 3.639751,-9.698719 -6.725494 3.737401,-10.1368 -5.654373 1.80132,-10.319 -4.812912 3.040969,-10.29236 -5.989141 3.211881,-10.21403 -6.701303 3.122857,-10.67269 -5.82262 1.797704,-10.94634 -5.009067 2.691905,-10.86883 -5.701164 2.892472,-10.71829 -6.327459 2.908494,2.710, 1 0
-1.742603 -7.21458 0.1533837,-2.413479 -6.891694 0.4291393,-3.0084 -6.235022 0.608858,-3.473322 -5.609033 0.8152462,-3.841372 -5.254712 1.054153,-2.597327 -4.40773 0.1763852,-2.841333 -3.266246 0.3595734,-2.972516 -2.575608 0.5184535,-3.074978 -1.96243 0.6469377,-2.225766 -4.173314 0.2602168,-2.386772 -2.845374 0.3989581,-2.386772 -2.845374 0.3989581,-2.537374 -1.276528 0.7513908,-1.847937 -4.196162 0.4176128,-1.931112 -2.914401 0.5866625,-2.000835 -2.089179 0.7607816,-2.080551 -1.398628 0.9014291,-1.446419 -4.457666 0.6231515,-1.300114 -3.502467 0.7593171,-1.211738 -2.857734 0.8908299,-1.146287 -2.232131 1.013311,-9.917173 -8.356701 0.4525092,-9.384395 -8.431812 1.899722,-8.893264 -7.830564 2.879675,-9.009783 -7.133869 3.585793,-9.413017 -6.44008 4.20189,-9.071461 -6.082681 2.723866,-8.992748 -5.49144 4.202336,-9.011903 -5.143214 5.14538,-9.074733 -4.97257 5.723004,-9.671021 -5.718746 2.466145,-9.808638 -4.797281 3.903941,-9.831769 -6.03742 4.230467,-9.813599 -6.942077 4.270411,-10.25462 -5.689895 2.371632,-10.46091 -4.889298 3.670565,-10.42583 -6.145698 3.811007,-10.33825 -6.900695 3.686302,-10.78912 -5.874212 2.378888,-11.10261 -5.065019 3.30941,-11.00649 -5.806573 3.505393,-10.83164 -6.459804 3.498947,2.810, 1 0
-1.733891 -7.246536 0.2290949,-2.398932 -6.946277 0.509518,-2.996856 -6.264556 0.6743841,-3.465992 -5.609476 0.8679636,-3.838102 -5.257345 1.093106,-2.577949 -4.429812 0.2295807,-2.830791 -3.304713 0.3984428,-2.965996 -2.610778 0.5529587,-3.067764 -1.989327 0.6802858,-2.210803 -4.181428 0.3031311,-2.377698 -2.868679 0.4320133,-2.377698 -2.868679 0.4320133,-2.532385 -1.287128 0.7776449,-1.835398 -4.196954 0.4497876,-1.920751 -2.929324 0.60865,-1.995327 -2.111028 0.784269,-2.073673 -1.423322 0.921144,-1.434472 -4.449581 0.6435024,-1.28972 -3.498184 0.7785736,-1.206358 -2.855137 0.9131731,-1.143654 -2.232961 1.036099,-9.930791 -8.416096 0.4509825,-9.386265 -8.443628 1.888825,-8.922847 -7.812113 2.855358,-9.068156 -7.107793 3.555476,-9.463289 -6.420154 4.156227,-9.132877 -6.096888 2.701285,-9.053575 -5.470973 4.185388,-9.063885 -5.147358 5.127604,-9.11619 -5.031459 5.705123,-9.736824 -5.753397 2.437003,-9.904357 -4.837319 3.895528,-9.925543 -6.127464 4.185776,-9.881015 -7.075819 4.182527,-10.32602 -5.734009 2.338569,-10.56297 -4.893544 3.633805,-10.52547 -6.163698 3.731282,-10.41145 -6.946219 3.575118,-10.85934 -5.903635 2.343875,-11.19855 -5.021016 3.244715,-11.10978 -5.756889 3.414006,-10.92519 -6.42239 3.37298,2.910, 1 0
-1.698584 -7.290685 0.2533437,-2.363948 -6.940579 0.5761395,-2.96224 -6.273189 0.7736592,-3.433924 -5.62396 0.985101,-3.815152 -5.27542 1.233523,-2.553583 -4.460941 0.374888,-2.796564 -3.308265 0.5709138,-2.920043 -2.600459 0.7431737,-3.011675 -1.972113 0.8888353,-2.181102 -4.22319 0.4224435,-2.34765 -2.906002 0.5737731,-2.34765 -2.906002 0.5737731,-2.493332 -1.320256 0.9318295,-1.800104 -4.249408 0.5378218,-1.887011 -2.985118 0.7044891,-1.95818 -2.174487 0.8849663,-2.037483 -1.481632 1.030717,-1.396127 -4.510552 0.7022835,-1.262061 -3.559165 0.851782,-1.175059 -2.919362 0.9957957,-1.110531 -2.294237 1.129255,-9.972607 -8.462393 0.7155986,-9.407565 -8.538025 2.198293,-8.921239 -7.914137 3.193405,-9.083937 -7.202672 3.911614,-9.514263 -6.507188 4.517436,-9.135461 -6.158193 3.066538,-9.079956 -5.493112 4.608513,-9.124607 -5.141662 5.563145,-9.203608 -4.988101 6.127563,-9.764832 -5.771472 2.788351,-9.952045 -4.823154 4.25328,-9.970074 -6.118251 4.547084,-9.918105 -7.084498 4.538156,-10.36933 -5.724683 2.673705,-10.61574 -4.908 4.004236,-10.57617 -6.208019 4.112936,-10.45921 -7.016944 3.944101,-10.9155 -5.881824 2.668897,-11.25774 -5.015277 3.622782,-11.15807 -5.760337 3.806513,-10.96266 -6.446825 3.748558,3.010, 1 0
-1.598725 -7.343896 0.3090436,-2.267486 -7.036798 0.6281648,-2.868363 -6.34692 0.8122599,-3.348896 -5.68593 1.008391,-3.741506 -5.350349 1.253989,-2.469564 -4.518556 0.3938347,-2.70235 -3.357902 0.5589695,-2.826105 -2.639202 0.7219254,-2.91877 -2.009257 0.8702064,-2.098528 -4.261022 0.4366243,-2.269041 -2.943786 0.562222,-2.269041 -2.943786 0.562222,-2.423729 -1.369119 0.8926417,-1.718249 -4.272668 0.5411591,-1.816129 -3.018865 0.6977109,-1.902798 -2.214007 0.8764475,-1.989799 -1.529236 1.012014,-1.31315 -4.526062 0.7014421,-1.180595 -3.594751 0.8515504,-1.108692 -2.97819 0.9918811,-1.060074 -2.383873 1.118941,-9.811745 -8.497404 0.6784566,-9.280496 -8.353506 2.033292,-8.896775 -7.769989 3.01254,-8.973724 -7.101526 3.789142,-9.234271 -6.344785 4.518206,-8.950072 -5.972686 2.773998,-8.881272 -5.163558 4.280039,-8.908415 -4.875189 5.20274,-8.959097 -4.87742 5.711916,-9.554089 -5.681222 2.552218,-9.659038 -4.618211 4.037171,-9.716655 -5.777633 4.538962,-9.714051 -6.73277 4.649053,-10.1423 -5.664614 2.467903,-10.30801 -4.678254 3.75286,-10.30876 -5.86377 3.992763,-10.23201 -6.687846 3.864465,-10.70743 -5.825993 2.484015,-11.01553 -4.734853 3.478808,-10.93902 -5.346689 3.770077,-10.769 -6.069259 3.765975,3.110, 1 0
-1.548903 -7.444871 0.3621563,-2.212498 -7.125431 0.6700474,-2.809199 -6.421879 0.8396447,-3.284327 -5.728672 1.028171,-3.666367 -5.363292 1.262533,-2.399118 -4.59189 0.3932939,-2.634594 -3.42715 0.5511024,-2.753903 -2.710802 0.7016584,-2.832819 -2.080474 0.8328413,-2.028065 -4.341688 0.440787,-2.182223 -3.003615 0.5405383,-2.182223 -3.003615 0.5405383,-2.31219 -1.429543 0.8558127,-1.650095 -4.364168 0.553831,-1.724903 -3.099659 0.6837519,-1.79515 -2.298393 0.8608848,-1.867185 -1.615459 1.001515,-1.247963 -4.627618 0.7244947,-1.104198 -3.689508 0.8575225,-1.020508 -3.082759 1.001158,-0.9592018 -2.496746 1.135178,-9.685464 -8.060213 -0.2752969,-9.142768 -7.941698 0.8108393,-8.762547 -7.44778 1.635306,-8.708228 -6.705707 2.301589,-8.881792 -5.92663 2.970295,-8.746519 -5.709645 1.321043,-8.60543 -4.967109 2.573328,-8.601026 -4.493331 3.454419,-8.609461 -4.101602 4.008566,-9.279279 -5.32753 1.174129,-9.333179 -4.311641 2.394727,-9.34765 -5.338968 2.830627,-9.377701 -6.12574 2.958113,-9.81273 -5.21948 1.174918,-9.94327 -4.253273 2.177084,-9.913386 -5.329618 2.330499,-9.888169 -6.044998 2.195234,-10.34958 -5.387558 1.250057,-10.57923 -4.499295 2.036783,-10.47744 -5.049144 2.192608,-10.34419 -5.601127 2.138803,3.210, 1 0
-1.522357 -7.532495 0.45702,-2.17674 -7.194112 0.7774148,-2.759801 -6.483291 0.9581454,-3.223341 -5.779103 1.155908,-3.612211 -5.415106 1.405312,-2.365326 -4.660718 0.490095,-2.594046 -3.506492 0.6546636,-2.708079 -2.789485 0.821846,-2.786737 -2.14442 0.9673046,-1.995873 -4.401069 0.5370826,-2.147707 -3.073801 0.6483285,-2.147707 -3.073801 0.6483285,-2.276279 -1.5014 0.9927991,-1.618514 -4.425873 0.6506106,-1.687855 -3.178211 0.7897933,-1.751915 -2.388842 0.9796207,-1.823841 -1.705081 1.133608,-1.217338 -4.698514 0.820376,-1.065089 -3.781089 0.9684972,-0.9742498 -3.180841 1.116621,-0.909976 -2.595232 1.259122,-9.557948 -7.904939 -0.706629,-8.997845 -7.821319 0.3190434,-8.637689 -7.341057 1.069956,-8.581113 -6.651144 1.663144,-8.678874 -5.899683 2.259791,-8.681779 -5.585178 0.8273088,-8.53601 -4.723642 1.801015,-8.477517 -4.124327 2.566472,-8.459743 -3.704683 3.132525,-9.20437 -5.287567 0.7089183,-9.255919 -4.128778 1.809788,-9.214916 -4.818101 2.358528,-9.244887 -5.553155 2.634001,-9.712171 -5.254287 0.7069631,-9.821647 -4.09682 1.620101,-9.764652 -4.81537 1.972523,-9.748453 -5.506589 2.047398,-10.22245 -5.440578 0.7726992,-10.44987 -4.37343 1.539464,-10.38147 -4.57887 1.865093,-10.29547 -5.057134 1.9936,3.310, 1 0
-1.41289 -7.685066 0.5808023,-2.057842 -7.339527 0.9945715,-2.637827 -6.608197 1.229226,-3.093834 -5.880237 1.462384,-3.497541 -5.509046 1.750855,-2.252412 -4.781282 0.7438203,-2.472311 -3.624872 0.9286337,-2.583105 -2.915868 1.104196,-2.663625 -2.262084 1.254237,-1.87587 -4.519416 0.7416634,-2.02484 -3.173282 0.8737162,-2.02484 -3.173282 0.8737162,-2.150362 -1.582076 1.238997,-1.501625 -4.549817 0.810756,-1.565534 -3.294972 0.9676953,-1.629527 -2.508157 1.177722,-1.699797 -1.80725 1.345595,-1.102114 -4.834688 0.9412801,-0.952549 -3.92035 1.108672,-0.8605638 -3.330917 1.273408,-0.7910681 -2.748127 1.424303,-9.508343 -7.628523 -1.510886,-8.868208 -7.396076 -0.6902092,-8.462273 -6.731163 -0.1034714,-8.353009 -5.981456 0.3882585,-8.227217 -5.140687 0.9096048,-8.716452 -5.375522 -0.07866645,-8.534737 -4.233913 0.5657146,-8.463805 -3.427108 1.069311,-8.449965 -2.681271 1.456997,-9.199766 -5.239469 -0.1502004,-9.115218 -4.242797 0.6502852,-9.122149 -3.492612 1.217638,-9.151674 -2.849438 1.643552,-9.671979 -5.285851 -0.1760969,-9.638735 -4.2968 0.4599935,-9.650576 -3.634843 0.9113352,-9.651959 -3.111639 1.297467,-10.14026 -5.47063 -0.1654661,-10.25677 -4.594789 0.3302364,-10.29491 -4.117645 0.6757398,-10.29205 -3.738747 0.9592054,3.410, 1 0
-1.381867 -7.693737 0.4899019,-2.040887 -7.345695 0.9375574,-2.635662 -6.625482 1.187759,-3.099856 -5.90226 1.434954,-3.502914 -5.538457 1.744664,-2.228402 -4.804065 0.6359699,-2.450673 -3.617122 0.8187122,-2.560207 -2.898855 0.991681,-2.638304 -2.246023 1.138718,-1.842521 -4.551893 0.6013266,-1.983844 -3.18573 0.7204185,-1.983844 -3.18573 0.7204185,-2.07755 -1.580196 1.094431,-1.464789 -4.58768 0.6475911,-1.535348 -3.333147 0.778784,-1.601962 -2.547399 0.9822587,-1.671829 -1.850201 1.155155,-1.065723 -4.866575 0.7548258,-0.9246912 -3.962659 0.9044522,-0.8314452 -3.387092 1.07295,-0.7541652 -2.803832 1.232049,-9.468784 -7.403312 -0.945193,-8.784473 -7.299501 -0.08641559,-8.36507 -6.555553 0.4200153,-8.236541 -5.778464 0.8697436,-8.013871 -4.946599 1.388975,-8.629949 -4.775413 0.03141236,-8.490418 -3.766414 0.5095712,-8.43784 -3.001382 0.9836966,-8.432055 -2.339489 1.393573,-9.118795 -4.624641 -0.09027678,-9.071012 -3.722339 0.4719636,-9.10217 -3.060245 0.9846762,-9.136079 -2.594883 1.377723,-9.587668 -4.744953 -0.1180304,-9.584655 -3.827185 0.3110204,-9.626133 -3.295193 0.7517098,-9.638359 -3.001128 1.144326,-10.06098 -5.059794 -0.08272421,-10.18893 -4.223714 0.313314,-10.24785 -3.893805 0.6598366,-10.25956 -3.754582 0.9274859,3.510, 1 0
-1.408796 -7.713874 0.4697209,-2.063439 -7.413423 0.8267398,-2.664055 -6.65574 1.023275,-3.133352 -5.930702 1.231014,-3.520283 -5.569146 1.489306,-2.244746 -4.830068 0.5239446,-2.470585 -3.667558 0.7005714,-2.58333 -2.960538 0.8516366,-2.665414 -2.309684 0.9773804,-1.865387 -4.576202 0.5451064,-2.008368 -3.221106 0.6643083,-2.008368 -3.221106 0.6643083,-2.104957 -1.627738 1.03186,-1.489505 -4.608818 0.6456637,-1.559068 -3.341684 0.798381,-1.618937 -2.549798 0.9975186,-1.682363 -1.847757 1.164319,-1.08825 -4.893999 0.7962853,-0.9359455 -3.978387 0.9471473,-0.8325958 -3.395545 1.098702,-0.7468948 -2.803056 1.241563,-9.429384 -7.271972 -0.1732095,-8.684586 -7.298493 0.5533177,-8.172462 -6.590412 0.9874735,-7.88799 -5.793582 1.395455,-7.564701 -5.089399 1.837379,-8.628292 -4.387569 0.3904445,-8.477674 -3.051783 0.6800371,-8.389812 -2.164983 0.9627681,-8.325602 -1.414135 1.137263,-9.095794 -4.181722 0.3302525,-9.047605 -2.806797 0.4976036,-9.026407 -1.854981 0.752916,-9.01971 -1.0874 0.9459236,-9.558368 -4.33134 0.3380272,-9.541836 -3.006544 0.5803385,-9.549948 -2.093845 0.8777106,-9.524411 -1.324921 1.128309,-10.04387 -4.751327 0.4328929,-10.19417 -3.728374 0.6972632,-10.26392 -3.045263 0.9371176,-10.26832 -2.433565 1.098145,3.610, 1 0
-1.453957 -7.692027 0.3164617,-2.122467 -7.396945 0.6431906,-2.731607 -6.657953 0.825556,-3.196393 -5.947832 1.01944,-3.558665 -5.559658 1.258953,-2.280222 -4.842313 0.3621262,-2.503633 -3.675936 0.5279231,-2.625314 -2.976655 0.6785181,-2.714785 -2.338248 0.8019423,-1.898617 -4.597095 0.3988447,-2.033728 -3.235677 0.5221387,-2.033728 -3.235677 0.5221387,-2.134837 -1.65235 0.889524,-1.523084 -4.623051 0.5142121,-1.588061 -3.35516 0.664827,-1.651402 -2.548069 0.8507839,-1.718299 -1.845006 1.009904,-1.122847 -4.894658 0.6732541,-0.9671545 -3.964269 0.8135741,-0.862999 -3.366754 0.9453326,-0.777411 -2.769229 1.077737,-9.360707 -7.704547 0.5291121,-8.627483 -7.55002 1.109704,-8.044436 -6.768333 1.499554,-7.657962 -5.972168 1.888804,-7.301768 -5.36757 2.256755,-8.591266 -4.652478 1.129767,-8.446278 -3.212454 1.462775,-8.39109 -2.310655 1.717245,-8.365822 -1.546766 1.852594,-9.03858 -4.421731 1.109561,-8.964075 -2.811044 1.36562,-8.936378 -1.761674 1.662136,-8.943078 -0.8772225 1.902052,-9.483545 -4.541502 1.132244,-9.451957 -3.010948 1.401879,-9.441293 -2.001159 1.68811,-9.42694 -1.145277 1.91567,-9.943208 -4.928863 1.214203,-10.07394 -3.751694 1.493423,-10.12929 -3.02481 1.738319,-10.14128 -2.344743 1.919632,3.710, 1 0
-1.431621 -7.697218 0.3708287,-2.093957 -7.416761 0.7664061,-2.702477 -6.697455 0.983313,-3.168369 -5.98123 1.19724,-3.551832 -5.588108 1.455411,-2.285554 -4.857456 0.5333253,-2.507626 -3.695714 0.7131562,-2.623275 -2.989892 0.8768544,-2.706079 -2.340965 1.021969,-1.899864 -4.593218 0.5351483,-2.043313 -3.252359 0.6652561,-2.043313 -3.252359 0.6652561,-2.156634 -1.669202 1.049782,-1.51715 -4.615219 0.6096123,-1.584867 -3.362155 0.7687711,-1.646785 -2.561378 0.9699368,-1.712347 -1.870703 1.139466,-1.110615 -4.888196 0.7367014,-0.9538965 -3.966661 0.9012029,-0.8536701 -3.366464 1.059611,-0.7738476 -2.772413 1.215196,-9.284737 -7.928445 0.7653202,-8.553651 -7.730321 1.284266,-7.95755 -6.947212 1.63225,-7.549411 -6.137311 1.999134,-7.173268 -5.567125 2.340969,-8.490265 -4.800391 1.224178,-8.336623 -3.387647 1.526762,-8.275264 -2.509924 1.770463,-8.25231 -1.759161 1.913041,-8.923392 -4.561738 1.222482,-8.837662 -2.942156 1.462873,-8.802455 -1.897661 1.773896,-8.810897 -1.020892 2.005368,-9.348081 -4.670457 1.258315,-9.311411 -3.137519 1.517632,-9.290566 -2.118566 1.82214,-9.274224 -1.25454 2.048487,-9.786347 -5.06229 1.348804,-9.882948 -3.896395 1.644488,-9.914126 -3.150379 1.912962,-9.906576 -2.447164 2.109001,3.810, 1 0
-1.44738 -7.814416 0.3339454,-2.11129 -7.483089 0.6721157,-2.707084 -6.766616 0.8733029,-3.166285 -6.077941 1.081526,-3.540502 -5.698076 1.33777,-2.260897 -4.952354 0.4224287,-2.485077 -3.787565 0.5884821,-2.607735 -3.083218 0.7423202,-2.693625 -2.452722 0.8725329,-1.879256 -4.713718 0.4509325,-2.026846 -3.356872 0.5709638,-2.026846 -3.356872 0.5709638,-2.153754 -1.773727 0.9231424,-1.50252 -4.750161 0.5506126,-1.571623 -3.476512 0.7006899,-1.641541 -2.663215 0.8933224,-1.708328 -1.975317 1.05162,-1.107191 -5.02881 0.6982044,-0.9536529 -4.084261 0.8541998,-0.8610907 -3.475254 1.002662,-0.788619 -2.882362 1.144903,-9.286846 -8.184244 1.177287,-8.569823 -7.830535 1.566123,-7.96349 -7.007164 1.882995,-7.549583 -6.183101 2.241316,-7.15877 -5.631858 2.586443,-8.477658 -4.889582 1.488974,-8.324047 -3.460861 1.719713,-8.268981 -2.580997 1.945161,-8.238792 -1.837595 2.096149,-8.920936 -4.686615 1.53058,-8.817005 -3.018886 1.74162,-8.771718 -1.988497 2.017987,-8.771989 -1.13552 2.238165,-9.353176 -4.795022 1.610781,-9.29483 -3.225324 1.80344,-9.24947 -2.233951 2.023669,-9.20948 -1.416824 2.198663,-9.796824 -5.173577 1.726554,-9.880226 -3.963331 1.9395,-9.897322 -3.196826 2.127546,-9.892359 -2.48742 2.265635,3.910, 1 0
-1.483082 -8.120745 0.04318741,-2.107615 -7.966444 0.7995386,-2.609238 -7.511587 1.286789,-2.95094 -6.942325 1.663134,-3.18059 -6.535221 1.995722,-2.229599 -5.426044 0.8653311,-2.423228 -4.177312 1.132758,-2.533286 -3.458639 1.343733,-2.629077 -2.842725 1.522418,-1.813671 -5.159642 0.6948769,-1.95606 -3.702117 0.9376634,-1.95606 -3.702117 0.9376634,-2.124631 -2.054092 1.429044,-1.434081 -5.213418 0.5877402,-1.515857 -3.844081 0.7868053,-1.59586 -2.990176 1.029982,-1.681135 -2.264682 1.269739,-1.055364 -5.507985 0.543834,-0.895412 -4.487657 0.7110122,-0.8043451 -3.842335 0.8994035,-0.7593045 -3.210511 1.101347,-9.264483 -8.548496 0.6261183,-8.512614 -8.340561 0.7952533,-7.940802 -7.528366 1.031397,-7.553421 -6.627927 1.282119,-7.218786 -6.027366 1.466825,-8.53522 -5.447931 0.945208,-8.357412 -3.824708 1.093605,-8.314111 -2.896242 1.209844,-8.297575 -2.178405 1.285131,-8.984451 -5.198567 0.9479282,-8.828998 -3.303226 1.129835,-8.801126 -2.235373 1.278145,-8.826067 -1.413246 1.354526,-9.409923 -5.264203 0.9380203,-9.312636 -3.467746 1.049171,-9.274194 -2.415968 1.149894,-9.250108 -1.601722 1.236097,-9.816903 -5.625374 0.9113607,-9.875762 -4.303543 1.009701,-9.89337 -3.531648 1.131672,-9.889175 -2.872626 1.199492,4.010, 1 0
-1.332677 -12.51715 2.407241,-2.280006 -11.88883 2.77036,-2.807072 -10.72463 3.01231,-3.087889 -9.490107 3.125799,-3.307796 -8.505878 3.213227,-2.035798 -9.040258 3.379591,-2.129496 -7.035173 3.54751,-2.225751 -5.966968 3.529644,-2.297694 -5.157724 3.488154,-1.521873 -8.879604 3.187321,-1.638858 -6.679492 3.488091,-1.638858 -6.679492 3.488091,-1.815475 -4.435189 3.481214,-1.089292 -8.964075 2.975929,-1.151116 -6.893943 3.216738,-1.263171 -5.710586 3.234735,-1.30528 -4.803958 3.249827,-0.7228394 -9.263012 2.755333,-0.6711993 -7.657939 2.984502,-0.6952591 -6.766637 3.101062,-0.6805668 -6.01292 3.160331,-9.23309 -12.5622 1.46209,-8.425909 -12.02337 1.931048,-7.9468 -10.79749 2.323147,-7.657593 -9.611656 2.688459,-7.367762 -8.595263 3.087888,-8.630021 -9.149324 2.215779,-8.517348 -7.404159 2.553306,-8.466264 -6.215221 2.824883,-8.434439 -5.247727 3.009163,-9.105385 -9.022188 2.187505,-9.007146 -7.097837 2.599665,-8.966622 -5.783041 2.871858,-8.9265 -4.715835 3.088711,-9.526022 -9.113811 2.1538,-9.491094 -7.266719 2.451566,-9.458399 -6.041728 2.669362,-9.395563 -5.053392 2.856921,-9.912799 -9.42754 2.140576,-9.987202 -7.918445 2.38597,-10.00232 -6.976971 2.567043,-9.964037 -6.140918 2.705849,4.110, 1 0
-1.332677 -12.51715 2.407241,-2.280006 -11.88883 2.77036,-2.807072 -10.72463 3.01231,-3.087889 -9.490107 3.125799,-3.307796 -8.505878 3.213227,-2.035798 -9.040258 3.379591,-2.129496 -7.035173 3.54751,-2.225751 -5.966968 3.529644,-2.297694 -5.157724 3.488154,-1.521873 -8.879604 3.187321,-1.638858 -6.679492 3.488091,-1.638858 -6.679492 3.488091,-1.815475 -4.435189 3.481214,-1.089292 -8.964075 2.975929,-1.151116 -6.893943 3.216738,-1.263171 -5.710586 3.234735,-1.30528 -4.803958 3.249827,-0.7228394 -9.263012 2.755333,-0.6711993 -7.657939 2.984502,-0.6952591 -6.766637 3.101062,-0.6805668 -6.01292 3.160331,-9.23309 -12.5622 1.46209,-8.425909 -12.02337 1.931048,-7.9468 -10.79749 2.323147,-7.657593 -9.611656 2.688459,-7.367762 -8.595263 3.087888,-8.630021 -9.149324 2.215779,-8.517348 -7.404159 2.553306,-8.466264 -6.215221 2.824883,-8.434439 -5.247727 3.009163,-9.105385 -9.022188 2.187505,-9.007146 -7.097837 2.599665,-8.966622 -5.783041 2.871858,-8.9265 -4.715835 3.088711,-9.526022 -9.113811 2.1538,-9.491094 -7.266719 2.451566,-9.458399 -6.041728 2.669362,-9.395563 -5.053392 2.856921,-9.912799 -9.42754 2.140576,-9.987202 -7.918445 2.38597,-10.00232 -6.976971 2.567043,-9.964037 -6.140918 2.705849,4.210, 1 0
-1.332677 -12.51715 2.407241,-2.280006 -11.88883 2.77036,-2.807072 -10.72463 3.01231,-3.087889 -9.490107 3.125799,-3.307796 -8.505878 3.213227,-2.035798 -9.040258 3.379591,-2.129496 -7.035173 3.54751,-2.225751 -5.966968 3.529644,-2.297694 -5.157724 3.488154,-1.521873 -8.879604 3.187321,-1.638858 -6.679492 3.488091,-1.638858 -6.679492 3.488091,-1.815475 -4.435189 3.481214,-1.089292 -8.964075 2.975929,-1.151116 -6.893943 3.216738,-1.263171 -5.710586 3.234735,-1.30528 -4.803958 3.249827,-0.7228394 -9.263012 2.755333,-0.6711993 -7.657939 2.984502,-0.6952591 -6.766637 3.101062,-0.6805668 -6.01292 3.160331,-9.23309 -12.5622 1.46209,-8.425909 -12.02337 1.931048,-7.9468 -10.79749 2.323147,-7.657593 -9.611656 2.688459,-7.367762 -8.595263 3.087888,-8.630021 -9.149324 2.215779,-8.517348 -7.404159 2.553306,-8.466264 -6.215221 2.824883,-8.434439 -5.247727 3.009163,-9.105385 -9.022188 2.187505,-9.007146 -7.097837 2.599665,-8.966622 -5.783041 2.871858,-8.9265 -4.715835 3.088711,-9.526022 -9.113811 2.1538,-9.491094 -7.266719 2.451566,-9.458399 -6.041728 2.669362,-9.395563 -5.053392 2.856921,-9.912799 -9.42754 2.140576,-9.987202 -7.918445 2.38597,-10.00232 -6.976971 2.567043,-9.964037 -6.140918 2.705849,4.310, 1 0
-1.332677 -12.51715 2.407241,-2.280006 -11.88883 2.77036,-2.807072 -10.72463 3.01231,-3.087889 -9.490107 3.125799,-3.307796 -8.505878 3.213227,-2.035798 -9.040258 3.379591,-2.129496 -7.035173 3.54751,-2.225751 -5.966968 3.529644,-2.297694 -5.157724 3.488154,-1.521873 -8.879604 3.187321,-1.638858 -6.679492 3.488091,-1.638858 -6.679492 3.488091,-1.815475 -4.435189 3.481214,-1.089292 -8.964075 2.975929,-1.151116 -6.893943 3.216738,-1.263171 -5.710586 3.234735,-1.30528 -4.803958 3.249827,-0.7228394 -9.263012 2.755333,-0.6711993 -7.657939 2.984502,-0.6952591 -6.766637 3.101062,-0.6805668 -6.01292 3.160331,-9.23309 -12.5622 1.46209,-8.425909 -12.02337 1.931048,-7.9468 -10.79749 2.323147,-7.657593 -9.611656 2.688459,-7.367762 -8.595263 3.087888,-8.630021 -9.149324 2.215779,-8.517348 -7.404159 2.553306,-8.466264 -6.215221 2.824883,-8.434439 -5.247727 3.009163,-9.105385 -9.022188 2.187505,-9.007146 -7.097837 2.599665,-8.966622 -5.783041 2.871858,-8.9265 -4.715835 3.088711,-9.526022 -9.113811 2.1538,-9.491094 -7.266719 2.451566,-9.458399 -6.041728 2.669362,-9.395563 -5.053392 2.856921,-9.912799 -9.42754 2.140576,-9.987202 -7.918445 2.38597,-10.00232 -6.976971 2.567043,-9.964037 -6.140918 2.705849,4.410, 1 0
-1.332677 -12.51715 2.407241,-2.280006 -11.88883 2.77036,-2.807072 -10.72463 3.01231,-3.087889 -9.490107 3.125799,-3.307796 -8.505878 3.213227,-2.035798 -9.040258 3.379591,-2.129496 -7.035173 3.54751,-2.225751 -5.966968 3.529644,-2.297694 -5.157724 3.488154,-1.521873 -8.879604 3.187321,-1.638858 -6.679492 3.488091,-1.638858 -6.679492 3.488091,-1.815475 -4.435189 3.481214,-1.089292 -8.964075 2.975929,-1.151116 -6.893943 3.216738,-1.263171 -5.710586 3.234735,-1.30528 -4.803958 3.249827,-0.7228394 -9.263012 2.755333,-0.6711993 -7.657939 2.984502,-0.6952591 -6.766637 3.101062,-0.6805668 -6.01292 3.160331,-9.23309 -12.5622 1.46209,-8.425909 -12.02337 1.931048,-7.9468 -10.79749 2.323147,-7.657593 -9.611656 2.688459,-7.367762 -8.595263 3.087888,-8.630021 -9.149324 2.215779,-8.517348 -7.404159 2.553306,-8.466264 -6.215221 2.824883,-8.434439 -5.247727 3.009163,-9.105385 -9.022188 2.187505,-9.007146 -7.097837 2.599665,-8.966622 -5.783041 2.871858,-8.9265 -4.715835 3.088711,-9.526022 -9.113811 2.1538,-9.491094 -7.266719 2.451566,-9.458399 -6.041728 2.669362,-9.395563 -5.053392 2.856921,-9.912799 -9.42754 2.140576,-9.987202 -7.918445 2.38597,-10.00232 -6.976971 2.567043,-9.964037 -6.140918 2.705849,4.510, 1 0
-1.332677 -12.51715 2.407241,-2.280006 -11.88883 2.77036,-2.807072 -10.72463 3.01231,-3.087889 -9.490107 3.125799,-3.307796 -8.505878 3.213227,-2.035798 -9.040258 3.379591,-2.129496 -7.035173 3.54751,-2.225751 -5.966968 3.529644,-2.297694 -5.157724 3.488154,-1.521873 -8.879604 3.187321,-1.638858 -6.679492 3.488091,-1.638858 -6.679492 3.488091,-1.815475 -4.435189 3.481214,-1.089292 -8.964075 2.975929,-1.151116 -6.893943 3.216738,-1.263171 -5.710586 3.234735,-1.30528 -4.803958 3.249827,-0.7228394 -9.263012 2.755333,-0.6711993 -7.657939 2.984502,-0.6952591 -6.766637 3.101062,-0.6805668 -6.01292 3.160331,-9.23309 -12.5622 1.46209,-8.425909 -12.02337 1.931048,-7.9468 -10.79749 2.323147,-7.657593 -9.611656 2.688459,-7.367762 -8.595263 3.087888,-8.630021 -9.149324 2.215779,-8.517348 -7.404159 2.553306,-8.466264 -6.215221 2.824883,-8.434439 -5.247727 3.009163,-9.105385 -9.022188 2.187505,-9.007146 -7.097837 2.599665,-8.966622 -5.783041 2.871858,-8.9265 -4.715835 3.088711,-9.526022 -9.113811 2.1538,-9.491094 -7.266719 2.451566,-9.458399 -6.041728 2.669362,-9.395563 -5.053392 2.856921,-9.912799 -9.42754 2.140576,-9.987202 -7.918445 2.38597,-10.00232 -6.976971 2.567043,-9.964037 -6.140918 2.705849,4.610, 1 0
-1.332677 -12.51715 2.407241,-2.280006 -11.88883 2.77036,-2.807072 -10.72463 3.01231,-3.087889 -9.490107 3.125799,-3.307796 -8.505878 3.213227,-2.035798 -9.040258 3.379591,-2.129496 -7.035173 3.54751,-2.225751 -5.966968 3.529644,-2.297694 -5.157724 3.488154,-1.521873 -8.879604 3.187321,-1.638858 -6.679492 3.488091,-1.638858 -6.679492 3.488091,-1.815475 -4.435189 3.481214,-1.089292 -8.964075 2.975929,-1.151116 -6.893943 3.216738,-1.263171 -5.710586 3.234735,-1.30528 -4.803958 3.249827,-0.7228394 -9.263012 2.755333,-0.6711993 -7.657939 2.984502,-0.6952591 -6.766637 3.101062,-0.6805668 -6.01292 3.160331,-9.23309 -12.5622 1.46209,-8.425909 -12.02337 1.931048,-7.9468 -10.79749 2.323147,-7.657593 -9.611656 2.688459,-7.367762 -8.595263 3.087888,-8.630021 -9.149324 2.215779,-8.517348 -7.404159 2.553306,-8.466264 -6.215221 2.824883,-8.434439 -5.247727 3.009163,-9.105385 -9.022188 2.187505,-9.007146 -7.097837 2.599665,-8.966622 -5.783041 2.871858,-8.9265 -4.715835 3.088711,-9.526022 -9.113811 2.1538,-9.491094 -7.266719 2.451566,-9.458399 -6.041728 2.669362,-9.395563 -5.053392 2.856921,-9.912799 -9.42754 2.140576,-9.987202 -7.918445 2.38597,-10.00232 -6.976971 2.567043,-9.964037 -6.140918 2.705849,4.710, 1 0
-1.332677 -12.51715 2.407241,-2.280006 -11.88883 2.77036,-2.807072 -10.72463 3.01231,-3.087889 -9.490107 3.125799,-3.307796 -8.505878 3.213227,-2.035798 -9.040258 3.379591,-2.129496 -7.035173 3.54751,-2.225751 -5.966968 3.529644,-2.297694 -5.157724 3.488154,-1.521873 -8.879604 3.187321,-1.638858 -6.679492 3.488091,-1.638858 -6.679492 3.488091,-1.815475 -4.435189 3.481214,-1.089292 -8.964075 2.975929,-1.151116 -6.893943 3.216738,-1.263171 -5.710586 3.234735,-1.30528 -4.803958 3.249827,-0.7228394 -9.263012 2.755333,-0.6711993 -7.657939 2.984502,-0.6952591 -6.766637 3.101062,-0.6805668 -6.01292 3.160331,-9.23309 -12.5622 1.46209,-8.425909 -12.02337 1.931048,-7.9468 -10.79749 2.323147,-7.657593 -9.611656 2.688459,-7.367762 -8.595263 3.087888,-8.630021 -9.149324 2.215779,-8.517348 -7.404159 2.553306,-8.466264 -6.215221 2.824883,-8.434439 -5.247727 3.009163,-9.105385 -9.022188 2.187505,-9.007146 -7.097837 2.599665,-8.966622 -5.783041 2.871858,-8.9265 -4.715835 3.088711,-9.526022 -9.113811 2.1538,-9.491094 -7.266719 2.451566,-9.458399 -6.041728 2.669362,-9.395563 -5.053392 2.856921,-9.912799 -9.42754 2.140576,-9.987202 -7.918445 2.38597,-10.00232 -6.976971 2.567043,-9.964037 -6.140918 2.705849,4.810, 1 0
-1.332677 -12.51715 2.407241,-2.280006 -11.88883 2.77036,-2.807072 -10.72463 3.01231,-3.087889 -9.490107 3.125799,-3.307796 -8.505878 3.213227,-2.035798 -9.040258 3.379591,-2.129496 -7.035173 3.54751,-2.225751 -5.966968 3.529644,-2.297694 -5.157724 3.488154,-1.521873 -8.879604 3.187321,-1.638858 -6.679492 3.488091,-1.638858 -6.679492 3.488091,-1.815475 -4.435189 3.481214,-1.089292 -8.964075 2.975929,-1.151116 -6.893943 3.216738,-1.263171 -5.710586 3.234735,-1.30528 -4.803958 3.249827,-0.7228394 -9.263012 2.755333,-0.6711993 -7.657939 2.984502,-0.6952591 -6.766637 3.101062,-0.6805668 -6.01292 3.160331,-9.23309 -12.5622 1.46209,-8.425909 -12.02337 1.931048,-7.9468 -10.79749 2.323147,-7.657593 -9.611656 2.688459,-7.367762 -8.595263 3.087888,-8.630021 -9.149324 2.215779,-8.517348 -7.404159 2.553306,-8.466264 -6.215221 2.824883,-8.434439 -5.247727 3.009163,-9.105385 -9.022188 2.187505,-9.007146 -7.097837 2.599665,-8.966622 -5.783041 2.871858,-8.9265 -4.715835 3.088711,-9.526022 -9.113811 2.1538,-9.491094 -7.266719 2.451566,-9.458399 -6.041728 2.669362,-9.395563 -5.053392 2.856921,-9.912799 -9.42754 2.140576,-9.987202 -7.918445 2.38597,-10.00232 -6.976971 2.567043,-9.964037 -6.140918 2.705849,4.910, 1 0
-1.332677 -12.51715 2.407241,-2.280006 -11.88883 2.77036,-2.807072 -10.72463 3.01231,-3.087889 -9.490107 3.125799,-3.307796 -8.505878 3.213227,-2.035798 -9.040258 3.379591,-2.129496 -7.035173 3.54751,-2.225751 -5.966968 3.529644,-2.297694 -5.157724 3.488154,-1.521873 -8.879604 3.187321,-1.638858 -6.679492 3.488091,-1.638858 -6.679492 3.488091,-1.815475 -4.435189 3.481214,-1.089292 -8.964075 2.975929,-1.151116 -6.893943 3.216738,-1.263171 -5.710586 3.234735,-1.30528 -4.803958 3.249827,-0.7228394 -9.263012 2.755333,-0.6711993 -7.657939 2.984502,-0.6952591 -6.766637 3.101062,-0.6805668 -6.01292 3.160331,-9.23309 -12.5622 1.46209,-8.425909 -12.02337 1.931048,-7.9468 -10.79749 2.323147,-7.657593 -9.611656 2.688459,-7.367762 -8.595263 3.087888,-8.630021 -9.149324 2.215779,-8.517348 -7.404159 2.553306,-8.466264 -6.215221 2.824883,-8.434439 -5.247727 3.009163,-9.105385 -9.022188 2.187505,-9.007146 -7.097837 2.599665,-8.966622 -5.783041 2.871858,-8.9265 -4.715835 3.088711,-9.526022 -9.113811 2.1538,-9.491094 -7.266719 2.451566,-9.458399 -6.041728 2.669362,-9.395563 -5.053392 2.856921,-9.912799 -9.42754 2.140576,-9.987202 -7.918445 2.38597,-10.00232 -6.976971 2.567043,-9.964037 -6.140918 2.705849,5.010, 1 0
-1.332677 -12.51715 2.407241,-2.280006 -11.88883 2.77036,-2.807072 -10.72463 3.01231,-3.087889 -9.490107 3.125799,-3.307796 -8.505878 3.213227,-2.035798 -9.040258 3.379591,-2.129496 -7.035173 3.54751,-2.225751 -5.966968 3.529644,-2.297694 -5.157724 3.488154,-1.521873 -8.879604 3.187321,-1.638858 -6.679492 3.488091,-1.638858 -6.679492 3.488091,-1.815475 -4.435189 3.481214,-1.089292 -8.964075 2.975929,-1.151116 -6.893943 3.216738,-1.263171 -5.710586 3.234735,-1.30528 -4.803958 3.249827,-0.7228394 -9.263012 2.755333,-0.6711993 -7.657939 2.984502,-0.6952591 -6.766637 3.101062,-0.6805668 -6.01292 3.160331,-9.23309 -12.5622 1.46209,-8.425909 -12.02337 1.931048,-7.9468 -10.79749 2.323147,-7.657593 -9.611656 2.688459,-7.367762 -8.595263 3.087888,-8.630021 -9.149324 2.215779,-8.517348 -7.404159 2.553306,-8.466264 -6.215221 2.824883,-8.434439 -5.247727 3.009163,-9.105385 -9.022188 2.187505,-9.007146 -7.097837 2.599665,-8.966622 -5.783041 2.871858,-8.9265 -4.715835 3.088711,-9.526022 -9.113811 2.1538,-9.491094 -7.266719 2.451566,-9.458399 -6.041728 2.669362,-9.395563 -5.053392 2.856921,-9.912799 -9.42754 2.140576,-9.987202 -7.918445 2.38597,-10.00232 -6.976971 2.567043,-9.964037 -6.140918 2.705849,5.110, 1 0
-1.332677 -12.51715 2.407241,-2.280006 -11.88883 2.77036,-2.807072 -10.72463 3.01231,-3.087889 -9.490107 3.125799,-3.307796 -8.505878 3.213227,-2.035798 -9.040258 3.379591,-2.129496 -7.035173 3.54751,-2.225751 -5.966968 3.529644,-2.297694 -5.157724 3.488154,-1.521873 -8.879604 3.187321,-1.638858 -6.679492 3.488091,-1.638858 -6.679492 3.488091,-1.815475 -4.435189 3.481214,-1.089292 -8.964075 2.975929,-1.151116 -6.893943 3.216738,-1.263171 -5.710586 3.234735,-1.30528 -4.803958 3.249827,-0.7228394 -9.263012 2.755333,-0.6711993 -7.657939 2.984502,-0.6952591 -6.766637 3.101062,-0.6805668 -6.01292 3.160331,-9.23309 -12.5622 1.46209,-8.425909 -12.02337 1.931048,-7.9468 -10.79749 2.323147,-7.657593 -9.611656 2.688459,-7.367762 -8.595263 3.087888,-8.630021 -9.149324 2.215779,-8.517348 -7.404159 2.553306,-8.466264 -6.215221 2.824883,-8.434439 -5.247727 3.009163,-9.105385 -9.022188 2.187505,-9.007146 -7.097837 2.599665,-8.966622 -5.783041 2.871858,-8.9265 -4.715835 3.088711,-9.526022 -9.113811 2.1538,-9.491094 -7.266719 2.451566,-9.458399 -6.041728 2.669362,-9.395563 -5.053392 2.856921,-9.912799 -9.42754 2.140576,-9.987202 -7.918445 2.38597,-10.00232 -6.976971 2.567043,-9.964037 -6.140918 2.705849,5.210, 1 0
-1.332677 -12.51715 2.407241,-2.280006 -11.88883 2.77036,-2.807072 -10.72463 3.01231,-3.087889 -9.490107 3.125799,-3.307796 -8.505878 3.213227,-2.035798 -9.040258 3.379591,-2.129496 -7.035173 3.54751,-2.225751 -5.966968 3.529644,-2.297694 -5.157724 3.488154,-1.521873 -8.879604 3.187321,-1.638858 -6.679492 3.488091,-1.638858 -6.679492 3.488091,-1.815475 -4.435189 3.481214,-1.089292 -8.964075 2.975929,-1.151116 -6.893943 3.216738,-1.263171 -5.710586 3.234735,-1.30528 -4.803958 3.249827,-0.7228394 -9.263012 2.755333,-0.6711993 -7.657939 2.984502,-0.6952591 -6.766637 3.101062,-0.6805668 -6.01292 3.160331,-9.23309 -12.5622 1.46209,-8.425909 -12.02337 1.931048,-7.9468 -10.79749 2.323147,-7.657593 -9.611656 2.688459,-7.367762 -8.595263 3.087888,-8.630021 -9.149324 2.215779,-8.517348 -7.404159 2.553306,-8.466264 -6.215221 2.824883,-8.434439 -5.247727 3.009163,-9.105385 -9.022188 2.187505,-9.007146 -7.097837 2.599665,-8.966622 -5.783041 2.871858,-8.9265 -4.715835 3.088711,-9.526022 -9.113811 2.1538,-9.491094 -7.266719 2.451566,-9.458399 -6.041728 2.669362,-9.395563 -5.053392 2.856921,-9.912799 -9.42754 2.140576,-9.987202 -7.918445 2.38597,-10.00232 -6.976971 2.567043,-9.964037 -6.140918 2.705849,5.310, 1 0
-1.332677 -12.51715 2.407241,-2.280006 -11.88883 2.77036,-2.807072 -10.72463 3.01231,-3.087889 -9.490107 3.125799,-3.307796 -8.505878 3.213227,-2.035798 -9.040258 3.379591,-2.129496 -7.035173 3.54751,-2.225751 -5.966968 3.529644,-2.297694 -5.157724 3.488154,-1.521873 -8.879604 3.187321,-1.638858 -6.679492 3.488091,-1.638858 -6.679492 3.488091,-1.815475 -4.435189 3.481214,-1.089292 -8.964075 2.975929,-1.151116 -6.893943 3.216738,-1.263171 -5.710586 3.234735,-1.30528 -4.803958 3.249827,-0.7228394 -9.263012 2.755333,-0.6711993 -7.657939 2.984502,-0.6952591 -6.766637 3.101062,-0.6805668 -6.01292 3.160331,-9.23309 -12.5622 1.46209,-8.425909 -12.02337 1.931048,-7.9468 -10.79749 2.323147,-7.657593 -9.611656 2.688459,-7.367762 -8.595263 3.087888,-8.630021 -9.149324 2.215779,-8.517348 -7.404159 2.553306,-8.466264 -6.215221 2.824883,-8.434439 -5.247727 3.009163,-9.105385 -9.022188 2.187505,-9.007146 -7.097837 2.599665,-8.966622 -5.783041 2.871858,-8.9265 -4.715835 3.088711,-9.526022 -9.113811 2.1538,-9.491094 -7.266719 2.451566,-9.458399 -6.041728 2.669362,-9.395563 -5.053392 2.856921,-9.912799 -9.42754 2.140576,-9.987202 -7.918445 2.38597,-10.00232 -6.976971 2.567043,-9.964037 -6.140918 2.705849,5.410, 1 0
-1.332677 -12.51715 2.407241,-2.280006 -11.88883 2.77036,-2.807072 -10.72463 3.01231,-3.087889 -9.490107 3.125799,-3.307796 -8.505878 3.213227,-2.035798 -9.040258 3.379591,-2.129496 -7.035173 3.54751,-2.225751 -5.966968 3.529644,-2.297694 -5.157724 3.488154,-1.521873 -8.879604 3.187321,-1.638858 -6.679492 3.488091,-1.638858 -6.679492 3.488091,-1.815475 -4.435189 3.481214,-1.089292 -8.964075 2.975929,-1.151116 -6.893943 3.216738,-1.263171 -5.710586 3.234735,-1.30528 -4.803958 3.249827,-0.7228394 -9.263012 2.755333,-0.6711993 -7.657939 2.984502,-0.6952591 -6.766637 3.101062,-0.6805668 -6.01292 3.160331,-9.23309 -12.5622 1.46209,-8.425909 -12.02337 1.931048,-7.9468 -10.79749 2.323147,-7.657593 -9.611656 2.688459,-7.367762 -8.595263 3.087888,-8.630021 -9.149324 2.215779,-8.517348 -7.404159 2.553306,-8.466264 -6.215221 2.824883,-8.434439 -5.247727 3.009163,-9.105385 -9.022188 2.187505,-9.007146 -7.097837 2.599665,-8.966622 -5.783041 2.871858,-8.9265 -4.715835 3.088711,-9.526022 -9.113811 2.1538,-9.491094 -7.266719 2.451566,-9.458399 -6.041728 2.669362,-9.395563 -5.053392 2.856921,-9.912799 -9.42754 2.140576,-9.987202 -7.918445 2.38597,-10.00232 -6.976971 2.567043,-9.964037 -6.140918 2.705849,5.510, 1 0
0.4960375 -12.51715 1.47017,-1.118007 -11.34441 2.405833,-1.820652 -10.41247 2.74497,-2.156882 -8.622677 3.070112,-2.416645 -7.295155 3.205872,-0.4896975 -8.865322 3.071199,-1.295448 -6.539501 3.271933,-1.34713 -4.879478 3.623811,-1.546978 -3.735012 3.625263,0.4546108 -8.407923 2.911373,-0.5904298 -5.791264 3.369353,-0.5904298 -5.791264 3.369353,-0.7063503 -2.728067 3.63927,1.396828 -9.547537 2.939979,0.3942676 -6.625741 3.358686,0.3580332 -4.417558 3.356544,0.1582661 -3.32456 3.285241,2.190507 -10.02924 2.50683,1.644306 -8.172543 3.192309,1.374604 -6.674991 3.376037,1.217182 -5.274831 3.537381,-9.23309 -12.5622 1.46209,-6.47152 -12.02337 1.241928,-4.543079 -11.22034 2.137576,-2.279654 -9.683149 2.567939,-2.508553 -8.061197 3.06593,-2.800086 -8.936245 2.076178,-2.286813 -7.187761 1.685553,-2.535957 -5.557827 2.019594,-3.347141 -4.601417 3.009163,-3.975978 -9.047718 2.003911,-4.557621 -6.82059 2.372874,-5.006949 -5.526605 2.654342,-5.078401 -4.118044 3.20454,-5.30937 -9.356045 2.236584,-5.718094 -7.106952 1.553745,-5.85321 -5.590688 1.696818,-5.825151 -4.55846 2.539102,-7.258909 -9.720699 1.744755,-7.281957 -7.874738 1.604046,-7.210377 -6.758532 2.307354,-6.924834 -5.378079 2.766966,5.610, 1 0
-1.332677 -12.51715 2.407241,-2.280006 -11.88883 2.77036,-2.807072 -10.72463 3.01231,-3.087889 -9.490107 3.125799,-3.307796 -8.505878 3.213227,-2.035798 -9.040258 3.379591,-2.129496 -7.035173 3.54751,-2.225751 -5.966968 3.529644,-2.297694 -5.157724 3.488154,-1.521873 -8.879604 3.187321,-1.638858 -6.679492 3.488091,-1.638858 -6.679492 3.488091,-1.815475 -4.435189 3.481214,-1.089292 -8.964075 2.975929,-1.151116 -6.893943 3.216738,-1.263171 -5.710586 3.234735,-1.30528 -4.803958 3.249827,-0.7228394 -9.263012 2.755333,-0.6711993 -7.657939 2.984502,-0.6952591 -6.766637 3.101062,-0.6805668 -6.01292 3.160331,-9.23309 -12.5622 1.46209,-8.425909 -12.02337 1.931048,-7.9468 -10.79749 2.323147,-7.657593 -9.611656 2.688459,-7.367762 -8.595263 3.087888,-8.630021 -9.149324 2.215779,-8.517348 -7.404159 2.553306,-8.466264 -6.215221 2.824883,-8.434439 -5.247727 3.009163,-9.105385 -9.022188 2.187505,-9.007146 -7.097837 2.599665,-8.966622 -5.783041 2.871858,-8.9265 -4.715835 3.088711,-9.526022 -9.113811 2.1538,-9.491094 -7.266719 2.451566,-9.458399 -6.041728 2.669362,-9.395563 -5.053392 2.856921,-9.912799 -9.42754 2.140576,-9.987202 -7.918445 2.38597,-10.00232 -6.976971 2.567043,-9.964037 -6.140918 2.705849,5.710, 1 0
-1.332677 -12.51715 2.407241,-2.280006 -11.88883 2.77036,-2.807072 -10.72463 3.01231,-3.087889 -9.490107 3.125799,-3.307796 -8.505878 3.213227,-2.035798 -9.040258 3.379591,-2.129496 -7.035173 3.54751,-2.225751 -5.966968 3.529644,-2.297694 -5.157724 3.488154,-1.521873 -8.879604 3.187321,-1.638858 -6.679492 3.488091,-1.638858 -6.679492 3.488091,-1.815475 -4.435189 3.481214,-1.089292 -8.964075 2.975929,-1.151116 -6.893943 3.216738,-1.263171 -5.710586 3.234735,-1.30528 -4.803958 3.249827,-0.7228394 -9.263012 2.755333,-0.6711993 -7.657939 2.984502,-0.6952591 -6.766637 3.101062,-0.6805668 -6.01292 3.160331,-9.23309 -12.5622 1.46209,-8.425909 -12.02337 1.931048,-7.9468 -10.79749 2.323147,-7.657593 -9.611656 2.688459,-7.367762 -8.595263 3.087888,-8.630021 -9.149324 2.215779,-8.517348 -7.404159 2.553306,-8.466264 -6.215221 2.824883,-8.434439 -5.247727 3.009163,-9.105385 -9.022188 2.187505,-9.007146 -7.097837 2.599665,-8.966622 -5.783041 2.871858,-8.9265 -4.715835 3.088711,-9.526022 -9.113811 2.1538,-9.491094 -7.266719 2.451566,-9.458399 -6.041728 2.669362,-9.395563 -5.053392 2.856921,-9.912799 -9.42754 2.140576,-9.987202 -7.918445 2.38597,-10.00232 -6.976971 2.567043,-9.964037 -6.140918 2.705849,5.810, 1 0
-1.332677 -12.51715 2.407241,-2.280006 -11.88883 2.77036,-2.807072 -10.72463 3.01231,-3.087889 -9.490107 3.125799,-3.307796 -8.505878 3.213227,-2.035798 -9.040258 3.379591,-2.129496 -7.035173 3.54751,-2.225751 -5.966968 3.529644,-2.297694 -5.157724 3.488154,-1.521873 -8.879604 3.187321,-1.638858 -6.679492 3.488091,-1.638858 -6.679492 3.488091,-1.815475 -4.435189 3.481214,-1.089292 -8.964075 2.975929,-1.151116 -6.893943 3.216738,-1.263171 -5.710586 3.234735,-1.30528 -4.803958 3.249827,-0.7228394 -9.263012 2.755333,-0.6711993 -7.657939 2.984502,-0.6952591 -6.766637 3.101062,-0.6805668 -6.01292 3.160331,-9.23309 -12.5622 1.46209,-8.425909 -12.02337 1.931048,-7.9468 -10.79749 2.323147,-7.657593 -9.611656 2.688459,-7.367762 -8.595263 3.087888,-8.630021 -9.149324 2.215779,-8.517348 -7.404159 2.553306,-8.466264 -6.215221 2.824883,-8.434439 -5.247727 3.009163,-9.105385 -9.022188 2.187505,-9.007146 -7.097837 2.599665,-8.966622 -5.783041 2.871858,-8.9265 -4.715835 3.088711,-9.526022 -9.113811 2.1538,-9.491094 -7.266719 2.451566,-9.458399 -6.041728 2.669362,-9.395563 -5.053392 2.856921,-9.912799 -9.42754 2.140576,-9.987202 -7.918445 2.38597,-10.00232 -6.976971 2.567043,-9.964037 -6.140918 2.705849,5.910, 1 0
-1.332677 -12.51715 2.407241,-2.280006 -11.88883 2.77036,-2.807072 -10.72463 3.01231,-3.087889 -9.490107 3.125799,-3.307796 -8.505878 3.213227,-2.035798 -9.040258 3.379591,-2.129496 -7.035173 3.54751,-2.225751 -5.966968 3.529644,-2.297694 -5.157724 3.488154,-1.521873 -8.879604 3.187321,-1.638858 -6.679492 3.488091,-1.638858 -6.679492 3.488091,-1.815475 -4.435189 3.481214,-1.089292 -8.964075 2.975929,-1.151116 -6.893943 3.216738,-1.263171 -5.710586 3.234735,-1.30528 -4.803958 3.249827,-0.7228394 -9.263012 2.755333,-0.6711993 -7.657939 2.984502,-0.6952591 -6.766637 3.101062,-0.6805668 -6.01292 3.160331,-9.23309 -12.5622 1.46209,-8.425909 -12.02337 1.931048,-7.9468 -10.79749 2.323147,-7.657593 -9.611656 2.688459,-7.367762 -8.595263 3.087888,-8.630021 -9.149324 2.215779,-8.517348 -7.404159 2.553306,-8.466264 -6.215221 2.824883,-8.434439 -5.247727 3.009163,-9.105385 -9.022188 2.187505,-9.007146 -7.097837 2.599665,-8.966622 -5.783041 2.871858,-8.9265 -4.715835 3.088711,-9.526022 -9.113811 2.1538,-9.491094 -7.266719 2.451566,-9.458399 -6.041728 2.669362,-9.395563 -5.053392 2.856921,-9.912799 -9.42754 2.140576,-9.987202 -7.918445 2.38597,-10.00232 -6.976971 2.567043,-9.964037 -6.140918 2.705849,6.010, 1 0
-1.332677 -12.51715 2.407241,-2.280006 -11.88883 2.77036,-2.807072 -10.72463 3.01231,-3.087889 -9.490107 3.125799,-3.307796 -8.505878 3.213227,-2.035798 -9.040258 3.379591,-2.129496 -7.035173 3.54751,-2.225751 -5.966968 3.529644,-2.297694 -5.157724 3.488154,-1.521873 -8.879604 3.187321,-1.638858 -6.679492 3.488091,-1.638858 -6.679492 3.488091,-1.815475 -4.435189 3.481214,-1.089292 -8.964075 2.975929,-1.151116 -6.893943 3.216738,-1.263171 -5.710586 3.234735,-1.30528 -4.803958 3.249827,-0.7228394 -9.263012 2.755333,-0.6711993 -7.657939 2.984502,-0.6952591 -6.766637 3.101062,-0.6805668 -6.01292 3.160331,-9.23309 -12.5622 1.46209,-8.425909 -12.02337 1.931048,-7.9468 -10.79749 2.323147,-7.657593 -9.611656 2.688459,-7.367762 -8.595263 3.087888,-8.630021 -9.149324 2.215779,-8.517348 -7.404159 2.553306,-8.466264 -6.215221 2.824883,-8.434439 -5.247727 3.009163,-9.105385 -9.022188 2.187505,-9.007146 -7.097837 2.599665,-8.966622 -5.783041 2.871858,-8.9265 -4.715835 3.088711,-9.526022 -9.113811 2.1538,-9.491094 -7.266719 2.451566,-9.458399 -6.041728 2.669362,-9.395563 -5.053392 2.856921,-9.912799 -9.42754 2.140576,-9.987202 -7.918445 2.38597,-10.00232 -6.976971 2.567043,-9.964037 -6.140918 2.705849,6.110, 1 0
-1.332677 -12.51715 2.407241,-2.280006 -11.88883 2.77036,-2.807072 -10.72463 3.01231,-3.087889 -9.490107 3.125799,-3.307796 -8.505878 3.213227,-2.035798 -9.040258 3.379591,-2.129496 -7.035173 3.54751,-2.225751 -5.966968 3.529644,-2.297694 -5.157724 3.488154,-1.521873 -8.879604 3.187321,-1.638858 -6.679492 3.488091,-1.638858 -6.679492 3.488091,-1.815475 -4.435189 3.481214,-1.089292 -8.964075 2.975929,-1.151116 -6.893943 3.216738,-1.263171 -5.710586 3.234735,-1.30528 -4.803958 3.249827,-0.7228394 -9.263012 2.755333,-0.6711993 -7.657939 2.984502,-0.6952591 -6.766637 3.101062,-0.6805668 -6.01292 3.160331,-9.23309 -12.5622 1.46209,-8.425909 -12.02337 1.931048,-7.9468 -10.79749 2.323147,-7.657593 -9.611656 2.688459,-7.367762 -8.595263 3.087888,-8.630021 -9.149324 2.215779,-8.517348 -7.404159 2.553306,-8.466264 -6.215221 2.824883,-8.434439 -5.247727 3.009163,-9.105385 -9.022188 2.187505,-9.007146 -7.097837 2.599665,-8.966622 -5.783041 2.871858,-8.9265 -4.715835 3.088711,-9.526022 -9.113811 2.1538,-9.491094 -7.266719 2.451566,-9.458399 -6.041728 2.669362,-9.395563 -5.053392 2.856921,-9.912799 -9.42754 2.140576,-9.987202 -7.918445 2.38597,-10.00232 -6.976971 2.567043,-9.964037 -6.140918 2.705849,6.210, 1 0
-1.332677 -12.51715 2.407241,-2.280006 -11.88883 2.77036,-2.807072 -10.72463 3.01231,-3.087889 -9.490107 3.125799,-3.307796 -8.505878 3.213227,-2.035798 -9.040258 3.379591,-2.129496 -7.035173 3.54751,-2.225751 -5.966968 3.529644,-2.297694 -5.157724 3.488154,-1.521873 -8.879604 3.187321,-1.638858 -6.679492 3.488091,-1.638858 -6.679492 3.488091,-1.815475 -4.435189 3.481214,-1.089292 -8.964075 2.975929,-1.151116 -6.893943 3.216738,-1.263171 -5.710586 3.234735,-1.30528 -4.803958 3.249827,-0.7228394 -9.263012 2.755333,-0.6711993 -7.657939 2.984502,-0.6952591 -6.766637 3.101062,-0.6805668 -6.01292 3.160331,-9.23309 -12.5622 1.46209,-8.425909 -12.02337 1.931048,-7.9468 -10.79749 2.323147,-7.657593 -9.611656 2.688459,-7.367762 -8.595263 3.087888,-8.630021 -9.149324 2.215779,-8.517348 -7.404159 2.553306,-8.466264 -6.215221 2.824883,-8.434439 -5.247727 3.009163,-9.105385 -9.022188 2.187505,-9.007146 -7.097837 2.599665,-8.966622 -5.783041 2.871858,-8.9265 -4.715835 3.088711,-9.526022 -9.113811 2.1538,-9.491094 -7.266719 2.451566,-9.458399 -6.041728 2.669362,-9.395563 -5.053392 2.856921,-9.912799 -9.42754 2.140576,-9.987202 -7.918445 2.38597,-10.00232 -6.976971 2.567043,-9.964037 -6.140918 2.705849,6.310, 1 0
-1.332677 -12.51715 2.407241,-2.280006 -11.88883 2.77036,-2.807072 -10.72463 3.01231,-3.087889 -9.490107 3.125799,-3.307796 -8.505878 3.213227,-2.035798 -9.040258 3.379591,-2.129496 -7.035173 3.54751,-2.225751 -5.966968 3.529644,-2.297694 -5.157724 3.488154,-1.521873 -8.879604 3.187321,-1.638858 -6.679492 3.488091,-1.638858 -6.679492 3.488091,-1.815475 -4.435189 3.481214,-1.089292 -8.964075 2.975929,-1.151116 -6.893943 3.216738,-1.263171 -5.710586 3.234735,-1.30528 -4.803958 3.249827,-0.7228394 -9.263012 2.755333,-0.6711993 -7.657939 2.984502,-0.6952591 -6.766637 3.101062,-0.6805668 -6.01292 3.160331,-9.23309 -12.5622 1.46209,-8.425909 -12.02337 1.931048,-7.9468 -10.79749 2.323147,-7.657593 -9.611656 2.688459,-7.367762 -8.595263 3.087888,-8.630021 -9.149324 2.215779,-8.517348 -7.404159 2.553306,-8.466264 -6.215221 2.824883,-8.434439 -5.247727 3.009163,-9.105385 -9.022188 2.187505,-9.007146 -7.097837 2.599665,-8.966622 -5.783041 2.871858,-8.9265 -4.715835 3.088711,-9.526022 -9.113811 2.1538,-9.491094 -7.266719 2.451566,-9.458399 -6.041728 2.669362,-9.395563 -5.053392 2.856921,-9.912799 -9.42754 2.140576,-9.987202 -7.918445 2.38597,-10.00232 -6.976971 2.567043,-9.964037 -6.140918 2.705849,6.410, 1 0
-1.332677 -12.51715 2.407241,-2.280006 -11.88883 2.77036,-2.807072 -10.72463 3.01231,-3.087889 -9.490107 3.125799,-3.307796 -8.505878 3.213227,-2.035798 -9.040258 3.379591,-2.129496 -7.035173 3.54751,-2.225751 -5.966968 3.529644,-2.297694 -5.157724 3.488154,-1.521873 -8.879604 3.187321,-1.638858 -6.679492 3.488091,-1.638858 -6.679492 3.488091,-1.815475 -4.435189 3.481214,-1.089292 -8.964075 2.975929,-1.151116 -6.893943 3.216738,-1.263171 -5.710586 3.234735,-1.30528 -4.803958 3.249827,-0.7228394 -9.263012 2.755333,-0.6711993 -7.657939 2.984502,-0.6952591 -6.766637 3.101062,-0.6805668 -6.01292 3.160331,-9.23309 -12.5622 1.46209,-8.425909 -12.02337 1.931048,-7.9468 -10.79749 2.323147,-7.657593 -9.611656 2.688459,-7.367762 -8.595263 3.087888,-8.630021 -9.149324 2.215779,-8.517348 -7.404159 2.553306,-8.466264 -6.215221 2.824883,-8.434439 -5.247727 3.009163,-9.105385 -9.022188 2.187505,-9.007146 -7.097837 2.599665,-8.966622 -5.783041 2.871858,-8.9265 -4.715835 3.088711,-9.526022 -9.113811 2.1538,-9.491094 -7.266719 2.451566,-9.458399 -6.041728 2.669362,-9.395563 -5.053392 2.856921,-9.912799 -9.42754 2.140576,-9.987202 -7.918445 2.38597,-10.00232 -6.976971 2.567043,-9.964037 -6.140918 2.705849,6.510, 1 0
-1.332677 -12.51715 2.407241,-2.280006 -11.88883 2.77036,-2.807072 -10.72463 3.01231,-3.087889 -9.490107 3.125799,-3.307796 -8.505878 3.213227,-2.035798 -9.040258 3.379591,-2.129496 -7.035173 3.54751,-2.225751 -5.966968 3.529644,-2.297694 -5.157724 3.488154,-1.521873 -8.879604 3.187321,-1.638858 -6.679492 3.488091,-1.638858 -6.679492 3.488091,-1.815475 -4.435189 3.481214,-1.089292 -8.964075 2.975929,-1.151116 -6.893943 3.216738,-1.263171 -5.710586 3.234735,-1.30528 -4.803958 3.249827,-0.7228394 -9.263012 2.755333,-0.6711993 -7.657939 2.984502,-0.6952591 -6.766637 3.101062,-0.6805668 -6.01292 3.160331,-9.23309 -12.5622 1.46209,-8.425909 -12.02337 1.931048,-7.9468 -10.79749 2.323147,-7.657593 -9.611656 2.688459,-7.367762 -8.595263 3.087888,-8.630021 -9.149324 2.215779,-8.517348 -7.404159 2.553306,-8.466264 -6.215221 2.824883,-8.434439 -5.247727 3.009163,-9.105385 -9.022188 2.187505,-9.007146 -7.097837 2.599665,-8.966622 -5.783041 2.871858,-8.9265 -4.715835 3.088711,-9.526022 -9.113811 2.1538,-9.491094 -7.266719 2.451566,-9.458399 -6.041728 2.669362,-9.395563 -5.053392 2.856921,-9.912799 -9.42754 2.140576,-9.987202 -7.918445 2.38597,-10.00232 -6.976971 2.567043,-9.964037 -6.140918 2.705849,6.610, 1 0
-1.332677 -12.51715 2.407241,-2.280006 -11.88883 2.77036,-2.807072 -10.72463 3.01231,-3.087889 -9.490107 3.125799,-3.307796 -8.505878 3.213227,-2.035798 -9.040258 3.379591,-2.129496 -7.035173 3.54751,-2.225751 -5.966968 3.529644,-2.297694 -5.157724 3.488154,-1.521873 -8.879604 3.187321,-1.638858 -6.679492 3.488091,-1.638858 -6.679492 3.488091,-1.815475 -4.435189 3.481214,-1.089292 -8.964075 2.975929,-1.151116 -6.893943 3.216738,-1.263171 -5.710586 3.234735,-1.30528 -4.803958 3.249827,-0.7228394 -9.263012 2.755333,-0.6711993 -7.657939 2.984502,-0.6952591 -6.766637 3.101062,-0.6805668 -6.01292 3.160331,-9.23309 -12.5622 1.46209,-8.425909 -12.02337 1.931048,-7.9468 -10.79749 2.323147,-7.657593 -9.611656 2.688459,-7.367762 -8.595263 3.087888,-8.630021 -9.149324 2.215779,-8.517348 -7.404159 2.553306,-8.466264 -6.215221 2.824883,-8.434439 -5.247727 3.009163,-9.105385 -9.022188 2.187505,-9.007146 -7.097837 2.599665,-8.966622 -5.783041 2.871858,-8.9265 -4.715835 3.088711,-9.526022 -9.113811 2.1538,-9.491094 -7.266719 2.451566,-9.458399 -6.041728 2.669362,-9.395563 -5.053392 2.856921,-9.912799 -9.42754 2.140576,-9.987202 -7.918445 2.38597,-10.00232 -6.976971 2.567043,-9.964037 -6.140918 2.705849,6.710, 1 0
-1.332677 -12.51715 2.407241,-2.280006 -11.88883 2.77036,-2.807072 -10.72463 3.01231,-3.087889 -9.490107 3.125799,-3.307796 -8.505878 3.213227,-2.035798 -9.040258 3.379591,-2.129496 -7.035173 3.54751,-2.225751 -5.966968 3.529644,-2.297694 -5.157724 3.488154,-1.521873 -8.879604 3.187321,-1.638858 -6.679492 3.488091,-1.638858 -6.679492 3.488091,-1.815475 -4.435189 3.481214,-1.089292 -8.964075 2.975929,-1.151116 -6.893943 3.216738,-1.263171 -5.710586 3.234735,-1.30528 -4.803958 3.249827,-0.7228394 -9.263012 2.755333,-0.6711993 -7.657939 2.984502,-0.6952591 -6.766637 3.101062,-0.6805668 -6.01292 3.160331,-9.23309 -12.5622 1.46209,-8.425909 -12.02337 1.931048,-7.9468 -10.79749 2.323147,-7.657593 -9.611656 2.688459,-7.367762 -8.595263 3.087888,-8.630021 -9.149324 2.215779,-8.517348 -7.404159 2.553306,-8.466264 -6.215221 2.824883,-8.434439 -5.247727 3.009163,-9.105385 -9.022188 2.187505,-9.007146 -7.097837 2.599665,-8.966622 -5.783041 2.871858,-8.9265 -4.715835 3.088711,-9.526022 -9.113811 2.1538,-9.491094 -7.266719 2.451566,-9.458399 -6.041728 2.669362,-9.395563 -5.053392 2.856921,-9.912799 -9.42754 2.140576,-9.987202 -7.918445 2.38597,-10.00232 -6.976971 2.567043,-9.964037 -6.140918 2.705849,6.810, 1 0
-1.332677 -12.51715 2.407241,-2.280006 -11.88883 2.77036,-2.807072 -10.72463 3.01231,-3.087889 -9.490107 3.125799,-3.307796 -8.505878 3.213227,-2.035798 -9.040258 3.379591,-2.129496 -7.035173 3.54751,-2.225751 -5.966968 3.529644,-2.297694 -5.157724 3.488154,-1.521873 -8.879604 3.187321,-1.638858 -6.679492 3.488091,-1.638858 -6.679492 3.488091,-1.815475 -4.435189 3.481214,-1.089292 -8.964075 2.975929,-1.151116 -6.893943 3.216738,-1.263171 -5.710586 3.234735,-1.30528 -4.803958 3.249827,-0.7228394 -9.263012 2.755333,-0.6711993 -7.657939 2.984502,-0.6952591 -6.766637 3.101062,-0.6805668 -6.01292 3.160331,-9.23309 -12.5622 1.46209,-8.425909 -12.02337 1.931048,-7.9468 -10.79749 2.323147,-7.657593 -9.611656 2.688459,-7.367762 -8.595263 3.087888,-8.630021 -9.149324 2.215779,-8.517348 -7.404159 2.553306,-8.466264 -6.215221 2.824883,-8.434439 -5.247727 3.009163,-9.105385 -9.022188 2.187505,-9.007146 -7.097837 2.599665,-8.966622 -5.783041 2.871858,-8.9265 -4.715835 3.088711,-9.526022 -9.113811 2.1538,-9.491094 -7.266719 2.451566,-9.458399 -6.041728 2.669362,-9.395563 -5.053392 2.856921,-9.912799 -9.42754 2.140576,-9.987202 -7.918445 2.38597,-10.00232 -6.976971 2.567043,-9.964037 -6.140918 2.705849,6.910, 1 0
-1.332677 -12.51715 2.407241,-2.280006 -11.88883 2.77036,-2.807072 -10.72463 3.01231,-3.087889 -9.490107 3.125799,-3.307796 -8.505878 3.213227,-2.035798 -9.040258 3.379591,-2.129496 -7.035173 3.54751,-2.225751 -5.966968 3.529644,-2.297694 -5.157724 3.488154,-1.521873 -8.879604 3.187321,-1.638858 -6.679492 3.488091,-1.638858 -6.679492 3.488091,-1.815475 -4.435189 3.481214,-1.089292 -8.964075 2.975929,-1.151116 -6.893943 3.216738,-1.263171 -5.710586 3.234735,-1.30528 -4.803958 3.249827,-0.7228394 -9.263012 2.755333,-0.6711993 -7.657939 2.984502,-0.6952591 -6.766637 3.101062,-0.6805668 -6.01292 3.160331,-9.23309 -12.5622 1.46209,-8.425909 -12.02337 1.931048,-7.9468 -10.79749 2.323147,-7.657593 -9.611656 2.688459,-7.367762 -8.595263 3.087888,-8.630021 -9.149324 2.215779,-8.517348 -7.404159 2.553306,-8.466264 -6.215221 2.824883,-8.434439 -5.247727 3.009163,-9.105385 -9.022188 2.187505,-9.007146 -7.097837 2.599665,-8.966622 -5.783041 2.871858,-8.9265 -4.715835 3.088711,-9.526022 -9.113811 2.1538,-9.491094 -7.266719 2.451566,-9.458399 -6.041728 2.669362,-9.395563 -5.053392 2.856921,-9.912799 -9.42754 2.140576,-9.987202 -7.918445 2.38597,-10.00232 -6.976971 2.567043,-9.964037 -6.140918 2.705849,7.010, 1 0
-1.332677 -12.51715 2.407241,-2.280006 -11.88883 2.77036,-2.807072 -10.72463 3.01231,-3.087889 -9.490107 3.125799,-3.307796 -8.505878 3.213227,-2.035798 -9.040258 3.379591,-2.129496 -7.035173 3.54751,-2.225751 -5.966968 3.529644,-2.297694 -5.157724 3.488154,-1.521873 -8.879604 3.187321,-1.638858 -6.679492 3.488091,-1.638858 -6.679492 3.488091,-1.815475 -4.435189 3.481214,-1.089292 -8.964075 2.975929,-1.151116 -6.893943 3.216738,-1.263171 -5.710586 3.234735,-1.30528 -4.803958 3.249827,-0.7228394 -9.263012 2.755333,-0.6711993 -7.657939 2.984502,-0.6952591 -6.766637 3.101062,-0.6805668 -6.01292 3.160331,-9.23309 -12.5622 1.46209,-8.425909 -12.02337 1.931048,-7.9468 -10.79749 2.323147,-7.657593 -9.611656 2.688459,-7.367762 -8.595263 3.087888,-8.630021 -9.149324 2.215779,-8.517348 -7.404159 2.553306,-8.466264 -6.215221 2.824883,-8.434439 -5.247727 3.009163,-9.105385 -9.022188 2.187505,-9.007146 -7.097837 2.599665,-8.966622 -5.783041 2.871858,-8.9265 -4.715835 3.088711,-9.526022 -9.113811 2.1538,-9.491094 -7.266719 2.451566,-9.458399 -6.041728 2.669362,-9.395563 -5.053392 2.856921,-9.912799 -9.42754 2.140576,-9.987202 -7.918445 2.38597,-10.00232 -6.976971 2.567043,-9.964037 -6.140918 2.705849,7.110, 1 0
-1.332677 -12.51715 2.407241,-2.280006 -11.88883 2.77036,-2.807072 -10.72463 3.01231,-3.087889 -9.490107 3.125799,-3.307796 -8.505878 3.213227,-2.035798 -9.040258 3.379591,-2.129496 -7.035173 3.54751,-2.225751 -5.966968 3.529644,-2.297694 -5.157724 3.488154,-1.521873 -8.879604 3.187321,-1.638858 -6.679492 3.488091,-1.638858 -6.679492 3.488091,-1.815475 -4.435189 3.481214,-1.089292 -8.964075 2.975929,-1.151116 -6.893943 3.216738,-1.263171 -5.710586 3.234735,-1.30528 -4.803958 3.249827,-0.7228394 -9.263012 2.755333,-0.6711993 -7.657939 2.984502,-0.6952591 -6.766637 3.101062,-0.6805668 -6.01292 3.160331,-9.23309 -12.5622 1.46209,-8.425909 -12.02337 1.931048,-7.9468 -10.79749 2.323147,-7.657593 -9.611656 2.688459,-7.367762 -8.595263 3.087888,-8.630021 -9.149324 2.215779,-8.517348 -7.404159 2.553306,-8.466264 -6.215221 2.824883,-8.434439 -5.247727 3.009163,-9.105385 -9.022188 2.187505,-9.007146 -7.097837 2.599665,-8.966622 -5.783041 2.871858,-8.9265 -4.715835 3.088711,-9.526022 -9.113811 2.1538,-9.491094 -7.266719 2.451566,-9.458399 -6.041728 2.669362,-9.395563 -5.053392 2.856921,-9.912799 -9.42754 2.140576,-9.987202 -7.918445 2.38597,-10.00232 -6.976971 2.567043,-9.964037 -6.140918 2.705849,7.210, 1 0
-1.332677 -12.51715 2.407241,-2.280006 -11.88883 2.77036,-2.807072 -10.72463 3.01231,-3.087889 -9.490107 3.125799,-3.307796 -8.505878 3.213227,-2.035798 -9.040258 3.379591,-2.129496 -7.035173 3.54751,-2.225751 -5.966968 3.529644,-2.297694 -5.157724 3.488154,-1.521873 -8.879604 3.187321,-1.638858 -6.679492 3.488091,-1.638858 -6.679492 3.488091,-1.815475 -4.435189 3.481214,-1.089292 -8.964075 2.975929,-1.151116 -6.893943 3.216738,-1.263171 -5.710586 3.234735,-1.30528 -4.803958 3.249827,-0.7228394 -9.263012 2.755333,-0.6711993 -7.657939 2.984502,-0.6952591 -6.766637 3.101062,-0.6805668 -6.01292 3.160331,-9.23309 -12.5622 1.46209,-8.425909 -12.02337 1.931048,-7.9468 -10.79749 2.323147,-7.657593 -9.611656 2.688459,-7.367762 -8.595263 3.087888,-8.630021 -9.149324 2.215779,-8.517348 -7.404159 2.553306,-8.466264 -6.215221 2.824883,-8.434439 -5.247727 3.009163,-9.105385 -9.022188 2.187505,-9.007146 -7.097837 2.599665,-8.966622 -5.783041 2.871858,-8.9265 -4.715835 3.088711,-9.526022 -9.113811 2.1538,-9.491094 -7.266719 2.451566,-9.458399 -6.041728 2.669362,-9.395563 -5.053392 2.856921,-9.912799 -9.42754 2.140576,-9.987202 -7.918445 2.38597,-10.00232 -6.976971 2.567043,-9.964037 -6.140918 2.705849,7.310, 1 0
-1.332677 -12.51715 2.407241,-2.280006 -11.88883 2.77036,-2.807072 -10.72463 3.01231,-3.087889 -9.490107 3.125799,-3.307796 -8.505878 3.213227,-2.035798 -9.040258 3.379591,-2.129496 -7.035173 3.54751,-2.225751 -5.966968 3.529644,-2.297694 -5.157724 3.488154,-1.521873 -8.879604 3.187321,-1.638858 -6.679492 3.488091,-1.638858 -6.679492 3.488091,-1.815475 -4.435189 3.481214,-1.089292 -8.964075 2.975929,-1.151116 -6.893943 3.216738,-1.263171 -5.710586 3.234735,-1.30528 -4.803958 3.249827,-0.7228394 -9.263012 2.755333,-0.6711993 -7.657939 2.984502,-0.6952591 -6.766637 3.101062,-0.6805668 -6.01292 3.160331,-9.23309 -12.5622 1.46209,-8.425909 -12.02337 1.931048,-7.9468 -10.79749 2.323147,-7.657593 -9.611656 2.688459,-7.367762 -8.595263 3.087888,-8.630021 -9.149324 2.215779,-8.517348 -7.404159 2.553306,-8.466264 -6.215221 2.824883,-8.434439 -5.247727 3.009163,-9.105385 -9.022188 2.187505,-9.007146 -7.097837 2.599665,-8.966622 -5.783041 2.871858,-8.9265 -4.715835 3.088711,-9.526022 -9.113811 2.1538,-9.491094 -7.266719 2.451566,-9.458399 -6.041728 2.669362,-9.395563 -5.053392 2.856921,-9.912799 -9.42754 2.140576,-9.987202 -7.918445 2.38597,-10.00232 -6.976971 2.567043,-9.964037 -6.140918 2.705849,7.410, 1 0
-1.332677 -12.51715 2.407241,-2.280006 -11.88883 2.77036,-2.807072 -10.72463 3.01231,-3.087889 -9.490107 3.125799,-3.307796 -8.505878 3.213227,-2.035798 -9.040258 3.379591,-2.129496 -7.035173 3.54751,-2.225751 -5.966968 3.529644,-2.297694 -5.157724 3.488154,-1.521873 -8.879604 3.187321,-1.638858 -6.679492 3.488091,-1.638858 -6.679492 3.488091,-1.815475 -4.435189 3.481214,-1.089292 -8.964075 2.975929,-1.151116 -6.893943 3.216738,-1.263171 -5.710586 3.234735,-1.30528 -4.803958 3.249827,-0.7228394 -9.263012 2.755333,-0.6711993 -7.657939 2.984502,-0.6952591 -6.766637 3.101062,-0.6805668 -6.01292 3.160331,-9.23309 -12.5622 1.46209,-8.425909 -12.02337 1.931048,-7.9468 -10.79749 2.323147,-7.657593 -9.611656 2.688459,-7.367762 -8.595263 3.087888,-8.630021 -9.149324 2.215779,-8.517348 -7.404159 2.553306,-8.466264 -6.215221 2.824883,-8.434439 -5.247727 3.009163,-9.105385 -9.022188 2.187505,-9.007146 -7.097837 2.599665,-8.966622 -5.783041 2.871858,-8.9265 -4.715835 3.088711,-9.526022 -9.113811 2.1538,-9.491094 -7.266719 2.451566,-9.458399 -6.041728 2.669362,-9.395563 -5.053392 2.856921,-9.912799 -9.42754 2.140576,-9.987202 -7.918445 2.38597,-10.00232 -6.976971 2.567043,-9.964037 -6.140918 2.705849,7.510, 1 0
-1.332677 -12.51715 2.407241,-2.280006 -11.88883 2.77036,-2.807072 -10.72463 3.01231,-3.087889 -9.490107 3.125799,-3.307796 -8.505878 3.213227,-2.035798 -9.040258 3.379591,-2.129496 -7.035173 3.54751,-2.225751 -5.966968 3.529644,-2.297694 -5.157724 3.488154,-1.521873 -8.879604 3.187321,-1.638858 -6.679492 3.488091,-1.638858 -6.679492 3.488091,-1.815475 -4.435189 3.481214,-1.089292 -8.964075 2.975929,-1.151116 -6.893943 3.216738,-1.263171 -5.710586 3.234735,-1.30528 -4.803958 3.249827,-0.7228394 -9.263012 2.755333,-0.6711993 -7.657939 2.984502,-0.6952591 -6.766637 3.101062,-0.6805668 -6.01292 3.160331,-9.23309 -12.5622 1.46209,-8.425909 -12.02337 1.931048,-7.9468 -10.79749 2.323147,-7.657593 -9.611656 2.688459,-7.367762 -8.595263 3.087888,-8.630021 -9.149324 2.215779,-8.517348 -7.404159 2.553306,-8.466264 -6.215221 2.824883,-8.434439 -5.247727 3.009163,-9.105385 -9.022188 2.187505,-9.007146 -7.097837 2.599665,-8.966622 -5.783041 2.871858,-8.9265 -4.715835 3.088711,-9.526022 -9.113811 2.1538,-9.491094 -7.266719 2.451566,-9.458399 -6.041728 2.669362,-9.395563 -5.053392 2.856921,-9.912799 -9.42754 2.140576,-9.987202 -7.918445 2.38597,-10.00232 -6.976971 2.567043,-9.964037 -6.140918 2.705849,7.610, 1 0
-1.332677 -12.51715 2.407241,-2.280006 -11.88883 2.77036,-2.807072 -10.72463 3.01231,-3.087889 -9.490107 3.125799,-3.307796 -8.505878 3.213227,-2.035798 -9.040258 3.379591,-2.129496 -7.035173 3.54751,-2.225751 -5.966968 3.529644,-2.297694 -5.157724 3.488154,-1.521873 -8.879604 3.187321,-1.638858 -6.679492 3.488091,-1.638858 -6.679492 3.488091,-1.815475 -4.435189 3.481214,-1.089292 -8.964075 2.975929,-1.151116 -6.893943 3.216738,-1.263171 -5.710586 3.234735,-1.30528 -4.803958 3.249827,-0.7228394 -9.263012 2.755333,-0.6711993 -7.657939 2.984502,-0.6952591 -6.766637 3.101062,-0.6805668 -6.01292 3.160331,-9.23309 -12.5622 1.46209,-8.425909 -12.02337 1.931048,-7.9468 -10.79749 2.323147,-7.657593 -9.611656 2.688459,-7.367762 -8.595263 3.087888,-8.630021 -9.149324 2.215779,-8.517348 -7.404159 2.553306,-8.466264 -6.215221 2.824883,-8.434439 -5.247727 3.009163,-9.105385 -9.022188 2.187505,-9.007146 -7.097837 2.599665,-8.966622 -5.783041 2.871858,-8.9265 -4.715835 3.088711,-9.526022 -9.113811 2.1538,-9.491094 -7.266719 2.451566,-9.458399 -6.041728 2.669362,-9.395563 -5.053392 2.856921,-9.912799 -9.42754 2.140576,-9.987202 -7.918445 2.38597,-10.00232 -6.976971 2.567043,-9.964037 -6.140918 2.705849,7.710, 1 0
-1.332677 -12.51715 2.407241,-2.280006 -11.88883 2.77036,-2.807072 -10.72463 3.01231,-3.087889 -9.490107 3.125799,-3.307796 -8.505878 3.213227,-2.035798 -9.040258 3.379591,-2.129496 -7.035173 3.54751,-2.225751 -5.966968 3.529644,-2.297694 -5.157724 3.488154,-1.521873 -8.879604 3.187321,-1.638858 -6.679492 3.488091,-1.638858 -6.679492 3.488091,-1.815475 -4.435189 3.481214,-1.089292 -8.964075 2.975929,-1.151116 -6.893943 3.216738,-1.263171 -5.710586 3.234735,-1.30528 -4.803958 3.249827,-0.7228394 -9.263012 2.755333,-0.6711993 -7.657939 2.984502,-0.6952591 -6.766637 3.101062,-0.6805668 -6.01292 3.160331,-9.23309 -12.5622 1.46209,-8.425909 -12.02337 1.931048,-7.9468 -10.79749 2.323147,-7.657593 -9.611656 2.688459,-7.367762 -8.595263 3.087888,-8.630021 -9.149324 2.215779,-8.517348 -7.404159 2.553306,-8.466264 -6.215221 2.824883,-8.434439 -5.247727 3.009163,-9.105385 -9.022188 2.187505,-9.007146 -7.097837 2.599665,-8.966622 -5.783041 2.871858,-8.9265 -4.715835 3.088711,-9.526022 -9.113811 2.1538,-9.491094 -7.266719 2.451566,-9.458399 -6.041728 2.669362,-9.395563 -5.053392 2.856921,-9.912799 -9.42754 2.140576,-9.987202 -7.918445 2.38597,-10.00232 -6.976971 2.567043,-9.964037 -6.140918 2.705849,7.810, 1 0
-1.332677 -12.51715 2.407241,-2.280006 -11.88883 2.77036,-2.807072 -10.72463 3.01231,-3.087889 -9.490107 3.125799,-3.307796 -8.505878 3.213227,-2.035798 -9.040258 3.379591,-2.129496 -7.035173 3.54751,-2.225751 -5.966968 3.529644,-2.297694 -5.157724 3.488154,-1.521873 -8.879604 3.187321,-1.638858 -6.679492 3.488091,-1.638858 -6.679492 3.488091,-1.815475 -4.435189 3.481214,-1.089292 -8.964075 2.975929,-1.151116 -6.893943 3.216738,-1.263171 -5.710586 3.234735,-1.30528 -4.803958 3.249827,-0.7228394 -9.263012 2.755333,-0.6711993 -7.657939 2.984502,-0.6952591 -6.766637 3.101062,-0.6805668 -6.01292 3.160331,-9.23309 -12.5622 1.46209,-8.425909 -12.02337 1.931048,-7.9468 -10.79749 2.323147,-7.657593 -9.611656 2.688459,-7.367762 -8.595263 3.087888,-8.630021 -9.149324 2.215779,-8.517348 -7.404159 2.553306,-8.466264 -6.215221 2.824883,-8.434439 -5.247727 3.009163,-9.105385 -9.022188 2.187505,-9.007146 -7.097837 2.599665,-8.966622 -5.783041 2.871858,-8.9265 -4.715835 3.088711,-9.526022 -9.113811 2.1538,-9.491094 -7.266719 2.451566,-9.458399 -6.041728 2.669362,-9.395563 -5.053392 2.856921,-9.912799 -9.42754 2.140576,-9.987202 -7.918445 2.38597,-10.00232 -6.976971 2.567043,-9.964037 -6.140918 2.705849,7.910, 1 0
