TiagoOliveira98/Thesis-Project/Difficulty_0/Motor_Task/Unity_Project/DataLogging/JointData/Logs(1646876238)_dddd_Motor.csv
WRIST,THUMB_CMC,THUMB_MCP,THUMB_IP,THUMB_TIP,INDEX_FINGER_MCP,INDEX_FINGER_PIP,INDEX_FINGER_DIP,INDEX_FINGER_TIP,MIDDLE_FINGER_MCP,MIDDLE_FINGER_PIP,MIDDLE_FINGER_DIP,MIDDLE_FINGER_TIP,RING_FINGER_MCP,RING_FINGER_PIP,RING_FINGER_DIP,RING_FINGER_TIP,PINKY_MCP,PINKY_PIP,PINKY_DIP,PINKY_TIP,WRIST2,THUMB_CMC2,THUMB_MCP2,THUMB_IP2,THUMB_TIP2,INDEX_FINGER_MCP2,INDEX_FINGER_PIP2,INDEX_FINGER_DIP2,INDEX_FINGER_TIP2,MIDDLE_FINGER_MCP2,MIDDLE_FINGER_PIP2,MIDDLE_FINGER_DIP2,MIDDLE_FINGER_TIP2,RING_FINGER_MCP2,RING_FINGER_PIP2,RING_FINGER_DIP2,RING_FINGER_TIP2,PINKY_MCP2,PINKY_PIP2,PINKY_DIP2,PINKY_TIP2,Timestamp,Event
-2.02378 -7.343717 0.06837937,-2.691573 -7.061159 0.3819836,-3.239399 -6.485092 0.5495415,-3.638352 -5.903936 0.7321606,-3.980768 -5.561182 0.9585342,-2.884165 -4.74126 0.01833787,-3.145411 -3.685818 0.1632124,-3.297447 -3.061903 0.3068025,-3.436873 -2.497682 0.4256112,-2.525906 -4.486766 0.05881406,-2.702783 -3.286197 0.1294135,-2.702783 -3.286197 0.1294135,-2.935409 -1.872937 0.446139,-2.160563 -4.474414 0.1916089,-2.282805 -3.294831 0.2915146,-2.39111 -2.541267 0.4490356,-2.513034 -1.898482 0.5943888,-1.758645 -4.691861 0.3799422,-1.674442 -3.758882 0.4829839,-1.627934 -3.111411 0.6186765,-1.600235 -2.49068 0.7708814,-8.729224 -7.346399 0.02612878,-8.141025 -7.062675 0.3134534,-7.612588 -6.45079 0.5713098,-7.233867 -5.844625 0.8660138,-6.875772 -5.503999 1.177669,-8.020476 -4.658424 0.2484981,-7.916889 -3.517635 0.406857,-7.877329 -2.813241 0.578585,-7.842813 -2.213241 0.7155944,-8.384317 -4.491323 0.3088214,-8.293093 -3.170738 0.4544814,-8.229645 -2.335041 0.6726153,-8.189389 -1.629684 0.86554,-8.742242 -4.566559 0.4070252,-8.685762 -3.339475 0.5381594,-8.623988 -2.568435 0.7077929,-8.554923 -1.931207 0.839863,-9.109414 -4.853357 0.5334018,-9.159111 -3.909915 0.6884835,-9.163599 -3.308402 0.8111256,-9.151245 -2.747145 0.8994738,0.010,35 1 0
-2.017152 -7.31932 0.02934797,-2.684832 -7.056062 0.312555,-3.237976 -6.485441 0.4653895,-3.64171 -5.908849 0.635857,-3.985836 -5.579597 0.8522033,-2.87752 -4.734971 -0.01882169,-3.15291 -3.686229 0.1237753,-3.308247 -3.071711 0.2645222,-3.453225 -2.506838 0.3766707,-2.522468 -4.474231 0.03951702,-2.712405 -3.272598 0.1226556,-2.712405 -3.272598 0.1226556,-2.950349 -1.867254 0.4305982,-2.159333 -4.457277 0.1876832,-2.284794 -3.273457 0.2944424,-2.390933 -2.525241 0.4448285,-2.51346 -1.884201 0.588922,-1.756978 -4.67195 0.3851234,-1.66139 -3.734005 0.4930995,-1.61162 -3.084629 0.63448,-1.58428 -2.46193 0.7898906,-8.737175 -7.364162 0.01986141,-8.137737 -7.055878 0.2909142,-7.61095 -6.436018 0.5389439,-7.236958 -5.833467 0.8238291,-6.874102 -5.504957 1.126869,-8.01541 -4.674094 0.2772432,-7.919096 -3.519374 0.4524047,-7.881461 -2.803665 0.6296269,-7.847141 -2.195307 0.7705361,-8.385535 -4.516979 0.3512546,-8.293571 -3.186475 0.5273419,-8.22793 -2.347977 0.7577676,-8.184044 -1.635739 0.9589391,-8.747911 -4.602315 0.4539134,-8.687322 -3.367451 0.6150097,-8.621572 -2.591162 0.799917,-8.550216 -1.944759 0.9367733,-9.118408 -4.897867 0.5819764,-9.169353 -3.949452 0.7543808,-9.171675 -3.341787 0.8870676,-9.156299 -2.770939 0.983036,0.110,35 1 0
-1.96819 -7.338158 0.09497036,-2.633674 -7.101009 0.4432932,-3.206039 -6.548759 0.6373116,-3.609646 -5.954129 0.8465378,-3.959099 -5.56393 1.094326,-2.880246 -4.752733 0.152439,-3.14048 -3.70198 0.3117496,-3.277691 -3.078481 0.4518785,-3.395197 -2.513139 0.5670182,-2.511861 -4.482246 0.1764898,-2.695648 -3.283157 0.2450365,-2.695648 -3.283157 0.2450365,-2.912318 -1.859445 0.5434778,-2.139174 -4.456923 0.2853408,-2.258565 -3.277904 0.3676681,-2.368197 -2.527806 0.5130934,-2.487335 -1.90562 0.6604988,-1.733221 -4.663385 0.457629,-1.642051 -3.727207 0.5469421,-1.609303 -3.07553 0.6910396,-1.596994 -2.468849 0.8414875,-8.735456 -7.402602 0.1216279,-8.154179 -7.116217 0.4163938,-7.63464 -6.474005 0.6711624,-7.259407 -5.851877 0.9656752,-6.891644 -5.50542 1.279071,-8.041163 -4.680753 0.3489494,-7.93869 -3.534527 0.5058694,-7.894207 -2.826845 0.6741569,-7.852284 -2.218964 0.8081698,-8.402531 -4.519073 0.410107,-8.310032 -3.195505 0.5624844,-8.240172 -2.353545 0.7833348,-8.185859 -1.638761 0.9739664,-8.756166 -4.599014 0.5103675,-8.6964 -3.355943 0.6443325,-8.631057 -2.576127 0.8144901,-8.552826 -1.929452 0.9441479,-9.117869 -4.898955 0.6375266,-9.175278 -3.945047 0.7946294,-9.18541 -3.330349 0.9200775,-9.176032 -2.753765 1.005455,0.210,35 1 0
-1.938796 -7.367198 0.07328361,-2.617905 -7.110298 0.381685,-3.191528 -6.559776 0.5634959,-3.602547 -5.979661 0.7645249,-3.959288 -5.606198 1.011756,-2.86859 -4.785664 0.09290645,-3.139675 -3.723308 0.2541747,-3.289499 -3.097041 0.3948179,-3.413385 -2.519952 0.5159066,-2.508473 -4.522229 0.1353776,-2.701162 -3.319039 0.2154363,-2.701162 -3.319039 0.2154363,-2.920319 -1.906923 0.5126299,-2.139575 -4.496383 0.2644428,-2.271351 -3.32082 0.3599016,-2.382595 -2.569316 0.5053112,-2.500933 -1.927837 0.6472636,-1.731304 -4.696479 0.4489689,-1.646625 -3.762497 0.5505228,-1.607759 -3.122088 0.6881071,-1.585243 -2.514085 0.8329525,-8.724293 -7.415119 0.159746,-8.142506 -7.098373 0.4224023,-7.631649 -6.455644 0.6651893,-7.256444 -5.839759 0.9511258,-6.883521 -5.506408 1.262166,-8.043134 -4.678798 0.3856125,-7.946286 -3.539445 0.5491627,-7.902536 -2.829981 0.7280502,-7.861266 -2.214909 0.8726584,-8.402871 -4.52086 0.4637769,-8.317183 -3.196491 0.6201653,-8.248994 -2.35138 0.8489288,-8.196342 -1.631257 1.04336,-8.754459 -4.606164 0.5750406,-8.702963 -3.361421 0.7180306,-8.63838 -2.584527 0.8890605,-8.563099 -1.941374 1.015736,-9.110118 -4.909139 0.7107193,-9.17403 -3.957879 0.8839605,-9.185553 -3.338807 1.010558,-9.17892 -2.758298 1.090542,0.310,35 1 0
-1.948237 -7.339186 0.0332129,-2.624882 -7.118101 0.3526438,-3.204945 -6.5684 0.5339721,-3.62776 -5.985141 0.734924,-3.978283 -5.623558 0.977529,-2.886148 -4.780106 0.001793884,-3.145143 -3.72392 0.1547139,-3.282682 -3.093898 0.2912353,-3.40106 -2.522752 0.4013644,-2.523841 -4.506372 0.03322607,-2.706532 -3.296574 0.1011436,-2.706532 -3.296574 0.1011436,-2.914323 -1.858169 0.4093008,-2.152671 -4.477842 0.1483805,-2.269391 -3.288476 0.2339756,-2.38054 -2.539664 0.3826178,-2.496636 -1.918023 0.5242909,-1.744497 -4.678764 0.3271707,-1.650014 -3.739121 0.4178247,-1.612401 -3.101593 0.5610955,-1.592128 -2.495855 0.7006696,-8.728273 -7.410806 0.2023999,-8.147858 -7.09486 0.4989948,-7.630488 -6.451253 0.7520251,-7.251904 -5.833738 1.042496,-6.881338 -5.493984 1.352672,-8.043178 -4.662732 0.4479878,-7.942355 -3.519763 0.6139621,-7.901331 -2.810077 0.7903804,-7.861869 -2.194051 0.9340539,-8.408647 -4.504222 0.5082088,-8.322833 -3.185084 0.6651711,-8.260168 -2.34239 0.8919252,-8.212124 -1.62159 1.089814,-8.764815 -4.591628 0.6064402,-8.70944 -3.354773 0.7479113,-8.648099 -2.587103 0.9145688,-8.576117 -1.949986 1.040878,-9.126269 -4.895704 0.7317586,-9.185696 -3.954103 0.8978663,-9.195435 -3.347257 1.021024,-9.186808 -2.773029 1.103104,0.410,35 1 0
-1.967128 -7.333581 0.09129489,-2.639561 -7.094184 0.3643692,-3.21151 -6.538496 0.5201572,-3.620149 -5.958503 0.7032692,-3.963878 -5.601238 0.9300348,-2.862825 -4.734774 0.02491888,-3.136311 -3.707682 0.1535871,-3.285395 -3.096526 0.2757087,-3.413832 -2.540346 0.3768975,-2.506352 -4.476828 0.07411087,-2.702734 -3.295034 0.1223829,-2.702734 -3.295034 0.1223829,-2.918842 -1.913227 0.3836004,-2.143169 -4.458211 0.2091079,-2.278324 -3.30768 0.2706902,-2.38339 -2.573763 0.3977855,-2.497797 -1.947552 0.524338,-1.739735 -4.664293 0.4011224,-1.660111 -3.755649 0.4718758,-1.623821 -3.134732 0.5922224,-1.604862 -2.544359 0.7208907,-8.724784 -7.427034 0.146506,-8.134238 -7.110235 0.4102817,-7.625887 -6.463754 0.6427804,-7.267445 -5.82814 0.9130445,-6.912895 -5.502382 1.202492,-8.043403 -4.690676 0.3810567,-7.94079 -3.547245 0.5405664,-7.897979 -2.842787 0.711329,-7.858852 -2.222999 0.8530901,-8.408041 -4.536109 0.4509844,-8.319443 -3.210725 0.6104258,-8.253166 -2.372413 0.836132,-8.202384 -1.644028 1.032621,-8.762114 -4.619337 0.5542365,-8.705698 -3.374403 0.6980584,-8.643726 -2.602784 0.8667153,-8.573937 -1.951612 0.9976636,-9.120603 -4.913746 0.6795828,-9.180177 -3.963518 0.8471097,-9.193014 -3.344392 0.9750245,-9.189367 -2.754405 1.065245,0.510,35 1 0
-1.967544 -7.316179 0.05239127,-2.638713 -7.076881 0.3665738,-3.206594 -6.536382 0.5431476,-3.6142 -5.957284 0.7360548,-3.957576 -5.590463 0.9725538,-2.860605 -4.733064 0.04803091,-3.135725 -3.705399 0.1830555,-3.286474 -3.096014 0.3147091,-3.418233 -2.536878 0.4234557,-2.50175 -4.469848 0.07956374,-2.7009 -3.287323 0.1402107,-2.7009 -3.287323 0.1402107,-2.92021 -1.891503 0.4362595,-2.138161 -4.449869 0.1965867,-2.272827 -3.288501 0.2669744,-2.37997 -2.55164 0.4128063,-2.498889 -1.923784 0.5569738,-1.737881 -4.658103 0.3742366,-1.656538 -3.739279 0.4536367,-1.622513 -3.104149 0.5912156,-1.606742 -2.500237 0.7372197,-8.729863 -7.408879 0.1436494,-8.140678 -7.092304 0.4340106,-7.628891 -6.463025 0.6777025,-7.261113 -5.845411 0.9542417,-6.901093 -5.512472 1.246924,-8.046079 -4.673213 0.3924362,-7.945454 -3.52843 0.5628499,-7.905231 -2.822828 0.7475413,-7.866928 -2.204782 0.9000569,-8.411349 -4.519683 0.4546157,-8.325671 -3.200056 0.6154025,-8.264638 -2.35706 0.8527647,-8.216624 -1.631278 1.06113,-8.766376 -4.607683 0.5519104,-8.709875 -3.371982 0.696624,-8.647131 -2.604879 0.8735475,-8.576279 -1.964669 1.01115,-9.12619 -4.910583 0.6775757,-9.18629 -3.973999 0.8494574,-9.198906 -3.361576 0.9837442,-9.194609 -2.777049 1.07934,0.610,35 1 0
-1.973165 -7.302831 -0.01345783,-2.64025 -7.074493 0.2764727,-3.212209 -6.521688 0.4322754,-3.628273 -5.941487 0.6035077,-3.968964 -5.585022 0.8183141,-2.876896 -4.746062 -0.0502005,-3.14868 -3.723487 0.07713104,-3.297564 -3.107297 0.20372,-3.426635 -2.545092 0.3098657,-2.519762 -4.477876 -0.01283585,-2.710763 -3.291517 0.04312632,-2.710763 -3.291517 0.04312632,-2.926135 -1.890016 0.3262061,-2.155005 -4.448367 0.1077218,-2.281754 -3.281702 0.1808935,-2.38973 -2.536917 0.3307407,-2.506462 -1.916622 0.47258,-1.752344 -4.644109 0.2863288,-1.667603 -3.718214 0.3673935,-1.632721 -3.074329 0.5097303,-1.615859 -2.468254 0.658455,-8.761852 -7.405903 0.1099205,-8.160457 -7.099103 0.3648843,-7.642073 -6.464538 0.590324,-7.273069 -5.840518 0.8536084,-6.919465 -5.51197 1.136701,-8.053987 -4.683527 0.3256719,-7.951725 -3.54216 0.4861197,-7.909534 -2.83807 0.6602283,-7.870662 -2.22068 0.8049404,-8.418274 -4.527309 0.4015331,-8.326739 -3.20788 0.5617803,-8.262882 -2.371242 0.7935308,-8.212599 -1.643289 0.9984212,-8.774283 -4.61463 0.5096616,-8.711216 -3.373054 0.6543004,-8.647816 -2.600517 0.8282673,-8.576196 -1.945476 0.966529,-9.137018 -4.917184 0.6411809,-9.194714 -3.96338 0.8112351,-9.205317 -3.342472 0.9442949,-9.196747 -2.753946 1.039455,0.710,35 1 0
-1.981052 -7.309377 -0.01671014,-2.644167 -7.078107 0.3061821,-3.21349 -6.525068 0.4826638,-3.62079 -5.931983 0.6751429,-3.958328 -5.552841 0.9074068,-2.886981 -4.759964 -0.01285198,-3.15872 -3.725071 0.1421206,-3.303671 -3.111942 0.2832013,-3.431785 -2.5592 0.39152,-2.530968 -4.486183 0.01420296,-2.720617 -3.299083 0.08062334,-2.720617 -3.299083 0.08062334,-2.930298 -1.894637 0.3811106,-2.165217 -4.458402 0.1264071,-2.2997 -3.294546 0.2150032,-2.4027 -2.556354 0.3402498,-2.519558 -1.932498 0.4709666,-1.764009 -4.653402 0.3098038,-1.681511 -3.724369 0.3929078,-1.6401 -3.091512 0.51871,-1.615216 -2.489091 0.6517535,-8.734784 -7.408612 0.1021059,-8.152039 -7.08693 0.3753979,-7.642279 -6.444705 0.6164519,-7.27676 -5.826869 0.8958126,-6.917289 -5.501241 1.199075,-8.05856 -4.681524 0.3398931,-7.955269 -3.534486 0.5087637,-7.909794 -2.824837 0.6862784,-7.867874 -2.207551 0.8296932,-8.423191 -4.530726 0.4134071,-8.32877 -3.205478 0.5857028,-8.260253 -2.364246 0.8202133,-8.204571 -1.647418 1.023513,-8.776395 -4.618474 0.5203273,-8.713837 -3.371852 0.6781868,-8.649378 -2.589628 0.8566967,-8.571591 -1.931001 0.9925741,-9.135981 -4.920093 0.6510495,-9.197445 -3.960172 0.8277328,-9.210457 -3.341724 0.9570452,-9.202214 -2.760341 1.047667,0.810,35 1 0
-1.977051 -7.306899 -0.0853162,-2.64864 -7.065073 0.2010091,-3.223597 -6.511693 0.3681554,-3.646021 -5.942838 0.5519243,-3.983015 -5.583488 0.7757987,-2.881331 -4.757998 -0.09402988,-3.152055 -3.709389 0.04979834,-3.303234 -3.092652 0.1803855,-3.437525 -2.534264 0.2902849,-2.528083 -4.503922 -0.05482221,-2.717768 -3.310705 0.02391262,-2.717768 -3.310705 0.02391262,-2.939281 -1.907597 0.3223625,-2.165349 -4.477996 0.06711212,-2.3001 -3.314454 0.1607333,-2.411775 -2.574232 0.3059246,-2.532944 -1.943136 0.4435467,-1.766696 -4.673654 0.2425787,-1.681241 -3.744045 0.3381515,-1.638454 -3.114906 0.4734131,-1.612437 -2.51222 0.6123972,-8.751083 -7.418621 0.1198846,-8.163165 -7.110753 0.405479,-7.6561 -6.467172 0.6503559,-7.30084 -5.835836 0.9329499,-6.954715 -5.481479 1.22458,-8.067032 -4.690901 0.350135,-7.962304 -3.536495 0.5173482,-7.920429 -2.825119 0.70016,-7.882043 -2.208392 0.8477035,-8.432043 -4.534847 0.4166931,-8.340384 -3.206338 0.5834019,-8.272666 -2.361011 0.818809,-8.222135 -1.635595 1.029007,-8.786626 -4.614313 0.5185624,-8.721224 -3.359678 0.6614789,-8.654671 -2.574138 0.8358245,-8.579723 -1.914083 0.9737197,-9.149979 -4.907336 0.6471527,-9.199749 -3.944435 0.8072345,-9.208511 -3.325651 0.9296322,-9.201972 -2.745919 1.021148,0.910,35 1 0
-1.968303 -7.326395 0.008127284,-2.631394 -7.099557 0.3356153,-3.205742 -6.538148 0.5104734,-3.618153 -5.939065 0.6998892,-3.973469 -5.568273 0.9355808,-2.887558 -4.774696 0.01905798,-3.159095 -3.740961 0.1637004,-3.303026 -3.121684 0.2987411,-3.431727 -2.561352 0.4125656,-2.529303 -4.498228 0.04583532,-2.724959 -3.323803 0.1107569,-2.724959 -3.323803 0.1107569,-2.946228 -1.923581 0.4181691,-2.162755 -4.466859 0.1587436,-2.305295 -3.303201 0.2443287,-2.420377 -2.558711 0.4024334,-2.545285 -1.926105 0.5548116,-1.755371 -4.666178 0.3303423,-1.680371 -3.734218 0.4235894,-1.6461 -3.089838 0.5730109,-1.630092 -2.482389 0.7293996,-8.757586 -7.432789 0.1578532,-8.167409 -7.134781 0.4438678,-7.653486 -6.480774 0.6903231,-7.292632 -5.858237 0.9724127,-6.948663 -5.500692 1.269712,-8.076117 -4.697067 0.4032106,-7.97438 -3.559621 0.5721248,-7.933582 -2.857426 0.7595063,-7.89587 -2.246196 0.9125023,-8.44003 -4.539673 0.4714278,-8.353172 -3.225771 0.6368663,-8.290572 -2.379642 0.8725519,-8.241173 -1.658 1.080244,-8.794098 -4.62796 0.5752202,-8.736512 -3.38792 0.7218054,-8.671881 -2.601575 0.9026346,-8.596023 -1.945711 1.045559,-9.155715 -4.933259 0.7038907,-9.213212 -3.974813 0.8803324,-9.225133 -3.351204 1.015208,-9.218073 -2.769415 1.108998,1.010,35 1 0
-1.966955 -7.317594 -0.06335413,-2.645782 -7.063125 0.2707136,-3.215855 -6.527524 0.4613613,-3.624746 -5.949813 0.6644835,-3.967457 -5.590829 0.9028558,-2.887396 -4.775701 -0.04730616,-3.161522 -3.728519 0.1115046,-3.310024 -3.111181 0.2586943,-3.442997 -2.550382 0.3745037,-2.526441 -4.509918 -0.03001517,-2.720793 -3.322138 0.04811129,-2.720793 -3.322138 0.04811129,-2.940033 -1.902125 0.3681785,-2.158531 -4.478853 0.07491724,-2.292675 -3.319787 0.1619249,-2.405401 -2.577398 0.3198387,-2.529855 -1.944791 0.4666424,-1.754503 -4.668157 0.2399317,-1.673989 -3.740444 0.3284654,-1.637124 -3.101621 0.4718334,-1.615928 -2.49167 0.617974,-8.76998 -7.454456 0.172411,-8.17628 -7.158034 0.4556279,-7.654968 -6.509029 0.6968342,-7.286666 -5.88792 0.9701321,-6.938998 -5.544313 1.255872,-8.081855 -4.712102 0.414257,-7.979807 -3.56583 0.5944692,-7.936018 -2.856479 0.7833296,-7.894773 -2.240902 0.932125,-8.445551 -4.556704 0.4747593,-8.364928 -3.241477 0.6452131,-8.307221 -2.398404 0.8825294,-8.265285 -1.669405 1.090947,-8.799086 -4.651276 0.570639,-8.746816 -3.426228 0.7173585,-8.685102 -2.652031 0.8967526,-8.617327 -2.001853 1.03932,-9.157802 -4.965337 0.6917302,-9.217649 -4.023366 0.86757,-9.231071 -3.411606 1.009034,-9.228018 -2.835617 1.111718,1.110,35 1 0
-1.959951 -7.337941 -0.005093635,-2.625448 -7.089835 0.2990626,-3.199713 -6.525083 0.4685255,-3.625853 -5.935621 0.6588169,-3.978811 -5.574014 0.8958484,-2.862291 -4.77596 -0.0294675,-3.137182 -3.73669 0.1117841,-3.283688 -3.127229 0.2368425,-3.414375 -2.567119 0.3345567,-2.508061 -4.510881 0.001923115,-2.704003 -3.325181 0.07154635,-2.704003 -3.325181 0.07154635,-2.92073 -1.9211 0.359341,-2.147571 -4.483596 0.1178785,-2.275906 -3.314021 0.2048684,-2.389296 -2.578612 0.3547184,-2.510161 -1.950425 0.4932292,-1.751563 -4.681352 0.2924687,-1.668799 -3.757858 0.3824255,-1.634263 -3.126501 0.5237375,-1.615673 -2.520401 0.6666306,-8.795239 -7.590547 0.3619239,-8.188604 -7.247991 0.6660128,-7.691597 -6.564808 0.8985762,-7.371903 -5.876976 1.174169,-7.043096 -5.455649 1.445021,-8.082833 -4.809989 0.5594761,-7.960268 -3.698375 0.7216831,-7.908065 -3.023352 0.9011462,-7.865483 -2.424739 1.033908,-8.445319 -4.636282 0.6142574,-8.362421 -3.397057 0.744592,-8.311907 -2.635819 0.9575647,-8.273556 -1.974012 1.127384,-8.792291 -4.706468 0.7177706,-8.74115 -3.525077 0.8385456,-8.699736 -2.802661 1.024106,-8.649164 -2.184081 1.160141,-9.152665 -4.990379 0.8482579,-9.196207 -4.080623 0.9963422,-9.197732 -3.484575 1.133482,-9.181188 -2.90479 1.227398,1.210,35 1 0
-1.93594 -7.322583 -0.02187262,-2.608957 -7.092863 0.261854,-3.188053 -6.530263 0.4159927,-3.614074 -5.931077 0.5927232,-3.952795 -5.553787 0.8157231,-2.857522 -4.772716 -0.08629204,-3.132827 -3.733634 0.03239767,-3.279394 -3.121156 0.1478764,-3.406956 -2.56156 0.2397783,-2.50528 -4.504771 -0.05146774,-2.701574 -3.313049 -0.005890964,-2.701574 -3.313049 -0.005890964,-2.916842 -1.907741 0.2827424,-2.144518 -4.476146 0.06632467,-2.27792 -3.302004 0.1336668,-2.393617 -2.565365 0.2821956,-2.515444 -1.942379 0.4244187,-1.745454 -4.670852 0.2391875,-1.667351 -3.743152 0.3148367,-1.635015 -3.110815 0.4547297,-1.618257 -2.506513 0.5953001,-8.814418 -7.629163 0.3960313,-8.205862 -7.234668 0.6776433,-7.713951 -6.513261 0.8719599,-7.414927 -5.756291 1.127695,-7.138695 -5.203632 1.392805,-8.088873 -4.808324 0.3449457,-7.930731 -3.751943 0.4473029,-7.858677 -3.097116 0.601082,-7.794618 -2.50433 0.7113382,-8.466931 -4.654041 0.3847535,-8.391272 -3.554356 0.3965864,-8.357525 -2.929498 0.5288128,-8.328692 -2.41447 0.6169853,-8.807896 -4.712893 0.4930674,-8.782216 -3.656045 0.5268314,-8.753608 -3.062592 0.6513608,-8.71174 -2.570812 0.7239615,-9.141247 -4.968504 0.6459695,-9.178327 -4.139312 0.7313106,-9.176367 -3.625162 0.8202816,-9.14216 -3.146297 0.8713605,1.310,35 1 0
-1.959517 -7.336487 -0.02048186,-2.621138 -7.086117 0.3077866,-3.190437 -6.534133 0.490591,-3.613024 -5.954102 0.6879113,-3.963786 -5.582734 0.9282005,-2.859087 -4.780416 -0.006982919,-3.131908 -3.733552 0.1495937,-3.282347 -3.119394 0.2914353,-3.411964 -2.55836 0.4044175,-2.506299 -4.513833 0.0143018,-2.699158 -3.327678 0.08635192,-2.699158 -3.327678 0.08635192,-2.919611 -1.918007 0.3883183,-2.145566 -4.48833 0.1209359,-2.274801 -3.335734 0.209359,-2.390725 -2.600507 0.3594034,-2.512206 -1.97844 0.5039664,-1.749161 -4.685405 0.2885107,-1.668915 -3.766973 0.3822276,-1.636922 -3.133535 0.5254627,-1.621262 -2.526342 0.6712454,-8.837901 -7.631025 -0.6162519,-8.211552 -7.275906 -0.2121403,-7.797074 -6.519973 0.03130412,-7.56002 -5.707549 0.2988328,-7.309836 -5.044565 0.5012318,-8.084991 -5.001815 -0.6007115,-7.983823 -3.920736 -0.2999487,-7.921161 -3.271975 -0.07100785,-7.891141 -2.617977 0.03608096,-8.423104 -4.957071 -0.5708781,-8.412428 -3.923801 0.03410864,-8.394314 -4.779881 0.3289983,-8.424284 -5.395854 0.289712,-8.764568 -5.035809 -0.4561083,-8.777646 -4.107358 0.1404415,-8.703893 -4.95926 0.3848269,-8.707993 -5.598611 0.3055394,-9.143767 -5.259799 -0.3285143,-9.145268 -4.4389 0.1160017,-9.039005 -4.897659 0.299574,-8.998673 -5.381221 0.2521597,1.410,35 1 0
-1.937264 -7.348655 -0.001092989,-2.597761 -7.117908 0.31925,-3.181236 -6.55163 0.4927378,-3.607196 -5.954053 0.6819471,-3.959501 -5.584074 0.9159833,-2.85918 -4.796453 0.003276483,-3.134274 -3.749651 0.1451045,-3.286842 -3.131676 0.2752132,-3.416879 -2.568276 0.3824309,-2.503952 -4.524173 0.0194066,-2.699573 -3.340015 0.08415087,-2.699573 -3.340015 0.08415087,-2.917909 -1.930189 0.378626,-2.14313 -4.49592 0.1184376,-2.281108 -3.345257 0.2078811,-2.397381 -2.619903 0.3648598,-2.518483 -1.994184 0.5085465,-1.745298 -4.683996 0.275111,-1.671433 -3.769809 0.3641448,-1.637219 -3.148232 0.5088707,-1.616886 -2.548065 0.6517982,-8.849224 -7.68223 -0.8914055,-8.258305 -7.318771 -0.4478868,-7.87525 -6.580163 -0.1847385,-7.685088 -5.773748 0.08684832,-7.494809 -5.044258 0.3005362,-8.092375 -5.123084 -0.8739456,-7.983344 -4.044115 -0.5589983,-7.924531 -3.423649 -0.3237746,-7.897069 -2.832983 -0.213043,-8.439434 -5.086884 -0.8586854,-8.436303 -4.253261 -0.20237,-8.405385 -5.232859 0.04951668,-8.38725 -5.835779 -0.04056102,-8.778378 -5.165802 -0.7322073,-8.78893 -4.425972 -0.08388358,-8.710907 -5.36836 0.1477792,-8.68007 -5.954574 0.06153989,-9.140126 -5.383394 -0.5847449,-9.140838 -4.676267 -0.1212427,-9.038469 -5.222876 0.07713115,-8.980889 -5.687356 0.04475033,1.510,35 1 0
-1.919764 -7.358015 -0.009200385,-2.588778 -7.135115 0.330396,-3.170265 -6.578767 0.5202324,-3.591503 -5.982086 0.7273499,-3.94204 -5.583999 0.9755685,-2.843801 -4.811697 0.01812413,-3.117039 -3.757333 0.1701295,-3.266107 -3.142083 0.3079947,-3.392662 -2.581865 0.4159936,-2.485928 -4.535978 0.03059996,-2.679567 -3.342767 0.09580511,-2.679567 -3.342767 0.09580511,-2.89307 -1.93207 0.4046022,-2.12427 -4.507034 0.127598,-2.259845 -3.347511 0.2122487,-2.377614 -2.613105 0.3729285,-2.50283 -1.988471 0.5288548,-1.726439 -4.698431 0.2854242,-1.650225 -3.782979 0.3745735,-1.623346 -3.161976 0.5222222,-1.614085 -2.570777 0.6722578,-8.822143 -7.727054 -1.445258,-8.274626 -7.343366 -1.020244,-7.872915 -6.647581 -0.7004209,-7.75809 -5.822073 -0.3845497,-7.865044 -5.157673 -0.123119,-8.133488 -5.316734 -1.316145,-8.0047 -4.223939 -0.9242772,-7.942395 -3.638361 -0.6362981,-7.904689 -3.111695 -0.4878693,-8.491076 -5.286569 -1.265528,-8.410225 -4.480106 -0.5493242,-8.400956 -5.507461 -0.2981983,-8.429365 -6.214241 -0.3752933,-8.840183 -5.359727 -1.10094,-8.781816 -4.680343 -0.4509217,-8.741195 -5.659717 -0.2752484,-8.745369 -6.255141 -0.3869549,-9.216203 -5.548066 -0.9120982,-9.17383 -4.814918 -0.4553934,-9.084325 -5.40676 -0.2933506,-9.056167 -5.895612 -0.3312039,1.610,35 1 0
-1.914407 -7.381097 0.00078285,-2.582789 -7.150005 0.3202277,-3.167762 -6.589469 0.4997644,-3.595051 -5.990042 0.6949577,-3.942266 -5.602087 0.9294831,-2.831934 -4.828186 0.01726232,-3.1105 -3.775024 0.1621041,-3.262182 -3.160002 0.2905957,-3.39253 -2.597448 0.3932444,-2.477668 -4.55549 0.03379617,-2.673316 -3.358633 0.1078765,-2.673316 -3.358633 0.1078765,-2.892906 -1.950472 0.4134209,-2.120504 -4.528514 0.1322823,-2.258903 -3.36778 0.2231696,-2.376328 -2.639922 0.38285,-2.501381 -2.019845 0.5329767,-1.727103 -4.72034 0.286829,-1.652462 -3.800825 0.3782903,-1.622489 -3.183969 0.5247463,-1.609772 -2.593468 0.6701084,-8.825872 -7.743242 -1.693955,-8.309628 -7.344123 -1.199594,-7.907113 -6.663669 -0.8258252,-7.852156 -5.849987 -0.4756333,-8.068824 -5.280524 -0.2095635,-8.16324 -5.430446 -1.463275,-8.03242 -4.392261 -1.041174,-7.957124 -3.819101 -0.7366395,-7.899908 -3.274517 -0.5745578,-8.530186 -5.377653 -1.432687,-8.44161 -4.704035 -0.6961623,-8.443658 -5.717471 -0.5146044,-8.483503 -6.378283 -0.6287673,-8.886835 -5.449237 -1.271342,-8.816239 -4.804868 -0.5999196,-8.783875 -5.762197 -0.4740247,-8.800595 -6.340023 -0.6149035,-9.273767 -5.63184 -1.080636,-9.228618 -4.908574 -0.6545074,-9.133527 -5.480803 -0.5258659,-9.104268 -5.957075 -0.5737497,1.710,35 1 0
-1.921605 -7.377777 -0.01336582,-2.594944 -7.132276 0.3199776,-3.1684 -6.588114 0.5095864,-3.587003 -5.984519 0.7190548,-3.927673 -5.566537 0.9654361,-2.828362 -4.821943 -0.01264348,-3.108376 -3.768568 0.1315599,-3.257458 -3.153835 0.2710387,-3.383482 -2.593073 0.3799135,-2.473568 -4.553918 -0.0005405042,-2.666666 -3.351827 0.06275145,-2.666666 -3.351827 0.06275145,-2.887613 -1.948149 0.3743127,-2.118431 -4.530299 0.09551404,-2.244121 -3.367551 0.1719911,-2.359468 -2.636122 0.3297966,-2.483674 -2.012197 0.4843608,-1.72943 -4.725278 0.2514601,-1.647531 -3.820768 0.3310345,-1.620314 -3.202234 0.4728047,-1.612649 -2.609829 0.6140802,-8.842811 -7.736309 -1.736063,-8.340189 -7.367675 -1.230815,-7.936639 -6.692647 -0.846561,-7.905035 -5.885947 -0.4892441,-8.150814 -5.369165 -0.2259622,-8.167946 -5.452447 -1.477687,-8.044423 -4.466743 -1.019418,-7.966251 -3.928582 -0.7091608,-7.899785 -3.405398 -0.5618683,-8.541068 -5.387325 -1.444114,-8.439901 -4.791604 -0.7092398,-8.454435 -5.804387 -0.5675732,-8.50354 -6.386582 -0.7156074,-8.902756 -5.463449 -1.278388,-8.814313 -4.910156 -0.6087403,-8.790712 -5.871974 -0.5322946,-8.819468 -6.384175 -0.6995276,-9.296494 -5.645091 -1.078901,-9.231729 -4.969675 -0.6716295,-9.142287 -5.571919 -0.5802553,-9.129156 -6.021865 -0.648549,1.810,35 1 0
-1.928383 -7.407097 0.04514807,-2.588664 -7.180778 0.364742,-3.167055 -6.60922 0.5389701,-3.596842 -6.011582 0.7348064,-3.948984 -5.629865 0.9740823,-2.829659 -4.834979 0.03694535,-3.109983 -3.793375 0.1841235,-3.263985 -3.181668 0.3142484,-3.396609 -2.624786 0.4172019,-2.476702 -4.565513 0.06159914,-2.674811 -3.373421 0.1315101,-2.674811 -3.373421 0.1315101,-2.900715 -1.970697 0.4175781,-2.120562 -4.542136 0.1718587,-2.252783 -3.375545 0.260335,-2.371936 -2.640393 0.4188633,-2.494901 -2.013649 0.5628599,-1.727963 -4.742563 0.3402679,-1.653507 -3.823957 0.4283517,-1.627155 -3.202621 0.5734154,-1.613258 -2.608392 0.7157013,-8.885595 -7.686594 -1.550257,-8.408624 -7.375371 -0.9994485,-7.999 -6.68901 -0.6018318,-7.990797 -5.90884 -0.2394744,-8.27494 -5.471153 0.05128944,-8.242891 -5.375446 -1.206182,-8.156192 -4.523836 -0.6235811,-8.083526 -4.038368 -0.2220515,-8.022757 -3.54335 -0.03159416,-8.630373 -5.288526 -1.184081,-8.562035 -4.791614 -0.382018,-8.548779 -5.789777 -0.2184895,-8.585621 -6.273384 -0.3574549,-9.007993 -5.386858 -1.033462,-8.960216 -4.986892 -0.3059598,-8.894817 -5.946918 -0.2463859,-8.907945 -6.360608 -0.4509552,-9.408184 -5.608507 -0.8405865,-9.362385 -5.073303 -0.3973527,-9.243654 -5.704969 -0.3359783,-9.214489 -6.075845 -0.4456668,1.910,35 1 0
-1.93343 -7.408203 0.05558679,-2.595869 -7.178113 0.3898076,-3.174822 -6.617283 0.57487,-3.596851 -6.019657 0.7744346,-3.945813 -5.630827 1.015622,-2.835166 -4.832178 0.07792978,-3.110556 -3.787109 0.2277107,-3.263003 -3.173048 0.3599613,-3.396551 -2.614298 0.4642136,-2.479686 -4.563325 0.08997355,-2.674498 -3.372426 0.1627247,-2.674498 -3.372426 0.1627247,-2.908278 -1.976138 0.4645125,-2.123254 -4.54408 0.1862986,-2.256087 -3.38627 0.2794642,-2.372767 -2.656951 0.4410528,-2.497944 -2.028731 0.5911736,-1.730647 -4.746793 0.3417476,-1.650878 -3.838398 0.4346733,-1.619642 -3.2233 0.5834805,-1.604853 -2.633581 0.7313255,-8.94939 -7.677494 -1.517142,-8.476923 -7.420068 -0.9177016,-8.060369 -6.731589 -0.5245187,-8.057605 -5.959671 -0.1860322,-8.338102 -5.505948 0.08887494,-8.299074 -5.37673 -1.114332,-8.217456 -4.548349 -0.5077363,-8.144291 -4.053842 -0.07270741,-8.07824 -3.559392 0.1467118,-8.696879 -5.273372 -1.126527,-8.645739 -4.79655 -0.3105675,-8.624326 -5.801569 -0.1411558,-8.659766 -6.315853 -0.2809635,-9.086269 -5.36848 -1.004426,-9.043827 -5.022727 -0.252757,-8.972534 -5.99307 -0.1896616,-8.985768 -6.416672 -0.4000043,-9.494024 -5.581316 -0.8381659,-9.453794 -5.108968 -0.3584075,-9.327571 -5.760301 -0.2787495,-9.298491 -6.134209 -0.3843477,2.010,35 1 0
-1.919041 -7.403408 -0.003974998,-2.591503 -7.169628 0.3223436,-3.169668 -6.623595 0.5071638,-3.597555 -6.032159 0.7077135,-3.94788 -5.642159 0.9537402,-2.830188 -4.851024 0.01169113,-3.111177 -3.809818 0.1581664,-3.265717 -3.19624 0.2939096,-3.396832 -2.634482 0.406155,-2.477233 -4.578176 0.02673121,-2.674607 -3.38783 0.1026398,-2.674607 -3.38783 0.1026398,-2.90116 -1.986681 0.4116178,-2.122405 -4.55381 0.1261801,-2.249345 -3.393818 0.216165,-2.364928 -2.669271 0.3804878,-2.486126 -2.040004 0.5347452,-1.732979 -4.751273 0.2808913,-1.650375 -3.841774 0.3734867,-1.620637 -3.228641 0.5235178,-1.606965 -2.636335 0.6720128,-9.049157 -7.693058 -1.511714,-8.567969 -7.491954 -0.8221751,-8.145538 -6.77251 -0.3920096,-8.158476 -6.009464 -0.03787565,-8.460548 -5.569608 0.2481447,-8.410554 -5.386864 -1.029728,-8.333217 -4.590243 -0.3635445,-8.259178 -4.103218 0.1124645,-8.193502 -3.585875 0.364491,-8.820038 -5.295091 -1.063034,-8.794945 -4.760574 -0.1542835,-8.751245 -5.777849 0.03371584,-8.767321 -6.326437 -0.1226554,-9.227288 -5.409059 -0.9573857,-9.210894 -4.99836 -0.1123585,-9.107508 -5.998048 -0.04919755,-9.098669 -6.46911 -0.2989231,-9.650084 -5.660394 -0.7994906,-9.63262 -5.117774 -0.2668091,-9.484637 -5.779682 -0.1950744,-9.435441 -6.204668 -0.3325509,2.110,35 1 0
-1.921249 -7.438472 0.1002972,-2.591509 -7.209939 0.4145923,-3.17321 -6.630712 0.5901173,-3.594563 -6.023759 0.7885219,-3.943563 -5.629379 1.02611,-2.842434 -4.856663 0.08027237,-3.119176 -3.811162 0.2251229,-3.270551 -3.193684 0.3508005,-3.399562 -2.629284 0.4534974,-2.486634 -4.584131 0.1030498,-2.682261 -3.398536 0.1655634,-2.682261 -3.398536 0.1655634,-2.913356 -1.987566 0.4502227,-2.126893 -4.560739 0.2119415,-2.257376 -3.401327 0.2936128,-2.373164 -2.664929 0.4487314,-2.49613 -2.030749 0.5905492,-1.72916 -4.760545 0.3786591,-1.65702 -3.844618 0.4585317,-1.628584 -3.227416 0.6002353,-1.614616 -2.63463 0.7415456,-9.170874 -7.751186 -1.130133,-8.686925 -7.561609 -0.3979439,-8.251141 -6.82621 0.06815147,-8.269263 -6.063566 0.4438845,-8.584933 -5.61586 0.7667261,-8.515683 -5.370087 -0.5232674,-8.439386 -4.660508 0.2169869,-8.374735 -4.226138 0.7347808,-8.310703 -3.731938 1.005374,-8.944229 -5.265781 -0.5629526,-8.901107 -4.791303 0.4107627,-8.845788 -5.82127 0.640388,-8.856656 -6.333018 0.5238528,-9.375329 -5.382595 -0.469624,-9.332278 -5.079854 0.4048207,-9.218931 -6.110963 0.4444538,-9.210049 -6.535789 0.1834372,-9.821659 -5.641525 -0.3174637,-9.784042 -5.178098 0.2490904,-9.617052 -5.885172 0.2954065,-9.564717 -6.290637 0.1347759,2.210,35 1 0
-1.921737 -7.409765 0.01720592,-2.598915 -7.165994 0.3496231,-3.176829 -6.617616 0.5465621,-3.592266 -6.024474 0.7672538,-3.935298 -5.625822 1.033005,-2.852497 -4.851352 0.007542713,-3.128773 -3.794713 0.1589783,-3.274555 -3.186548 0.296646,-3.402802 -2.632879 0.4061581,-2.493341 -4.580881 0.02623983,-2.686652 -3.383752 0.09155343,-2.686652 -3.383752 0.09155343,-2.909686 -1.975918 0.3985109,-2.132459 -4.55463 0.1314892,-2.264732 -3.395686 0.2097248,-2.378655 -2.663939 0.3613163,-2.504164 -2.033665 0.5092303,-1.733835 -4.748031 0.2973564,-1.657249 -3.829638 0.3766845,-1.626383 -3.204193 0.5196135,-1.61298 -2.602549 0.6615986,-9.204359 -7.778234 -0.9459224,-8.711166 -7.602769 -0.1363428,-8.257391 -6.861574 0.3677157,-8.281618 -6.104863 0.7588514,-8.640308 -5.669652 1.07697,-8.536932 -5.388977 -0.2006727,-8.46969 -4.767245 0.6397574,-8.425239 -4.365236 1.221306,-8.374638 -3.827326 1.527154,-8.979598 -5.265914 -0.2673115,-8.959517 -4.832358 0.7957751,-8.889375 -5.876735 1.048228,-8.869456 -6.351549 0.930548,-9.426088 -5.369746 -0.200969,-9.404638 -5.10025 0.7210923,-9.268866 -6.174865 0.7191701,-9.233957 -6.592803 0.4150367,-9.876287 -5.647178 -0.06312734,-9.872506 -5.194194 0.5183984,-9.683919 -5.92481 0.5269127,-9.595606 -6.350072 0.3077312,2.310,35 1 0
-1.910535 -7.42632 0.09735021,-2.585572 -7.203091 0.4364083,-3.164415 -6.643925 0.6236596,-3.585197 -6.039741 0.8354604,-3.937555 -5.639578 1.085111,-2.851236 -4.85465 0.07407353,-3.122859 -3.814948 0.2143372,-3.269807 -3.202899 0.356182,-3.395617 -2.651021 0.4693829,-2.492357 -4.57614 0.08408398,-2.683636 -3.392358 0.1270837,-2.683636 -3.392358 0.1270837,-2.898557 -1.99221 0.4164787,-2.132191 -4.545952 0.1794913,-2.262437 -3.399162 0.2421795,-2.382065 -2.670526 0.3896855,-2.506916 -2.049201 0.5312787,-1.735064 -4.733863 0.3394733,-1.662548 -3.828176 0.4062525,-1.637859 -3.207028 0.5332333,-1.628247 -2.617555 0.665853,-9.279001 -7.849374 -0.8338819,-8.789066 -7.681468 0.02486014,-8.342222 -7.017059 0.5441263,-8.329732 -6.281942 0.9245173,-8.668277 -5.763658 1.249024,-8.573663 -5.496793 0.0563516,-8.494624 -4.95059 0.9896915,-8.483012 -4.592262 1.608169,-8.453125 -4.048993 1.946181,-9.042459 -5.337835 -0.04163468,-9.045784 -4.975257 1.106716,-8.98733 -6.080493 1.317683,-8.948413 -6.535684 1.140011,-9.517113 -5.43235 0.009060085,-9.504036 -5.17167 1.02635,-9.362848 -6.290927 0.9815366,-9.303146 -6.702646 0.6361594,-9.977907 -5.704916 0.1283189,-10.0198 -5.266641 0.8032411,-9.819826 -6.031106 0.8215258,-9.69062 -6.471277 0.5984275,2.410,35 1 0
-1.925766 -7.433582 0.08520722,-2.608154 -7.188924 0.4152658,-3.18187 -6.629781 0.6041035,-3.598139 -6.027139 0.8207799,-3.94343 -5.630805 1.076846,-2.852241 -4.852691 0.03848064,-3.119415 -3.801843 0.1837171,-3.260284 -3.189026 0.3224995,-3.386207 -2.640891 0.4294212,-2.492353 -4.58403 0.05404944,-2.678821 -3.389662 0.1027102,-2.678821 -3.389662 0.1027102,-2.895963 -1.981707 0.3979046,-2.131356 -4.557871 0.1561212,-2.25691 -3.401569 0.2196131,-2.37117 -2.668232 0.3628529,-2.497184 -2.043433 0.5033503,-1.734661 -4.754148 0.3220431,-1.65802 -3.840594 0.3930121,-1.63275 -3.217823 0.5261095,-1.625154 -2.624595 0.6591932,-9.263879 -7.885175 -0.626482,-8.785053 -7.699071 0.226411,-8.354393 -7.047222 0.777359,-8.333308 -6.361 1.200846,-8.662618 -5.849646 1.586837,-8.583184 -5.475803 0.2976533,-8.48473 -4.944375 1.23413,-8.468544 -4.619025 1.847446,-8.434849 -4.12483 2.180075,-9.0563 -5.325838 0.2190615,-9.035591 -4.997539 1.350136,-8.9814 -6.131423 1.556728,-8.944878 -6.627916 1.384273,-9.534823 -5.452123 0.291999,-9.503809 -5.203725 1.309904,-9.379297 -6.308339 1.299199,-9.328595 -6.742727 0.9809207,-10.00315 -5.760002 0.4344623,-10.04963 -5.269178 1.118086,-9.854455 -5.988424 1.165469,-9.729016 -6.442888 0.9708266,2.510,35 1 0
-1.917422 -7.450054 0.1016426,-2.60023 -7.222105 0.4021897,-3.182869 -6.650251 0.5669409,-3.605831 -6.040582 0.7617329,-3.954763 -5.645016 1.001665,-2.852776 -4.880844 0.01387508,-3.131884 -3.828397 0.1412136,-3.280115 -3.21212 0.2665768,-3.408059 -2.653843 0.3694792,-2.499437 -4.599293 0.04029795,-2.693366 -3.398269 0.07559913,-2.693366 -3.398269 0.07559913,-2.91329 -1.982952 0.3714696,-2.141031 -4.5645 0.1527996,-2.272574 -3.397806 0.2134523,-2.38941 -2.657241 0.3641628,-2.515957 -2.021745 0.5065976,-1.744337 -4.753361 0.3253845,-1.665007 -3.834924 0.3956461,-1.636855 -3.210751 0.5307956,-1.625499 -2.612772 0.6690064,-9.306011 -7.929943 -0.6709027,-8.815557 -7.753096 0.13952,-8.351265 -7.104345 0.6685333,-8.307624 -6.427124 1.085682,-8.666487 -5.975179 1.444661,-8.60062 -5.547651 0.2465568,-8.479964 -4.999794 1.165133,-8.449846 -4.679622 1.757136,-8.400539 -4.230058 2.101532,-9.075999 -5.394379 0.1994862,-9.035124 -5.009206 1.324835,-8.990479 -6.117584 1.573493,-8.974916 -6.664581 1.45749,-9.559431 -5.515479 0.2957001,-9.523844 -5.184711 1.295203,-9.409333 -6.245647 1.318158,-9.375589 -6.713645 1.058254,-10.03749 -5.823928 0.4561106,-10.092 -5.31431 1.146749,-9.903199 -5.976316 1.240771,-9.787288 -6.431751 1.116002,2.610,35 1 0
-1.905453 -7.438041 0.1080096,-2.58586 -7.207246 0.4494721,-3.165909 -6.647418 0.6475732,-3.584789 -6.045332 0.8710436,-3.935905 -5.64672 1.136262,-2.848852 -4.861076 0.09345679,-3.126011 -3.815308 0.2390188,-3.271372 -3.208993 0.373989,-3.398497 -2.661392 0.4800974,-2.492136 -4.585739 0.1022545,-2.689745 -3.391979 0.1472565,-2.689745 -3.391979 0.1472565,-2.908401 -1.992106 0.4395472,-2.132434 -4.558805 0.1977178,-2.269678 -3.400789 0.2623577,-2.384617 -2.667898 0.4121193,-2.51178 -2.032837 0.559417,-1.734136 -4.755096 0.3573685,-1.662319 -3.843401 0.4302159,-1.635163 -3.225015 0.5695483,-1.62536 -2.631222 0.709766,-9.311346 -7.972585 -0.4039821,-8.815689 -7.791463 0.4373652,-8.35111 -7.118984 0.9974778,-8.31505 -6.460361 1.443503,-8.679358 -6.015606 1.835649,-8.605667 -5.531033 0.5757577,-8.471165 -5.013856 1.504797,-8.438276 -4.699398 2.111362,-8.38985 -4.276611 2.471956,-9.089124 -5.377359 0.529379,-9.0437 -4.994924 1.670412,-8.988791 -6.0955 1.959098,-8.965796 -6.690566 1.889522,-9.575741 -5.518339 0.6227731,-9.529108 -5.205476 1.649497,-9.417544 -6.25427 1.720986,-9.378484 -6.750998 1.496084,-10.05655 -5.858533 0.7806336,-10.10911 -5.316669 1.507973,-9.931637 -5.946154 1.63521,-9.817743 -6.414849 1.53863,2.710,35 1 0
-1.898668 -7.473661 0.1349378,-2.562076 -7.23822 0.5270442,-3.140495 -6.674304 0.7447374,-3.553036 -6.06338 0.9844334,-3.904613 -5.658397 1.277661,-2.83715 -4.896841 0.1864064,-3.118868 -3.855272 0.3531465,-3.272462 -3.241992 0.5128782,-3.407895 -2.680557 0.6402519,-2.475977 -4.611883 0.1748634,-2.676208 -3.415823 0.2306408,-2.676208 -3.415823 0.2306408,-2.903351 -2.005873 0.5477968,-2.116424 -4.585048 0.253013,-2.245244 -3.434274 0.3235922,-2.360403 -2.705286 0.4890278,-2.490345 -2.078004 0.647399,-1.723614 -4.78293 0.3980971,-1.650984 -3.884298 0.4828937,-1.625229 -3.271193 0.6288686,-1.621374 -2.688741 0.7702955,-9.342358 -8.032621 0.009366239,-8.827754 -7.858065 0.8444886,-8.315694 -7.159395 1.406887,-8.333808 -6.511583 1.856862,-8.772119 -6.168082 2.218695,-8.598457 -5.52925 1.062483,-8.478975 -5.065664 2.066887,-8.45093 -4.83192 2.684287,-8.410152 -4.510536 3.03438,-9.11091 -5.343299 1.027714,-9.033792 -5.14635 2.213681,-9.010855 -6.257278 2.462087,-9.018369 -6.788363 2.369811,-9.611772 -5.48354 1.134563,-9.540759 -5.289899 2.173974,-9.443121 -6.316263 2.141373,-9.423329 -6.741043 1.883192,-10.10742 -5.84155 1.313093,-10.14668 -5.418258 2.031687,-9.964865 -6.062686 2.130957,-9.84892 -6.475947 2.024915,2.810,35 1 0
-1.911209 -7.488037 0.128601,-2.578992 -7.244068 0.4920602,-3.150158 -6.697919 0.6998456,-3.560812 -6.102724 0.9292204,-3.909664 -5.706104 1.205779,-2.829119 -4.897042 0.1457807,-3.10611 -3.851438 0.2999363,-3.258405 -3.241908 0.4500446,-3.397512 -2.683063 0.5717121,-2.471748 -4.624546 0.1467766,-2.667273 -3.431753 0.2092832,-2.667273 -3.431753 0.2092832,-2.908791 -2.026542 0.5362999,-2.115003 -4.606054 0.2364986,-2.245351 -3.458839 0.3061895,-2.362704 -2.736268 0.4662465,-2.492243 -2.100904 0.6240941,-1.722835 -4.809271 0.3876996,-1.642005 -3.907816 0.468381,-1.613973 -3.290938 0.6146697,-1.605034 -2.69166 0.7618791,-9.390863 -8.120155 -0.3610577,-8.865058 -7.932428 0.4092955,-8.370518 -7.166372 0.9589106,-8.448845 -6.587644 1.40059,-8.863933 -6.312171 1.753846,-8.738713 -5.650564 0.7098533,-8.602636 -5.0576 1.579489,-8.57891 -4.737085 2.166556,-8.553197 -4.581403 2.562218,-9.232995 -5.571654 0.7363856,-9.201698 -5.142246 1.898656,-9.133 -6.046553 2.278086,-9.079776 -6.814474 2.34686,-9.697948 -5.807247 0.8746283,-9.720486 -5.332603 1.876815,-9.601341 -5.948011 2.115757,-9.495615 -6.427941 2.134699,-10.14789 -6.262062 1.075485,-10.32015 -5.663496 1.849975,-10.23437 -5.73217 2.208898,-10.1109 -5.912268 2.379781,2.910,35 1 0
-1.899801 -7.462757 0.07171048,-2.575215 -7.216959 0.4028493,-3.154236 -6.671581 0.5929874,-3.571036 -6.084566 0.8093072,-3.919054 -5.695717 1.075343,-2.821643 -4.89157 0.04942022,-3.09707 -3.851865 0.1937249,-3.25175 -3.246684 0.3359125,-3.390234 -2.687225 0.4556078,-2.468504 -4.617412 0.06576308,-2.670836 -3.433602 0.1244585,-2.670836 -3.433602 0.1244585,-2.912877 -2.039506 0.4354438,-2.113378 -4.588006 0.1687648,-2.247676 -3.446411 0.2419715,-2.364605 -2.726191 0.4015711,-2.491366 -2.09652 0.553721,-1.719901 -4.774791 0.332176,-1.643365 -3.87685 0.4126378,-1.6165 -3.266289 0.5555658,-1.607251 -2.673971 0.7010946,-9.446144 -8.174202 0.01553538,-8.907055 -7.965921 0.8105338,-8.393147 -7.195772 1.409498,-8.475399 -6.6547 1.893482,-8.915751 -6.438661 2.272998,-8.801082 -5.620388 1.183523,-8.690346 -5.020423 2.145807,-8.664815 -4.753782 2.735859,-8.648525 -4.707944 3.090544,-9.314938 -5.548289 1.207571,-9.288494 -5.14643 2.434285,-9.189056 -6.054143 2.794935,-9.120604 -6.798145 2.848244,-9.787569 -5.809549 1.342534,-9.807538 -5.46353 2.432501,-9.656033 -6.207982 2.600818,-9.535534 -6.718938 2.546374,-10.23139 -6.305177 1.545621,-10.41975 -5.731655 2.353591,-10.33037 -5.776467 2.683784,-10.20834 -5.892507 2.807817,3.010,35 1 0
-1.910161 -7.41734 -0.04947032,-2.584888 -7.194141 0.2634967,-3.166246 -6.646028 0.4283162,-3.588732 -6.056145 0.6139299,-3.942479 -5.686889 0.8435248,-2.830024 -4.876799 -0.07745399,-3.103992 -3.839441 0.05791437,-3.254409 -3.231616 0.1923417,-3.389408 -2.669217 0.3028572,-2.47356 -4.606231 -0.05527588,-2.671608 -3.430965 0.003499046,-2.671608 -3.430965 0.003499046,-2.899695 -2.033003 0.307313,-2.116235 -4.578197 0.05266724,-2.245511 -3.434164 0.1323854,-2.361523 -2.716681 0.2857709,-2.482369 -2.092206 0.4320905,-1.723248 -4.764452 0.219364,-1.646468 -3.868362 0.3023397,-1.622444 -3.261281 0.4410177,-1.614414 -2.669139 0.5797139,-9.510245 -8.269255 1.285544,-8.973343 -7.987926 2.224092,-8.457199 -7.216561 2.943665,-8.569983 -6.725107 3.524927,-9.06074 -6.503882 3.973965,-8.8694 -5.478514 2.765129,-8.780826 -5.012126 3.911365,-8.810639 -4.813542 4.517986,-8.840692 -4.746026 4.831896,-9.431292 -5.362182 2.735783,-9.410772 -5.276683 4.061673,-9.347219 -6.27156 4.314914,-9.277837 -6.85234 4.274269,-9.935095 -5.630485 2.826687,-9.947453 -5.669755 4.038006,-9.814993 -6.561234 4.041318,-9.697816 -6.944811 3.830013,-10.38717 -6.19111 2.999193,-10.56556 -5.778104 3.821241,-10.48198 -5.968002 4.03306,-10.36193 -6.065698 4.010515,3.110,35 1 0
-1.910293 -7.405694 -0.04101555,-2.576301 -7.192384 0.3188456,-3.151743 -6.64267 0.5150502,-3.567774 -6.048991 0.7305582,-3.917492 -5.661378 1.000728,-2.833295 -4.871778 -0.009877946,-3.106506 -3.837931 0.1438135,-3.253049 -3.235212 0.2858034,-3.38661 -2.687008 0.3999411,-2.474086 -4.592376 -0.007920619,-2.674252 -3.418199 0.05742265,-2.674252 -3.418199 0.05742265,-2.899304 -2.023056 0.3765543,-2.114098 -4.567953 0.08126843,-2.250182 -3.424524 0.1611384,-2.370257 -2.702065 0.3267212,-2.497245 -2.081217 0.4836624,-1.718738 -4.769749 0.2305286,-1.64681 -3.871692 0.3199681,-1.623346 -3.256585 0.4710222,-1.616417 -2.665729 0.6171492,-9.561679 -8.270247 0.7807518,-8.994053 -8.05434 1.716645,-8.471637 -7.2432 2.407225,-8.598207 -6.701046 2.965291,-9.102689 -6.473182 3.364811,-8.864544 -5.565283 2.089958,-8.751493 -4.986415 3.206422,-8.820017 -4.777069 3.85964,-8.905798 -4.686361 4.246869,-9.426495 -5.444332 2.061337,-9.405449 -5.180465 3.365028,-9.35166 -6.259688 3.640428,-9.289 -6.921175 3.610264,-9.93117 -5.653255 2.171632,-9.971006 -5.324895 3.2804,-9.850965 -6.124419 3.334204,-9.744867 -6.526617 3.195726,-10.41364 -6.100591 2.365694,-10.57741 -5.62388 3.142976,-10.43953 -6.015749 3.345917,-10.28389 -6.322076 3.34434,3.210,35 1 0
-1.887128 -7.439624 -0.007950935,-2.56034 -7.23643 0.3550268,-3.142475 -6.688023 0.5435795,-3.570065 -6.087438 0.7497321,-3.931974 -5.707155 1.005292,-2.829823 -4.908428 0.001969271,-3.105623 -3.869617 0.1364219,-3.251936 -3.247932 0.2751228,-3.377769 -2.688463 0.3895923,-2.467871 -4.61989 -0.006902834,-2.666358 -3.431183 0.03109257,-2.666358 -3.431183 0.03109257,-2.881295 -2.019288 0.3171965,-2.107095 -4.583833 0.06959992,-2.23327 -3.428525 0.1306912,-2.352227 -2.697679 0.2872552,-2.474161 -2.082838 0.433228,-1.711731 -4.768112 0.2110036,-1.638258 -3.866179 0.2846652,-1.617515 -3.24074 0.4308785,-1.609994 -2.645063 0.5732435,-9.585494 -8.265095 1.108285,-9.007301 -7.994083 2.033789,-8.434029 -7.148757 2.766678,-8.613457 -6.738822 3.361027,-9.159434 -6.612423 3.754226,-8.859284 -5.481201 2.510527,-8.773705 -4.934159 3.655359,-8.833843 -4.744405 4.317929,-8.907355 -4.721344 4.699142,-9.443187 -5.39322 2.510531,-9.412676 -5.162586 3.847341,-9.340775 -6.081432 4.220646,-9.252211 -6.714908 4.290942,-9.958283 -5.643709 2.628284,-9.997542 -5.376598 3.765527,-9.876024 -5.969061 3.869148,-9.741477 -6.283329 3.781351,-10.43713 -6.17382 2.836612,-10.62254 -5.71416 3.643423,-10.53847 -5.882721 3.904775,-10.39702 -6.055097 3.944997,3.310,35 1 0
-1.885345 -7.415089 -0.047259,-2.551116 -7.216411 0.3059868,-3.141162 -6.676967 0.4980719,-3.571446 -6.095943 0.7078773,-3.928844 -5.722778 0.9565523,-2.828459 -4.89365 -0.009713858,-3.102022 -3.856805 0.1426834,-3.24485 -3.248414 0.2876974,-3.368531 -2.696915 0.4025033,-2.467261 -4.607389 -0.006369103,-2.666521 -3.422513 0.06217434,-2.666521 -3.422513 0.06217434,-2.875351 -2.029233 0.3644862,-2.107281 -4.571146 0.07831101,-2.238242 -3.431273 0.1680717,-2.350904 -2.708325 0.3251387,-2.472651 -2.095159 0.4735419,-1.712223 -4.755285 0.2254104,-1.636821 -3.870779 0.316162,-1.609943 -3.266416 0.4538321,-1.603088 -2.689505 0.588914,-9.643272 -8.287376 2.16297,-9.063959 -7.971074 3.238354,-8.484618 -7.16081 4.080882,-8.674898 -6.809355 4.732991,-9.264102 -6.634827 5.180305,-8.956743 -5.385095 3.966474,-8.891484 -4.961177 5.229317,-8.938176 -4.772937 5.863282,-8.997828 -4.667219 6.178183,-9.560941 -5.255788 3.910847,-9.541122 -5.102132 5.342255,-9.44505 -5.98818 5.705078,-9.362333 -6.48681 5.799006,-10.09736 -5.487314 3.95849,-10.09593 -5.630567 5.254565,-9.909162 -6.592691 5.213544,-9.777084 -6.962741 4.964387,-10.56877 -6.062261 4.101137,-10.72266 -5.722646 4.95675,-10.60593 -6.019634 5.112556,-10.48597 -6.189763 5.017179,3.410,35 1 0
-1.877629 -7.407726 -0.07510277,-2.547335 -7.199722 0.2842163,-3.137183 -6.670078 0.4868128,-3.57283 -6.095347 0.7086206,-3.934038 -5.721801 0.9814289,-2.826993 -4.894502 -0.04998603,-3.104326 -3.849004 0.1017013,-3.251648 -3.243202 0.2519091,-3.384943 -2.693475 0.3744054,-2.467933 -4.609699 -0.05135003,-2.668112 -3.426934 0.003608741,-2.668112 -3.426934 0.003608741,-2.881995 -2.035491 0.3129937,-2.107598 -4.576312 0.03152739,-2.244949 -3.441158 0.1058863,-2.360955 -2.721343 0.2660726,-2.488593 -2.113516 0.4172233,-1.711143 -4.762102 0.1765968,-1.635116 -3.876132 0.2637055,-1.608851 -3.277225 0.4047208,-1.604526 -2.708486 0.5426506,-9.713555 -8.328985 1.932719,-9.100319 -8.043285 2.975363,-8.517827 -7.202636 3.797738,-8.702712 -6.808753 4.45014,-9.258705 -6.673381 4.879638,-8.941539 -5.470658 3.644007,-8.873679 -4.978063 4.948674,-8.956453 -4.796194 5.597376,-9.063152 -4.717993 5.907001,-9.550257 -5.329702 3.598261,-9.525217 -5.272018 5.066202,-9.447802 -6.25398 5.345256,-9.369064 -6.728067 5.327309,-10.0876 -5.555763 3.676941,-10.10706 -5.631921 4.99139,-9.953892 -6.507921 4.910275,-9.833132 -6.774398 4.638189,-10.57716 -6.084877 3.853079,-10.7551 -5.74227 4.680195,-10.64376 -6.033138 4.809997,-10.51071 -6.154916 4.704478,3.510,35 1 0
-1.861423 -7.453002 -0.0319547,-2.531431 -7.234706 0.3443707,-3.112444 -6.694343 0.5585364,-3.539206 -6.109794 0.7906824,-3.902432 -5.712952 1.074356,-2.799573 -4.927743 0.0220685,-3.076532 -3.879718 0.181333,-3.224661 -3.261556 0.3401493,-3.356001 -2.698617 0.4725413,-2.43724 -4.639707 0.01577181,-2.636418 -3.447724 0.07906039,-2.636418 -3.447724 0.07906039,-2.860181 -2.03617 0.4010811,-2.077112 -4.606519 0.09320843,-2.205081 -3.459849 0.169184,-2.323571 -2.731063 0.3348117,-2.44921 -2.113966 0.4928522,-1.686472 -4.794887 0.2352085,-1.613815 -3.899316 0.3238738,-1.596158 -3.298666 0.4661548,-1.599658 -2.73384 0.6085395,-9.571863 -8.320002 1.409909,-8.992665 -8.008671 2.228485,-8.468932 -7.203899 2.934269,-8.59656 -6.795066 3.532333,-9.097229 -6.661777 3.994022,-8.876709 -5.504732 2.931118,-8.822167 -4.895422 3.977849,-8.861856 -4.687454 4.609773,-8.905548 -4.810361 5.013797,-9.463098 -5.417214 2.944532,-9.491218 -5.057243 4.136608,-9.410785 -5.901294 4.527224,-9.30449 -6.673818 4.63139,-9.971139 -5.691074 3.047022,-10.05559 -5.185113 3.999214,-9.962006 -5.643918 4.215596,-9.847094 -6.054181 4.267394,-10.42692 -6.222148 3.228229,-10.66619 -5.696121 3.971156,-10.58078 -5.858559 4.291457,-10.4246 -6.117785 4.412751,3.610,35 1 0
-1.855247 -7.450613 -0.06479435,-2.523364 -7.233047 0.2655298,-3.104824 -6.70175 0.4549242,-3.544138 -6.153345 0.6682974,-3.908582 -5.815774 0.929188,-2.780012 -4.918266 -0.03682343,-3.062908 -3.873375 0.1291991,-3.213847 -3.259352 0.282348,-3.345942 -2.699432 0.4066295,-2.423606 -4.645379 -0.01765328,-2.627072 -3.448306 0.06151347,-2.627072 -3.448306 0.06151347,-2.844019 -2.05066 0.369222,-2.06739 -4.620964 0.08131035,-2.198937 -3.461356 0.1779131,-2.314555 -2.729264 0.3364167,-2.435314 -2.110764 0.484693,-1.678508 -4.822597 0.2387907,-1.601305 -3.927458 0.3415543,-1.579277 -3.326544 0.4844837,-1.577382 -2.754231 0.6211617,-9.485554 -8.2446 0.4311997,-8.922268 -7.986523 1.274375,-8.387239 -7.299266 2.009301,-8.400157 -6.870399 2.650725,-8.811109 -6.603954 3.219788,-8.792807 -5.711833 1.930395,-8.700568 -5.030771 2.823192,-8.633741 -4.642741 3.496235,-8.53993 -4.563264 4.017181,-9.32852 -5.65792 1.953792,-9.339795 -4.839403 3.026765,-9.232662 -4.87351 3.787249,-9.103906 -5.371398 4.311905,-9.804263 -5.864086 2.027536,-9.899162 -5.078147 2.904277,-9.823456 -5.112113 3.484154,-9.705804 -5.427753 3.851505,-10.26612 -6.338712 2.174978,-10.49431 -5.6095 2.954339,-10.44049 -5.572802 3.435648,-10.29416 -5.803932 3.75711,3.710,35 1 0
-1.86653 -7.479207 -0.0708496,-2.541942 -7.274694 0.2399005,-3.13146 -6.734033 0.4096984,-3.576859 -6.184542 0.5967053,-3.938742 -5.861333 0.8265734,-2.781027 -4.949655 -0.07341486,-3.051372 -3.898875 0.06982869,-3.201471 -3.281789 0.2000499,-3.334496 -2.730333 0.3052542,-2.424097 -4.673242 -0.0522772,-2.618827 -3.476558 0.02496852,-2.618827 -3.476558 0.02496852,-2.852175 -2.083142 0.3247345,-2.066972 -4.64232 0.04706051,-2.188169 -3.478382 0.1492821,-2.304591 -2.752905 0.3065144,-2.425804 -2.138628 0.4496743,-1.675422 -4.836112 0.2007398,-1.592998 -3.935117 0.3068933,-1.56715 -3.333157 0.4522386,-1.558742 -2.750208 0.5957484,-9.196925 -7.958845 -0.001491234,-8.673979 -7.645111 0.7292165,-8.211399 -6.999351 1.28771,-8.164459 -6.307383 1.768007,-8.58402 -5.86901 2.174716,-8.515524 -5.369668 0.8609508,-8.361921 -4.725764 1.689454,-8.280527 -4.325714 2.287984,-8.197121 -3.878306 2.680301,-8.999586 -5.216306 0.8614097,-8.90943 -4.743309 1.895401,-8.845085 -5.788978 2.267515,-8.84433 -6.50685 2.299779,-9.485311 -5.34415 0.9887022,-9.408072 -4.953485 1.865722,-9.314094 -6.001901 2.018393,-9.310162 -6.663668 1.893473,-9.971542 -5.688523 1.174121,-10.00898 -5.090621 1.828324,-9.826961 -5.67523 1.978002,-9.711561 -6.244304 1.912234,3.810,35 1 0
-1.869803 -7.49464 0.007642865,-2.534056 -7.302455 0.360078,-3.118195 -6.759777 0.5500851,-3.548246 -6.185152 0.7598894,-3.897921 -5.810138 1.015238,-2.782372 -4.951963 0.02494516,-3.059794 -3.915821 0.1676745,-3.212397 -3.299992 0.3179136,-3.341087 -2.739332 0.4402695,-2.421507 -4.664642 0.03074138,-2.618928 -3.467553 0.08806456,-2.618928 -3.467553 0.08806456,-2.83461 -2.054488 0.392979,-2.063204 -4.636812 0.1166579,-2.182046 -3.481281 0.195539,-2.292493 -2.749197 0.3585716,-2.409662 -2.138078 0.5138085,-1.672215 -4.835392 0.2660137,-1.585133 -3.948889 0.3514298,-1.558653 -3.34535 0.4905349,-1.552495 -2.777463 0.6293246,-9.146894 -7.787112 -0.6725232,-8.614634 -7.545037 0.0205074,-8.140671 -6.875579 0.5218164,-8.076407 -6.148428 0.948747,-8.478991 -5.682801 1.288277,-8.466946 -5.333369 0.0740515,-8.290389 -4.614021 0.803502,-8.193729 -4.185493 1.322888,-8.096098 -3.708444 1.680902,-8.920698 -5.211462 0.0701682,-8.827196 -4.661941 1.051375,-8.768116 -5.707956 1.342711,-8.772198 -6.420242 1.298226,-9.387804 -5.340467 0.1953792,-9.317696 -4.832178 1.045547,-9.22534 -5.847806 1.187249,-9.225298 -6.507173 1.047677,-9.862885 -5.625446 0.3715992,-9.894586 -4.969425 1.00248,-9.712461 -5.520851 1.144682,-9.603815 -6.082444 1.069248,3.910,35 1 0
-1.873029 -7.529174 0.08895942,-2.539457 -7.329564 0.453339,-3.125685 -6.76951 0.6486973,-3.554703 -6.187018 0.8657812,-3.906977 -5.805755 1.129626,-2.799244 -4.962427 0.08985342,-3.070251 -3.913573 0.2588459,-3.213696 -3.293134 0.4257694,-3.336977 -2.734184 0.5558825,-2.435665 -4.677599 0.1023381,-2.627879 -3.474663 0.1677371,-2.627879 -3.474663 0.1677371,-2.842747 -2.06377 0.4725109,-2.072939 -4.652423 0.2029418,-2.19432 -3.487229 0.2979136,-2.306429 -2.749127 0.4663209,-2.427102 -2.132947 0.6177028,-1.673951 -4.856113 0.3692914,-1.591333 -3.951673 0.4699682,-1.568332 -3.342907 0.6108424,-1.567004 -2.777314 0.7468247,-9.032324 -7.631195 -0.6278605,-8.541714 -7.476743 0.1204451,-8.022986 -6.788084 0.6165117,-7.941035 -6.008018 1.027996,-8.309304 -5.502213 1.358875,-8.329103 -5.190465 0.06256717,-8.169219 -4.424691 0.8121308,-8.072038 -3.976009 1.287661,-7.958302 -3.407341 1.569683,-8.768936 -5.022916 0.03028053,-8.628207 -4.604972 1.040576,-8.600784 -5.759704 1.20963,-8.645278 -6.351764 0.9965463,-9.230254 -5.129922 0.1527486,-9.113182 -4.78787 1.037187,-9.0467 -5.898542 1.071588,-9.081284 -6.430628 0.7988377,-9.706339 -5.385091 0.3339268,-9.653583 -4.937531 0.9128708,-9.48266 -5.649498 0.9583945,-9.423698 -6.129991 0.7750772,4.010,35 1 0
-1.89079 -7.595295 0.1550574,-2.563794 -7.396381 0.5010465,-3.151425 -6.823555 0.6721143,-3.578361 -6.233856 0.8655917,-3.933804 -5.871706 1.105391,-2.803883 -4.996785 0.1318241,-3.079659 -3.93683 0.2782908,-3.226927 -3.305693 0.4279446,-3.353898 -2.738386 0.5513958,-2.440478 -4.721957 0.1455867,-2.636914 -3.508855 0.1924144,-2.636914 -3.508855 0.1924144,-2.855456 -2.091539 0.4901032,-2.079496 -4.703426 0.2443936,-2.201508 -3.531839 0.3246626,-2.313106 -2.79149 0.4821847,-2.430025 -2.164972 0.6284705,-1.686728 -4.914638 0.4083305,-1.602822 -4.014448 0.5020492,-1.578597 -3.409965 0.6418573,-1.573611 -2.834875 0.7772294,-8.975329 -7.629929 -1.073538,-8.470236 -7.487762 -0.4824433,-7.942363 -6.733703 -0.1265804,-7.866242 -5.861855 0.1811727,-8.202004 -5.365639 0.3666651,-8.297951 -5.202863 -0.850771,-8.13137 -4.2809 -0.1942819,-8.003682 -3.775225 0.2409983,-7.866649 -3.173404 0.4924301,-8.696223 -5.080416 -0.8384771,-8.543983 -4.544812 0.1139597,-8.527164 -5.758092 0.2150859,-8.586799 -6.351347 -0.08756506,-9.117045 -5.167039 -0.6453378,-8.996236 -4.653286 0.232934,-8.9317 -5.832522 0.2500569,-8.978786 -6.382183 -0.07097518,-9.581841 -5.381698 -0.4040295,-9.49051 -4.758972 0.1472708,-9.334296 -5.507453 0.1853554,-9.315709 -6.009983 -0.01235926,4.110,35 1 0
-1.894772 -7.60781 0.1936357,-2.579918 -7.381366 0.5027357,-3.167898 -6.805751 0.6631075,-3.592258 -6.2219 0.8473722,-3.948488 -5.871613 1.075017,-2.812461 -4.996404 0.1652518,-3.08927 -3.949069 0.3111031,-3.243 -3.327957 0.45398,-3.379128 -2.76264 0.5722463,-2.449347 -4.724195 0.1914676,-2.64839 -3.528512 0.2557481,-2.64839 -3.528512 0.2557481,-2.893665 -2.129976 0.5453836,-2.086052 -4.70098 0.3039774,-2.209337 -3.536014 0.3871771,-2.324492 -2.806535 0.5366184,-2.446587 -2.181077 0.6733849,-1.68641 -4.903165 0.4743123,-1.610633 -3.998199 0.5630751,-1.588871 -3.387599 0.7018531,-1.586371 -2.798497 0.8392474,-8.998018 -7.643332 -1.152277,-8.476933 -7.440249 -0.6006261,-7.952477 -6.674396 -0.2435861,-7.856069 -5.791475 0.08313859,-8.16975 -5.280559 0.2560968,-8.296717 -5.211183 -0.9555218,-8.130745 -4.201906 -0.3584247,-7.992014 -3.665638 0.02001536,-7.850132 -3.05993 0.2241603,-8.683049 -5.119531 -0.9304587,-8.529536 -4.548963 0.01135206,-8.526911 -5.736421 0.1153667,-8.595014 -6.349144 -0.1809188,-9.09245 -5.201633 -0.7305192,-8.963305 -4.645595 0.1129795,-8.928373 -5.789691 0.1363074,-8.984964 -6.354643 -0.1665943,-9.548807 -5.395174 -0.4931869,-9.459812 -4.709827 0.02048135,-9.327187 -5.427059 0.06602132,-9.320945 -5.928329 -0.1180624,4.210,35 1 0
-1.900643 -7.615893 0.2064017,-2.576719 -7.370864 0.5361478,-3.15224 -6.820754 0.7167578,-3.569477 -6.236477 0.9186077,-3.925347 -5.869888 1.169975,-2.804834 -4.99735 0.2053149,-3.088432 -3.946364 0.3475537,-3.241341 -3.329401 0.4907009,-3.374735 -2.756786 0.6105748,-2.442494 -4.726184 0.2198187,-2.642585 -3.519783 0.2779592,-2.642585 -3.519783 0.2779592,-2.873949 -2.11651 0.5739576,-2.08231 -4.706605 0.3198154,-2.202653 -3.540365 0.3895046,-2.316318 -2.810859 0.5508602,-2.434808 -2.189515 0.7016056,-1.687431 -4.907983 0.4774409,-1.605394 -4.001327 0.5625412,-1.578354 -3.384225 0.7130501,-1.568046 -2.790514 0.8615742,-9.017015 -7.622186 -1.297915,-8.440145 -7.353857 -0.744643,-7.947434 -6.61824 -0.3711981,-7.832887 -5.733364 -0.03585446,-8.062751 -5.13894 0.1808962,-8.284987 -5.226006 -1.012602,-8.11451 -3.999231 -0.4795158,-8.004911 -3.359128 -0.09560037,-7.911194 -2.755319 0.1097081,-8.682078 -5.150703 -1.003607,-8.564069 -4.372241 -0.05758786,-8.540387 -5.496644 0.1785759,-8.57416 -6.274744 0.01755416,-9.087053 -5.223962 -0.8515803,-8.995037 -4.497822 -0.04741883,-8.94313 -5.546546 0.08561587,-8.949054 -6.230096 -0.1110771,-9.519424 -5.413539 -0.6705081,-9.479018 -4.590593 -0.1109045,-9.355807 -5.207231 0.03853273,-9.308631 -5.775991 -0.05003786,4.310,35 1 0
-1.898867 -7.606152 0.1966135,-2.56833 -7.380447 0.5583555,-3.147787 -6.823099 0.7521675,-3.558578 -6.23689 0.9649655,-3.905399 -5.858966 1.22204,-2.802264 -4.991745 0.2264582,-3.073174 -3.938718 0.3900188,-3.219936 -3.320861 0.5509903,-3.345783 -2.758766 0.6774972,-2.436308 -4.718688 0.2358852,-2.626036 -3.502508 0.3051838,-2.626036 -3.502508 0.3051838,-2.840224 -2.091659 0.6256136,-2.073292 -4.702438 0.3309187,-2.186738 -3.531047 0.4197158,-2.296583 -2.790617 0.5880013,-2.412874 -2.163496 0.7474544,-1.674527 -4.913715 0.4874874,-1.586625 -4.013399 0.5841464,-1.555244 -3.403657 0.7304227,-1.545775 -2.821287 0.8765259,-8.986965 -7.672487 -1.049398,-8.381815 -7.432808 -0.5145866,-7.87943 -6.68329 -0.1668535,-7.710186 -5.825561 0.1652859,-7.901738 -5.175923 0.3799334,-8.276276 -5.166904 -0.8614585,-8.124506 -3.871367 -0.3779118,-8.008785 -3.13656 0.01340461,-7.932163 -2.480685 0.2520205,-8.660264 -5.118478 -0.8509676,-8.560339 -4.027173 0.0166533,-8.485332 -5.027421 0.3572853,-8.49125 -5.816011 0.2880002,-9.055683 -5.19508 -0.7141041,-9.007851 -4.192359 0.01948464,-8.893132 -5.130097 0.2541121,-8.854068 -5.844837 0.1336184,-9.475117 -5.376392 -0.5477448,-9.476189 -4.451547 -0.0164963,-9.328713 -4.933013 0.1981521,-9.243575 -5.498383 0.1721412,4.410,35 1 0
-1.885103 -7.615123 0.2184156,-2.558837 -7.378175 0.5540965,-3.142303 -6.816667 0.7313313,-3.55776 -6.227363 0.9292259,-3.903511 -5.856834 1.173898,-2.790666 -4.989048 0.1969799,-3.066072 -3.951206 0.3412275,-3.21511 -3.330565 0.4906879,-3.343464 -2.756025 0.6123298,-2.429801 -4.722429 0.2166545,-2.627148 -3.532362 0.2722403,-2.627148 -3.532362 0.2722403,-2.854815 -2.130573 0.5872966,-2.070579 -4.709477 0.3250807,-2.185559 -3.556436 0.3956982,-2.290197 -2.832352 0.5586849,-2.40121 -2.204171 0.7092309,-1.675644 -4.91994 0.4921645,-1.584235 -4.031436 0.578877,-1.550986 -3.424631 0.7199883,-1.538321 -2.839326 0.8593618,-8.957889 -7.658243 -0.7509292,-8.360906 -7.448766 -0.2517426,-7.853159 -6.691923 0.07017606,-7.65701 -5.847575 0.3838593,-7.841943 -5.212015 0.5889808,-8.279695 -5.086757 -0.5658826,-8.12749 -3.847763 -0.1280913,-7.999121 -3.085679 0.2597003,-7.915282 -2.418895 0.5257289,-8.651173 -5.018058 -0.521359,-8.572133 -3.744377 0.2651924,-8.46769 -4.605237 0.6693316,-8.463883 -5.416732 0.7040877,-9.04015 -5.10335 -0.3745169,-9.007845 -3.936639 0.3078021,-8.878236 -4.778931 0.6125187,-8.84446 -5.569018 0.5685767,-9.453296 -5.331483 -0.2069876,-9.493476 -4.355785 0.3076261,-9.336582 -4.71227 0.5302924,-9.244972 -5.304969 0.5254756,4.510,35 1 0
-1.893213 -7.620161 0.2383197,-2.567447 -7.390922 0.5450416,-3.147849 -6.823568 0.7091154,-3.563572 -6.237993 0.9000404,-3.904093 -5.863983 1.1355,-2.787766 -4.985096 0.1775846,-3.05131 -3.943545 0.3154468,-3.198776 -3.327011 0.4590068,-3.324915 -2.760387 0.5731782,-2.428467 -4.720022 0.2119814,-2.616907 -3.516091 0.2611388,-2.616907 -3.516091 0.2611388,-2.843579 -2.120336 0.5598148,-2.070851 -4.704648 0.3314491,-2.182135 -3.536344 0.4009222,-2.290437 -2.80544 0.5549755,-2.402179 -2.180505 0.7012886,-1.675515 -4.915048 0.510728,-1.579412 -4.015591 0.5944914,-1.543573 -3.401045 0.7337841,-1.527543 -2.811137 0.8737926,-8.977766 -7.641783 -0.4340472,-8.336537 -7.436903 0.003784359,-7.830263 -6.650466 0.2785103,-7.639172 -5.845775 0.547804,-7.770568 -5.222414 0.7147241,-8.27676 -4.944558 -0.2886226,-8.129353 -3.737907 0.08508289,-8.018472 -2.906579 0.4454904,-7.938756 -2.248115 0.7097605,-8.65838 -4.910157 -0.2232945,-8.636669 -3.514387 0.408235,-8.529404 -4.013381 0.8930005,-8.494887 -4.705699 1.08243,-9.040979 -5.020122 -0.07453358,-9.071845 -3.758572 0.5020343,-8.953314 -4.308568 0.8938061,-8.899002 -5.054504 0.9824433,-9.453712 -5.284963 0.08315253,-9.541383 -4.26564 0.5934663,-9.405962 -4.434764 0.8858184,-9.300789 -4.998975 0.9546571,4.610,35 1 0
-1.881803 -7.636644 0.1970968,-2.554461 -7.408198 0.5046832,-3.139803 -6.84098 0.6727189,-3.560288 -6.248256 0.8606045,-3.900999 -5.881114 1.084862,-2.773924 -5.011953 0.1917055,-3.045195 -3.96485 0.3289368,-3.193781 -3.340321 0.4658239,-3.317196 -2.76375 0.5778636,-2.414586 -4.748027 0.2229767,-2.61375 -3.541893 0.2942976,-2.61375 -3.541893 0.2942976,-2.843101 -2.139694 0.5983636,-2.056299 -4.734818 0.3368779,-2.174206 -3.559518 0.4259562,-2.28271 -2.824301 0.5861679,-2.394222 -2.194071 0.7354172,-1.659401 -4.948563 0.5043617,-1.57055 -4.039419 0.5974401,-1.539416 -3.424041 0.7414446,-1.527456 -2.834607 0.8876033,-8.972203 -7.726194 0.1448525,-8.312973 -7.418378 0.5885073,-7.812099 -6.646827 0.8391872,-7.596846 -5.849699 1.078745,-7.663473 -5.220485 1.224358,-8.251639 -4.880013 0.1708159,-8.09087 -3.716283 0.4773585,-7.983459 -2.877826 0.8440407,-7.90821 -2.213737 1.147128,-8.640584 -4.822343 0.21715,-8.617912 -3.422519 0.7681812,-8.503809 -3.690708 1.342154,-8.473167 -4.289106 1.649017,-9.020293 -4.93293 0.3348274,-9.053588 -3.667678 0.8108032,-8.93037 -4.055604 1.255582,-8.877217 -4.746685 1.449643,-9.43139 -5.206572 0.4809624,-9.527884 -4.229948 0.9283551,-9.404233 -4.297317 1.246694,-9.330962 -4.875053 1.617256,4.710,35 1 0
-1.867491 -7.639956 0.2305081,-2.549952 -7.417161 0.5454952,-3.134974 -6.858696 0.7132356,-3.552055 -6.26687 0.9064523,-3.897157 -5.883246 1.140768,-2.775415 -5.011038 0.1796778,-3.040559 -3.963129 0.3022245,-3.187885 -3.349426 0.4350583,-3.317894 -2.788002 0.5454425,-2.413323 -4.744043 0.203865,-2.603626 -3.541969 0.2378346,-2.603626 -3.541969 0.2378346,-2.839372 -2.150887 0.527565,-2.054188 -4.730765 0.3125747,-2.172186 -3.571204 0.3670118,-2.282116 -2.846582 0.5213047,-2.398313 -2.220796 0.6719505,-1.657005 -4.942781 0.4814076,-1.570844 -4.052596 0.5497391,-1.541164 -3.445504 0.6881723,-1.530384 -2.857299 0.8303527,-8.96669 -7.764306 0.3789459,-8.308675 -7.447805 0.7929719,-7.808468 -6.664357 1.021283,-7.582553 -5.856359 1.247013,-7.629026 -5.217682 1.379865,-8.2328 -4.854289 0.3494218,-8.074182 -3.700197 0.625185,-7.958137 -2.876649 0.9834039,-7.870865 -2.227494 1.278726,-8.618396 -4.794331 0.409835,-8.605167 -3.373455 0.9448624,-8.482379 -3.688887 1.512843,-8.449214 -4.319343 1.814559,-8.998823 -4.913459 0.5386711,-9.045911 -3.628458 0.9942153,-8.911295 -4.039339 1.422491,-8.854125 -4.747171 1.604912,-9.407051 -5.205549 0.697749,-9.522661 -4.21371 1.121683,-9.395721 -4.259229 1.421224,-9.291844 -4.764893 1.543187,4.810,35 1 0
-1.866696 -7.674432 0.3070283,-2.539925 -7.429853 0.613314,-3.118183 -6.848899 0.7848843,-3.531203 -6.232518 0.9838451,-3.873357 -5.828313 1.224878,-2.762245 -5.01226 0.2655706,-3.028393 -3.965331 0.3985445,-3.178425 -3.346309 0.5362362,-3.305505 -2.767189 0.6488925,-2.407938 -4.755345 0.2990479,-2.60297 -3.555555 0.3538873,-2.60297 -3.555555 0.3538873,-2.835979 -2.149369 0.6615279,-2.0535 -4.751945 0.418771,-2.171985 -3.585962 0.4869527,-2.28159 -2.856905 0.6431472,-2.39382 -2.220463 0.7953805,-1.660468 -4.971059 0.5932825,-1.570444 -4.066856 0.6759669,-1.540673 -3.4596 0.8138851,-1.527839 -2.878532 0.9519784,-8.958422 -7.821119 0.526148,-8.300549 -7.454912 0.958849,-7.802176 -6.667945 1.184397,-7.564713 -5.854333 1.41579,-7.569006 -5.181449 1.55819,-8.227359 -4.858704 0.4432333,-8.063252 -3.671266 0.7221022,-7.940334 -2.875584 1.068854,-7.844398 -2.250137 1.343847,-8.600213 -4.809994 0.4937054,-8.577538 -3.349056 1.040625,-8.446884 -3.767321 1.608858,-8.419286 -4.451199 1.888919,-8.969182 -4.923923 0.6203687,-9.021136 -3.626931 1.071345,-8.869566 -4.067691 1.505039,-8.801159 -4.774251 1.674045,-9.373015 -5.208387 0.7792143,-9.480122 -4.236853 1.22772,-9.341434 -4.312042 1.55916,-9.225327 -4.821107 1.690223,4.910,35 1 0
-1.879522 -7.680511 0.3009948,-2.550351 -7.434717 0.6249484,-3.122086 -6.848247 0.8076699,-3.518044 -6.223773 1.013572,-3.861033 -5.825975 1.260427,-2.78166 -5.026958 0.267726,-3.038787 -3.982348 0.4094256,-3.183827 -3.371398 0.5505266,-3.309481 -2.800537 0.6679069,-2.42099 -4.763235 0.2920749,-2.611189 -3.563894 0.3532187,-2.611189 -3.563894 0.3532187,-2.842305 -2.147135 0.6682988,-2.059874 -4.752883 0.4052982,-2.177078 -3.590814 0.4691767,-2.284593 -2.859375 0.6210357,-2.39466 -2.220867 0.770979,-1.661233 -4.967605 0.5762861,-1.577075 -4.065998 0.6502193,-1.547058 -3.452023 0.7904596,-1.532684 -2.858924 0.9303867,-8.962896 -7.847252 0.6278878,-8.303009 -7.459494 1.049975,-7.814608 -6.649493 1.245871,-7.56095 -5.849308 1.453685,-7.520808 -5.18904 1.569598,-8.235768 -4.867656 0.5093145,-8.065078 -3.693053 0.7705094,-7.947618 -2.902776 1.108164,-7.862195 -2.269539 1.380451,-8.607547 -4.80721 0.5547202,-8.590723 -3.330591 1.084674,-8.456677 -3.771641 1.638601,-8.419723 -4.469252 1.91066,-8.976863 -4.911524 0.6768621,-9.032622 -3.601181 1.118887,-8.873997 -4.068039 1.54505,-8.798347 -4.792736 1.707522,-9.378293 -5.193061 0.8280065,-9.484201 -4.216125 1.26298,-9.330277 -4.295905 1.574501,-9.200732 -4.815676 1.692714,5.010,35 1 0
-1.87521 -7.684343 0.2974451,-2.544946 -7.435509 0.6282377,-3.114105 -6.829456 0.8000787,-3.502041 -6.18744 0.9891926,-3.848783 -5.785955 1.220924,-2.773093 -5.033812 0.291521,-3.036937 -3.980434 0.4401164,-3.186837 -3.361834 0.5805362,-3.312654 -2.776467 0.6988297,-2.411066 -4.767061 0.3048741,-2.601799 -3.561267 0.3822144,-2.601799 -3.561267 0.3822144,-2.818239 -2.138584 0.7008189,-2.051397 -4.755082 0.4070517,-2.169668 -3.593261 0.4873252,-2.276219 -2.865438 0.6556395,-2.38423 -2.222714 0.8163221,-1.655903 -4.968902 0.5639727,-1.57274 -4.078374 0.6535808,-1.541631 -3.475651 0.8077853,-1.524625 -2.885845 0.9576162,-8.971464 -7.869787 0.7403787,-8.312486 -7.476362 1.185564,-7.832762 -6.659383 1.388736,-7.567048 -5.848042 1.604807,-7.469342 -5.186887 1.729459,-8.229609 -4.868175 0.6311986,-8.062845 -3.65744 0.880329,-7.952518 -2.867994 1.193264,-7.871061 -2.214099 1.442715,-8.603194 -4.798915 0.6670997,-8.58146 -3.299043 1.199223,-8.464197 -3.77819 1.726808,-8.436778 -4.463376 1.954745,-8.966828 -4.904987 0.7817437,-9.01556 -3.579025 1.218926,-8.879771 -4.065664 1.623015,-8.821237 -4.769019 1.753883,-9.359665 -5.20055 0.9307718,-9.459099 -4.232524 1.355915,-9.326377 -4.313075 1.648062,-9.220685 -4.790724 1.741824,5.110,35 1 0
-1.868041 -7.701684 0.313703,-2.540199 -7.432556 0.5911756,-3.097506 -6.803689 0.7380745,-3.476992 -6.157878 0.9168706,-3.82774 -5.772265 1.137904,-2.758368 -5.034708 0.2417476,-3.024302 -3.982349 0.3787947,-3.172352 -3.362594 0.5087266,-3.295033 -2.770324 0.6203777,-2.400619 -4.779274 0.2792673,-2.590166 -3.57265 0.3534533,-2.590166 -3.57265 0.3534533,-2.801539 -2.153283 0.6571026,-2.04262 -4.771734 0.4083809,-2.158878 -3.60147 0.4841886,-2.269014 -2.872545 0.6438692,-2.380348 -2.234123 0.7989916,-1.649418 -4.98838 0.5845935,-1.573403 -4.083061 0.6717266,-1.551059 -3.471229 0.8206046,-1.544015 -2.876738 0.9694847,-8.981554 -7.882157 0.8479689,-8.316311 -7.480546 1.297147,-7.835772 -6.678209 1.50314,-7.563712 -5.86922 1.719933,-7.457733 -5.200817 1.845889,-8.229839 -4.859405 0.7170122,-8.066279 -3.67187 0.9593277,-7.964902 -2.884777 1.275265,-7.890953 -2.23013 1.530061,-8.599588 -4.78288 0.7429061,-8.578102 -3.305226 1.267298,-8.460444 -3.830512 1.794899,-8.431026 -4.533308 2.029887,-8.963469 -4.882955 0.8471193,-9.013742 -3.580505 1.281787,-8.874181 -4.116048 1.690771,-8.811106 -4.830003 1.822161,-9.363519 -5.171735 0.9865251,-9.454069 -4.216373 1.407807,-9.308299 -4.345596 1.7027,-9.191668 -4.849274 1.797539,5.210,35 1 0
-1.880294 -7.73027 0.3013605,-2.514812 -7.402694 0.5480755,-3.005213 -6.647978 0.6749422,-3.29065 -5.868087 0.8444133,-3.634771 -5.360327 1.059088,-2.751154 -5.053049 0.238302,-3.017166 -4.014054 0.3986463,-3.150888 -3.380266 0.5082438,-3.252344 -2.765247 0.6052891,-2.399342 -4.80882 0.291713,-2.590007 -3.597431 0.4142143,-2.590007 -3.597431 0.4142143,-2.787743 -2.186319 0.7222469,-2.04136 -4.809461 0.4424707,-2.149781 -3.631525 0.5729358,-2.261182 -2.889516 0.7683491,-2.370688 -2.214838 0.9465811,-1.647838 -5.0398 0.6249259,-1.586658 -4.118114 0.7539061,-1.579987 -3.51134 0.9285727,-1.581214 -2.90949 1.095311,-8.983107 -7.905414 0.7645321,-8.319878 -7.505545 1.223269,-7.843995 -6.68325 1.457592,-7.584621 -5.876106 1.702175,-7.454278 -5.190639 1.887737,-8.207156 -4.888856 0.7314124,-8.050258 -3.676551 1.027878,-7.943623 -2.89676 1.362043,-7.861357 -2.237462 1.619676,-8.580973 -4.830923 0.7719972,-8.561012 -3.375172 1.368137,-8.461463 -4.012796 1.890375,-8.447791 -4.757816 2.088066,-8.949687 -4.935205 0.8899244,-9.001364 -3.639294 1.396963,-8.869053 -4.2348 1.798365,-8.808952 -4.97198 1.894581,-9.354713 -5.223539 1.042845,-9.448715 -4.252605 1.523051,-9.308844 -4.409566 1.829575,-9.192616 -4.929623 1.917998,5.310,35 1 0
-1.869714 -7.773878 0.4189104,-2.519271 -7.412759 0.85507,-2.993273 -6.623035 1.057319,-3.182336 -5.760934 1.298981,-3.361896 -5.002733 1.552181,-2.800328 -5.00205 0.3143235,-3.000929 -3.973894 0.4393097,-3.117939 -3.35148 0.6277571,-3.236279 -2.730328 0.7911054,-2.411955 -4.825391 0.2881746,-2.558802 -3.741193 0.3237592,-2.558802 -3.741193 0.3237592,-2.75494 -2.695103 0.7620028,-2.04359 -4.839385 0.3535025,-2.0956 -3.80051 0.4492424,-2.172241 -3.213749 0.7521379,-2.263441 -2.712667 1.00747,-1.65949 -5.034603 0.4968644,-1.653506 -4.220653 0.6643592,-1.713467 -3.779138 0.8844997,-1.783569 -3.387928 1.078581,-8.967364 -7.85911 0.6096885,-8.308112 -7.520441 1.102547,-7.836755 -6.699008 1.346938,-7.603256 -5.884609 1.59909,-7.525522 -5.207307 1.777401,-8.221304 -4.882892 0.6375237,-8.062568 -3.67614 0.9598334,-7.952497 -2.900068 1.304274,-7.872066 -2.251252 1.564798,-8.593161 -4.826178 0.6677727,-8.572254 -3.382505 1.305382,-8.463295 -4.064912 1.823174,-8.438375 -4.846069 2.012262,-8.967747 -4.917679 0.7841823,-9.009873 -3.638873 1.33902,-8.869436 -4.287904 1.749715,-8.800396 -5.068681 1.838481,-9.379552 -5.193876 0.9287379,-9.469972 -4.218657 1.448466,-9.313351 -4.410232 1.764473,-9.179649 -4.969027 1.857728,5.410,35 1 0
-1.833982 -7.742126 0.1017969,-2.509238 -7.415454 0.5681865,-2.986238 -6.631505 0.8100132,-3.167208 -5.772907 1.08259,-3.356728 -4.943395 1.359061,-2.824308 -5.085935 -0.03293119,-3.040139 -4.064422 0.08698001,-3.152905 -3.436834 0.2973703,-3.239012 -2.879373 0.506666,-2.426213 -4.895731 -0.02690634,-2.576385 -3.865098 0.1958353,-2.576385 -3.865098 0.1958353,-2.715107 -3.383446 1.04217,-2.043671 -4.903425 0.06170666,-2.127753 -3.93726 0.3176529,-2.189614 -3.483133 0.8554,-2.259393 -3.381984 1.260279,-1.633147 -5.079261 0.2158204,-1.652363 -4.284225 0.4926059,-1.722556 -3.912724 0.8682016,-1.804848 -3.764532 1.200481,-8.974578 -7.87107 0.5002221,-8.310432 -7.504725 0.9566427,-7.837502 -6.695474 1.199484,-7.603689 -5.877263 1.447783,-7.495602 -5.189977 1.625398,-8.2189 -4.930208 0.5020939,-8.064285 -3.712243 0.8386674,-7.955519 -2.93581 1.195313,-7.872793 -2.273486 1.461107,-8.591151 -4.870529 0.53786,-8.56443 -3.429728 1.163157,-8.457174 -4.127478 1.654311,-8.447437 -4.884635 1.819026,-8.960032 -4.958327 0.6568512,-9.007795 -3.669279 1.193127,-8.869987 -4.321347 1.568931,-8.820621 -5.070295 1.641948,-9.367549 -5.224092 0.8026509,-9.45866 -4.249898 1.298198,-9.309138 -4.446396 1.592437,-9.194046 -4.978604 1.669842,5.510,35 1 0
-1.841111 -7.801659 -0.3964381,-2.494876 -7.43913 0.03874037,-2.931671 -6.619763 0.3451636,-3.128704 -5.730093 0.6639961,-3.315733 -4.872747 0.9780487,-2.850483 -5.247392 -0.4412352,-3.019738 -4.325969 -0.2672833,-3.147892 -3.673654 -0.0115025,-3.286215 -3.044975 0.2055503,-2.462813 -5.104536 -0.4026129,-2.547849 -3.979552 0.1788869,-2.547849 -3.979552 0.1788869,-2.587942 -5.009038 0.7884902,-2.075455 -5.116546 -0.2983657,-2.11996 -4.071094 0.2371562,-2.227684 -4.715049 0.5484107,-2.244601 -5.292942 0.5926855,-1.649658 -5.263678 -0.1518534,-1.720685 -4.45622 0.2514374,-1.860853 -4.836711 0.4646946,-1.884324 -5.302782 0.5562259,-8.970595 -7.838851 0.4777833,-8.320008 -7.480894 0.9538953,-7.854453 -6.673154 1.19608,-7.6184 -5.880645 1.448367,-7.522878 -5.20889 1.633428,-8.23463 -4.892169 0.480314,-8.081842 -3.691733 0.8173725,-7.969636 -2.9172 1.179187,-7.8856 -2.261053 1.449374,-8.601471 -4.842929 0.5141599,-8.577217 -3.419865 1.171653,-8.461125 -4.12478 1.68278,-8.438085 -4.900949 1.85508,-8.97311 -4.931861 0.6349303,-9.019152 -3.651385 1.19991,-8.874282 -4.320186 1.597689,-8.8112 -5.101062 1.670351,-9.383378 -5.196573 0.7799214,-9.475408 -4.216705 1.299747,-9.314806 -4.423757 1.602041,-9.183001 -4.988091 1.678656,5.610,35 1 0
-1.831582 -7.799409 -0.6869003,-2.458212 -7.434593 -0.1872334,-2.90111 -6.648803 0.1035811,-3.115811 -5.814422 0.3993738,-3.30262 -5.014717 0.6693908,-2.84243 -5.340609 -0.655019,-3.018235 -4.443021 -0.3691784,-3.14448 -3.832343 -0.08791548,-3.273811 -3.208093 0.1253137,-2.469836 -5.191919 -0.6460674,-2.599859 -4.239587 0.01918662,-2.599859 -4.239587 0.01918662,-2.49921 -5.735583 0.3334115,-2.080081 -5.186794 -0.5480266,-2.166776 -4.312139 0.07920289,-2.217504 -5.292024 0.2450545,-2.173337 -5.918407 0.1687335,-1.6517 -5.326409 -0.3975081,-1.764242 -4.607681 0.03043687,-1.877687 -5.223642 0.151425,-1.859144 -5.734396 0.1393433,-8.982042 -7.832285 0.4286169,-8.326271 -7.483354 0.9200222,-7.855882 -6.682999 1.164607,-7.625997 -5.884614 1.416619,-7.536497 -5.196356 1.598323,-8.237066 -4.909864 0.4657741,-8.086906 -3.709776 0.8072915,-7.980649 -2.926237 1.169366,-7.89924 -2.269664 1.43061,-8.605622 -4.851804 0.4878127,-8.586918 -3.43102 1.150207,-8.476732 -4.126894 1.670134,-8.450069 -4.911136 1.852269,-8.979472 -4.929909 0.59394,-9.022447 -3.663103 1.169228,-8.88449 -4.333563 1.584888,-8.819263 -5.126256 1.668822,-9.39325 -5.177489 0.7252378,-9.48247 -4.200479 1.247439,-9.322729 -4.411378 1.560416,-9.186525 -4.99097 1.644514,5.710,35 1 0
-1.817595 -7.786317 -1.326146,-2.4098 -7.428173 -0.872462,-2.859627 -6.65883 -0.6509869,-3.081619 -5.841627 -0.4097302,-3.284159 -5.106734 -0.1877216,-2.745944 -5.487086 -1.259547,-2.994355 -4.575284 -0.8936848,-3.161674 -3.989715 -0.6222655,-3.328621 -3.408196 -0.4019065,-2.393063 -5.353149 -1.229622,-2.555086 -4.593091 -0.4751022,-2.555086 -4.593091 -0.4751022,-2.440056 -6.165897 -0.2326593,-2.015403 -5.343566 -1.108316,-2.145335 -4.627735 -0.3797318,-2.182885 -5.67313 -0.2673516,-2.151159 -6.327716 -0.3768105,-1.609707 -5.469902 -0.943603,-1.718612 -4.847939 -0.4425716,-1.842921 -5.544965 -0.3475502,-1.864255 -6.079044 -0.408226,-8.96686 -7.831413 0.4147753,-8.32839 -7.505228 0.9258841,-7.853423 -6.727737 1.20902,-7.617128 -5.948299 1.495714,-7.537749 -5.268011 1.716613,-8.215238 -4.910848 0.5079905,-8.074736 -3.720272 0.8733929,-7.970694 -2.926992 1.258456,-7.883732 -2.262509 1.550381,-8.58763 -4.857254 0.5379668,-8.574698 -3.480879 1.220909,-8.472389 -4.172319 1.745277,-8.448439 -4.944284 1.936078,-8.962589 -4.944335 0.6499506,-9.017047 -3.692424 1.229784,-8.889318 -4.347435 1.636245,-8.825897 -5.13179 1.722028,-9.376458 -5.206262 0.7942846,-9.476801 -4.231116 1.320926,-9.330761 -4.434678 1.636624,-9.202168 -5.00608 1.723336,5.810,35 1 0
-1.805342 -7.810274 -1.373047,-2.398253 -7.468503 -0.9439417,-2.834831 -6.657236 -0.7406641,-3.036913 -5.808057 -0.5190713,-3.253908 -5.10371 -0.3105909,-2.718324 -5.535522 -1.195647,-2.969794 -4.645497 -0.7620013,-3.132798 -4.090409 -0.4565927,-3.306431 -3.548927 -0.2362581,-2.36032 -5.39323 -1.164234,-2.509841 -4.700345 -0.4052832,-2.509841 -4.700345 -0.4052832,-2.410242 -6.238916 -0.2260411,-1.974067 -5.386472 -1.046087,-2.096252 -4.777935 -0.317668,-2.139422 -5.818042 -0.273419,-2.112173 -6.406652 -0.4142847,-1.568646 -5.53066 -0.8909029,-1.682243 -4.978626 -0.3814737,-1.79907 -5.710988 -0.3284545,-1.819413 -6.209512 -0.4260032,-8.964748 -7.81847 0.299459,-8.314809 -7.505827 0.8027694,-7.849107 -6.719377 1.068689,-7.624796 -5.937422 1.344016,-7.541408 -5.255563 1.547145,-8.245486 -4.927293 0.3727786,-8.090384 -3.735334 0.7259399,-7.979672 -2.94349 1.099441,-7.899519 -2.288007 1.365692,-8.614731 -4.872933 0.3972923,-8.588662 -3.482538 1.085913,-8.486176 -4.174637 1.612146,-8.463799 -4.950012 1.788746,-8.989943 -4.944036 0.5041094,-9.024496 -3.705759 1.087152,-8.892164 -4.386705 1.498719,-8.828985 -5.178172 1.576088,-9.404119 -5.182058 0.6371784,-9.491002 -4.209013 1.163403,-9.333401 -4.443731 1.481274,-9.20301 -5.032349 1.559782,5.910,35 1 0
-1.761384 -7.841098 -1.369258,-2.316442 -7.547158 -0.8805103,-2.786037 -6.795896 -0.5851461,-3.0072 -5.98883 -0.2938712,-3.247418 -5.290039 -0.00859952,-2.703049 -5.638233 -0.9048792,-2.992413 -4.840166 -0.3141989,-3.147585 -4.332738 0.07373965,-3.310143 -3.857908 0.3447034,-2.321867 -5.463136 -0.8889255,-2.439028 -5.033822 -0.04484677,-2.439028 -5.033822 -0.04484677,-2.314813 -6.634934 0.09241664,-1.910153 -5.459471 -0.78776,-1.997565 -5.095238 -0.01184177,-2.013999 -6.165662 -0.03728878,-2.016133 -6.716236 -0.1952986,-1.500101 -5.60494 -0.6511813,-1.564973 -5.224149 -0.1244211,-1.662871 -6.019144 -0.1247104,-1.71807 -6.485754 -0.2367672,-8.974237 -7.834854 0.2919946,-8.332963 -7.503776 0.7978114,-7.870184 -6.716722 1.068231,-7.650631 -5.917603 1.349995,-7.589093 -5.234739 1.556656,-8.270403 -4.943307 0.3685672,-8.110863 -3.72987 0.7454076,-8.000641 -2.917772 1.13153,-7.926122 -2.242062 1.407132,-8.637511 -4.889999 0.3919251,-8.608598 -3.502935 1.102449,-8.502975 -4.215749 1.626385,-8.478928 -4.997159 1.795953,-9.014106 -4.96076 0.501093,-9.046382 -3.718585 1.100327,-8.912733 -4.409536 1.500721,-8.849549 -5.199787 1.560778,-9.430125 -5.198148 0.6340175,-9.513726 -4.208335 1.170316,-9.35396 -4.443906 1.477004,-9.221612 -5.032808 1.537852,6.010,35 1 0
-1.688095 -7.852022 -1.587582,-2.258521 -7.615466 -1.042119,-2.750557 -6.932713 -0.6961627,-2.987899 -6.174495 -0.3737882,-3.257504 -5.489896 -0.06087804,-2.672619 -5.789655 -0.8845404,-2.957318 -5.046549 -0.1889275,-3.115358 -4.563692 0.2572503,-3.256941 -4.089664 0.5819283,-2.260728 -5.598518 -0.8898161,-2.323095 -5.228345 0.03155577,-2.323095 -5.228345 0.03155577,-2.224866 -6.76625 0.0361445,-1.828573 -5.604393 -0.8170196,-1.851707 -5.296722 0.01968932,-1.885098 -6.383188 -0.1259898,-1.908016 -6.869808 -0.3581524,-1.426516 -5.752425 -0.7056851,-1.440924 -5.421626 -0.1617215,-1.547676 -6.238698 -0.2490963,-1.622503 -6.660076 -0.4288418,-8.98081 -7.83148 0.1846593,-8.337656 -7.52453 0.6770775,-7.876727 -6.740217 0.9361025,-7.659476 -5.948951 1.211075,-7.605046 -5.269945 1.404419,-8.284926 -4.97122 0.2227363,-8.130515 -3.765997 0.5874362,-8.021283 -2.953142 0.9659254,-7.94609 -2.264976 1.232968,-8.646832 -4.916245 0.252338,-8.602891 -3.549434 0.9611363,-8.495572 -4.268932 1.48501,-8.47717 -5.040447 1.643424,-9.021277 -4.982479 0.3680412,-9.036122 -3.751506 0.9710958,-8.90494 -4.456558 1.36639,-8.853173 -5.240498 1.414546,-9.439841 -5.20844 0.5079567,-9.511958 -4.230572 1.029655,-9.354063 -4.478006 1.318483,-9.234763 -5.063072 1.36348,6.110,35 1 0
-1.65953 -7.827007 -1.295555,-2.236111 -7.605241 -0.7688962,-2.729957 -6.89391 -0.4269028,-2.95612 -6.147682 -0.1077766,-3.215991 -5.49303 0.22486,-2.617398 -5.723112 -0.5400411,-2.912655 -5.109995 0.1734256,-3.105329 -4.6478 0.6197368,-3.283024 -4.173875 0.9344159,-2.204755 -5.496081 -0.5376495,-2.304095 -5.297887 0.3537911,-2.304095 -5.297887 0.3537911,-2.19968 -6.876543 0.3640113,-1.765306 -5.499173 -0.4667469,-1.846813 -5.354043 0.3771036,-1.878087 -6.437395 0.2404239,-1.873446 -6.966668 0.01615751,-1.352295 -5.671623 -0.354227,-1.424121 -5.462549 0.2099119,-1.538204 -6.283751 0.1388401,-1.597843 -6.722757 -0.0349673,-8.991944 -7.826644 0.2164457,-8.353046 -7.515333 0.7112816,-7.884212 -6.741184 0.979943,-7.661727 -5.957205 1.262297,-7.613162 -5.276811 1.471423,-8.283836 -4.965385 0.2589421,-8.126748 -3.775245 0.630366,-8.02331 -2.97053 1.017314,-7.953028 -2.283194 1.291294,-8.646284 -4.903809 0.291932,-8.593843 -3.55797 0.9961744,-8.494637 -4.281517 1.521271,-8.484279 -5.049685 1.684773,-9.02432 -4.970712 0.413256,-9.032873 -3.760199 1.013272,-8.909816 -4.477648 1.408546,-8.864304 -5.260458 1.463369,-9.447826 -5.199641 0.5597285,-9.510755 -4.235229 1.074702,-9.356637 -4.498716 1.358056,-9.241429 -5.086294 1.402046,6.210,35 1 0
-1.687425 -7.69805 -1.357889,-2.26221 -7.56355 -0.6343729,-2.757757 -6.950939 -0.1620522,-2.978605 -6.287906 0.2246062,-3.256638 -5.711586 0.6771815,-2.620998 -5.804758 -0.09444308,-2.863777 -5.261087 0.8108845,-3.052336 -4.773036 1.307057,-3.238779 -4.243652 1.646188,-2.161785 -5.560844 -0.1647692,-2.206352 -5.36442 0.8350859,-2.206352 -5.36442 0.8350859,-2.150948 -7.004642 0.6373988,-1.68883 -5.563849 -0.1457652,-1.714517 -5.395206 0.8333852,-1.785274 -6.542541 0.6258249,-1.820598 -7.0968 0.3265157,-1.270362 -5.734252 -0.07618129,-1.283125 -5.52548 0.5786171,-1.412952 -6.345935 0.4718046,-1.505519 -6.774953 0.2636009,-8.989991 -7.854684 0.2275549,-8.356804 -7.533178 0.7312834,-7.896822 -6.759198 1.011518,-7.680717 -5.981906 1.302898,-7.623788 -5.31043 1.526931,-8.296247 -4.987632 0.3082067,-8.152835 -3.790252 0.7082007,-8.053759 -2.979988 1.115116,-7.987951 -2.286626 1.400977,-8.65994 -4.928187 0.3432854,-8.621869 -3.56994 1.076351,-8.507089 -4.300045 1.603429,-8.480605 -5.075245 1.765326,-9.038574 -4.999702 0.4664566,-9.063498 -3.776107 1.08698,-8.921855 -4.477598 1.488963,-8.858676 -5.261636 1.544151,-9.46014 -5.230192 0.6155874,-9.546558 -4.250228 1.151341,-9.379228 -4.493543 1.445846,-9.243809 -5.086971 1.497289,6.310,35 1 0
-1.731368 -7.564016 -1.448041,-2.311854 -7.615692 -0.7141242,-2.785404 -7.008796 -0.2016475,-2.944558 -6.321476 0.2062975,-3.201859 -5.713144 0.6648343,-2.666588 -5.828378 0.02896976,-2.845222 -5.321765 0.8822937,-3.032148 -4.813076 1.392867,-3.223883 -4.32607 1.775272,-2.189391 -5.590799 -0.03900886,-2.273868 -5.296543 0.9076705,-2.273868 -5.296543 0.9076705,-2.221102 -7.026233 0.8244376,-1.69213 -5.607946 -0.02196205,-1.772694 -5.394542 0.9791474,-1.83763 -6.469855 0.8450236,-1.868148 -7.112508 0.5774159,-1.23993 -5.766321 0.03212833,-1.321767 -5.611465 0.7742505,-1.455556 -6.381425 0.7380316,-1.538945 -6.819038 0.599781,-8.99848 -7.838837 0.1825779,-8.361715 -7.52234 0.689043,-7.897607 -6.761646 0.9654967,-7.679991 -5.979846 1.253072,-7.634778 -5.310823 1.465998,-8.291863 -4.991869 0.2557983,-8.146641 -3.790706 0.6463389,-8.048026 -2.981245 1.045427,-7.98237 -2.288882 1.326611,-8.657688 -4.926095 0.2866794,-8.619597 -3.578325 1.015389,-8.517837 -4.312665 1.540889,-8.500792 -5.085926 1.702657,-9.035677 -4.988073 0.4034997,-9.056187 -3.77768 1.018684,-8.932646 -4.484693 1.418496,-8.882569 -5.267979 1.476113,-9.456651 -5.208991 0.5484104,-9.534449 -4.237922 1.071588,-9.380603 -4.489229 1.363237,-9.259734 -5.080264 1.414384,6.410,35 1 0
-1.76841 -7.626544 -1.943289,-2.394735 -7.558092 -1.314139,-2.828175 -6.906101 -0.7655175,-2.945209 -6.184589 -0.322373,-3.147753 -5.520442 0.1315829,-2.598452 -6.165515 -0.2266598,-2.775306 -5.45865 0.5696381,-2.999658 -4.846433 0.9904007,-3.2166 -4.330677 1.331062,-2.101349 -6.043863 -0.271619,-2.199486 -5.259029 0.5567201,-2.199486 -5.259029 0.5567201,-2.302238 -6.329385 0.4751552,-1.615637 -6.066934 -0.2743902,-1.700417 -5.348377 0.6051418,-1.82727 -6.066001 0.4579786,-1.88924 -6.677376 0.2373627,-1.184658 -6.172513 -0.2486053,-1.22589 -5.612192 0.4137224,-1.385405 -6.074295 0.4239508,-1.480401 -6.472536 0.3853909,-8.985667 -7.838111 0.1088768,-8.355483 -7.527528 0.6280615,-7.897507 -6.781616 0.9241977,-7.688313 -6.013693 1.223279,-7.639162 -5.332387 1.460013,-8.285155 -5.009961 0.2490734,-8.143138 -3.802108 0.6614347,-8.054461 -2.975168 1.073754,-8.000852 -2.271564 1.358558,-8.654314 -4.948198 0.2722646,-8.622815 -3.616051 1.013541,-8.516979 -4.336439 1.539965,-8.492082 -5.111243 1.708481,-9.037322 -5.014938 0.3820344,-9.062099 -3.814035 1.012032,-8.928054 -4.512798 1.417634,-8.864553 -5.302549 1.482079,-9.461615 -5.234002 0.516857,-9.549653 -4.264407 1.057453,-9.386717 -4.508095 1.362972,-9.24925 -5.105323 1.422639,6.510,35 1 0
-1.707907 -7.488278 -1.865178,-2.355785 -7.404109 -1.205801,-2.811078 -6.715698 -0.5690228,-3.017651 -5.976177 -0.09771419,-3.22413 -5.419063 0.3564779,-2.596369 -6.819884 0.3644727,-2.821384 -5.876798 1.302088,-3.07827 -5.064222 1.772389,-3.296028 -4.323284 2.132745,-2.095511 -6.636714 0.2885872,-2.224486 -5.437706 0.9607221,-2.224486 -5.437706 0.9607221,-2.434515 -5.254058 0.5301048,-1.609533 -6.502124 0.2480084,-1.714483 -5.409826 1.007494,-1.863733 -5.527397 0.8320597,-1.95591 -5.816715 0.6662892,-1.184845 -6.402351 0.2375134,-1.261099 -5.60296 0.826434,-1.428547 -5.637364 0.8704814,-1.547123 -5.797039 0.9060115,-8.970081 -7.826137 -0.00507498,-8.348121 -7.555046 0.5053257,-7.905368 -6.799117 0.7938088,-7.70695 -6.038087 1.092129,-7.630581 -5.357282 1.327823,-8.28631 -5.028257 0.1134305,-8.140415 -3.829073 0.5058085,-8.053642 -3.001672 0.906785,-8.002582 -2.293207 1.18659,-8.658881 -4.965957 0.1433547,-8.630505 -3.638952 0.8736038,-8.532881 -4.355497 1.401463,-8.515693 -5.126701 1.564343,-9.045458 -5.038126 0.260758,-9.071363 -3.830696 0.8924575,-8.939953 -4.536249 1.299685,-8.881181 -5.317459 1.358075,-9.469352 -5.26679 0.401232,-9.555092 -4.307875 0.9357334,-9.398372 -4.572207 1.232247,-9.27256 -5.159578 1.281541,6.610,35 1 0
-1.645949 -7.391262 -1.502214,-2.31844 -7.561212 -0.6970076,-2.786334 -7.041303 -0.05783582,-2.957581 -6.382207 0.4102955,-3.13364 -5.732099 0.8435481,-2.724096 -6.281934 0.4309843,-2.881978 -5.796024 1.408728,-3.118727 -5.231805 1.901879,-3.377357 -4.546863 2.257625,-2.204411 -5.857913 0.327637,-2.334522 -5.330419 1.292303,-2.334522 -5.330419 1.292303,-2.588262 -5.570201 1.42996,-1.679106 -5.64403 0.291968,-1.809932 -5.430152 1.306155,-1.908922 -6.457813 1.024029,-1.970483 -7.075931 0.649828,-1.185793 -5.659045 0.2932974,-1.366027 -5.645992 1.105375,-1.500227 -6.433492 1.024898,-1.570518 -6.902602 0.8279064,-8.978 -7.853633 -0.03965671,-8.353731 -7.579099 0.4915609,-7.90602 -6.833354 0.7830484,-7.699276 -6.07344 1.084123,-7.634922 -5.383991 1.315665,-8.303255 -5.062858 0.09582122,-8.158012 -3.85209 0.4947854,-8.06419 -3.016159 0.8965933,-8.010184 -2.302561 1.175778,-8.669705 -5.00361 0.1184634,-8.63519 -3.674081 0.8767359,-8.531865 -4.386628 1.409097,-8.510347 -5.156389 1.571798,-9.05726 -5.073816 0.2308781,-9.078376 -3.871982 0.8907779,-8.938224 -4.56526 1.308092,-8.869812 -5.35099 1.364633,-9.482335 -5.291605 0.3666549,-9.571232 -4.326078 0.9152146,-9.404698 -4.565231 1.218948,-9.264192 -5.154867 1.27015,6.710,35 1 0
-1.703465 -7.325708 -1.502841,-2.360785 -7.43649 -0.6314009,-2.79243 -6.943481 0.09560096,-2.951948 -6.326026 0.6136447,-3.069643 -5.730867 1.132562,-2.707459 -6.748479 0.8180228,-2.895976 -6.167618 1.84024,-3.123171 -5.490814 2.373222,-3.35133 -4.798958 2.75044,-2.189319 -6.373907 0.7036122,-2.32044 -5.507433 1.684028,-2.32044 -5.507433 1.684028,-2.665951 -5.228834 1.687887,-1.657836 -6.114233 0.6395446,-1.736732 -5.450174 1.630004,-1.881393 -6.188871 1.289529,-2.017929 -6.800617 0.8917488,-1.17094 -6.000787 0.6403085,-1.235529 -5.633622 1.403524,-1.389627 -6.184272 1.344293,-1.532959 -6.646108 1.181631,-8.9654 -7.854476 -0.02411962,-8.349961 -7.592081 0.5022904,-7.899121 -6.837693 0.784936,-7.696053 -6.074059 1.080115,-7.639588 -5.392311 1.308973,-8.296743 -5.064303 0.06875886,-8.151714 -3.854761 0.4662536,-8.058821 -3.024879 0.8741875,-8.005234 -2.311401 1.159914,-8.665435 -4.997194 0.09501217,-8.611753 -3.655323 0.8611757,-8.504195 -4.39117 1.403054,-8.486079 -5.167652 1.559102,-9.053123 -5.06481 0.2118737,-9.061789 -3.850557 0.8713315,-8.9209 -4.568416 1.287403,-8.856371 -5.353141 1.334731,-9.478366 -5.285623 0.3533093,-9.561852 -4.325099 0.894895,-9.392736 -4.576046 1.186566,-9.255396 -5.15861 1.224684,6.810,35 1 0
-1.654757 -7.36798 -1.674906,-2.319334 -7.463106 -0.7715726,-2.772187 -7.003129 -0.08062196,-2.92637 -6.430292 0.4255981,-3.048334 -5.823196 0.8938127,-2.775195 -6.555347 0.4109166,-2.887273 -6.099205 1.452855,-3.047499 -5.497755 2.027066,-3.239144 -4.781814 2.461736,-2.266305 -6.167495 0.314279,-2.317469 -5.518117 1.39984,-2.317469 -5.518117 1.39984,-2.750808 -4.924349 1.969111,-1.727289 -5.945073 0.2737411,-1.728737 -5.579727 1.322392,-1.835633 -6.411561 1.113446,-1.970906 -6.939163 0.7959771,-1.196815 -5.940782 0.310092,-1.20052 -5.800782 1.157215,-1.320574 -6.389458 1.178401,-1.45033 -6.751472 1.062474,-8.974837 -7.851483 0.02164662,-8.352792 -7.574573 0.5690314,-7.900604 -6.830795 0.8656741,-7.689181 -6.075678 1.171262,-7.627665 -5.397947 1.407976,-8.297091 -5.044178 0.1605135,-8.153069 -3.83999 0.5650846,-8.062655 -3.010463 0.9738427,-8.013144 -2.288214 1.261414,-8.667521 -4.983757 0.1805561,-8.622618 -3.657012 0.9516117,-8.519019 -4.397832 1.484671,-8.504082 -5.169918 1.637328,-9.05563 -5.051651 0.2919895,-9.07084 -3.852773 0.9518296,-8.933362 -4.565589 1.359829,-8.872423 -5.348274 1.406361,-9.481874 -5.270216 0.4314847,-9.569876 -4.302978 0.9756633,-9.402142 -4.553171 1.269328,-9.265149 -5.139413 1.309198,6.910,35 1 0
-1.776625 -6.807718 -1.418827,-2.323963 -7.148029 -0.373983,-2.763724 -7.030812 0.3834215,-2.980837 -6.536884 0.8678161,-3.1747 -6.031168 1.371237,-2.765447 -7.189806 1.239998,-2.857361 -6.618834 2.268342,-3.01245 -5.955158 2.936063,-3.17901 -5.168558 3.419927,-2.326744 -6.673139 0.9910208,-2.312396 -6.031976 1.996918,-2.312396 -6.031976 1.996918,-2.518117 -4.866479 2.53139,-1.852704 -6.190397 0.7775036,-1.712894 -5.841299 1.630813,-1.65484 -6.19874 1.405512,-1.7047 -6.373168 1.198197,-1.384103 -5.855924 0.634226,-1.19691 -5.766408 1.334111,-1.185415 -6.089841 1.292016,-1.276363 -6.242863 1.246137,-8.962786 -7.855472 -0.02674115,-8.35337 -7.6032 0.5198854,-7.903906 -6.855621 0.8253437,-7.69811 -6.099695 1.138486,-7.6371 -5.419811 1.385119,-8.298711 -5.055841 0.1208038,-8.149146 -3.850569 0.5129763,-8.065897 -3.015162 0.9091486,-8.01934 -2.298953 1.189023,-8.671653 -5.000336 0.1388177,-8.630264 -3.667795 0.8917411,-8.538885 -4.39237 1.420538,-8.521739 -5.173398 1.573245,-9.060093 -5.077413 0.2463421,-9.074628 -3.876004 0.8871907,-8.94465 -4.592821 1.288179,-8.879747 -5.383274 1.337312,-9.485111 -5.312093 0.3815187,-9.570711 -4.347038 0.9165006,-9.413516 -4.609655 1.208277,-9.28192 -5.198967 1.248146,7.010,35 1 0
-1.775878 -7.261995 0.5898628,-2.522548 -7.230949 1.958887,-3.129839 -7.008008 3.010161,-3.316041 -6.418643 3.743407,-3.233212 -5.592416 4.404141,-2.860836 -7.109947 3.848537,-2.96291 -6.590449 5.259011,-3.061666 -5.944376 6.100209,-3.168506 -5.222336 6.695708,-2.153865 -6.780326 3.57738,-2.166357 -6.051663 5.014723,-2.166357 -6.051663 5.014723,-2.625529 -4.942432 5.802071,-1.493629 -6.446168 3.369461,-1.710639 -5.714947 4.594502,-1.825329 -6.350402 4.382876,-1.978215 -6.834674 4.157729,-1.142684 -5.987833 3.405381,-1.175495 -5.833537 4.257962,-1.241192 -6.232681 4.260731,-1.331614 -6.467437 4.271847,-8.989102 -7.859151 -0.01616101,-8.359801 -7.615987 0.5341402,-7.906934 -6.881488 0.8342384,-7.699481 -6.120998 1.135728,-7.631917 -5.434486 1.371772,-8.297633 -5.071044 0.1524708,-8.157201 -3.863943 0.5676265,-8.076919 -3.036153 0.981932,-8.02984 -2.327918 1.269319,-8.668742 -5.004871 0.1620732,-8.641422 -3.689437 0.925898,-8.546322 -4.415668 1.453837,-8.521503 -5.186801 1.60795,-9.057736 -5.074812 0.2638797,-9.084459 -3.890295 0.9272405,-8.954778 -4.587757 1.340474,-8.884933 -5.367472 1.391526,-9.483908 -5.297748 0.3910027,-9.576065 -4.348617 0.9460093,-9.418262 -4.604547 1.254202,-9.276506 -5.192956 1.304898,7.110,35 1 0
-1.74393 -7.125692 0.6425971,-2.412803 -7.038237 1.648381,-2.955017 -6.824583 2.566916,-3.233362 -6.349189 3.245204,-3.345402 -5.714408 3.940684,-2.7777 -7.28058 3.838125,-2.901924 -6.642963 5.186117,-3.000099 -5.821897 5.996762,-3.076031 -5.03684 6.492395,-2.18237 -7.071735 3.675148,-2.176456 -5.990276 4.82121,-2.176456 -5.990276 4.82121,-2.509685 -4.719442 5.102576,-1.555365 -6.764308 3.582328,-1.48726 -5.706525 4.652472,-1.644007 -5.350642 4.621178,-1.816442 -5.283702 4.58706,-1.003217 -6.533023 3.547152,-0.8247786 -5.896156 4.383159,-0.9532499 -5.70288 4.620245,-1.139503 -5.711242 4.818764,-8.976363 -7.873312 0.001402105,-8.355056 -7.620268 0.5531142,-7.905766 -6.877212 0.8492509,-7.699021 -6.124061 1.151307,-7.614928 -5.437109 1.388336,-8.28723 -5.079713 0.1470633,-8.148271 -3.880656 0.5578941,-8.059318 -3.052458 0.9782531,-8.002943 -2.340821 1.271835,-8.65782 -5.012723 0.1616636,-8.617317 -3.693401 0.932039,-8.513244 -4.414054 1.47683,-8.487372 -5.182603 1.646888,-9.046629 -5.086391 0.2710921,-9.070367 -3.891151 0.9403518,-8.927793 -4.590086 1.369086,-8.851847 -5.369382 1.439738,-9.473009 -5.310152 0.4074021,-9.566416 -4.361755 0.9683914,-9.400265 -4.599668 1.286645,-9.253635 -5.175392 1.350118,7.210,35 1 0
-2.629204 -6.151156 0.9270861,-3.236617 -6.400419 2.239948,-3.564463 -6.336301 3.241695,-3.563004 -5.739171 4.00786,-3.192062 -5.363265 4.65106,-2.974907 -7.133804 4.182737,-3.005482 -6.345311 5.390443,-2.974293 -5.905204 6.000826,-2.962059 -5.713067 6.297602,-2.304136 -6.967749 3.94776,-2.304255 -6.172229 5.502018,-2.304255 -6.172229 5.502018,-2.457242 -5.561172 7.00219,-1.766879 -6.626655 3.662027,-1.683942 -6.278344 5.016112,-1.722583 -6.409275 5.350318,-1.827332 -6.826526 5.482632,-1.43164 -6.241657 3.439145,-1.278709 -6.10585 4.496542,-1.32638 -6.320744 4.868948,-1.471544 -6.757598 5.11024,-8.955193 -7.867685 -0.4472919,-8.376449 -7.708135 0.1297138,-7.917694 -6.97388 0.4255006,-7.734287 -6.18918 0.6950973,-7.734469 -5.538616 0.9058876,-8.284044 -5.272089 -0.1032892,-8.142741 -4.150376 0.1417281,-8.031489 -3.226591 0.4243299,-7.947392 -2.416383 0.6684396,-8.679914 -5.146268 -0.1220522,-8.621801 -3.869863 0.50504,-8.553352 -4.398828 0.9175434,-8.520682 -5.146427 1.031893,-9.064316 -5.220335 -0.05218846,-9.041001 -4.058155 0.4987544,-8.927891 -4.636922 0.8639932,-8.849749 -5.371723 0.9566491,-9.470643 -5.470981 0.03520119,-9.493978 -4.552741 0.5334517,-9.362804 -4.728942 0.7898053,-9.252231 -5.213664 0.8942764,7.310,35 1 0
-2.761595 -6.429346 0.3967285,-3.3034 -6.648495 1.648333,-3.505291 -6.456561 2.616196,-3.415191 -5.756248 3.332412,-3.04065 -5.215555 3.972421,-2.982686 -7.290212 3.545081,-2.966439 -6.283918 4.652293,-2.881593 -5.710027 5.274887,-2.808965 -5.455403 5.5991,-2.383573 -7.135139 3.282018,-2.297459 -6.144138 4.620344,-2.297459 -6.144138 4.620344,-2.276467 -5.544751 5.96346,-1.917177 -6.772987 2.961869,-1.767321 -6.199769 4.104339,-1.736051 -6.310499 4.438282,-1.790761 -6.756966 4.622309,-1.641994 -6.353147 2.699125,-1.432414 -5.999424 3.613229,-1.419886 -6.093377 3.948285,-1.521884 -6.499818 4.163941,-8.951978 -7.856754 -0.2923941,-8.376954 -7.680493 0.2756541,-7.916088 -6.959724 0.5604845,-7.723305 -6.174493 0.8321279,-7.734715 -5.532593 1.032806,-8.28672 -5.236974 0.01320833,-8.14096 -4.117919 0.2533944,-8.044814 -3.18378 0.5293927,-7.967989 -2.359079 0.7650062,-8.677441 -5.08698 0.001746416,-8.619706 -3.818097 0.6145195,-8.571406 -4.425262 1.024841,-8.54944 -5.20161 1.127532,-9.056559 -5.13902 0.06606346,-9.028747 -4.003292 0.598337,-8.941097 -4.628511 0.9486451,-8.878945 -5.365745 1.021524,-9.457045 -5.376649 0.1556658,-9.485791 -4.482862 0.6127391,-9.369683 -4.682262 0.8326383,-9.265957 -5.172641 0.8927535,7.410,35 1 0
-2.876903 -6.151467 0.782626,-3.366477 -6.333744 1.840983,-3.466809 -6.153899 2.781667,-3.273743 -5.583347 3.530817,-2.87706 -5.117647 4.256297,-3.051323 -7.291627 3.801277,-2.860479 -6.679788 4.717745,-2.676064 -6.31972 5.222919,-2.615269 -6.211679 5.525554,-2.50531 -7.242029 3.665493,-2.278839 -6.617595 4.926565,-2.278839 -6.617595 4.926565,-2.106484 -6.158844 6.004676,-2.091909 -6.926466 3.446248,-1.834467 -6.41437 4.615252,-1.700539 -6.100118 5.159855,-1.734518 -6.16072 5.501627,-1.865555 -6.426506 3.240171,-1.586541 -6.259326 4.235967,-1.494476 -6.097824 4.777738,-1.540075 -6.145631 5.14098,-8.98343 -7.86027 -0.1685846,-8.362367 -7.661758 0.389816,-7.907939 -6.92701 0.6861108,-7.698125 -6.173828 0.9896432,-7.626648 -5.473234 1.224916,-8.290247 -5.124258 -0.03488852,-8.151293 -3.915963 0.3354553,-8.061409 -3.083726 0.7130715,-8.001493 -2.363116 0.9892052,-8.655076 -5.049099 -0.02013078,-8.609254 -3.745453 0.7296893,-8.522914 -4.476783 1.244028,-8.505918 -5.247783 1.388797,-9.042791 -5.11218 0.08768582,-9.045548 -3.907813 0.7604668,-8.924381 -4.611305 1.176763,-8.862284 -5.398773 1.227762,-9.472669 -5.323019 0.222378,-9.547143 -4.35456 0.7658785,-9.392613 -4.605254 1.05795,-9.258976 -5.192134 1.10254,7.510,35 1 0
-2.926454 -6.302675 1.241335,-3.442221 -6.400818 2.396446,-3.506731 -6.096381 3.368184,-3.247847 -5.511004 4.089678,-2.782797 -5.038435 4.792698,-3.082885 -7.117517 4.520551,-2.824808 -6.532809 5.498846,-2.609874 -6.184429 6.028517,-2.535227 -6.080766 6.345011,-2.468387 -7.164724 4.326169,-2.170389 -6.569824 5.635733,-2.170389 -6.569824 5.635733,-2.004103 -6.002679 6.771762,-2.020238 -6.95671 4.02965,-1.714621 -6.658504 5.111785,-1.641902 -6.307529 5.416051,-1.714389 -6.281919 5.620559,-1.772117 -6.616678 3.776734,-1.49801 -6.627573 4.7086,-1.461042 -6.43184 5.10778,-1.525046 -6.40977 5.383257,-8.955585 -7.868675 -0.1919343,-8.345393 -7.659402 0.3608553,-7.903335 -6.903947 0.6627969,-7.705671 -6.149036 0.9733404,-7.631677 -5.462885 1.213207,-8.290315 -5.12549 -0.03134809,-8.147172 -3.911914 0.3715849,-8.054938 -3.068157 0.7744971,-8.003428 -2.354887 1.061569,-8.66223 -5.062032 -0.01377949,-8.62489 -3.707654 0.7497935,-8.527683 -4.437192 1.269008,-8.504181 -5.219432 1.406012,-9.048915 -5.133466 0.09587136,-9.072077 -3.917015 0.7653892,-8.939789 -4.639438 1.16913,-8.871432 -5.423229 1.21332,-9.469763 -5.363443 0.2322477,-9.563867 -4.396735 0.7851753,-9.410536 -4.663557 1.076268,-9.280615 -5.248748 1.114706,7.610,35 1 0
-2.821458 -6.326013 0.384419,-3.279319 -6.556581 1.693728,-3.39455 -6.339805 2.656905,-3.232992 -5.681839 3.353459,-2.883333 -5.083442 3.990601,-2.942471 -6.947888 3.536868,-2.688229 -6.606161 4.583906,-2.518363 -6.379128 5.224401,-2.498793 -6.308334 5.616884,-2.334466 -6.832195 3.291501,-2.000119 -6.58802 4.658346,-2.000119 -6.58802 4.658346,-1.922955 -6.172398 5.859228,-1.911209 -6.581701 2.99471,-1.594285 -6.683697 4.162892,-1.575322 -6.522306 4.55074,-1.711431 -6.561607 4.762023,-1.708965 -6.277289 2.764382,-1.402798 -6.480486 3.808486,-1.384529 -6.37878 4.294645,-1.480878 -6.399949 4.574139,-8.992024 -7.911323 -0.07812846,-8.379288 -7.685444 0.489464,-7.926023 -6.939403 0.8100377,-7.715498 -6.181036 1.134892,-7.655657 -5.492349 1.387787,-8.311837 -5.131998 0.1204863,-8.16526 -3.922803 0.5363052,-8.075237 -3.080702 0.9438331,-8.026973 -2.373563 1.237148,-8.687592 -5.075778 0.1382293,-8.670045 -3.728 0.9220084,-8.573442 -4.434211 1.462259,-8.547637 -5.218397 1.62231,-9.07957 -5.1518 0.2479469,-9.118401 -3.942386 0.9358339,-8.984066 -4.644678 1.359135,-8.910456 -5.438073 1.41217,-9.501831 -5.385413 0.3803925,-9.605618 -4.415725 0.9502982,-9.451718 -4.666814 1.262098,-9.317389 -5.250343 1.31407,7.710,35 1 0
-2.304245 -6.910873 1.341108,-2.91812 -7.224198 2.850703,-3.296058 -7.14771 4.009957,-3.126089 -6.605182 4.82105,-2.655813 -6.078891 5.490442,-3.125087 -6.071268 4.693798,-2.99719 -5.592362 6.140456,-2.836394 -5.946274 6.751956,-2.81276 -6.184577 6.956031,-2.359258 -5.725785 4.381876,-2.213876 -5.517282 6.120348,-2.213876 -5.517282 6.120348,-2.282193 -6.376111 7.158144,-1.701727 -5.621883 4.083824,-1.505756 -6.127667 5.470503,-1.724723 -7.065855 5.499266,-1.973136 -7.647514 5.356557,-1.232586 -5.820512 3.873544,-1.120059 -6.414596 4.759733,-1.27422 -7.194526 4.798409,-1.48269 -7.654976 4.722789,-9.017137 -7.890087 -0.07563857,-8.401001 -7.664405 0.4863339,-7.95166 -6.939927 0.8037265,-7.740752 -6.187702 1.122745,-7.673596 -5.501176 1.368352,-8.333583 -5.113682 0.09637964,-8.196621 -3.907793 0.4928778,-8.117093 -3.089651 0.8895732,-8.071896 -2.394169 1.165715,-8.704167 -5.05241 0.1072491,-8.676745 -3.734087 0.8762876,-8.592331 -4.487228 1.396035,-8.573823 -5.275108 1.531137,-9.08907 -5.122564 0.2074719,-9.116004 -3.937552 0.8683004,-8.996935 -4.667789 1.271546,-8.932705 -5.458132 1.312575,-9.510638 -5.350048 0.3356072,-9.604031 -4.390029 0.8852113,-9.457358 -4.663141 1.189652,-9.327188 -5.254619 1.229532,7.810,35 1 0
