TiagoOliveira98/Thesis-Project/Difficulty_0/Motor_Task/Unity_Project/DataLogging/JointData/Logs(1646876216)_ffff_Motor.csv
WRIST,THUMB_CMC,THUMB_MCP,THUMB_IP,THUMB_TIP,INDEX_FINGER_MCP,INDEX_FINGER_PIP,INDEX_FINGER_DIP,INDEX_FINGER_TIP,MIDDLE_FINGER_MCP,MIDDLE_FINGER_PIP,MIDDLE_FINGER_DIP,MIDDLE_FINGER_TIP,RING_FINGER_MCP,RING_FINGER_PIP,RING_FINGER_DIP,RING_FINGER_TIP,PINKY_MCP,PINKY_PIP,PINKY_DIP,PINKY_TIP,WRIST2,THUMB_CMC2,THUMB_MCP2,THUMB_IP2,THUMB_TIP2,INDEX_FINGER_MCP2,INDEX_FINGER_PIP2,INDEX_FINGER_DIP2,INDEX_FINGER_TIP2,MIDDLE_FINGER_MCP2,MIDDLE_FINGER_PIP2,MIDDLE_FINGER_DIP2,MIDDLE_FINGER_TIP2,RING_FINGER_MCP2,RING_FINGER_PIP2,RING_FINGER_DIP2,RING_FINGER_TIP2,PINKY_MCP2,PINKY_PIP2,PINKY_DIP2,PINKY_TIP2,Timestamp,Event
-0.2681389 -8.505865 -0.0008848233,-0.6034479 -9.335655 -0.1179365,-0.7829561 -10.07382 -0.09578066,-0.9188714 -10.70314 -0.0459393,-1.043709 -11.02593 0.01068224,-0.5390615 -9.998718 0.6413823,-0.293406 -10.82842 0.628582,-0.3355885 -10.75787 0.5359499,-0.3616753 -10.61756 0.4972498,-0.2148061 -9.792997 0.6991305,0.001825809 -10.72252 0.6707199,0.001825809 -10.72252 0.6707199,-0.149375 -10.44696 0.4073409,0.0409379 -9.583605 0.6927724,0.2102747 -10.5057 0.5151362,0.09319735 -10.37134 0.1940192,-0.01466656 -10.09328 0.08196934,0.2415066 -9.420385 0.7233993,0.3546066 -10.28642 0.6125354,0.2495584 -10.15372 0.5415938,0.1688991 -9.872244 0.4478803,-7.497151 -13.40414 0.0004009866,-6.861567 -12.24726 -0.242556,-6.298949 -11.46076 -0.05390814,-5.87759 -10.93008 0.2611708,-5.602816 -10.58808 0.8002304,-6.039115 -10.86137 0.4464973,-5.576214 -11.37929 0.7761359,-5.408533 -12.19259 1.183147,-5.331972 -12.94438 1.424223,-6.135027 -11.13305 0.7508482,-5.562113 -12.20999 1.022122,-5.481876 -13.24651 1.23735,-5.492966 -14.06302 1.445714,-6.339531 -11.62088 1.039235,-5.766387 -12.77705 1.379236,-5.780884 -13.6588 1.437151,-5.914614 -14.24277 1.432803,-6.600329 -12.21294 1.285704,-6.035513 -13.12574 1.454055,-5.865931 -13.76181 1.371364,-5.82226 -14.21263 1.338634,0.010, 1 0
-0.2681389 -8.505865 -0.0008848233,-0.6034479 -9.335655 -0.1179365,-0.7829561 -10.07382 -0.09578066,-0.9188714 -10.70314 -0.0459393,-1.043709 -11.02593 0.01068224,-0.5390615 -9.998718 0.6413823,-0.293406 -10.82842 0.628582,-0.3355885 -10.75787 0.5359499,-0.3616753 -10.61756 0.4972498,-0.2148061 -9.792997 0.6991305,0.001825809 -10.72252 0.6707199,0.001825809 -10.72252 0.6707199,-0.149375 -10.44696 0.4073409,0.0409379 -9.583605 0.6927724,0.2102747 -10.5057 0.5151362,0.09319735 -10.37134 0.1940192,-0.01466656 -10.09328 0.08196934,0.2415066 -9.420385 0.7233993,0.3546066 -10.28642 0.6125354,0.2495584 -10.15372 0.5415938,0.1688991 -9.872244 0.4478803,-7.497151 -13.40414 0.0004009866,-6.861567 -12.24726 -0.242556,-6.298949 -11.46076 -0.05390814,-5.87759 -10.93008 0.2611708,-5.602816 -10.58808 0.8002304,-6.039115 -10.86137 0.4464973,-5.576214 -11.37929 0.7761359,-5.408533 -12.19259 1.183147,-5.331972 -12.94438 1.424223,-6.135027 -11.13305 0.7508482,-5.562113 -12.20999 1.022122,-5.481876 -13.24651 1.23735,-5.492966 -14.06302 1.445714,-6.339531 -11.62088 1.039235,-5.766387 -12.77705 1.379236,-5.780884 -13.6588 1.437151,-5.914614 -14.24277 1.432803,-6.600329 -12.21294 1.285704,-6.035513 -13.12574 1.454055,-5.865931 -13.76181 1.371364,-5.82226 -14.21263 1.338634,0.110, 1 0
-0.2681389 -8.505865 -0.0008848233,-0.6034479 -9.335655 -0.1179365,-0.7829561 -10.07382 -0.09578066,-0.9188714 -10.70314 -0.0459393,-1.043709 -11.02593 0.01068224,-0.5390615 -9.998718 0.6413823,-0.293406 -10.82842 0.628582,-0.3355885 -10.75787 0.5359499,-0.3616753 -10.61756 0.4972498,-0.2148061 -9.792997 0.6991305,0.001825809 -10.72252 0.6707199,0.001825809 -10.72252 0.6707199,-0.149375 -10.44696 0.4073409,0.0409379 -9.583605 0.6927724,0.2102747 -10.5057 0.5151362,0.09319735 -10.37134 0.1940192,-0.01466656 -10.09328 0.08196934,0.2415066 -9.420385 0.7233993,0.3546066 -10.28642 0.6125354,0.2495584 -10.15372 0.5415938,0.1688991 -9.872244 0.4478803,-7.497151 -13.40414 0.0004009866,-6.861567 -12.24726 -0.242556,-6.298949 -11.46076 -0.05390814,-5.87759 -10.93008 0.2611708,-5.602816 -10.58808 0.8002304,-6.039115 -10.86137 0.4464973,-5.576214 -11.37929 0.7761359,-5.408533 -12.19259 1.183147,-5.331972 -12.94438 1.424223,-6.135027 -11.13305 0.7508482,-5.562113 -12.20999 1.022122,-5.481876 -13.24651 1.23735,-5.492966 -14.06302 1.445714,-6.339531 -11.62088 1.039235,-5.766387 -12.77705 1.379236,-5.780884 -13.6588 1.437151,-5.914614 -14.24277 1.432803,-6.600329 -12.21294 1.285704,-6.035513 -13.12574 1.454055,-5.865931 -13.76181 1.371364,-5.82226 -14.21263 1.338634,0.210, 1 0
-0.2681389 -8.505865 -0.0008848233,-0.6034479 -9.335655 -0.1179365,-0.7829561 -10.07382 -0.09578066,-0.9188714 -10.70314 -0.0459393,-1.043709 -11.02593 0.01068224,-0.5390615 -9.998718 0.6413823,-0.293406 -10.82842 0.628582,-0.3355885 -10.75787 0.5359499,-0.3616753 -10.61756 0.4972498,-0.2148061 -9.792997 0.6991305,0.001825809 -10.72252 0.6707199,0.001825809 -10.72252 0.6707199,-0.149375 -10.44696 0.4073409,0.0409379 -9.583605 0.6927724,0.2102747 -10.5057 0.5151362,0.09319735 -10.37134 0.1940192,-0.01466656 -10.09328 0.08196934,0.2415066 -9.420385 0.7233993,0.3546066 -10.28642 0.6125354,0.2495584 -10.15372 0.5415938,0.1688991 -9.872244 0.4478803,-7.497151 -13.40414 0.0004009866,-6.861567 -12.24726 -0.242556,-6.298949 -11.46076 -0.05390814,-5.87759 -10.93008 0.2611708,-5.602816 -10.58808 0.8002304,-6.039115 -10.86137 0.4464973,-5.576214 -11.37929 0.7761359,-5.408533 -12.19259 1.183147,-5.331972 -12.94438 1.424223,-6.135027 -11.13305 0.7508482,-5.562113 -12.20999 1.022122,-5.481876 -13.24651 1.23735,-5.492966 -14.06302 1.445714,-6.339531 -11.62088 1.039235,-5.766387 -12.77705 1.379236,-5.780884 -13.6588 1.437151,-5.914614 -14.24277 1.432803,-6.600329 -12.21294 1.285704,-6.035513 -13.12574 1.454055,-5.865931 -13.76181 1.371364,-5.82226 -14.21263 1.338634,0.310, 1 0
-0.2681389 -8.505865 -0.0008848233,-0.6034479 -9.335655 -0.1179365,-0.7829561 -10.07382 -0.09578066,-0.9188714 -10.70314 -0.0459393,-1.043709 -11.02593 0.01068224,-0.5390615 -9.998718 0.6413823,-0.293406 -10.82842 0.628582,-0.3355885 -10.75787 0.5359499,-0.3616753 -10.61756 0.4972498,-0.2148061 -9.792997 0.6991305,0.001825809 -10.72252 0.6707199,0.001825809 -10.72252 0.6707199,-0.149375 -10.44696 0.4073409,0.0409379 -9.583605 0.6927724,0.2102747 -10.5057 0.5151362,0.09319735 -10.37134 0.1940192,-0.01466656 -10.09328 0.08196934,0.2415066 -9.420385 0.7233993,0.3546066 -10.28642 0.6125354,0.2495584 -10.15372 0.5415938,0.1688991 -9.872244 0.4478803,-7.497151 -13.40414 0.0004009866,-6.861567 -12.24726 -0.242556,-6.298949 -11.46076 -0.05390814,-5.87759 -10.93008 0.2611708,-5.602816 -10.58808 0.8002304,-6.039115 -10.86137 0.4464973,-5.576214 -11.37929 0.7761359,-5.408533 -12.19259 1.183147,-5.331972 -12.94438 1.424223,-6.135027 -11.13305 0.7508482,-5.562113 -12.20999 1.022122,-5.481876 -13.24651 1.23735,-5.492966 -14.06302 1.445714,-6.339531 -11.62088 1.039235,-5.766387 -12.77705 1.379236,-5.780884 -13.6588 1.437151,-5.914614 -14.24277 1.432803,-6.600329 -12.21294 1.285704,-6.035513 -13.12574 1.454055,-5.865931 -13.76181 1.371364,-5.82226 -14.21263 1.338634,0.410, 1 0
-0.2681389 -8.505865 -0.0008848233,-0.6034479 -9.335655 -0.1179365,-0.7829561 -10.07382 -0.09578066,-0.9188714 -10.70314 -0.0459393,-1.043709 -11.02593 0.01068224,-0.5390615 -9.998718 0.6413823,-0.293406 -10.82842 0.628582,-0.3355885 -10.75787 0.5359499,-0.3616753 -10.61756 0.4972498,-0.2148061 -9.792997 0.6991305,0.001825809 -10.72252 0.6707199,0.001825809 -10.72252 0.6707199,-0.149375 -10.44696 0.4073409,0.0409379 -9.583605 0.6927724,0.2102747 -10.5057 0.5151362,0.09319735 -10.37134 0.1940192,-0.01466656 -10.09328 0.08196934,0.2415066 -9.420385 0.7233993,0.3546066 -10.28642 0.6125354,0.2495584 -10.15372 0.5415938,0.1688991 -9.872244 0.4478803,-7.497151 -13.40414 0.0004009866,-6.861567 -12.24726 -0.242556,-6.298949 -11.46076 -0.05390814,-5.87759 -10.93008 0.2611708,-5.602816 -10.58808 0.8002304,-6.039115 -10.86137 0.4464973,-5.576214 -11.37929 0.7761359,-5.408533 -12.19259 1.183147,-5.331972 -12.94438 1.424223,-6.135027 -11.13305 0.7508482,-5.562113 -12.20999 1.022122,-5.481876 -13.24651 1.23735,-5.492966 -14.06302 1.445714,-6.339531 -11.62088 1.039235,-5.766387 -12.77705 1.379236,-5.780884 -13.6588 1.437151,-5.914614 -14.24277 1.432803,-6.600329 -12.21294 1.285704,-6.035513 -13.12574 1.454055,-5.865931 -13.76181 1.371364,-5.82226 -14.21263 1.338634,0.510, 1 0
-0.2681389 -8.505865 -0.0008848233,-0.6034479 -9.335655 -0.1179365,-0.7829561 -10.07382 -0.09578066,-0.9188714 -10.70314 -0.0459393,-1.043709 -11.02593 0.01068224,-0.5390615 -9.998718 0.6413823,-0.293406 -10.82842 0.628582,-0.3355885 -10.75787 0.5359499,-0.3616753 -10.61756 0.4972498,-0.2148061 -9.792997 0.6991305,0.001825809 -10.72252 0.6707199,0.001825809 -10.72252 0.6707199,-0.149375 -10.44696 0.4073409,0.0409379 -9.583605 0.6927724,0.2102747 -10.5057 0.5151362,0.09319735 -10.37134 0.1940192,-0.01466656 -10.09328 0.08196934,0.2415066 -9.420385 0.7233993,0.3546066 -10.28642 0.6125354,0.2495584 -10.15372 0.5415938,0.1688991 -9.872244 0.4478803,-7.497151 -13.40414 0.0004009866,-6.861567 -12.24726 -0.242556,-6.298949 -11.46076 -0.05390814,-5.87759 -10.93008 0.2611708,-5.602816 -10.58808 0.8002304,-6.039115 -10.86137 0.4464973,-5.576214 -11.37929 0.7761359,-5.408533 -12.19259 1.183147,-5.331972 -12.94438 1.424223,-6.135027 -11.13305 0.7508482,-5.562113 -12.20999 1.022122,-5.481876 -13.24651 1.23735,-5.492966 -14.06302 1.445714,-6.339531 -11.62088 1.039235,-5.766387 -12.77705 1.379236,-5.780884 -13.6588 1.437151,-5.914614 -14.24277 1.432803,-6.600329 -12.21294 1.285704,-6.035513 -13.12574 1.454055,-5.865931 -13.76181 1.371364,-5.82226 -14.21263 1.338634,0.610, 1 0
-0.2681389 -8.505865 -0.0008848233,-0.6034479 -9.335655 -0.1179365,-0.7829561 -10.07382 -0.09578066,-0.9188714 -10.70314 -0.0459393,-1.043709 -11.02593 0.01068224,-0.5390615 -9.998718 0.6413823,-0.293406 -10.82842 0.628582,-0.3355885 -10.75787 0.5359499,-0.3616753 -10.61756 0.4972498,-0.2148061 -9.792997 0.6991305,0.001825809 -10.72252 0.6707199,0.001825809 -10.72252 0.6707199,-0.149375 -10.44696 0.4073409,0.0409379 -9.583605 0.6927724,0.2102747 -10.5057 0.5151362,0.09319735 -10.37134 0.1940192,-0.01466656 -10.09328 0.08196934,0.2415066 -9.420385 0.7233993,0.3546066 -10.28642 0.6125354,0.2495584 -10.15372 0.5415938,0.1688991 -9.872244 0.4478803,-7.497151 -13.40414 0.0004009866,-6.861567 -12.24726 -0.242556,-6.298949 -11.46076 -0.05390814,-5.87759 -10.93008 0.2611708,-5.602816 -10.58808 0.8002304,-6.039115 -10.86137 0.4464973,-5.576214 -11.37929 0.7761359,-5.408533 -12.19259 1.183147,-5.331972 -12.94438 1.424223,-6.135027 -11.13305 0.7508482,-5.562113 -12.20999 1.022122,-5.481876 -13.24651 1.23735,-5.492966 -14.06302 1.445714,-6.339531 -11.62088 1.039235,-5.766387 -12.77705 1.379236,-5.780884 -13.6588 1.437151,-5.914614 -14.24277 1.432803,-6.600329 -12.21294 1.285704,-6.035513 -13.12574 1.454055,-5.865931 -13.76181 1.371364,-5.82226 -14.21263 1.338634,0.710, 1 0
-0.2681389 -8.505865 -0.0008848233,-0.6034479 -9.335655 -0.1179365,-0.7829561 -10.07382 -0.09578066,-0.9188714 -10.70314 -0.0459393,-1.043709 -11.02593 0.01068224,-0.5390615 -9.998718 0.6413823,-0.293406 -10.82842 0.628582,-0.3355885 -10.75787 0.5359499,-0.3616753 -10.61756 0.4972498,-0.2148061 -9.792997 0.6991305,0.001825809 -10.72252 0.6707199,0.001825809 -10.72252 0.6707199,-0.149375 -10.44696 0.4073409,0.0409379 -9.583605 0.6927724,0.2102747 -10.5057 0.5151362,0.09319735 -10.37134 0.1940192,-0.01466656 -10.09328 0.08196934,0.2415066 -9.420385 0.7233993,0.3546066 -10.28642 0.6125354,0.2495584 -10.15372 0.5415938,0.1688991 -9.872244 0.4478803,-7.497151 -13.40414 0.0004009866,-6.861567 -12.24726 -0.242556,-6.298949 -11.46076 -0.05390814,-5.87759 -10.93008 0.2611708,-5.602816 -10.58808 0.8002304,-6.039115 -10.86137 0.4464973,-5.576214 -11.37929 0.7761359,-5.408533 -12.19259 1.183147,-5.331972 -12.94438 1.424223,-6.135027 -11.13305 0.7508482,-5.562113 -12.20999 1.022122,-5.481876 -13.24651 1.23735,-5.492966 -14.06302 1.445714,-6.339531 -11.62088 1.039235,-5.766387 -12.77705 1.379236,-5.780884 -13.6588 1.437151,-5.914614 -14.24277 1.432803,-6.600329 -12.21294 1.285704,-6.035513 -13.12574 1.454055,-5.865931 -13.76181 1.371364,-5.82226 -14.21263 1.338634,0.810, 1 0
-0.2681389 -8.505865 -0.0008848233,-0.6034479 -9.335655 -0.1179365,-0.7829561 -10.07382 -0.09578066,-0.9188714 -10.70314 -0.0459393,-1.043709 -11.02593 0.01068224,-0.5390615 -9.998718 0.6413823,-0.293406 -10.82842 0.628582,-0.3355885 -10.75787 0.5359499,-0.3616753 -10.61756 0.4972498,-0.2148061 -9.792997 0.6991305,0.001825809 -10.72252 0.6707199,0.001825809 -10.72252 0.6707199,-0.149375 -10.44696 0.4073409,0.0409379 -9.583605 0.6927724,0.2102747 -10.5057 0.5151362,0.09319735 -10.37134 0.1940192,-0.01466656 -10.09328 0.08196934,0.2415066 -9.420385 0.7233993,0.3546066 -10.28642 0.6125354,0.2495584 -10.15372 0.5415938,0.1688991 -9.872244 0.4478803,-8.188552 -13.7636 0.4256489,-7.782697 -12.90597 0.4173989,-7.584729 -12.016 0.3950732,-7.440178 -11.25195 0.3176336,-7.284685 -10.63704 0.2397942,-8.135033 -10.95979 0.4154025,-8.121142 -9.666685 0.321699,-8.055979 -8.99048 0.2662942,-7.972994 -8.456644 0.2803248,-8.269957 -10.89114 0.3771007,-8.348155 -9.606411 0.2442109,-8.31624 -8.832113 0.1252552,-8.272891 -8.263756 0.06754956,-8.314416 -10.97905 0.3380238,-8.355062 -9.86994 0.1769871,-8.298434 -9.269884 0.1220581,-8.252339 -8.913078 0.07831436,-8.31111 -11.21457 0.3128372,-8.340989 -10.28091 0.2322787,-8.320664 -9.734455 0.2678132,-8.292502 -9.386827 0.3019403,0.910, 1 0
-2.42479 -10.73473 6.34563,-3.295541 -10.51737 6.183482,-3.832502 -9.791174 6.114076,-4.137769 -8.834517 5.940893,-4.334933 -8.029228 5.606932,-3.452487 -7.814546 6.613595,-3.745315 -5.91607 6.546255,-3.790462 -5.075375 6.31225,-3.757581 -4.646818 6.084522,-3.013474 -7.517025 6.574669,-3.221323 -5.450055 6.628604,-3.221323 -5.450055 6.628604,-3.271844 -4.106049 5.966206,-2.584593 -7.518087 6.49069,-2.712612 -5.592597 6.532557,-2.810707 -4.773559 6.275393,-2.876881 -4.288108 6.019821,-2.204988 -7.724071 6.362293,-2.233089 -6.204937 6.321589,-2.328319 -5.562093 6.119877,-2.413848 -5.14541 5.911504,-8.904329 -11.35778 2.225589,-8.055801 -10.74048 2.427756,-7.513703 -9.697769 2.573614,-7.174317 -8.684681 2.711026,-6.857144 -7.935775 2.8454,-8.031501 -8.11495 2.311902,-7.800741 -6.590368 2.348831,-7.681846 -5.712129 2.442862,-7.594425 -4.918321 2.539497,-8.44409 -8.001846 2.289634,-8.267329 -6.23125 2.299605,-8.131302 -5.18223 2.438848,-8.034258 -4.330273 2.516726,-8.792212 -8.083956 2.274274,-8.712455 -6.489993 2.256799,-8.603677 -5.48875 2.397055,-8.480191 -4.66757 2.489998,-9.114121 -8.361147 2.273319,-9.141907 -7.15019 2.272645,-9.108418 -6.404395 2.387434,-9.032704 -5.791986 2.463123,1.010, 1 0
-2.308055 -9.058157 4.850001,-3.017273 -8.960176 5.229702,-3.605733 -8.384054 5.447865,-4.016347 -7.656442 5.646927,-4.385691 -7.08662 5.82158,-3.221647 -6.546962 5.064103,-3.498594 -5.387304 5.270767,-3.649493 -4.831411 5.42768,-3.766108 -4.403373 5.537316,-2.839562 -6.267663 5.101822,-3.076862 -4.919456 5.274021,-3.076862 -4.919456 5.274021,-3.339382 -3.478162 5.638146,-2.451096 -6.260217 5.204173,-2.630614 -4.959177 5.391846,-2.765452 -4.169533 5.625698,-2.887789 -3.500766 5.843091,-2.040029 -6.491708 5.35432,-2.091231 -5.398904 5.572723,-2.1628 -4.742254 5.783416,-2.262183 -4.153558 5.992747,-9.027417 -10.04398 3.332035,-8.225422 -9.358692 3.417597,-7.65344 -8.357798 3.509901,-7.311865 -7.36716 3.662402,-6.946557 -6.633421 3.819305,-8.00266 -6.645227 3.129203,-7.774569 -5.388349 3.19612,-7.624331 -4.584337 3.324744,-7.503092 -3.862312 3.479775,-8.38426 -6.396387 3.282668,-8.170061 -4.966401 3.257404,-8.025456 -4.007682 3.340255,-7.899134 -3.20055 3.417657,-8.749537 -6.381399 3.483728,-8.616776 -4.991947 3.484624,-8.487687 -4.125108 3.546591,-8.345007 -3.370923 3.576468,-9.130734 -6.609523 3.699119,-9.142281 -5.515823 3.752749,-9.114617 -4.821884 3.782848,-9.059048 -4.17879 3.79565,1.110, 1 0
-2.237082 -8.921732 5.136659,-2.926212 -8.719103 5.393655,-3.540144 -8.080683 5.547553,-3.924925 -7.349531 5.743178,-4.257795 -6.76424 5.960473,-3.17109 -6.336043 5.107137,-3.425842 -5.277705 5.244511,-3.540333 -4.666563 5.389647,-3.629925 -4.082849 5.511048,-2.818494 -6.047101 5.203398,-3.042442 -4.809019 5.31371,-3.042442 -4.809019 5.31371,-3.274376 -3.226713 5.666373,-2.431651 -6.010107 5.37149,-2.574478 -4.795086 5.508899,-2.709239 -3.993055 5.684142,-2.826542 -3.318771 5.863139,-1.999808 -6.200321 5.595431,-2.025229 -5.182497 5.731657,-2.102775 -4.526952 5.875981,-2.19869 -3.942086 6.025495,-9.058341 -9.490005 3.066412,-8.269743 -8.912357 3.112737,-7.660501 -7.972235 3.167631,-7.284617 -7.030757 3.288682,-6.94861 -6.348189 3.423806,-8.032786 -6.178901 2.764166,-7.823232 -4.949905 2.744631,-7.709579 -4.184003 2.840405,-7.600482 -3.508115 2.956626,-8.405769 -5.925636 2.879895,-8.205217 -4.501861 2.783927,-8.072843 -3.603064 2.884749,-7.944424 -2.85147 2.987982,-8.784096 -5.924253 3.033744,-8.64147 -4.555484 2.987513,-8.518936 -3.72894 3.100929,-8.360028 -3.026126 3.166473,-9.18767 -6.143994 3.194964,-9.199181 -5.10437 3.223941,-9.170799 -4.434669 3.281602,-9.091243 -3.796682 3.322797,1.210, 1 0
-2.073622 -8.731409 5.435889,-2.796657 -8.485704 5.636017,-3.416025 -7.720628 5.703767,-3.797082 -6.919923 5.823445,-4.151423 -6.40484 5.986442,-3.066684 -6.073394 5.310792,-3.331856 -4.972138 5.44652,-3.488891 -4.341653 5.580584,-3.634106 -3.773238 5.69665,-2.703712 -5.778944 5.405197,-2.922006 -4.521969 5.513559,-2.922006 -4.521969 5.513559,-3.144508 -2.955183 5.807022,-2.317022 -5.731583 5.579911,-2.478077 -4.491106 5.733097,-2.612059 -3.684762 5.926288,-2.730305 -3.001147 6.100391,-1.883901 -5.911628 5.798898,-1.93757 -4.900102 5.933357,-2.02202 -4.233236 6.108578,-2.112469 -3.617521 6.271987,-9.126925 -8.836002 2.284436,-8.36774 -8.454857 2.416197,-7.756248 -7.603952 2.551732,-7.376643 -6.723419 2.749851,-7.015123 -6.133199 2.957237,-8.085179 -5.756029 2.201804,-7.867685 -4.584568 2.270981,-7.754578 -3.899563 2.400931,-7.656241 -3.299074 2.517133,-8.456321 -5.497817 2.312026,-8.262099 -4.095928 2.299238,-8.136301 -3.262077 2.474124,-8.028465 -2.548378 2.62598,-8.828313 -5.506975 2.457984,-8.699029 -4.203847 2.47906,-8.582911 -3.444379 2.63224,-8.459069 -2.816884 2.748184,-9.220469 -5.736621 2.620762,-9.243906 -4.73596 2.72553,-9.226811 -4.111848 2.850386,-9.167711 -3.542704 2.91886,1.310, 1 0
-2.027159 -8.63166 5.449262,-2.759797 -8.400158 5.683688,-3.388661 -7.664735 5.764245,-3.768242 -6.863068 5.892397,-4.116113 -6.338432 6.047343,-3.07023 -5.995711 5.370697,-3.334044 -4.878572 5.502067,-3.478508 -4.240535 5.628893,-3.607712 -3.66099 5.72893,-2.69969 -5.684529 5.438085,-2.906799 -4.382899 5.54327,-2.906799 -4.382899 5.54327,-3.09973 -2.819686 5.824141,-2.315702 -5.635824 5.589361,-2.44346 -4.382959 5.754149,-2.562083 -3.57921 5.944702,-2.671579 -2.898873 6.107114,-1.892592 -5.816587 5.787923,-1.932064 -4.823078 5.934772,-2.013715 -4.19816 6.106334,-2.107411 -3.619448 6.252561,-9.135406 -8.712723 2.082209,-8.407099 -8.351486 2.23477,-7.80778 -7.518661 2.392332,-7.429262 -6.665811 2.619106,-7.085631 -6.056364 2.836102,-8.15519 -5.668315 2.020949,-7.931362 -4.512624 2.129071,-7.816229 -3.824474 2.259559,-7.718705 -3.229763 2.360746,-8.522242 -5.422441 2.12986,-8.320429 -4.029814 2.142598,-8.195493 -3.201051 2.31424,-8.089687 -2.481084 2.456152,-8.885596 -5.44592 2.274949,-8.758807 -4.162244 2.312006,-8.641375 -3.413744 2.442734,-8.519876 -2.786624 2.538344,-9.266398 -5.692693 2.441517,-9.287511 -4.692856 2.5501,-9.270007 -4.092306 2.656392,-9.214252 -3.539155 2.719473,1.410, 1 0
-2.037941 -8.615923 5.663209,-2.773394 -8.346869 5.863894,-3.389135 -7.585125 5.929849,-3.755466 -6.777672 6.058589,-4.099072 -6.21364 6.206807,-3.047771 -5.88705 5.533513,-3.322352 -4.775679 5.683441,-3.46964 -4.131277 5.792584,-3.591913 -3.533627 5.869503,-2.684171 -5.600543 5.633624,-2.900311 -4.309949 5.751589,-2.900311 -4.309949 5.751589,-3.111553 -2.78568 6.008306,-2.309633 -5.570444 5.823976,-2.451726 -4.316642 6.011441,-2.572297 -3.511198 6.208786,-2.678164 -2.818122 6.362085,-1.891946 -5.769969 6.057078,-1.928316 -4.783594 6.231264,-2.010056 -4.171754 6.421548,-2.095835 -3.611347 6.574514,-9.166786 -8.515339 1.699533,-8.45887 -8.15443 1.931835,-7.881635 -7.377087 2.114936,-7.507176 -6.538087 2.35225,-7.189772 -5.916645 2.584389,-8.225001 -5.5757 1.68523,-7.999709 -4.428864 1.814378,-7.889928 -3.730651 1.981473,-7.806419 -3.122226 2.105212,-8.584289 -5.330648 1.753888,-8.384977 -3.958404 1.79265,-8.277719 -3.120388 2.004493,-8.186061 -2.388091 2.177253,-8.943206 -5.356035 1.862061,-8.822198 -4.086259 1.921417,-8.724092 -3.329011 2.079156,-8.613811 -2.689332 2.197116,-9.327642 -5.601093 2.003466,-9.353476 -4.642444 2.125518,-9.34787 -4.032132 2.246043,-9.298358 -3.457132 2.320498,1.510, 1 0
-2.07934 -8.569248 5.734056,-2.817516 -8.306059 5.885809,-3.43317 -7.525278 5.930623,-3.79937 -6.697654 6.05155,-4.146444 -6.131568 6.197312,-3.104786 -5.837898 5.486302,-3.374513 -4.76383 5.622098,-3.512648 -4.146223 5.716553,-3.627665 -3.568233 5.783048,-2.750314 -5.541228 5.604019,-2.96719 -4.279568 5.701746,-2.96719 -4.279568 5.701746,-3.185196 -2.790493 5.923358,-2.382982 -5.480083 5.812296,-2.532594 -4.250448 5.959437,-2.655503 -3.489797 6.100315,-2.767297 -2.829268 6.219113,-1.972523 -5.629312 6.064191,-2.008747 -4.63784 6.191957,-2.083125 -4.026828 6.347435,-2.163795 -3.472517 6.476953,-9.130939 -8.42354 1.521071,-8.403453 -8.099463 1.708925,-7.828314 -7.337324 1.854438,-7.456917 -6.534259 2.055273,-7.114471 -5.977466 2.254937,-8.196344 -5.528648 1.53252,-7.978674 -4.351012 1.651343,-7.870724 -3.662446 1.8172,-7.786064 -3.049646 1.933882,-8.556116 -5.290573 1.626215,-8.362164 -3.904281 1.66345,-8.247275 -3.074051 1.867545,-8.14634 -2.365829 2.029214,-8.917898 -5.318176 1.758047,-8.783721 -4.012216 1.831432,-8.682698 -3.233261 2.018033,-8.569724 -2.582214 2.157539,-9.304779 -5.556476 1.913618,-9.313648 -4.558016 2.049309,-9.293867 -3.922085 2.189164,-9.232019 -3.329843 2.275078,1.610, 1 0
-2.200184 -8.396149 5.864851,-2.925345 -8.088978 5.96028,-3.542257 -7.298332 5.983686,-3.924813 -6.49878 6.102324,-4.303829 -6.024108 6.25773,-3.229864 -5.631746 5.49497,-3.492082 -4.598413 5.625305,-3.612745 -4.007089 5.717319,-3.713743 -3.450648 5.775815,-2.881532 -5.337425 5.64301,-3.109741 -4.122665 5.706197,-3.109741 -4.122665 5.706197,-3.33107 -2.675142 5.897899,-2.510199 -5.266697 5.883846,-2.673289 -4.065301 6.005637,-2.792842 -3.321456 6.132482,-2.908471 -2.666603 6.233061,-2.085838 -5.407081 6.171003,-2.114597 -4.430171 6.301764,-2.180241 -3.823051 6.449119,-2.25718 -3.264369 6.576303,-9.070288 -8.370611 1.460342,-8.37296 -8.033205 1.678034,-7.811595 -7.278894 1.849503,-7.44433 -6.486518 2.074998,-7.113905 -5.951704 2.298129,-8.173366 -5.477661 1.507325,-7.970531 -4.336154 1.641333,-7.866588 -3.64416 1.807439,-7.786222 -3.037111 1.924842,-8.538047 -5.248308 1.579495,-8.362667 -3.885684 1.637306,-8.25804 -3.045827 1.847186,-8.174882 -2.3243 2.023852,-8.902602 -5.289612 1.686898,-8.791817 -4.031073 1.757815,-8.694241 -3.271985 1.923045,-8.593017 -2.639785 2.055345,-9.291785 -5.548858 1.826706,-9.323673 -4.596509 1.945536,-9.312861 -3.993217 2.075958,-9.263754 -3.418303 2.163818,1.710, 1 0
-2.372655 -8.351091 5.849051,-3.072406 -8.017492 5.947423,-3.654652 -7.276449 6.005909,-4.021735 -6.539539 6.169067,-4.379592 -6.077788 6.383256,-3.294799 -5.513618 5.544981,-3.559457 -4.44071 5.673613,-3.72137 -3.852491 5.771829,-3.874359 -3.33064 5.849211,-2.958285 -5.272985 5.697348,-3.177397 -4.073219 5.7973,-3.177397 -4.073219 5.7973,-3.441352 -2.602991 6.090284,-2.601173 -5.253177 5.932148,-2.774982 -4.090221 6.090534,-2.920458 -3.345115 6.267622,-3.058525 -2.707553 6.409661,-2.200053 -5.453302 6.207088,-2.231509 -4.492372 6.382822,-2.311172 -3.89381 6.561472,-2.396891 -3.338986 6.717121,-9.037186 -8.361774 1.40853,-8.332754 -8.039753 1.631109,-7.767597 -7.272953 1.794568,-7.392806 -6.472385 2.007873,-7.053047 -5.951705 2.213684,-8.164527 -5.481109 1.463077,-7.967602 -4.308719 1.596183,-7.862893 -3.600951 1.760194,-7.785031 -2.982262 1.878374,-8.5261 -5.251256 1.535005,-8.349503 -3.873214 1.596086,-8.24016 -3.02606 1.8071,-8.156724 -2.303091 1.984678,-8.886109 -5.298654 1.641577,-8.765901 -4.002367 1.72911,-8.667188 -3.222478 1.915166,-8.563868 -2.570017 2.068545,-9.270739 -5.563668 1.776977,-9.29891 -4.600784 1.91752,-9.280835 -3.983963 2.071859,-9.221661 -3.404443 2.182097,1.810, 1 0
-2.828703 -8.322388 5.834727,-3.550484 -8.135511 6.088218,-4.138535 -7.402074 6.214106,-4.527693 -6.619781 6.374822,-4.891191 -6.075738 6.579411,-3.81336 -5.587781 5.893718,-4.16625 -4.571916 6.088352,-4.358945 -3.852199 6.268246,-4.501096 -3.1809 6.44592,-3.441751 -5.252038 5.94557,-3.710396 -4.04401 6.070057,-3.710396 -4.04401 6.070057,-3.999918 -2.442802 6.499413,-3.058862 -5.190821 6.046339,-3.204295 -3.977077 6.185038,-3.321396 -3.182468 6.393078,-3.409369 -2.549535 6.586548,-2.65468 -5.39805 6.199773,-2.712891 -4.437667 6.322521,-2.78888 -3.825999 6.465536,-2.879843 -3.281411 6.633221,-8.946009 -8.323978 1.372791,-8.2308 -8.023691 1.617553,-7.651908 -7.251863 1.782079,-7.273993 -6.456207 1.99002,-6.930973 -5.917026 2.193927,-8.067182 -5.463733 1.458659,-7.845797 -4.283048 1.608498,-7.72852 -3.56679 1.784918,-7.642473 -2.93717 1.914026,-8.430262 -5.225826 1.528026,-8.236811 -3.846364 1.614617,-8.119137 -2.995908 1.830184,-8.024655 -2.267072 2.009604,-8.790855 -5.260307 1.636331,-8.653017 -3.955768 1.747331,-8.546335 -3.162838 1.951685,-8.433177 -2.505546 2.114758,-9.177596 -5.508178 1.77863,-9.198095 -4.531367 1.930298,-9.181987 -3.899436 2.096141,-9.125835 -3.293619 2.210872,1.910, 1 0
-3.048368 -8.155897 5.997093,-3.750891 -7.982449 6.29754,-4.36115 -7.313914 6.465619,-4.776628 -6.548563 6.675393,-5.138694 -5.944766 6.926127,-4.057487 -5.378862 6.020673,-4.398085 -4.315178 6.151267,-4.572682 -3.590986 6.265849,-4.719851 -2.937336 6.373151,-3.688663 -5.042264 6.054278,-3.971226 -3.802897 6.1509,-3.971226 -3.802897 6.1509,-4.29729 -2.208638 6.455683,-3.306993 -4.982671 6.143622,-3.514608 -3.780634 6.258582,-3.703674 -2.958423 6.424183,-3.859648 -2.289519 6.56314,-2.881254 -5.164358 6.293451,-2.969751 -4.184736 6.405563,-3.085374 -3.542509 6.544613,-3.205027 -2.967912 6.693,-8.908048 -8.257933 1.379117,-8.199038 -7.951634 1.576618,-7.635117 -7.181039 1.738162,-7.264143 -6.39713 1.955846,-6.931577 -5.863958 2.177406,-8.026492 -5.38306 1.412121,-7.828898 -4.182737 1.552105,-7.722053 -3.460369 1.720092,-7.635573 -2.832998 1.830167,-8.392711 -5.156768 1.510251,-8.228715 -3.74921 1.575621,-8.121553 -2.905641 1.76107,-8.029943 -2.186204 1.914821,-8.761287 -5.19728 1.645596,-8.646415 -3.880956 1.739812,-8.538808 -3.09731 1.912011,-8.420964 -2.441293 2.043702,-9.153255 -5.449987 1.811723,-9.191803 -4.456994 1.944868,-9.180466 -3.826176 2.080409,-9.124922 -3.216325 2.172085,2.010, 1 0
-3.073563 -7.85108 5.948618,-3.826626 -7.748735 6.201878,-4.507769 -7.078115 6.307261,-4.954988 -6.332867 6.448371,-5.369511 -5.853893 6.640966,-4.181698 -5.129793 5.883699,-4.489381 -3.968912 5.954002,-4.666523 -3.251602 6.054081,-4.820425 -2.57365 6.159944,-3.80406 -4.770919 5.950419,-4.076428 -3.402322 6.043637,-4.076428 -3.402322 6.043637,-4.388852 -1.747232 6.389457,-3.409379 -4.690732 6.094195,-3.600391 -3.366755 6.232337,-3.763519 -2.514405 6.442109,-3.921405 -1.796258 6.637275,-2.976479 -4.844794 6.281242,-3.024343 -3.791284 6.426606,-3.108057 -3.11196 6.61862,-3.212667 -2.506293 6.811294,-9.037777 -8.174314 1.463547,-8.349142 -7.839738 1.688098,-7.795104 -7.071268 1.875656,-7.437413 -6.293725 2.111188,-7.108054 -5.773608 2.33822,-8.162696 -5.293439 1.575619,-7.961064 -4.106637 1.747749,-7.855455 -3.39781 1.925554,-7.770016 -2.768407 2.064265,-8.531009 -5.051488 1.671886,-8.361158 -3.651714 1.797895,-8.241823 -2.793065 2.029733,-8.137414 -2.04145 2.225653,-8.903558 -5.092449 1.805676,-8.799149 -3.795256 1.938563,-8.683096 -3.004475 2.12971,-8.5587 -2.329733 2.273343,-9.301178 -5.365892 1.967001,-9.342361 -4.375783 2.147206,-9.329822 -3.737355 2.311016,-9.278809 -3.12638 2.415874,2.110, 1 0
-2.90988 -8.056417 6.276587,-3.672035 -7.811019 6.492291,-4.330544 -7.082521 6.582256,-4.752808 -6.289743 6.717379,-5.130667 -5.777519 6.8803,-3.929354 -5.209718 6.151152,-4.242107 -4.043516 6.230215,-4.418485 -3.333238 6.332518,-4.579683 -2.659624 6.441683,-3.543598 -4.859813 6.219514,-3.80741 -3.487786 6.299133,-3.80741 -3.487786 6.299133,-4.128244 -1.832892 6.643831,-3.153318 -4.793079 6.369202,-3.336138 -3.480731 6.484224,-3.48394 -2.64363 6.662754,-3.634384 -1.924051 6.836994,-2.736374 -4.966957 6.555913,-2.737017 -3.931604 6.697107,-2.779909 -3.287979 6.845275,-2.857806 -2.716733 7.007871,-9.270288 -8.148808 1.566513,-8.569076 -7.832323 1.84639,-8.007466 -7.05507 2.038424,-7.652317 -6.256095 2.276378,-7.325972 -5.718095 2.49596,-8.381466 -5.244483 1.706098,-8.181355 -4.01638 1.893038,-8.078501 -3.270525 2.08705,-7.995192 -2.614738 2.229439,-8.763345 -4.995817 1.769986,-8.592933 -3.571409 1.894689,-8.479652 -2.687957 2.136673,-8.383678 -1.923625 2.336988,-9.146549 -5.032918 1.878457,-9.035437 -3.708925 2.000786,-8.927896 -2.909048 2.19825,-8.810255 -2.230888 2.351272,-9.557084 -5.295536 2.017124,-9.591268 -4.297477 2.185085,-9.58202 -3.66272 2.35338,-9.533159 -3.050311 2.463958,2.210, 1 0
-2.835597 -8.276157 6.365571,-3.582361 -8.040949 6.546517,-4.208466 -7.276199 6.628387,-4.600744 -6.483188 6.776993,-4.936674 -5.939569 6.960229,-3.790033 -5.362348 6.173002,-4.114244 -4.158055 6.228217,-4.306181 -3.45234 6.293886,-4.457096 -2.821096 6.360126,-3.421734 -5.045619 6.265449,-3.660109 -3.623501 6.287725,-3.660109 -3.623501 6.287725,-3.942293 -1.984388 6.529885,-3.048649 -5.017833 6.433497,-3.183857 -3.681837 6.515182,-3.331581 -2.833008 6.667869,-3.468846 -2.128456 6.812172,-2.65441 -5.240654 6.643458,-2.630512 -4.20685 6.765228,-2.667263 -3.561279 6.899837,-2.725851 -2.994949 7.047369,-9.332986 -8.19668 1.641425,-8.633135 -7.87543 1.887336,-8.070712 -7.093524 2.060527,-7.714584 -6.28935 2.287449,-7.403693 -5.777904 2.49682,-8.441753 -5.251759 1.735049,-8.262117 -4.025386 1.878014,-8.17481 -3.280207 2.054075,-8.105906 -2.637379 2.188587,-8.816088 -5.020942 1.798175,-8.668965 -3.606128 1.882649,-8.567172 -2.721609 2.106295,-8.488681 -1.961456 2.298227,-9.193179 -5.070258 1.898607,-9.097892 -3.756053 1.981447,-8.997993 -2.958665 2.15224,-8.901577 -2.300695 2.299427,-9.59675 -5.348899 2.030337,-9.641275 -4.34762 2.166778,-9.641313 -3.703283 2.314571,-9.611266 -3.09462 2.416051,2.310, 1 0
-2.845959 -9.613543 6.327063,-3.605225 -9.474581 6.644201,-4.165277 -8.841915 6.808163,-4.532747 -8.149891 7.012578,-4.842743 -7.601123 7.231851,-3.854315 -6.731853 6.265369,-4.164511 -5.539518 6.418281,-4.336479 -4.752157 6.544198,-4.45134 -4.065191 6.647431,-3.421463 -6.391069 6.283953,-3.535419 -5.01826 6.38808,-3.535419 -5.01826 6.38808,-3.722794 -3.459569 6.673803,-3.012333 -6.348827 6.374771,-3.0256 -5.020172 6.490855,-3.092321 -4.237305 6.690526,-3.144299 -3.661536 6.853236,-2.612003 -6.53704 6.51369,-2.571996 -5.423464 6.643268,-2.593897 -4.692814 6.821466,-2.648493 -4.029717 6.969835,-9.425998 -8.399685 1.702549,-8.738015 -8.084829 1.933696,-8.173739 -7.287188 2.112129,-7.822258 -6.463387 2.344376,-7.510436 -5.947584 2.564675,-8.530149 -5.438951 1.7951,-8.349202 -4.203826 1.945578,-8.25935 -3.467435 2.128332,-8.186661 -2.8349 2.257682,-8.908062 -5.206778 1.86693,-8.753695 -3.786508 1.961214,-8.646623 -2.898279 2.184865,-8.567976 -2.138847 2.375361,-9.286844 -5.259902 1.977765,-9.181108 -3.943889 2.0695,-9.081286 -3.142481 2.244743,-8.991285 -2.485827 2.397969,-9.691903 -5.542261 2.114946,-9.718539 -4.53125 2.256691,-9.705609 -3.883406 2.416192,-9.668966 -3.277097 2.52867,2.410, 1 0
-2.62831 -12.11328 7.196,-3.497042 -11.84661 7.436795,-4.248446 -11.0706 7.687192,-4.730297 -10.21463 7.962246,-4.825738 -9.320347 8.2246,-3.876305 -8.975424 7.325907,-4.219463 -7.484435 7.491328,-4.391321 -6.659656 7.585853,-4.507787 -5.979507 7.618563,-3.466368 -8.697666 7.379954,-3.789097 -6.968933 7.529846,-3.789097 -6.968933 7.529846,-4.092875 -5.225518 7.689892,-3.036434 -8.647659 7.473288,-3.281525 -7.086755 7.632227,-3.437256 -6.350097 7.66688,-3.537579 -5.888519 7.695481,-2.589777 -8.798594 7.603979,-2.620509 -7.535951 7.78791,-2.646141 -6.723716 7.888923,-2.679874 -6.030586 7.93986,-9.520074 -8.681248 1.556247,-8.853959 -8.378693 1.848446,-8.28298 -7.550361 2.034786,-7.912842 -6.71313 2.259634,-7.598731 -6.170417 2.451646,-8.644272 -5.755839 1.737079,-8.467686 -4.480802 1.903302,-8.37137 -3.736341 2.056089,-8.299079 -3.111479 2.16509,-9.024757 -5.530725 1.779005,-8.863145 -4.036404 1.914038,-8.752044 -3.141514 2.13649,-8.672726 -2.377028 2.314541,-9.409182 -5.586841 1.856583,-9.30265 -4.213468 1.99419,-9.197967 -3.406106 2.169906,-9.097062 -2.75058 2.334474,-9.822313 -5.871977 1.956649,-9.854571 -4.840272 2.11876,-9.835428 -4.201927 2.291582,-9.787485 -3.62216 2.414382,2.510, 1 0
-2.651318 -13.12971 5.949611,-3.494698 -13.09236 6.354836,-4.249106 -12.49096 6.638575,-4.785069 -11.9645 6.934794,-5.174789 -11.64388 7.212301,-4.038366 -10.43824 6.166713,-4.471377 -9.180578 6.498911,-4.705713 -8.640635 6.783678,-4.883297 -8.251711 6.975249,-3.631971 -10.13499 6.25245,-4.010427 -8.665537 6.508368,-4.010427 -8.665537 6.508368,-4.46884 -7.323665 6.979845,-3.225147 -10.12902 6.462416,-3.48315 -8.720152 6.77515,-3.708441 -8.018362 7.094738,-3.920954 -7.451969 7.352475,-2.788484 -10.4053 6.693912,-2.821898 -9.345036 7.021688,-2.92865 -8.673 7.307498,-3.068506 -8.055651 7.569712,-9.553978 -8.901814 1.798654,-8.86139 -8.607216 2.050049,-8.293978 -7.826299 2.249384,-7.934091 -6.995256 2.499572,-7.615804 -6.446627 2.748955,-8.659846 -5.907571 1.890206,-8.477802 -4.671764 2.039697,-8.393975 -3.938518 2.211727,-8.329796 -3.317928 2.340228,-9.04595 -5.679548 1.963838,-8.894809 -4.241097 2.053068,-8.796621 -3.352204 2.263261,-8.728235 -2.597548 2.443643,-9.429646 -5.750352 2.084113,-9.32548 -4.41571 2.184147,-9.225554 -3.606484 2.362192,-9.136252 -2.942085 2.520886,-9.836056 -6.061124 2.228802,-9.859798 -5.051975 2.387216,-9.842793 -4.407871 2.54421,-9.797817 -3.808679 2.661232,2.610, 1 0
-2.582321 -12.54314 6.107744,-3.567517 -12.36193 5.986266,-4.312891 -11.87637 5.988384,-4.849506 -11.29615 6.039216,-5.193379 -10.76917 6.08515,-4.012588 -9.899601 5.408198,-4.262158 -8.793705 5.341882,-4.43319 -8.220257 5.31032,-4.579227 -7.834787 5.30658,-3.605556 -9.550016 5.554189,-3.804705 -8.278925 5.384579,-3.804705 -8.278925 5.384579,-4.027897 -7.026619 5.274415,-3.183771 -9.413918 5.740281,-3.358404 -8.232437 5.631516,-3.503527 -7.54664 5.555107,-3.600349 -7.024089 5.51075,-2.749066 -9.48667 5.946492,-2.837817 -8.444067 5.925804,-2.928461 -7.771162 5.95037,-2.991813 -7.201515 5.942578,-9.531353 -8.906948 1.853947,-8.846112 -8.606197 2.121494,-8.279591 -7.823808 2.324519,-7.919658 -6.985454 2.579495,-7.59768 -6.431118 2.82659,-8.660831 -5.900164 1.949526,-8.476542 -4.669021 2.109585,-8.385402 -3.922944 2.286968,-8.313293 -3.286629 2.423207,-9.039876 -5.666252 2.021179,-8.885366 -4.221315 2.102328,-8.781466 -3.325583 2.316529,-8.706948 -2.568587 2.503925,-9.422043 -5.726898 2.137569,-9.310706 -4.388439 2.229473,-9.206865 -3.589429 2.409315,-9.110832 -2.921169 2.569252,-9.826328 -6.025477 2.284628,-9.850641 -5.026647 2.436276,-9.835691 -4.39903 2.58386,-9.78901 -3.803586 2.694115,2.710, 1 0
-2.345823 -10.24031 7.588548,-3.332874 -9.691742 7.308064,-3.983637 -8.904926 7.454325,-4.406753 -8.293411 7.668273,-4.751412 -8.039303 7.961907,-3.711025 -7.014549 8.225883,-3.631615 -5.418512 8.646174,-3.509284 -4.46162 8.90905,-3.413218 -3.630207 9.041561,-3.29619 -6.877943 8.587966,-3.175915 -5.241992 9.12323,-3.175915 -5.241992 9.12323,-3.003847 -3.221529 9.702997,-2.881395 -7.041374 8.861294,-2.780776 -5.497959 9.289323,-2.730683 -4.457484 9.391656,-2.661565 -3.598632 9.483171,-2.489092 -7.434318 9.07345,-2.386915 -6.265455 9.314607,-2.356936 -5.435302 9.277169,-2.32262 -4.654076 9.239584,-9.493009 -8.751865 1.777856,-8.770423 -8.447269 2.044447,-8.179709 -7.64184 2.234746,-7.809788 -6.795721 2.474628,-7.495834 -6.176327 2.706057,-8.597163 -5.774608 1.89341,-8.399052 -4.528486 2.081283,-8.298034 -3.782699 2.270193,-8.227051 -3.131464 2.410364,-8.96989 -5.5396 1.971356,-8.801225 -4.077356 2.08686,-8.692986 -3.175697 2.316152,-8.613446 -2.410333 2.503136,-9.347554 -5.590911 2.094303,-9.228047 -4.218905 2.235953,-9.130496 -3.39466 2.453862,-9.034529 -2.70657 2.629988,-9.749008 -5.874833 2.244681,-9.770126 -4.867682 2.428923,-9.762794 -4.232795 2.597551,-9.719996 -3.625358 2.721202,2.810, 1 0
-2.58125 -6.845894 6.096346,-3.379002 -6.318432 6.224236,-3.976393 -5.545414 6.44277,-4.395638 -4.857202 6.744992,-4.703074 -4.255962 7.085063,-3.655888 -3.945228 6.072441,-3.923153 -2.733264 6.316514,-4.062718 -2.118783 6.558883,-4.185187 -1.546788 6.728012,-3.288514 -3.722074 6.276084,-3.500542 -2.383776 6.484352,-3.500542 -2.383776 6.484352,-3.790118 -0.847569 7.051933,-2.900483 -3.730888 6.528009,-3.048253 -2.397466 6.704596,-3.191111 -1.622965 6.931664,-3.351627 -0.9408774 7.152036,-2.472569 -3.970562 6.818337,-2.446972 -2.897868 7.012218,-2.490513 -2.18704 7.175361,-2.578458 -1.516937 7.328844,-9.433983 -8.691158 1.823475,-8.717736 -8.38146 2.08569,-8.128795 -7.569402 2.262753,-7.76289 -6.730852 2.488207,-7.449274 -6.140247 2.707533,-8.536867 -5.692792 1.923139,-8.344169 -4.460506 2.084549,-8.25219 -3.725933 2.261105,-8.185986 -3.085644 2.391946,-8.91263 -5.463544 1.984158,-8.751842 -4.020649 2.063137,-8.646941 -3.132776 2.27664,-8.569055 -2.378664 2.462082,-9.290559 -5.516184 2.089166,-9.176149 -4.173715 2.195558,-9.079268 -3.371 2.394061,-8.984247 -2.699106 2.56557,-9.692379 -5.798992 2.221745,-9.716477 -4.810387 2.374109,-9.708293 -4.184806 2.523869,-9.66212 -3.588719 2.642236,2.910, 1 0
-2.773589 -5.180528 5.233308,-3.53583 -4.807287 5.343066,-4.135983 -4.089751 5.331057,-4.519657 -3.328324 5.374358,-4.856222 -2.828657 5.487467,-3.698547 -2.554713 4.807366,-3.924574 -1.531834 4.88994,-4.074149 -0.8960433 5.072449,-4.208977 -0.3500166 5.214674,-3.340643 -2.288714 4.940123,-3.567035 -1.211057 4.97471,-3.567035 -1.211057 4.97471,-3.844055 0.1045232 5.331671,-2.967131 -2.199506 5.131918,-3.147894 -1.115705 5.162223,-3.275871 -0.4639144 5.278597,-3.385132 0.05762053 5.382775,-2.547416 -2.282296 5.381527,-2.590901 -1.333426 5.417169,-2.646607 -0.6988521 5.485603,-2.700222 -0.132194 5.563737,-9.383749 -8.620789 1.835472,-8.682846 -8.299316 2.117897,-8.100895 -7.496198 2.311488,-7.740372 -6.665767 2.556325,-7.427299 -6.097373 2.793615,-8.4839 -5.617792 1.934057,-8.29397 -4.402603 2.085751,-8.205753 -3.66299 2.264437,-8.143329 -3.025814 2.399971,-8.856984 -5.390335 1.990971,-8.698663 -3.973245 2.063099,-8.605816 -3.092084 2.285531,-8.53632 -2.346282 2.482609,-9.229474 -5.441831 2.093204,-9.116684 -4.123762 2.187365,-9.022949 -3.334196 2.383567,-8.928291 -2.67057 2.548432,-9.628316 -5.723138 2.230238,-9.670225 -4.760452 2.374135,-9.676541 -4.147791 2.52241,-9.643599 -3.546275 2.635972,3.010, 1 0
-2.773589 -5.180528 5.233308,-3.53583 -4.807287 5.343066,-4.135983 -4.089751 5.331057,-4.519657 -3.328324 5.374358,-4.856222 -2.828657 5.487467,-3.698547 -2.554713 4.807366,-3.924574 -1.531834 4.88994,-4.074149 -0.8960433 5.072449,-4.208977 -0.3500166 5.214674,-3.340643 -2.288714 4.940123,-3.567035 -1.211057 4.97471,-3.567035 -1.211057 4.97471,-3.844055 0.1045232 5.331671,-2.967131 -2.199506 5.131918,-3.147894 -1.115705 5.162223,-3.275871 -0.4639144 5.278597,-3.385132 0.05762053 5.382775,-2.547416 -2.282296 5.381527,-2.590901 -1.333426 5.417169,-2.646607 -0.6988521 5.485603,-2.700222 -0.132194 5.563737,-9.403978 -8.491909 1.750966,-8.720002 -8.110991 2.025066,-8.155069 -7.280632 2.24071,-7.798928 -6.440369 2.511247,-7.483803 -5.825374 2.772339,-8.538271 -5.499435 1.876189,-8.355152 -4.27429 2.064466,-8.273613 -3.540779 2.245057,-8.213585 -2.912054 2.377295,-8.913797 -5.28229 1.946541,-8.757796 -3.871974 2.063763,-8.663016 -3.006404 2.281039,-8.585567 -2.252651 2.472893,-9.288918 -5.333305 2.056839,-9.204698 -4.017335 2.182693,-9.120804 -3.228902 2.363996,-9.026546 -2.542046 2.506138,-9.682264 -5.615499 2.196366,-9.744575 -4.648601 2.347086,-9.764278 -4.037092 2.471145,-9.74316 -3.431045 2.564568,3.110, 1 0
-4.203081 -6.670021 7.260983,-5.188385 -6.400697 7.518795,-5.953188 -5.762821 7.677876,-6.509171 -5.151828 7.85841,-6.991388 -4.614576 8.075373,-5.84133 -3.885536 7.245561,-6.336933 -2.914383 7.354364,-6.622859 -2.208825 7.530075,-6.903845 -1.591422 7.713933,-5.484036 -3.369581 7.309529,-5.966722 -2.295155 7.382971,-5.966722 -2.295155 7.382971,-6.619686 -0.8612895 7.745497,-5.098083 -3.076438 7.424511,-5.505672 -1.958507 7.562863,-5.855682 -1.186216 7.678793,-6.195274 -0.604444 7.745066,-4.651528 -3.071239 7.589631,-4.85623 -2.056422 7.72366,-5.073042 -1.411234 7.788812,-5.328182 -0.8645854 7.833024,-9.506962 -8.38765 1.704802,-8.82278 -8.010309 1.974939,-8.269371 -7.196249 2.181569,-7.937197 -6.349492 2.429585,-7.638915 -5.746063 2.673158,-8.664559 -5.415288 1.846508,-8.499733 -4.23443 2.02494,-8.419041 -3.517368 2.212627,-8.353095 -2.892343 2.349205,-9.045273 -5.188154 1.914599,-8.904529 -3.794788 2.028105,-8.811753 -2.913579 2.26955,-8.732627 -2.16682 2.482538,-9.424983 -5.247597 2.025305,-9.336086 -3.950563 2.141082,-9.244344 -3.149614 2.344269,-9.14066 -2.492165 2.51727,-9.832164 -5.549038 2.160278,-9.873091 -4.561546 2.324606,-9.872285 -3.9224 2.489267,-9.833973 -3.325173 2.61398,3.210, 1 0
-4.461907 -6.392374 6.327449,-5.305254 -6.257755 6.542274,-6.03728 -5.760881 6.671192,-6.586246 -5.152343 6.86468,-7.041239 -4.648675 7.080395,-5.896957 -3.758664 6.192993,-6.406681 -2.713198 6.326757,-6.681764 -2.11017 6.449766,-6.93394 -1.551916 6.563119,-5.598928 -3.322605 6.29556,-6.09338 -2.031578 6.424413,-6.09338 -2.031578 6.424413,-6.691495 -0.6202188 6.9009,-5.260686 -3.098977 6.478304,-5.652357 -1.839203 6.643343,-5.953489 -1.107961 6.876201,-6.235501 -0.5225086 7.083912,-4.857265 -3.083782 6.698514,-5.018581 -2.012874 6.872303,-5.184738 -1.369143 7.057216,-5.360337 -0.820497 7.222204,-9.723308 -8.470266 1.601373,-9.050121 -8.107473 1.877292,-8.516461 -7.289696 2.076536,-8.199298 -6.436762 2.314966,-7.906896 -5.838342 2.553259,-8.932744 -5.508062 1.767763,-8.762464 -4.301752 1.96698,-8.683839 -3.573843 2.160924,-8.622701 -2.926478 2.307134,-9.307143 -5.297292 1.851283,-9.171443 -3.914135 1.994742,-9.091628 -3.030374 2.252883,-9.021482 -2.261444 2.480979,-9.684357 -5.375075 1.98362,-9.605655 -4.108261 2.120503,-9.532146 -3.301923 2.339896,-9.442104 -2.630727 2.527833,-10.09557 -5.701 2.134835,-10.14638 -4.708018 2.33179,-10.15956 -4.055992 2.516578,-10.12908 -3.456375 2.654768,3.310, 1 0
-4.31794 -6.52143 6.265179,-5.142988 -6.382223 6.615731,-5.865807 -5.845037 6.829733,-6.40257 -5.210692 7.037462,-6.871723 -4.730205 7.295343,-5.685129 -3.925385 6.617913,-6.175694 -2.782238 6.885795,-6.466485 -2.17309 7.107118,-6.746333 -1.629764 7.295442,-5.352599 -3.45952 6.66056,-5.804986 -2.12158 6.983963,-5.804986 -2.12158 6.983963,-6.449496 -0.8532338 7.516119,-4.994797 -3.263588 6.777114,-5.346667 -1.925311 7.099987,-5.671592 -1.214285 7.380637,-5.984989 -0.6445565 7.625361,-4.583615 -3.315403 6.928128,-4.68942 -2.211588 7.225656,-4.870695 -1.526369 7.466873,-5.089446 -0.9083076 7.694533,-9.817533 -8.529829 1.582668,-9.136782 -8.194008 1.864844,-8.613406 -7.362644 2.065529,-8.310967 -6.487775 2.31208,-8.03855 -5.88599 2.559848,-9.027321 -5.567014 1.679576,-8.873552 -4.373251 1.836819,-8.804905 -3.637248 2.019825,-8.749015 -2.985151 2.167223,-9.406296 -5.355842 1.744694,-9.283691 -3.96116 1.846271,-9.210796 -3.070011 2.086883,-9.146408 -2.292449 2.29878,-9.781264 -5.440098 1.859642,-9.708068 -4.140036 1.968114,-9.637897 -3.324568 2.171209,-9.555663 -2.634321 2.345521,-10.18363 -5.772661 1.999622,-10.234 -4.7749 2.170501,-10.25117 -4.122911 2.343448,-10.23127 -3.516108 2.467701,3.410, 1 0
-3.850661 -6.617827 6.211958,-4.598013 -6.495595 6.593576,-5.280233 -5.964069 6.810104,-5.768463 -5.320066 7.036474,-6.184529 -4.831952 7.324824,-5.121183 -3.966344 6.413356,-5.511726 -2.863773 6.632692,-5.762035 -2.269004 6.886628,-6.028732 -1.758416 7.087364,-4.770336 -3.518972 6.448427,-5.15582 -2.227137 6.655228,-5.15582 -2.227137 6.655228,-5.701363 -0.7614274 7.208745,-4.384928 -3.373668 6.559967,-4.673654 -2.115672 6.76314,-4.897582 -1.34808 7.049077,-5.149487 -0.7041278 7.31916,-3.951265 -3.501395 6.71999,-4.002954 -2.435584 6.925461,-4.103023 -1.765458 7.117301,-4.249543 -1.152074 7.313834,-9.916597 -8.575462 1.636325,-9.243774 -8.2208 1.936823,-8.710175 -7.402107 2.150371,-8.394794 -6.524353 2.408712,-8.11516 -5.93431 2.66837,-9.124364 -5.601635 1.779624,-8.973604 -4.405514 1.94958,-8.908587 -3.665712 2.13191,-8.8617 -3.020624 2.268821,-9.505421 -5.388278 1.837952,-9.382047 -3.998168 1.926416,-9.315019 -3.108428 2.157266,-9.266028 -2.341108 2.37063,-9.877652 -5.469269 1.948991,-9.803654 -4.178563 2.049295,-9.744815 -3.3669 2.245883,-9.67856 -2.676694 2.436117,-10.27308 -5.793168 2.091722,-10.32007 -4.807545 2.246459,-10.32407 -4.175397 2.41128,-10.28749 -3.581721 2.547874,3.510, 1 0
-3.639051 -6.697258 5.868961,-4.406821 -6.580013 6.142591,-5.086914 -6.002887 6.280338,-5.561447 -5.328466 6.423432,-5.951886 -4.87342 6.610403,-4.856227 -4.088535 5.973504,-5.241533 -2.924388 6.107373,-5.464426 -2.293041 6.250894,-5.685234 -1.733833 6.38541,-4.500206 -3.678623 6.025421,-4.873763 -2.303909 6.19357,-4.873763 -2.303909 6.19357,-5.350095 -0.8064494 6.634121,-4.115261 -3.534379 6.144054,-4.408913 -2.217135 6.330542,-4.625824 -1.419773 6.544842,-4.847415 -0.7440171 6.764052,-3.686229 -3.632851 6.301093,-3.755095 -2.547318 6.500663,-3.833923 -1.885774 6.674304,-3.9436 -1.286741 6.8556,-9.946365 -8.550072 1.623889,-9.261705 -8.197163 1.91227,-8.715124 -7.356418 2.120101,-8.383058 -6.469285 2.375811,-8.098912 -5.872322 2.642694,-9.140765 -5.570939 1.736269,-8.98836 -4.368566 1.896092,-8.924188 -3.623123 2.075865,-8.879982 -2.982923 2.205929,-9.523766 -5.366151 1.795027,-9.399563 -3.965029 1.872271,-9.334837 -3.072912 2.095667,-9.28794 -2.307708 2.303422,-9.897563 -5.457229 1.903462,-9.819372 -4.152051 2.002628,-9.757441 -3.337602 2.198858,-9.688841 -2.645555 2.386486,-10.29231 -5.786039 2.047352,-10.33843 -4.802384 2.1968,-10.34222 -4.177917 2.355134,-10.30853 -3.586916 2.490522,3.610, 1 0
-3.323771 -7.330915 4.7935,-4.029247 -7.425399 5.205205,-4.664455 -6.908997 5.425358,-5.121297 -6.246837 5.605253,-5.472723 -5.793523 5.727258,-4.456509 -5.008712 5.151721,-4.805115 -3.771512 5.338684,-4.993834 -3.12041 5.479499,-5.164926 -2.566829 5.609367,-4.077997 -4.620756 5.150452,-4.410595 -3.162448 5.351112,-4.410595 -3.162448 5.351112,-4.803797 -1.752501 5.736702,-3.694448 -4.512598 5.218195,-3.976353 -3.095968 5.418765,-4.179652 -2.306932 5.628114,-4.368784 -1.672676 5.834437,-3.29155 -4.639112 5.319156,-3.340042 -3.46488 5.528861,-3.411989 -2.799636 5.722863,-3.498088 -2.214601 5.91272,-9.88314 -8.633802 1.595023,-9.206424 -8.234713 1.899842,-8.670185 -7.413414 2.091758,-8.346843 -6.528905 2.331082,-8.052195 -5.934943 2.569938,-9.120513 -5.658082 1.738394,-8.966238 -4.442094 1.9167,-8.897691 -3.711862 2.106102,-8.844242 -3.070722 2.246249,-9.491931 -5.455627 1.790802,-9.36659 -4.054016 1.897262,-9.293344 -3.195636 2.132536,-9.236177 -2.440291 2.335748,-9.85041 -5.536916 1.891664,-9.770733 -4.220216 2.021056,-9.712721 -3.415336 2.241426,-9.642564 -2.726243 2.441151,-10.23207 -5.853031 2.026393,-10.28421 -4.878218 2.204151,-10.28861 -4.25311 2.38152,-10.25015 -3.68184 2.521134,3.710, 1 0
-3.217615 -7.781368 4.283027,-3.886875 -7.842955 4.708451,-4.506063 -7.398043 4.950759,-4.974932 -6.787138 5.161343,-5.354517 -6.361688 5.328556,-4.260734 -5.535353 4.664945,-4.638092 -4.362434 4.838452,-4.83133 -3.740347 4.991207,-4.998499 -3.206712 5.117274,-3.876202 -5.197026 4.632556,-4.230053 -3.785572 4.803013,-4.230053 -3.785572 4.803013,-4.570868 -2.3754 5.115176,-3.4942 -5.127264 4.667797,-3.766622 -3.789274 4.818769,-3.935844 -3.023906 4.982156,-4.096214 -2.374894 5.147946,-3.105516 -5.261808 4.72351,-3.150827 -4.171319 4.887237,-3.202028 -3.555601 5.039102,-3.26742 -2.993093 5.20441,-9.823387 -8.662851 1.485866,-9.139134 -8.289957 1.807961,-8.595037 -7.498359 2.011869,-8.264056 -6.634284 2.255336,-7.978722 -6.019722 2.493918,-9.04789 -5.730648 1.665614,-8.881647 -4.516775 1.880132,-8.799626 -3.788841 2.077887,-8.735687 -3.148449 2.215805,-9.427547 -5.5199 1.727338,-9.299559 -4.109064 1.877307,-9.217851 -3.240735 2.130729,-9.152972 -2.486297 2.343514,-9.795218 -5.606466 1.839691,-9.718243 -4.287633 2.007483,-9.656206 -3.472405 2.254868,-9.575425 -2.772326 2.473158,-10.18412 -5.929748 1.986351,-10.24413 -4.963212 2.196917,-10.24808 -4.329999 2.395411,-10.20084 -3.746595 2.549034,3.810, 1 0
-3.073193 -8.994621 4.658596,-3.779055 -8.999769 4.8574,-4.389565 -8.449883 4.968742,-4.830002 -7.834979 5.124041,-5.172984 -7.382422 5.300481,-4.111694 -6.617212 4.440141,-4.443119 -5.59254 4.487246,-4.637114 -4.973203 4.565841,-4.784121 -4.444538 4.653644,-3.761431 -6.287782 4.507945,-4.01091 -5.100698 4.516172,-4.01091 -5.100698 4.516172,-4.354021 -3.803808 4.750075,-3.39782 -6.201287 4.6559,-3.575177 -5.044885 4.686156,-3.763884 -4.389343 4.858998,-3.937265 -3.914197 5.002737,-3.009138 -6.32205 4.831299,-3.011822 -5.301937 4.884771,-3.053998 -4.653564 5.010012,-3.129324 -4.081903 5.141116,-9.650632 -8.657734 1.411162,-8.95706 -8.325005 1.775754,-8.397151 -7.561305 2.023515,-8.063401 -6.702568 2.301389,-7.775702 -6.058155 2.580525,-8.847178 -5.774676 1.658248,-8.658822 -4.569213 1.914075,-8.571321 -3.85231 2.138377,-8.512239 -3.219568 2.282658,-9.236316 -5.544532 1.718571,-9.083767 -4.139972 1.908003,-9.000329 -3.264823 2.172608,-8.941982 -2.51776 2.379758,-9.622286 -5.621724 1.827193,-9.520291 -4.28149 2.020711,-9.445369 -3.456322 2.28582,-9.355051 -2.764283 2.515092,-10.03504 -5.931773 1.976397,-10.07124 -4.94135 2.201651,-10.06298 -4.28959 2.42171,-10.00246 -3.683597 2.592365,3.910, 1 0
-3.04948 -9.303616 4.559233,-3.707903 -9.290306 4.749681,-4.31394 -8.75386 4.838926,-4.745676 -8.173021 4.971624,-5.081228 -7.803788 5.099709,-4.091539 -6.980701 4.486612,-4.430401 -5.952831 4.626128,-4.627295 -5.320074 4.743196,-4.78262 -4.749679 4.856242,-3.773047 -6.63129 4.576242,-4.048966 -5.407732 4.694324,-4.048966 -5.407732 4.694324,-4.423552 -3.978151 5.015784,-3.428483 -6.527311 4.740221,-3.638093 -5.352022 4.863672,-3.838392 -4.622314 5.046739,-4.016399 -4.027645 5.209426,-3.049342 -6.649981 4.930672,-3.081974 -5.663841 5.072357,-3.144219 -5.045878 5.241073,-3.235088 -4.490323 5.399275,-9.428657 -8.626793 1.281735,-8.760661 -8.304255 1.689167,-8.210487 -7.549394 1.927831,-7.881109 -6.7201 2.17797,-7.558223 -6.126653 2.455428,-8.621665 -5.792015 1.546864,-8.412341 -4.592962 1.79347,-8.328868 -3.871969 2.028424,-8.285265 -3.219543 2.175522,-8.990138 -5.553119 1.57499,-8.831539 -4.148212 1.745339,-8.751621 -3.250946 2.002775,-8.692516 -2.502663 2.206416,-9.351092 -5.604051 1.650806,-9.257146 -4.261489 1.824807,-9.200019 -3.43927 2.095525,-9.124377 -2.759319 2.318097,-9.736837 -5.876693 1.784795,-9.781004 -4.884077 1.999198,-9.796429 -4.251218 2.214013,-9.764169 -3.663455 2.364577,4.010, 1 0
-2.90245 -9.443344 4.9179,-3.577904 -9.35265 5.157443,-4.190006 -8.773455 5.28701,-4.595183 -8.14027 5.444632,-4.957979 -7.772291 5.626795,-3.921194 -7.005422 5.028483,-4.255831 -6.000585 5.196449,-4.441587 -5.392836 5.303506,-4.605736 -4.807215 5.398763,-3.573217 -6.659209 5.124087,-3.859716 -5.465143 5.344403,-3.859716 -5.465143 5.344403,-4.208982 -4.04941 5.705209,-3.203465 -6.59449 5.275069,-3.410967 -5.456665 5.544482,-3.595158 -4.767471 5.784964,-3.76585 -4.245595 5.957747,-2.805144 -6.751456 5.449488,-2.823175 -5.787991 5.717915,-2.881542 -5.153978 5.94557,-2.98414 -4.603664 6.127116,-9.346828 -8.82902 1.373685,-8.661486 -8.540462 1.664031,-8.099489 -7.787327 1.867125,-7.747719 -6.984892 2.121855,-7.428989 -6.43531 2.34855,-8.492674 -5.959298 1.494475,-8.326261 -4.745593 1.665563,-8.236541 -4.007965 1.850985,-8.167931 -3.371383 1.983861,-8.861208 -5.727106 1.553653,-8.71657 -4.324489 1.661952,-8.617448 -3.449915 1.882747,-8.545957 -2.708049 2.062033,-9.231349 -5.770644 1.659131,-9.129038 -4.446903 1.770279,-9.035932 -3.63906 1.962447,-8.943941 -2.974115 2.130054,-9.628469 -6.037515 1.801133,-9.664718 -5.041921 1.948868,-9.657146 -4.405993 2.108669,-9.616703 -3.81771 2.226778,4.110, 1 0
-2.713943 -9.408878 5.007756,-3.395437 -9.294724 5.333924,-4.008727 -8.732075 5.531035,-4.425449 -8.114264 5.755085,-4.786433 -7.717715 6.012204,-3.764027 -6.924774 5.195516,-4.083086 -5.856155 5.403001,-4.321067 -5.310977 5.631487,-4.46965 -4.699737 5.768126,-3.470356 -6.629562 5.315487,-3.753441 -5.37549 5.553401,-3.753441 -5.37549 5.553401,-4.079029 -3.845832 5.948114,-3.10412 -6.571476 5.444777,-3.305203 -5.382669 5.719094,-3.463728 -4.631683 5.959022,-3.615047 -4.016432 6.147335,-2.707802 -6.755455 5.608256,-2.713038 -5.781253 5.87338,-2.751549 -5.140991 6.096105,-2.827099 -4.570574 6.282347,-9.335696 -8.883223 1.421092,-8.657019 -8.588232 1.729274,-8.093613 -7.82637 1.943274,-7.737828 -7.025916 2.205655,-7.422485 -6.478921 2.456893,-8.472115 -5.996107 1.566706,-8.294185 -4.789081 1.738294,-8.206352 -4.038803 1.925298,-8.144436 -3.396305 2.062027,-8.840621 -5.769982 1.615641,-8.690368 -4.35272 1.723371,-8.591042 -3.45297 1.938594,-8.522834 -2.699333 2.121493,-9.21347 -5.817581 1.71217,-9.111561 -4.500102 1.818072,-9.01385 -3.688711 1.999625,-8.924014 -3.024573 2.156975,-9.61335 -6.087417 1.846655,-9.650187 -5.077383 1.996129,-9.639763 -4.439713 2.150491,-9.602442 -3.840703 2.26691,4.210, 1 0
-2.722481 -9.296648 5.080689,-3.386156 -9.174479 5.436364,-3.980035 -8.633825 5.664967,-4.383633 -8.000116 5.925942,-4.735983 -7.509672 6.213065,-3.729944 -6.767298 5.294086,-4.060638 -5.681242 5.476068,-4.228917 -5.027292 5.613902,-4.363489 -4.394712 5.730148,-3.375989 -6.464387 5.333677,-3.639996 -5.160783 5.522913,-3.639996 -5.160783 5.522913,-3.900183 -3.644851 5.861355,-3.012087 -6.425827 5.440995,-3.165592 -5.192029 5.656152,-3.299205 -4.40475 5.851182,-3.419352 -3.75089 6.012202,-2.620115 -6.624767 5.593643,-2.606127 -5.634119 5.787376,-2.61797 -4.975509 5.977689,-2.648145 -4.363491 6.133605,-9.306171 -8.957857 1.570715,-8.619581 -8.654356 1.861684,-8.055124 -7.856372 2.05449,-7.702247 -7.036905 2.297576,-7.379767 -6.502242 2.52956,-8.434401 -6.029828 1.681082,-8.239023 -4.840181 1.832141,-8.13987 -4.103467 2.008761,-8.074182 -3.461795 2.141353,-8.801222 -5.801054 1.734854,-8.641181 -4.394075 1.811942,-8.535944 -3.513193 2.01757,-8.463128 -2.764225 2.197914,-9.170472 -5.844238 1.8352,-9.061165 -4.528574 1.929912,-8.96184 -3.731225 2.108696,-8.87264 -3.065052 2.264267,-9.562398 -6.108466 1.969978,-9.600906 -5.107784 2.116643,-9.598567 -4.480461 2.269976,-9.570402 -3.88132 2.382989,4.310, 1 0
-2.71568 -9.063881 5.341675,-3.406601 -8.906244 5.60289,-3.997993 -8.246998 5.792322,-4.430618 -7.580288 6.038366,-4.868794 -7.18468 6.344023,-3.725079 -6.428228 5.398225,-4.045311 -5.343603 5.56551,-4.22468 -4.701095 5.692081,-4.366905 -4.067411 5.795389,-3.368763 -6.148004 5.498004,-3.609587 -4.873298 5.697927,-3.609587 -4.873298 5.697927,-3.88199 -3.353725 6.043075,-3.000278 -6.14184 5.67689,-3.129581 -4.927488 5.895709,-3.286091 -4.15043 6.126012,-3.422933 -3.494847 6.311121,-2.610843 -6.374309 5.891092,-2.58134 -5.401592 6.100667,-2.616226 -4.75051 6.325866,-2.671886 -4.136042 6.522842,-9.279226 -8.933071 1.667417,-8.596199 -8.631386 1.960272,-8.030882 -7.850534 2.15925,-7.680223 -7.029336 2.40727,-7.350027 -6.492849 2.64731,-8.400256 -5.985387 1.771297,-8.196149 -4.805155 1.91332,-8.092477 -4.078302 2.083355,-8.022999 -3.446579 2.209741,-8.768634 -5.74928 1.832882,-8.610447 -4.345428 1.88999,-8.504608 -3.468824 2.09513,-8.429724 -2.729353 2.26858,-9.139561 -5.791511 1.942944,-9.032084 -4.483495 2.028459,-8.930662 -3.694946 2.215267,-8.832348 -3.03136 2.374137,-9.534157 -6.056844 2.087871,-9.572361 -5.060489 2.240678,-9.568523 -4.442455 2.400967,-9.530829 -3.848324 2.517685,4.410, 1 0
-2.660731 -9.013933 5.299315,-3.347756 -8.838104 5.532004,-3.938498 -8.194715 5.706034,-4.356085 -7.546999 5.934537,-4.760291 -7.154171 6.220521,-3.678926 -6.397111 5.317425,-3.997409 -5.320173 5.470428,-4.170446 -4.669976 5.59949,-4.298105 -4.042076 5.707706,-3.322193 -6.110651 5.41963,-3.561016 -4.816486 5.578698,-3.561016 -4.816486 5.578698,-3.792259 -3.282526 5.894308,-2.955088 -6.091768 5.595467,-3.093769 -4.865474 5.774259,-3.23203 -4.080748 5.971898,-3.350904 -3.427349 6.139446,-2.565947 -6.307474 5.808376,-2.545056 -5.328071 5.985863,-2.575599 -4.684346 6.172488,-2.62641 -4.095956 6.335761,-9.282151 -8.926228 1.665627,-8.601526 -8.62027 1.97051,-8.032292 -7.850788 2.178333,-7.675068 -7.024656 2.430609,-7.356525 -6.471138 2.670097,-8.400068 -5.986343 1.795805,-8.19125 -4.80459 1.936147,-8.094136 -4.076709 2.107286,-8.031358 -3.445098 2.239171,-8.770197 -5.743709 1.841102,-8.603488 -4.33391 1.901046,-8.502571 -3.447387 2.112186,-8.43234 -2.700835 2.292127,-9.142862 -5.780857 1.929819,-9.029898 -4.467691 2.007641,-8.929611 -3.673893 2.191598,-8.831635 -3.018519 2.34795,-9.538916 -6.040691 2.056143,-9.576796 -5.040927 2.196847,-9.575652 -4.414946 2.352579,-9.538383 -3.818598 2.465067,4.510, 1 0
-2.658316 -9.018551 5.378313,-3.34538 -8.841412 5.576666,-3.92736 -8.157179 5.712755,-4.325085 -7.482933 5.908209,-4.720701 -7.086378 6.13973,-3.6357 -6.361892 5.293934,-3.939066 -5.303754 5.446739,-4.101902 -4.666195 5.561313,-4.2204 -4.043091 5.648656,-3.282775 -6.081863 5.415381,-3.492447 -4.819047 5.57835,-3.492447 -4.819047 5.57835,-3.713467 -3.334342 5.899353,-2.928848 -6.061958 5.62452,-3.050867 -4.830944 5.816831,-3.181574 -4.048621 6.026379,-3.305156 -3.395613 6.190245,-2.55068 -6.279522 5.864141,-2.503053 -5.301166 6.04543,-2.518159 -4.654818 6.233206,-2.558937 -4.059595 6.401336,-9.252772 -8.943176 1.669757,-8.570501 -8.627823 1.974738,-8.006541 -7.844475 2.178599,-7.653916 -7.017312 2.427839,-7.324366 -6.475263 2.661799,-8.38032 -5.995395 1.823583,-8.179459 -4.811195 1.994163,-8.081423 -4.084993 2.184244,-8.017283 -3.442335 2.331184,-8.749343 -5.760437 1.883438,-8.588613 -4.35456 1.978789,-8.48168 -3.473595 2.211203,-8.406223 -2.72015 2.403162,-9.120666 -5.808052 1.987688,-9.020257 -4.484095 2.103689,-8.923779 -3.679444 2.315508,-8.831898 -3.003214 2.491173,-9.514326 -6.077822 2.125594,-9.555943 -5.080741 2.289281,-9.551455 -4.444154 2.45958,-9.513643 -3.834614 2.5805,4.610, 1 0
-2.680802 -9.021265 5.304377,-3.3612 -8.827194 5.512125,-3.934015 -8.143171 5.649745,-4.32742 -7.467709 5.842124,-4.724587 -7.075353 6.074614,-3.650034 -6.376392 5.248194,-3.951783 -5.347859 5.400214,-4.119174 -4.716609 5.50708,-4.246251 -4.097547 5.594225,-3.301159 -6.105583 5.360068,-3.508396 -4.861228 5.535218,-3.508396 -4.861228 5.535218,-3.734776 -3.388718 5.851615,-2.951793 -6.092489 5.558726,-3.060061 -4.885797 5.753652,-3.184228 -4.112838 5.964296,-3.300911 -3.470244 6.130442,-2.579983 -6.307891 5.785218,-2.528485 -5.347322 5.970227,-2.539925 -4.70875 6.165857,-2.571455 -4.114738 6.336551,-9.208545 -8.948824 1.677924,-8.513335 -8.629921 1.968351,-7.94594 -7.82109 2.166249,-7.597224 -6.982966 2.413478,-7.265345 -6.42456 2.652949,-8.341341 -5.986665 1.820352,-8.142443 -4.79512 2.000358,-8.040767 -4.072304 2.194619,-7.97113 -3.426342 2.339217,-8.712919 -5.762846 1.897006,-8.552087 -4.354705 1.99854,-8.445261 -3.486296 2.228919,-8.367567 -2.737805 2.410765,-9.084936 -5.819948 2.020856,-8.976636 -4.480644 2.143853,-8.881145 -3.67037 2.365169,-8.790695 -2.986696 2.542786,-9.481572 -6.09826 2.175675,-9.50959 -5.079307 2.350063,-9.502137 -4.426522 2.526974,-9.46451 -3.800411 2.651319,4.710, 1 0
-2.717645 -8.892338 5.209978,-3.388926 -8.685722 5.395583,-3.944569 -7.969121 5.526658,-4.33304 -7.279916 5.719829,-4.721199 -6.876194 5.96642,-3.634886 -6.240722 5.099334,-3.921638 -5.213359 5.216748,-4.081884 -4.599372 5.307477,-4.207275 -3.997959 5.379072,-3.294899 -5.9948 5.214499,-3.493326 -4.783756 5.353377,-3.493326 -4.783756 5.353377,-3.707541 -3.344387 5.649382,-2.950562 -6.002317 5.413779,-3.05386 -4.82504 5.593386,-3.181258 -4.07232 5.791415,-3.300273 -3.440304 5.953583,-2.584754 -6.240586 5.644377,-2.525895 -5.312653 5.822792,-2.537453 -4.688503 6.012496,-2.570821 -4.100106 6.183215,-9.151461 -8.854643 1.613833,-8.465542 -8.523106 1.863705,-7.898628 -7.732383 2.046518,-7.539332 -6.920093 2.285885,-7.201427 -6.380863 2.527514,-8.294083 -5.903725 1.697239,-8.084065 -4.722023 1.841868,-7.976445 -4.006877 2.020123,-7.898988 -3.376577 2.157214,-8.657923 -5.684461 1.794442,-8.492148 -4.284063 1.852977,-8.386624 -3.42967 2.068098,-8.303428 -2.702837 2.23896,-9.025446 -5.738584 1.933591,-8.915343 -4.422719 2.031792,-8.817907 -3.619246 2.2458,-8.712234 -2.936079 2.40941,-9.415676 -6.010158 2.10241,-9.466565 -5.002601 2.266463,-9.46745 -4.364017 2.434816,-9.4245 -3.746562 2.551812,4.810, 1 0
-2.63367 -8.905676 5.035191,-3.292471 -8.740421 5.296345,-3.853655 -8.066372 5.449632,-4.227873 -7.364255 5.639415,-4.606496 -6.923858 5.874551,-3.553804 -6.344307 5.044827,-3.841024 -5.308143 5.178901,-4.015454 -4.695657 5.275739,-4.154245 -4.097639 5.358289,-3.210643 -6.060327 5.122483,-3.430559 -4.8302 5.280782,-3.430559 -4.8302 5.280782,-3.675438 -3.360795 5.568152,-2.86577 -6.039625 5.289666,-2.99437 -4.817335 5.469627,-3.131275 -4.039773 5.67109,-3.25844 -3.369863 5.844826,-2.496325 -6.249437 5.488343,-2.456982 -5.282907 5.659475,-2.480312 -4.636791 5.855911,-2.525771 -4.039688 6.030335,-9.149774 -8.852482 1.579237,-8.474952 -8.527771 1.826044,-7.923467 -7.761194 2.022923,-7.568898 -6.954053 2.277033,-7.236766 -6.417295 2.531234,-8.295094 -5.915872 1.677573,-8.083638 -4.740252 1.82765,-7.976949 -4.013325 2.00848,-7.905581 -3.383203 2.143334,-8.666419 -5.691104 1.765044,-8.498763 -4.294736 1.839725,-8.394534 -3.418569 2.062288,-8.324559 -2.673024 2.243724,-9.039531 -5.747022 1.893354,-8.936663 -4.453487 1.981579,-8.839521 -3.651243 2.171057,-8.747109 -2.978143 2.326467,-9.435748 -6.027484 2.052319,-9.480837 -5.030203 2.200676,-9.474869 -4.389196 2.36552,-9.435556 -3.771284 2.483541,4.910, 1 0
-2.558005 -8.994831 4.982703,-3.232717 -8.832134 5.244873,-3.80843 -8.193102 5.410604,-4.182917 -7.511083 5.619891,-4.546189 -7.035394 5.856499,-3.500971 -6.442554 5.053476,-3.81674 -5.392686 5.211409,-4.004964 -4.772371 5.333778,-4.159146 -4.179016 5.430533,-3.151936 -6.171422 5.140875,-3.382225 -4.953541 5.309553,-3.382225 -4.953541 5.309553,-3.672025 -3.517618 5.645329,-2.796444 -6.152049 5.310936,-2.945075 -4.970179 5.487708,-3.105389 -4.218185 5.700253,-3.248755 -3.565895 5.897737,-2.417716 -6.35202 5.510369,-2.405457 -5.387458 5.696057,-2.462575 -4.749614 5.899097,-2.538777 -4.168151 6.08091,-9.19162 -9.027697 1.529973,-8.52992 -8.687748 1.756159,-7.978799 -7.866306 1.958008,-7.623054 -7.052613 2.217583,-7.29988 -6.521062 2.482512,-8.346666 -6.090255 1.692469,-8.149503 -4.860746 1.862974,-8.03777 -4.119272 2.053909,-7.959376 -3.470391 2.201376,-8.721322 -5.88364 1.786632,-8.552996 -4.443843 1.914194,-8.442417 -3.542003 2.156635,-8.373672 -2.752334 2.348334,-9.099657 -5.941104 1.912851,-8.991723 -4.605234 2.028682,-8.888927 -3.772544 2.209104,-8.803092 -3.079771 2.365731,-9.502858 -6.210402 2.058595,-9.533731 -5.143299 2.217316,-9.518842 -4.466178 2.375649,-9.486058 -3.832298 2.491145,5.010, 1 0
-2.558005 -8.994831 4.982703,-3.232717 -8.832134 5.244873,-3.80843 -8.193102 5.410604,-4.182917 -7.511083 5.619891,-4.546189 -7.035394 5.856499,-3.500971 -6.442554 5.053476,-3.81674 -5.392686 5.211409,-4.004964 -4.772371 5.333778,-4.159146 -4.179016 5.430533,-3.151936 -6.171422 5.140875,-3.382225 -4.953541 5.309553,-3.382225 -4.953541 5.309553,-3.672025 -3.517618 5.645329,-2.796444 -6.152049 5.310936,-2.945075 -4.970179 5.487708,-3.105389 -4.218185 5.700253,-3.248755 -3.565895 5.897737,-2.417716 -6.35202 5.510369,-2.405457 -5.387458 5.696057,-2.462575 -4.749614 5.899097,-2.538777 -4.168151 6.08091,-10.34233 -13.05917 3.146677,-9.508731 -12.5974 3.138098,-8.993644 -11.31337 3.297478,-8.679377 -10.0577 3.48162,-8.260278 -9.176975 3.706379,-9.564495 -9.61043 3.259218,-9.441133 -7.998785 3.230851,-9.295168 -7.090169 3.187904,-9.158365 -6.416366 3.130148,-10.04628 -9.423307 3.307452,-9.873562 -7.645837 3.329543,-9.711042 -6.613601 3.314339,-9.550549 -5.875146 3.273452,-10.49827 -9.532661 3.319046,-10.35433 -7.79544 3.273944,-10.14471 -6.849353 3.263764,-9.914961 -6.216377 3.268815,-10.9256 -9.836771 3.311542,-10.83087 -8.445601 3.341151,-10.64599 -7.665597 3.354604,-10.4241 -7.136451 3.337606,5.110, 1 0
-2.558005 -8.994831 4.982703,-3.232717 -8.832134 5.244873,-3.80843 -8.193102 5.410604,-4.182917 -7.511083 5.619891,-4.546189 -7.035394 5.856499,-3.500971 -6.442554 5.053476,-3.81674 -5.392686 5.211409,-4.004964 -4.772371 5.333778,-4.159146 -4.179016 5.430533,-3.151936 -6.171422 5.140875,-3.382225 -4.953541 5.309553,-3.382225 -4.953541 5.309553,-3.672025 -3.517618 5.645329,-2.796444 -6.152049 5.310936,-2.945075 -4.970179 5.487708,-3.105389 -4.218185 5.700253,-3.248755 -3.565895 5.897737,-2.417716 -6.35202 5.510369,-2.405457 -5.387458 5.696057,-2.462575 -4.749614 5.899097,-2.538777 -4.168151 6.08091,-10.63443 -15.82335 0.3810085,-9.942328 -15.06292 0.4480193,-9.566072 -14.00192 0.5095541,-9.308687 -13.04804 0.5181724,-9.097198 -12.19605 0.5717328,-10.1496 -12.9252 0.3533752,-10.1462 -11.5425 0.1907775,-10.17584 -10.70467 0.2097194,-10.19299 -10.0689 0.2502394,-10.55894 -12.96754 0.2246931,-10.57361 -11.47617 0.02539679,-10.56923 -10.64671 -0.1035703,-10.55757 -10.06515 -0.2016063,-10.89128 -13.10988 0.07722801,-10.91353 -11.71167 -0.1349983,-10.86417 -11.00118 -0.2817988,-10.79247 -10.52205 -0.4020514,-11.14548 -13.35361 -0.08001438,-11.10833 -12.30074 -0.1932063,-11.05056 -11.72874 -0.295902,-10.96242 -11.31083 -0.3962035,5.210, 1 0
-2.558005 -8.994831 4.982703,-3.232717 -8.832134 5.244873,-3.80843 -8.193102 5.410604,-4.182917 -7.511083 5.619891,-4.546189 -7.035394 5.856499,-3.500971 -6.442554 5.053476,-3.81674 -5.392686 5.211409,-4.004964 -4.772371 5.333778,-4.159146 -4.179016 5.430533,-3.151936 -6.171422 5.140875,-3.382225 -4.953541 5.309553,-3.382225 -4.953541 5.309553,-3.672025 -3.517618 5.645329,-2.796444 -6.152049 5.310936,-2.945075 -4.970179 5.487708,-3.105389 -4.218185 5.700253,-3.248755 -3.565895 5.897737,-2.417716 -6.35202 5.510369,-2.405457 -5.387458 5.696057,-2.462575 -4.749614 5.899097,-2.538777 -4.168151 6.08091,-10.63443 -15.82335 0.3810085,-9.942328 -15.06292 0.4480193,-9.566072 -14.00192 0.5095541,-9.308687 -13.04804 0.5181724,-9.097198 -12.19605 0.5717328,-10.1496 -12.9252 0.3533752,-10.1462 -11.5425 0.1907775,-10.17584 -10.70467 0.2097194,-10.19299 -10.0689 0.2502394,-10.55894 -12.96754 0.2246931,-10.57361 -11.47617 0.02539679,-10.56923 -10.64671 -0.1035703,-10.55757 -10.06515 -0.2016063,-10.89128 -13.10988 0.07722801,-10.91353 -11.71167 -0.1349983,-10.86417 -11.00118 -0.2817988,-10.79247 -10.52205 -0.4020514,-11.14548 -13.35361 -0.08001438,-11.10833 -12.30074 -0.1932063,-11.05056 -11.72874 -0.295902,-10.96242 -11.31083 -0.3962035,5.310, 1 0
-2.558005 -8.994831 4.982703,-3.232717 -8.832134 5.244873,-3.80843 -8.193102 5.410604,-4.182917 -7.511083 5.619891,-4.546189 -7.035394 5.856499,-3.500971 -6.442554 5.053476,-3.81674 -5.392686 5.211409,-4.004964 -4.772371 5.333778,-4.159146 -4.179016 5.430533,-3.151936 -6.171422 5.140875,-3.382225 -4.953541 5.309553,-3.382225 -4.953541 5.309553,-3.672025 -3.517618 5.645329,-2.796444 -6.152049 5.310936,-2.945075 -4.970179 5.487708,-3.105389 -4.218185 5.700253,-3.248755 -3.565895 5.897737,-2.417716 -6.35202 5.510369,-2.405457 -5.387458 5.696057,-2.462575 -4.749614 5.899097,-2.538777 -4.168151 6.08091,-8.843199 -17.69912 -0.6170971,-8.322408 -16.74195 -0.7539417,-8.172129 -15.675 -0.8399873,-8.240105 -14.80736 -0.9666618,-8.343274 -14.1643 -1.075204,-8.742696 -14.96888 -0.5191628,-9.012573 -13.75554 -0.6244044,-9.080873 -13.03597 -0.7506083,-9.041671 -12.53202 -0.8591691,-9.144978 -15.14086 -0.6324089,-9.400114 -13.98389 -0.9229312,-9.35365 -13.56735 -1.202794,-9.22583 -13.38853 -1.413416,-9.440206 -15.43816 -0.8014116,-9.583622 -14.46875 -1.147095,-9.452368 -14.35931 -1.436336,-9.286554 -14.47478 -1.622124,-9.647043 -15.76489 -0.9811395,-9.675802 -15.01595 -1.262912,-9.539779 -14.92251 -1.483167,-9.388326 -15.00427 -1.690284,5.410, 1 0
-2.558005 -8.994831 4.982703,-3.232717 -8.832134 5.244873,-3.80843 -8.193102 5.410604,-4.182917 -7.511083 5.619891,-4.546189 -7.035394 5.856499,-3.500971 -6.442554 5.053476,-3.81674 -5.392686 5.211409,-4.004964 -4.772371 5.333778,-4.159146 -4.179016 5.430533,-3.151936 -6.171422 5.140875,-3.382225 -4.953541 5.309553,-3.382225 -4.953541 5.309553,-3.672025 -3.517618 5.645329,-2.796444 -6.152049 5.310936,-2.945075 -4.970179 5.487708,-3.105389 -4.218185 5.700253,-3.248755 -3.565895 5.897737,-2.417716 -6.35202 5.510369,-2.405457 -5.387458 5.696057,-2.462575 -4.749614 5.899097,-2.538777 -4.168151 6.08091,-8.843199 -17.69912 -0.6170971,-8.322408 -16.74195 -0.7539417,-8.172129 -15.675 -0.8399873,-8.240105 -14.80736 -0.9666618,-8.343274 -14.1643 -1.075204,-8.742696 -14.96888 -0.5191628,-9.012573 -13.75554 -0.6244044,-9.080873 -13.03597 -0.7506083,-9.041671 -12.53202 -0.8591691,-9.144978 -15.14086 -0.6324089,-9.400114 -13.98389 -0.9229312,-9.35365 -13.56735 -1.202794,-9.22583 -13.38853 -1.413416,-9.440206 -15.43816 -0.8014116,-9.583622 -14.46875 -1.147095,-9.452368 -14.35931 -1.436336,-9.286554 -14.47478 -1.622124,-9.647043 -15.76489 -0.9811395,-9.675802 -15.01595 -1.262912,-9.539779 -14.92251 -1.483167,-9.388326 -15.00427 -1.690284,5.510, 1 0
-2.558005 -8.994831 4.982703,-3.232717 -8.832134 5.244873,-3.80843 -8.193102 5.410604,-4.182917 -7.511083 5.619891,-4.546189 -7.035394 5.856499,-3.500971 -6.442554 5.053476,-3.81674 -5.392686 5.211409,-4.004964 -4.772371 5.333778,-4.159146 -4.179016 5.430533,-3.151936 -6.171422 5.140875,-3.382225 -4.953541 5.309553,-3.382225 -4.953541 5.309553,-3.672025 -3.517618 5.645329,-2.796444 -6.152049 5.310936,-2.945075 -4.970179 5.487708,-3.105389 -4.218185 5.700253,-3.248755 -3.565895 5.897737,-2.417716 -6.35202 5.510369,-2.405457 -5.387458 5.696057,-2.462575 -4.749614 5.899097,-2.538777 -4.168151 6.08091,-8.843199 -17.69912 -0.6170971,-8.322408 -16.74195 -0.7539417,-8.172129 -15.675 -0.8399873,-8.240105 -14.80736 -0.9666618,-8.343274 -14.1643 -1.075204,-8.742696 -14.96888 -0.5191628,-9.012573 -13.75554 -0.6244044,-9.080873 -13.03597 -0.7506083,-9.041671 -12.53202 -0.8591691,-9.144978 -15.14086 -0.6324089,-9.400114 -13.98389 -0.9229312,-9.35365 -13.56735 -1.202794,-9.22583 -13.38853 -1.413416,-9.440206 -15.43816 -0.8014116,-9.583622 -14.46875 -1.147095,-9.452368 -14.35931 -1.436336,-9.286554 -14.47478 -1.622124,-9.647043 -15.76489 -0.9811395,-9.675802 -15.01595 -1.262912,-9.539779 -14.92251 -1.483167,-9.388326 -15.00427 -1.690284,5.610, 1 0
-2.558005 -8.994831 4.982703,-3.232717 -8.832134 5.244873,-3.80843 -8.193102 5.410604,-4.182917 -7.511083 5.619891,-4.546189 -7.035394 5.856499,-3.500971 -6.442554 5.053476,-3.81674 -5.392686 5.211409,-4.004964 -4.772371 5.333778,-4.159146 -4.179016 5.430533,-3.151936 -6.171422 5.140875,-3.382225 -4.953541 5.309553,-3.382225 -4.953541 5.309553,-3.672025 -3.517618 5.645329,-2.796444 -6.152049 5.310936,-2.945075 -4.970179 5.487708,-3.105389 -4.218185 5.700253,-3.248755 -3.565895 5.897737,-2.417716 -6.35202 5.510369,-2.405457 -5.387458 5.696057,-2.462575 -4.749614 5.899097,-2.538777 -4.168151 6.08091,-8.843199 -17.69912 -0.6170971,-8.322408 -16.74195 -0.7539417,-8.172129 -15.675 -0.8399873,-8.240105 -14.80736 -0.9666618,-8.343274 -14.1643 -1.075204,-8.742696 -14.96888 -0.5191628,-9.012573 -13.75554 -0.6244044,-9.080873 -13.03597 -0.7506083,-9.041671 -12.53202 -0.8591691,-9.144978 -15.14086 -0.6324089,-9.400114 -13.98389 -0.9229312,-9.35365 -13.56735 -1.202794,-9.22583 -13.38853 -1.413416,-9.440206 -15.43816 -0.8014116,-9.583622 -14.46875 -1.147095,-9.452368 -14.35931 -1.436336,-9.286554 -14.47478 -1.622124,-9.647043 -15.76489 -0.9811395,-9.675802 -15.01595 -1.262912,-9.539779 -14.92251 -1.483167,-9.388326 -15.00427 -1.690284,5.710, 1 0
-2.558005 -8.994831 4.982703,-3.232717 -8.832134 5.244873,-3.80843 -8.193102 5.410604,-4.182917 -7.511083 5.619891,-4.546189 -7.035394 5.856499,-3.500971 -6.442554 5.053476,-3.81674 -5.392686 5.211409,-4.004964 -4.772371 5.333778,-4.159146 -4.179016 5.430533,-3.151936 -6.171422 5.140875,-3.382225 -4.953541 5.309553,-3.382225 -4.953541 5.309553,-3.672025 -3.517618 5.645329,-2.796444 -6.152049 5.310936,-2.945075 -4.970179 5.487708,-3.105389 -4.218185 5.700253,-3.248755 -3.565895 5.897737,-2.417716 -6.35202 5.510369,-2.405457 -5.387458 5.696057,-2.462575 -4.749614 5.899097,-2.538777 -4.168151 6.08091,-8.906493 -17.12206 -0.9724044,-8.248981 -16.35694 -1.229441,-7.972754 -15.44603 -1.30488,-7.993769 -14.62442 -1.426657,-8.113985 -14.10032 -1.565658,-8.554054 -14.57071 -0.8522289,-8.809431 -13.27525 -1.041619,-8.838364 -12.66609 -1.295978,-8.792322 -12.27922 -1.497115,-9.020601 -14.65107 -0.9098871,-9.22622 -13.43561 -1.230016,-9.14045 -13.02333 -1.483321,-9.014634 -12.79542 -1.564736,-9.372416 -14.9256 -1.042478,-9.467257 -14.04494 -1.500095,-9.306208 -14.13652 -1.784952,-9.162203 -14.37018 -1.833626,-9.648322 -15.25126 -1.19121,-9.617783 -14.63251 -1.62969,-9.448573 -14.77948 -1.856267,-9.310379 -14.99045 -1.960532,5.810, 1 0
-2.558005 -8.994831 4.982703,-3.232717 -8.832134 5.244873,-3.80843 -8.193102 5.410604,-4.182917 -7.511083 5.619891,-4.546189 -7.035394 5.856499,-3.500971 -6.442554 5.053476,-3.81674 -5.392686 5.211409,-4.004964 -4.772371 5.333778,-4.159146 -4.179016 5.430533,-3.151936 -6.171422 5.140875,-3.382225 -4.953541 5.309553,-3.382225 -4.953541 5.309553,-3.672025 -3.517618 5.645329,-2.796444 -6.152049 5.310936,-2.945075 -4.970179 5.487708,-3.105389 -4.218185 5.700253,-3.248755 -3.565895 5.897737,-2.417716 -6.35202 5.510369,-2.405457 -5.387458 5.696057,-2.462575 -4.749614 5.899097,-2.538777 -4.168151 6.08091,-9.038043 -17.02938 -1.868002,-8.353957 -16.33654 -2.154469,-8.04264 -15.42619 -2.335218,-8.050529 -14.56095 -2.589592,-8.222249 -14.05386 -2.878931,-8.677482 -14.74046 -1.918472,-8.901737 -13.60552 -2.223889,-8.948551 -13.00554 -2.519518,-8.909861 -12.62323 -2.735085,-9.121956 -14.81882 -2.037622,-9.223429 -13.70974 -2.440496,-9.178865 -13.20295 -2.792875,-9.102824 -12.93027 -2.992539,-9.455577 -15.02058 -2.234798,-9.452763 -14.10798 -2.709205,-9.323236 -13.85412 -3.056315,-9.194194 -13.82711 -3.215096,-9.710168 -15.28997 -2.462137,-9.573232 -14.53077 -2.888957,-9.419724 -14.38194 -3.142886,-9.293417 -14.42473 -3.294415,5.910, 1 0
-2.558005 -8.994831 4.982703,-3.232717 -8.832134 5.244873,-3.80843 -8.193102 5.410604,-4.182917 -7.511083 5.619891,-4.546189 -7.035394 5.856499,-3.500971 -6.442554 5.053476,-3.81674 -5.392686 5.211409,-4.004964 -4.772371 5.333778,-4.159146 -4.179016 5.430533,-3.151936 -6.171422 5.140875,-3.382225 -4.953541 5.309553,-3.382225 -4.953541 5.309553,-3.672025 -3.517618 5.645329,-2.796444 -6.152049 5.310936,-2.945075 -4.970179 5.487708,-3.105389 -4.218185 5.700253,-3.248755 -3.565895 5.897737,-2.417716 -6.35202 5.510369,-2.405457 -5.387458 5.696057,-2.462575 -4.749614 5.899097,-2.538777 -4.168151 6.08091,-9.038043 -17.02938 -1.868002,-8.353957 -16.33654 -2.154469,-8.04264 -15.42619 -2.335218,-8.050529 -14.56095 -2.589592,-8.222249 -14.05386 -2.878931,-8.677482 -14.74046 -1.918472,-8.901737 -13.60552 -2.223889,-8.948551 -13.00554 -2.519518,-8.909861 -12.62323 -2.735085,-9.121956 -14.81882 -2.037622,-9.223429 -13.70974 -2.440496,-9.178865 -13.20295 -2.792875,-9.102824 -12.93027 -2.992539,-9.455577 -15.02058 -2.234798,-9.452763 -14.10798 -2.709205,-9.323236 -13.85412 -3.056315,-9.194194 -13.82711 -3.215096,-9.710168 -15.28997 -2.462137,-9.573232 -14.53077 -2.888957,-9.419724 -14.38194 -3.142886,-9.293417 -14.42473 -3.294415,6.010, 1 0
