TiagoOliveira98/Thesis-Project/Difficulty_0/Motor_Task/Unity_Project/DataLogging/JointData/Logs(1647310690)_Tiago_Motor.csv
WRIST,THUMB_CMC,THUMB_MCP,THUMB_IP,THUMB_TIP,INDEX_FINGER_MCP,INDEX_FINGER_PIP,INDEX_FINGER_DIP,INDEX_FINGER_TIP,MIDDLE_FINGER_MCP,MIDDLE_FINGER_PIP,MIDDLE_FINGER_DIP,MIDDLE_FINGER_TIP,RING_FINGER_MCP,RING_FINGER_PIP,RING_FINGER_DIP,RING_FINGER_TIP,PINKY_MCP,PINKY_PIP,PINKY_DIP,PINKY_TIP,WRIST2,THUMB_CMC2,THUMB_MCP2,THUMB_IP2,THUMB_TIP2,INDEX_FINGER_MCP2,INDEX_FINGER_PIP2,INDEX_FINGER_DIP2,INDEX_FINGER_TIP2,MIDDLE_FINGER_MCP2,MIDDLE_FINGER_PIP2,MIDDLE_FINGER_DIP2,MIDDLE_FINGER_TIP2,RING_FINGER_MCP2,RING_FINGER_PIP2,RING_FINGER_DIP2,RING_FINGER_TIP2,PINKY_MCP2,PINKY_PIP2,PINKY_DIP2,PINKY_TIP2,Timestamp,Event
-1.766499 -6.650314 0.0002490622,-2.351039 -6.367815 0.2826496,-2.874049 -5.741813 0.439864,-3.228896 -5.092317 0.604525,-3.498945 -4.698339 0.787586,-2.449937 -4.099662 0.1387163,-2.659844 -3.047267 0.2895866,-2.767771 -2.440273 0.418904,-2.851793 -1.862278 0.5383177,-2.117928 -3.895156 0.1942403,-2.238951 -2.679394 0.3335211,-2.238951 -2.679394 0.3335211,-2.347536 -1.275625 0.7044088,-1.786805 -3.933015 0.31258,-1.835945 -2.760124 0.4651733,-1.891603 -2.034535 0.6448497,-1.958624 -1.396355 0.8108273,-1.439487 -4.20626 0.4675847,-1.291474 -3.326311 0.6087038,-1.198046 -2.757938 0.761579,-1.130501 -2.213435 0.9034607,-8.096907 -6.34922 0.0005635502,-7.539161 -6.145317 0.2635711,-7.001458 -5.527362 0.4779174,-6.624143 -4.967124 0.7047845,-6.278406 -4.721017 0.9429443,-7.362618 -3.856836 0.3316391,-7.195095 -2.822511 0.5203411,-7.134689 -2.189696 0.6934911,-7.0887 -1.634567 0.8160651,-7.698895 -3.668684 0.3841118,-7.5696 -2.447437 0.5748217,-7.499224 -1.693318 0.7984095,-7.448379 -1.026207 0.9863977,-8.030369 -3.722074 0.4581405,-7.949462 -2.608356 0.642206,-7.881476 -1.900762 0.8073314,-7.811129 -1.284778 0.9429055,-8.369345 -3.985933 0.5505864,-8.418981 -3.150467 0.7334497,-8.433105 -2.62663 0.8821943,-8.429429 -2.116319 0.9958211,0.010,0 0
-1.775876 -6.659498 0.0744606,-2.351379 -6.370601 0.3689264,-2.873863 -5.74407 0.5425246,-3.226734 -5.09093 0.7226461,-3.497885 -4.671701 0.9221454,-2.453174 -4.08846 0.2528177,-2.656907 -3.038727 0.4187214,-2.760117 -2.433075 0.5469868,-2.844384 -1.86404 0.6621028,-2.123517 -3.885609 0.3096497,-2.239957 -2.672002 0.471741,-2.239957 -2.672002 0.471741,-2.352333 -1.271517 0.836109,-1.792887 -3.929346 0.4277763,-1.8406 -2.750996 0.6001012,-1.896294 -2.028343 0.7727239,-1.962316 -1.391188 0.9281675,-1.44407 -4.21141 0.5862021,-1.294599 -3.327188 0.7396694,-1.197258 -2.752321 0.8941392,-1.123147 -2.201742 1.035518,-8.110939 -6.35234 0.00743077,-7.54812 -6.149372 0.2607698,-7.009398 -5.534431 0.4655357,-6.63579 -4.968744 0.6847538,-6.29501 -4.72112 0.9113842,-7.360806 -3.860284 0.3056085,-7.19939 -2.827062 0.4773945,-7.141289 -2.197565 0.6419333,-7.097184 -1.648844 0.7567728,-7.695606 -3.667699 0.3562563,-7.572433 -2.446792 0.5326368,-7.506586 -1.692398 0.7568156,-7.458077 -1.023123 0.9447815,-8.025867 -3.72052 0.4306048,-7.947622 -2.603391 0.6051637,-7.882019 -1.895472 0.7752119,-7.813827 -1.276283 0.9138715,-8.363548 -3.984959 0.5212599,-8.42103 -3.152042 0.6970494,-8.440085 -2.628088 0.8489616,-8.439863 -2.116263 0.9642646,0.110,0 0
-1.791031 -6.662284 0.06452889,-2.373841 -6.370305 0.3286763,-2.890471 -5.739179 0.4756452,-3.243153 -5.081744 0.6338947,-3.51071 -4.696002 0.8077694,-2.451129 -4.089038 0.1665304,-2.655553 -3.04237 0.3103331,-2.763071 -2.433974 0.4289054,-2.848702 -1.858733 0.5373703,-2.121428 -3.883903 0.225871,-2.23878 -2.672333 0.3603833,-2.23878 -2.672333 0.3603833,-2.35619 -1.272861 0.7193708,-1.793819 -3.921394 0.3489317,-1.838714 -2.74938 0.4996886,-1.896585 -2.023317 0.6687509,-1.966865 -1.386789 0.8219765,-1.450888 -4.197584 0.5078955,-1.298119 -3.318058 0.6439686,-1.204533 -2.744316 0.787501,-1.13608 -2.196144 0.9175184,-8.103447 -6.350132 -0.03112248,-7.542581 -6.150826 0.2281316,-7.00814 -5.532957 0.4370182,-6.636784 -4.959493 0.6577927,-6.29087 -4.714494 0.8854381,-7.368471 -3.863979 0.2972438,-7.200909 -2.822233 0.4839479,-7.139645 -2.185849 0.6553177,-7.095423 -1.632314 0.7748681,-7.70345 -3.677685 0.3421537,-7.577535 -2.443695 0.5354578,-7.511674 -1.685276 0.7593524,-7.469307 -1.011392 0.9442111,-8.032404 -3.730952 0.4101447,-7.956541 -2.610274 0.5956628,-7.893682 -1.903185 0.7588789,-7.832783 -1.284561 0.8908582,-8.366365 -3.992005 0.4933037,-8.424027 -3.157278 0.6675292,-8.444777 -2.63772 0.8156469,-8.449065 -2.126935 0.9288638,0.210,0 0
-1.787609 -6.638608 0.05252268,-2.36934 -6.344101 0.3221312,-2.882307 -5.722276 0.4700434,-3.235228 -5.068636 0.6330338,-3.510002 -4.68467 0.8224576,-2.451106 -4.068872 0.1182152,-2.659752 -3.039312 0.2492535,-2.766808 -2.444797 0.3688916,-2.85669 -1.873811 0.4827397,-2.120009 -3.86188 0.1742587,-2.24022 -2.663967 0.2841363,-2.24022 -2.663967 0.2841363,-2.363984 -1.264955 0.635334,-1.791307 -3.901545 0.2943195,-1.832892 -2.744274 0.4201021,-1.892995 -2.029394 0.5858556,-1.965397 -1.40106 0.735902,-1.448816 -4.18147 0.4544917,-1.292463 -3.319906 0.5725242,-1.197884 -2.760363 0.7108623,-1.131023 -2.219581 0.8368493,-8.123388 -6.366013 0.009114565,-7.561416 -6.185279 0.2427388,-7.018955 -5.549805 0.4223523,-6.638705 -4.980582 0.6204752,-6.291824 -4.728614 0.8304345,-7.373695 -3.858749 0.2329566,-7.208516 -2.836162 0.3839428,-7.146196 -2.199958 0.5383286,-7.095754 -1.645412 0.6477855,-7.704816 -3.672859 0.2850877,-7.582274 -2.457303 0.4345135,-7.514646 -1.706024 0.6457053,-7.460884 -1.032546 0.8210657,-8.033191 -3.730491 0.3619663,-7.957433 -2.620559 0.5152997,-7.897553 -1.913966 0.6766952,-7.830366 -1.29018 0.8095505,-8.370032 -4.003063 0.4551947,-8.431067 -3.18372 0.6146737,-8.449058 -2.663209 0.7568718,-8.444076 -2.159816 0.8633853,0.310,0 0
-1.793132 -6.644395 0.0006554028,-2.375221 -6.369696 0.2803879,-2.887411 -5.745729 0.4253303,-3.237948 -5.101635 0.5805053,-3.505247 -4.72352 0.753276,-2.451172 -4.089646 0.08855505,-2.65332 -3.060253 0.2399883,-2.758975 -2.460742 0.3744626,-2.847679 -1.890274 0.4953629,-2.118372 -3.882736 0.1425934,-2.229282 -2.680971 0.2725374,-2.229282 -2.680971 0.2725374,-2.355066 -1.281636 0.6361299,-1.789452 -3.92306 0.2624326,-1.831234 -2.767531 0.4099664,-1.892905 -2.05829 0.5846546,-1.965734 -1.4358 0.7388513,-1.446936 -4.200185 0.4207912,-1.291574 -3.335496 0.5530472,-1.197886 -2.767116 0.6972374,-1.131189 -2.216356 0.8282382,-8.138971 -6.380136 -0.01205528,-7.575614 -6.19248 0.2264657,-7.030516 -5.564771 0.409146,-6.646477 -5.002975 0.6073464,-6.299593 -4.758195 0.8230137,-7.384497 -3.884087 0.2342928,-7.215898 -2.851306 0.3967454,-7.152794 -2.21113 0.5593686,-7.103251 -1.654609 0.6723647,-7.719232 -3.695099 0.2808391,-7.590586 -2.471159 0.4436729,-7.523733 -1.718138 0.6630741,-7.472072 -1.03882 0.8450833,-8.049829 -3.746883 0.3510169,-7.971378 -2.635743 0.5113031,-7.912951 -1.936728 0.6778412,-7.84734 -1.321467 0.8144698,-8.387357 -4.007358 0.4360905,-8.444858 -3.187301 0.5948738,-8.464315 -2.666955 0.7362212,-8.461656 -2.163021 0.8466627,0.410,0 0
-1.791972 -6.622509 -0.06881856,-2.372975 -6.340574 0.2148051,-2.884386 -5.734033 0.3622086,-3.236898 -5.094872 0.5204371,-3.503098 -4.720018 0.6981425,-2.449482 -4.084404 0.02599011,-2.656734 -3.057649 0.174587,-2.763434 -2.463008 0.3004963,-2.855554 -1.893513 0.4153893,-2.11849 -3.88134 0.07956201,-2.234738 -2.681423 0.2108512,-2.234738 -2.681423 0.2108512,-2.361664 -1.286765 0.5705179,-1.789342 -3.923203 0.199302,-1.834063 -2.767058 0.3457611,-1.894247 -2.056805 0.5204965,-1.966001 -1.433424 0.6735001,-1.445103 -4.202529 0.3571114,-1.288888 -3.339344 0.4897413,-1.19236 -2.776037 0.6350132,-1.122781 -2.230984 0.7647029,-8.122466 -6.394687 0.1022066,-7.558628 -6.210907 0.361763,-7.023549 -5.570022 0.5525062,-6.650127 -4.98962 0.7600873,-6.301291 -4.743047 0.9759986,-7.373778 -3.871706 0.3848929,-7.209209 -2.856267 0.5548382,-7.149452 -2.223531 0.7233231,-7.100652 -1.674395 0.8436738,-7.702331 -3.680995 0.434068,-7.583532 -2.469887 0.600463,-7.519184 -1.720361 0.8184111,-7.466748 -1.053421 1.002072,-8.02643 -3.734476 0.5081003,-7.959654 -2.629241 0.6721328,-7.906473 -1.925565 0.8310778,-7.8454 -1.310159 0.9618756,-8.35686 -4.004087 0.6003335,-8.42642 -3.181168 0.7592338,-8.454148 -2.658327 0.8915054,-8.460281 -2.153431 0.9969258,0.510,0 0
-1.789459 -6.616888 -0.09374991,-2.366003 -6.338737 0.1855082,-2.879302 -5.733698 0.334526,-3.235391 -5.099906 0.4960401,-3.498916 -4.717348 0.6776988,-2.447933 -4.091903 0.007464953,-2.658823 -3.059532 0.1519801,-2.767272 -2.464408 0.2792674,-2.854749 -1.891513 0.3978799,-2.117874 -3.883516 0.06143284,-2.234759 -2.684708 0.1872565,-2.234759 -2.684708 0.1872565,-2.355979 -1.282482 0.5486606,-1.788114 -3.926039 0.1817537,-1.832791 -2.769282 0.3252522,-1.892674 -2.047224 0.505047,-1.965269 -1.418013 0.6636948,-1.44226 -4.207771 0.3383793,-1.28711 -3.346266 0.4703775,-1.19191 -2.77857 0.6171821,-1.123355 -2.234014 0.7529951,-8.123911 -6.390478 0.1378466,-7.563611 -6.208844 0.3920556,-7.024114 -5.565326 0.5820097,-6.646753 -4.981103 0.7911047,-6.299363 -4.73132 1.011674,-7.370826 -3.8586 0.4032042,-7.204666 -2.843193 0.5705842,-7.145665 -2.213836 0.7371401,-7.097916 -1.668852 0.8536923,-7.698879 -3.66601 0.4602341,-7.577536 -2.455862 0.6220189,-7.511396 -1.708696 0.8342435,-7.457843 -1.041844 1.011175,-8.022785 -3.723697 0.5447444,-7.955345 -2.618125 0.7082919,-7.900622 -1.920326 0.8632844,-7.837462 -1.302754 0.9898196,-8.353517 -4.000093 0.6468846,-8.420368 -3.177083 0.8128449,-8.444951 -2.657493 0.9468464,-8.44745 -2.152356 1.050685,0.610,0 0
-1.785252 -6.603269 -0.07795613,-2.355139 -6.332624 0.2234516,-2.867032 -5.718777 0.3811054,-3.21818 -5.08468 0.547697,-3.48501 -4.70646 0.7330117,-2.443509 -4.07128 0.04955274,-2.651567 -3.048015 0.2017429,-2.754799 -2.450446 0.3297633,-2.839721 -1.871553 0.4501698,-2.111001 -3.866199 0.09683616,-2.234871 -2.679833 0.2259941,-2.234871 -2.679833 0.2259941,-2.355321 -1.284414 0.5735235,-1.779614 -3.907962 0.2110251,-1.82691 -2.750925 0.3591665,-1.886174 -2.02993 0.5341336,-1.957539 -1.402198 0.6892191,-1.430314 -4.189039 0.3644848,-1.279693 -3.320646 0.4986125,-1.186294 -2.7504 0.648265,-1.119704 -2.201926 0.7832059,-8.121257 -6.400119 0.1393247,-7.560186 -6.200874 0.3856057,-7.023648 -5.558073 0.5717438,-6.64676 -4.984748 0.7782859,-6.298309 -4.731124 0.9930105,-7.376683 -3.86091 0.4020415,-7.206465 -2.843168 0.5622666,-7.141875 -2.208854 0.7239735,-7.089507 -1.66159 0.8427125,-7.703867 -3.673651 0.4581966,-7.580524 -2.458728 0.621525,-7.511308 -1.707227 0.8417829,-7.456088 -1.038349 1.025154,-8.025735 -3.728628 0.5394734,-7.956429 -2.62088 0.7008309,-7.898942 -1.918531 0.8605464,-7.832395 -1.303026 0.9939314,-8.352734 -3.997918 0.6375272,-8.421263 -3.170988 0.8027434,-8.444213 -2.648435 0.9396795,-8.443984 -2.147583 1.044787,0.710,0 0
-1.785252 -6.603269 -0.07795613,-2.355139 -6.332624 0.2234516,-2.867032 -5.718777 0.3811054,-3.21818 -5.08468 0.547697,-3.48501 -4.70646 0.7330117,-2.443509 -4.07128 0.04955274,-2.651567 -3.048015 0.2017429,-2.754799 -2.450446 0.3297633,-2.839721 -1.871553 0.4501698,-2.111001 -3.866199 0.09683616,-2.234871 -2.679833 0.2259941,-2.234871 -2.679833 0.2259941,-2.355321 -1.284414 0.5735235,-1.779614 -3.907962 0.2110251,-1.82691 -2.750925 0.3591665,-1.886174 -2.02993 0.5341336,-1.957539 -1.402198 0.6892191,-1.430314 -4.189039 0.3644848,-1.279693 -3.320646 0.4986125,-1.186294 -2.7504 0.648265,-1.119704 -2.201926 0.7832059,-8.121257 -6.400119 0.1393247,-7.560186 -6.200874 0.3856057,-7.023648 -5.558073 0.5717438,-6.64676 -4.984748 0.7782859,-6.298309 -4.731124 0.9930105,-7.376683 -3.86091 0.4020415,-7.206465 -2.843168 0.5622666,-7.141875 -2.208854 0.7239735,-7.089507 -1.66159 0.8427125,-7.703867 -3.673651 0.4581966,-7.580524 -2.458728 0.621525,-7.511308 -1.707227 0.8417829,-7.456088 -1.038349 1.025154,-8.025735 -3.728628 0.5394734,-7.956429 -2.62088 0.7008309,-7.898942 -1.918531 0.8605464,-7.832395 -1.303026 0.9939314,-8.352734 -3.997918 0.6375272,-8.421263 -3.170988 0.8027434,-8.444213 -2.648435 0.9396795,-8.443984 -2.147583 1.044787,0.810,0 0
-1.781633 -6.618404 -0.09015548,-2.350587 -6.345197 0.2401714,-2.860062 -5.734015 0.4194328,-3.212004 -5.092943 0.6009436,-3.481333 -4.691989 0.8025419,-2.439811 -4.096883 0.1065662,-2.646806 -3.061249 0.2790209,-2.755192 -2.454656 0.4256691,-2.84392 -1.880333 0.5594538,-2.105938 -3.888645 0.137916,-2.222399 -2.691093 0.2951008,-2.222399 -2.691093 0.2951008,-2.343625 -1.273008 0.6720386,-1.774463 -3.930976 0.2365291,-1.815155 -2.777229 0.4045894,-1.872913 -2.056104 0.5945582,-1.941907 -1.420542 0.7602972,-1.430123 -4.210033 0.3723097,-1.283111 -3.345028 0.523768,-1.189736 -2.773551 0.6814561,-1.122031 -2.2167 0.823191,-8.125876 -6.402797 0.1724018,-7.557807 -6.202802 0.407737,-7.017212 -5.557064 0.5870625,-6.641046 -4.979228 0.7885885,-6.301001 -4.72874 0.9989315,-7.372199 -3.849937 0.4048961,-7.207432 -2.836418 0.5529934,-7.1466 -2.206294 0.7085583,-7.096839 -1.665252 0.8205157,-7.700597 -3.664598 0.4613974,-7.581502 -2.456238 0.606059,-7.511937 -1.713194 0.8158612,-7.455389 -1.047884 0.9903911,-8.023849 -3.723091 0.5422578,-7.959715 -2.616251 0.6899135,-7.900602 -1.923405 0.8431472,-7.832121 -1.31162 0.9676657,-8.35294 -3.996978 0.6406104,-8.427149 -3.172972 0.7918519,-8.450855 -2.652389 0.9213378,-8.451074 -2.147635 1.019262,0.910,0 0
-1.768012 -6.616224 -0.1332613,-2.342905 -6.340819 0.1549591,-2.856134 -5.732264 0.3029453,-3.212518 -5.093316 0.4590728,-3.474033 -4.710916 0.6290032,-2.422595 -4.102878 -0.02495067,-2.633696 -3.070821 0.1159638,-2.742588 -2.470014 0.2431919,-2.830287 -1.898898 0.3626817,-2.093568 -3.8936 0.01659916,-2.213202 -2.693753 0.1393333,-2.213202 -2.693753 0.1393333,-2.334155 -1.2945 0.4916303,-1.766702 -3.928928 0.1245777,-1.812547 -2.776806 0.2656436,-1.871231 -2.06087 0.4371752,-1.94041 -1.438455 0.5893974,-1.424717 -4.200287 0.2700369,-1.277215 -3.337033 0.3972887,-1.184097 -2.772941 0.5405406,-1.117451 -2.226989 0.6711433,-8.129661 -6.420357 0.1525347,-7.556751 -6.218155 0.3772585,-7.016106 -5.57006 0.5476775,-6.641732 -4.987758 0.7431645,-6.299319 -4.72857 0.9424799,-7.376282 -3.874608 0.3693801,-7.206837 -2.852349 0.5167801,-7.140664 -2.220094 0.6738601,-7.088444 -1.676491 0.78561,-7.704485 -3.686664 0.4294097,-7.582785 -2.467401 0.5780377,-7.512407 -1.716596 0.7931168,-7.456326 -1.047027 0.9701157,-8.025996 -3.74042 0.5149036,-7.958273 -2.626762 0.6642008,-7.897193 -1.925962 0.8208436,-7.828622 -1.310405 0.9479303,-8.352525 -4.009273 0.6147492,-8.424733 -3.180483 0.7684312,-8.446728 -2.654805 0.9018058,-8.445686 -2.148594 0.9996595,1.010,0 0
-1.738611 -6.665651 -0.0353624,-2.319945 -6.39066 0.2315311,-2.837321 -5.762971 0.3681001,-3.194288 -5.122587 0.515645,-3.467508 -4.752428 0.6860221,-2.404047 -4.118595 0.06475449,-2.615283 -3.091156 0.203643,-2.725631 -2.48489 0.3319754,-2.81171 -1.907764 0.450539,-2.072803 -3.916386 0.1237985,-2.195825 -2.73112 0.25419,-2.195825 -2.73112 0.25419,-2.318658 -1.327569 0.608039,-1.743007 -3.95631 0.2477381,-1.794769 -2.803031 0.3978637,-1.855273 -2.09095 0.5777363,-1.925657 -1.469605 0.7296288,-1.398064 -4.228523 0.4088828,-1.261513 -3.351319 0.5452131,-1.175828 -2.779856 0.6927938,-1.115712 -2.22693 0.8272824,-8.151865 -6.450727 0.1250908,-7.584604 -6.260194 0.3684098,-7.040437 -5.618309 0.5493304,-6.664586 -5.036291 0.7481616,-6.321963 -4.771142 0.9539585,-7.389303 -3.922156 0.3742386,-7.214614 -2.882965 0.5413096,-7.147116 -2.241207 0.7071745,-7.095274 -1.691383 0.8216242,-7.720174 -3.728578 0.4259745,-7.598572 -2.492457 0.5961881,-7.533888 -1.741807 0.818949,-7.481627 -1.067743 0.9994738,-8.044622 -3.779824 0.5071894,-7.973625 -2.663353 0.6767649,-7.915779 -1.960811 0.8441275,-7.851147 -1.343399 0.9844099,-8.374506 -4.046585 0.60094,-8.446769 -3.230024 0.7584114,-8.472057 -2.713223 0.9004166,-8.473474 -2.211137 1.015706,1.110,0 0
-1.755485 -6.682121 -0.02969083,-2.325337 -6.392178 0.2357895,-2.834812 -5.752943 0.3777901,-3.189981 -5.106977 0.5372017,-3.456289 -4.722263 0.7186502,-2.401134 -4.127506 0.02758906,-2.612638 -3.095361 0.1611787,-2.721583 -2.489559 0.2862211,-2.806531 -1.912882 0.4065358,-2.074816 -3.927409 0.08886832,-2.194503 -2.734351 0.2099816,-2.194503 -2.734351 0.2099816,-2.30949 -1.335912 0.5657707,-1.749559 -3.969347 0.2186715,-1.795148 -2.812463 0.3587511,-1.854507 -2.095046 0.5327363,-1.92175 -1.462647 0.6872554,-1.407732 -4.249361 0.3854184,-1.262403 -3.386826 0.5143578,-1.173194 -2.819113 0.655429,-1.107022 -2.266218 0.7864406,-8.153483 -6.477051 0.2129893,-7.582981 -6.286409 0.4567685,-7.042768 -5.62812 0.6378324,-6.674028 -5.035783 0.8400987,-6.331337 -4.774759 1.049221,-7.388398 -3.926936 0.4638936,-7.22099 -2.897778 0.6322786,-7.153158 -2.261056 0.8007662,-7.099444 -1.707066 0.9205942,-7.717979 -3.731381 0.5265396,-7.596555 -2.506967 0.694739,-7.526041 -1.752803 0.9202757,-7.468352 -1.077703 1.103329,-8.041439 -3.783937 0.6177979,-7.975344 -2.664489 0.7922211,-7.917658 -1.955669 0.9605415,-7.851521 -1.331568 1.095774,-8.370793 -4.057403 0.721778,-8.440695 -3.217431 0.8965333,-8.460675 -2.682529 1.039687,-8.456617 -2.165404 1.146749,1.210,0 0
-1.716026 -6.701842 -0.004603551,-2.297095 -6.426807 0.2622321,-2.819641 -5.789702 0.4030494,-3.175347 -5.138292 0.5528271,-3.444881 -4.75361 0.7251862,-2.395905 -4.149255 0.09863815,-2.608066 -3.122557 0.2368957,-2.715813 -2.523112 0.3541265,-2.797348 -1.947711 0.4617604,-2.06522 -3.945999 0.1616474,-2.192242 -2.754194 0.2936807,-2.192242 -2.754194 0.2936807,-2.308352 -1.359009 0.647507,-1.735902 -3.993821 0.2887009,-1.787906 -2.826036 0.4431489,-1.847509 -2.111372 0.6315511,-1.917067 -1.485041 0.7923075,-1.39246 -4.27886 0.4515545,-1.254342 -3.403692 0.5950491,-1.166342 -2.82816 0.754788,-1.102209 -2.270411 0.8988257,-8.405537 -6.554754 -0.3945601,-7.796379 -6.455236 -0.06751072,-7.219064 -5.751265 0.136319,-6.834601 -5.070726 0.3285655,-6.511592 -4.574472 0.5000129,-7.480002 -4.218391 -0.175745,-7.27609 -3.145306 -0.02130058,-7.208583 -2.554376 0.0869846,-7.163143 -2.022382 0.15668,-7.85043 -3.998106 -0.1930679,-7.71073 -2.965458 -0.01630154,-7.692741 -2.742647 0.1060553,-7.700805 -2.669483 0.1979722,-8.190588 -3.981636 -0.1728532,-8.093417 -3.037521 -0.01026767,-8.066385 -2.775531 0.08849451,-8.054201 -2.683033 0.176061,-8.538089 -4.12939 -0.1264321,-8.496004 -3.346451 0.01948372,-8.438543 -3.020551 0.1173844,-8.37105 -2.822939 0.1860223,1.310,0 0
-1.719934 -6.720516 0.06132596,-2.298193 -6.432262 0.3481874,-2.820335 -5.791067 0.4999561,-3.179602 -5.140412 0.6667822,-3.44899 -4.74851 0.8589715,-2.388683 -4.144567 0.1253975,-2.595199 -3.108467 0.2540138,-2.699225 -2.508882 0.3742839,-2.780043 -1.94635 0.4835697,-2.056348 -3.941191 0.1693174,-2.171609 -2.743865 0.2720654,-2.171609 -2.743865 0.2720654,-2.2809 -1.359223 0.6080391,-1.72969 -3.981548 0.2814978,-1.776011 -2.824019 0.4087186,-1.836485 -2.112071 0.5719176,-1.906748 -1.490282 0.7112864,-1.386413 -4.258683 0.4354638,-1.245923 -3.383353 0.5548308,-1.158866 -2.811274 0.6924277,-1.093425 -2.25585 0.815418,-8.392259 -6.659317 -0.6296777,-7.799924 -6.572174 -0.1890728,-7.340948 -5.871469 0.07985008,-7.11112 -5.104315 0.3091348,-6.890684 -4.526274 0.5027506,-7.521348 -4.371118 -0.2675709,-7.398525 -3.358407 0.1239963,-7.35555 -2.847681 0.4048948,-7.339034 -2.437483 0.5357796,-7.893324 -4.175737 -0.2817261,-7.859319 -3.283311 0.2976777,-7.846031 -4.173475 0.4888599,-7.84453 -4.805728 0.4583459,-8.274758 -4.176247 -0.2143403,-8.263435 -3.411677 0.3328062,-8.211718 -4.289222 0.5001634,-8.185382 -4.886362 0.4568816,-8.680902 -4.315027 -0.140782,-8.683187 -3.573722 0.2935276,-8.608166 -4.117687 0.4546771,-8.552503 -4.591283 0.4530671,1.410,0 0
-1.690512 -6.73358 0.06576709,-2.277363 -6.458109 0.3172509,-2.805753 -5.817565 0.4477848,-3.172991 -5.159206 0.5923365,-3.448824 -4.773803 0.7564219,-2.371855 -4.15925 0.09870628,-2.585681 -3.114921 0.2154134,-2.692372 -2.513174 0.3231398,-2.77241 -1.949789 0.421656,-2.04198 -3.954313 0.1594689,-2.16858 -2.748088 0.26793,-2.16858 -2.748088 0.26793,-2.283784 -1.358644 0.5975111,-1.715764 -3.995601 0.2857456,-1.770317 -2.81737 0.4223057,-1.835236 -2.102168 0.5928637,-1.907578 -1.475228 0.7353148,-1.372745 -4.277833 0.4509983,-1.234695 -3.399507 0.5808552,-1.149871 -2.8281 0.7251229,-1.08656 -2.272565 0.8498215,-8.543177 -6.630044 -1.199646,-8.038125 -6.603289 -0.5990937,-7.537641 -5.990835 -0.2020701,-7.430334 -5.268709 0.0980767,-7.693178 -4.817817 0.3777853,-7.788883 -4.523124 -0.5789924,-7.660926 -3.559169 0.02954853,-7.602449 -3.154323 0.5192801,-7.602647 -2.957503 0.8297304,-8.167154 -4.340658 -0.6092713,-8.167244 -3.839746 0.2546735,-8.217543 -4.772712 0.4846563,-8.259383 -5.392705 0.4759314,-8.540457 -4.363868 -0.5346044,-8.577013 -3.832463 0.2303993,-8.559557 -4.687912 0.4313741,-8.530195 -5.243318 0.4000119,-8.915115 -4.505464 -0.436814,-8.992605 -3.788914 0.09544063,-8.930938 -4.286699 0.2912985,-8.860456 -4.748716 0.3277913,1.510,0 0
-1.707565 -6.776784 0.09777135,-2.288779 -6.479505 0.3750259,-2.811464 -5.85045 0.5318627,-3.174306 -5.190487 0.7029257,-3.438743 -4.780906 0.8960876,-2.370288 -4.189779 0.1604152,-2.579464 -3.141449 0.2987522,-2.682652 -2.549101 0.4171335,-2.760803 -1.988289 0.520306,-2.041569 -3.987108 0.2168133,-2.158199 -2.779912 0.3425272,-2.158199 -2.779912 0.3425272,-2.262068 -1.395589 0.6893331,-1.717825 -4.029861 0.3413623,-1.766234 -2.861722 0.4890294,-1.828734 -2.15412 0.6580618,-1.898358 -1.529544 0.8009022,-1.376632 -4.309366 0.5082901,-1.232451 -3.431371 0.6419264,-1.146196 -2.858221 0.7835327,-1.079581 -2.297328 0.9098405,-8.688147 -6.593845 -1.714561,-8.222941 -6.625988 -0.9548373,-7.778383 -6.063461 -0.48721,-7.711269 -5.366672 -0.14012,-7.948215 -4.928998 0.1575658,-8.018353 -4.677347 -0.9095562,-7.916981 -3.946635 -0.2137283,-7.852558 -3.554687 0.2849915,-7.817232 -3.265359 0.5907013,-8.394535 -4.484332 -0.9991521,-8.432999 -3.851911 -0.02194679,-8.461337 -4.74604 0.2185347,-8.476523 -5.405338 0.1397326,-8.785252 -4.469179 -0.9545586,-8.856139 -3.886312 -0.08309913,-8.832063 -4.745191 0.1095653,-8.786647 -5.344163 -0.008801699,-9.172944 -4.569564 -0.8773549,-9.273008 -3.895298 -0.2778772,-9.22202 -4.340765 -0.0680083,-9.140457 -4.830152 -0.07143843,1.610,0 0
-1.701584 -6.790376 0.1140844,-2.278671 -6.498596 0.3752019,-2.803071 -5.869458 0.5201638,-3.170236 -5.206201 0.6810452,-3.437542 -4.793071 0.8691041,-2.371507 -4.200746 0.1525829,-2.586105 -3.160401 0.2747027,-2.690474 -2.562812 0.3893862,-2.769474 -1.996165 0.4906779,-2.043697 -3.996189 0.2130174,-2.163095 -2.78979 0.3237203,-2.163095 -2.78979 0.3237203,-2.276249 -1.39713 0.6607372,-1.71815 -4.038064 0.3404648,-1.760425 -2.859346 0.4761413,-1.821321 -2.149431 0.6507183,-1.891485 -1.52044 0.7940422,-1.374431 -4.320241 0.5097102,-1.231528 -3.440578 0.6366047,-1.142917 -2.865424 0.7854998,-1.076605 -2.299881 0.9163419,-8.739236 -6.652426 -1.73718,-8.296419 -6.663396 -0.9542962,-7.855581 -6.117986 -0.4799184,-7.777408 -5.436348 -0.12106,-8.055237 -5.018886 0.1854143,-8.088049 -4.748086 -0.9235311,-7.981487 -4.088667 -0.1781944,-7.95379 -3.730184 0.3467364,-7.953176 -3.452333 0.6625853,-8.459785 -4.549915 -1.015541,-8.508126 -3.914167 -0.02144551,-8.532387 -4.833606 0.2334172,-8.522853 -5.493708 0.1641458,-8.843917 -4.523134 -0.9735057,-8.922407 -3.905602 -0.08152711,-8.906771 -4.769872 0.1157141,-8.860173 -5.388549 -0.01056361,-9.225266 -4.622525 -0.8916353,-9.348634 -3.962984 -0.2911534,-9.289335 -4.403537 -0.09145713,-9.191843 -4.917025 -0.1200546,1.710,0 0
-1.69181 -6.818626 0.1016914,-2.279937 -6.517593 0.3431748,-2.803874 -5.880598 0.4735423,-3.168175 -5.214908 0.6199257,-3.425771 -4.812416 0.786878,-2.355315 -4.231953 0.1158755,-2.569081 -3.171545 0.2247379,-2.677292 -2.569369 0.3258871,-2.757837 -2.004939 0.4182749,-2.02938 -4.026811 0.1798741,-2.145539 -2.808242 0.2866597,-2.145539 -2.808242 0.2866597,-2.255614 -1.408421 0.611486,-1.706577 -4.062908 0.311623,-1.74682 -2.886047 0.4409153,-1.808432 -2.166279 0.603388,-1.880539 -1.537643 0.7408087,-1.368803 -4.336965 0.4836633,-1.221796 -3.456808 0.6057211,-1.13408 -2.88237 0.7423565,-1.067992 -2.324494 0.867503,-8.813801 -6.725313 -1.930105,-8.356213 -6.721908 -1.115143,-7.921747 -6.213768 -0.5774635,-7.848335 -5.552821 -0.153294,-8.139416 -5.155563 0.2162436,-8.161674 -4.972159 -0.9053274,-8.091328 -4.305997 0.0117197,-8.068787 -4.05285 0.6250058,-8.084286 -3.943096 0.9618715,-8.544875 -4.764757 -1.002991,-8.60989 -4.08064 0.07912552,-8.616178 -4.975848 0.355291,-8.606224 -5.579375 0.3216957,-8.933838 -4.722163 -0.9734871,-9.014606 -4.028522 -0.03164649,-9.001884 -4.836515 0.105055,-8.993274 -5.403244 -0.0198946,-9.315022 -4.802402 -0.8960317,-9.45399 -4.036344 -0.2963123,-9.412932 -4.340683 -0.1312846,-9.359987 -4.754262 -0.1649085,1.810,0 0
-1.694252 -6.821095 0.1042342,-2.274503 -6.512199 0.3274749,-2.80139 -5.86321 0.4442618,-3.165459 -5.209579 0.5782253,-3.426004 -4.834024 0.7295454,-2.364204 -4.228342 0.1172552,-2.570724 -3.171408 0.2261756,-2.672611 -2.570245 0.3221319,-2.750918 -2.006211 0.4096023,-2.035827 -4.029217 0.1890212,-2.148036 -2.808663 0.2956498,-2.148036 -2.808663 0.2956498,-2.253893 -1.409527 0.617013,-1.710402 -4.06942 0.3250556,-1.748487 -2.883503 0.460463,-1.803439 -2.163221 0.6185774,-1.873891 -1.534147 0.7507908,-1.37071 -4.347974 0.4996527,-1.221254 -3.466098 0.6263288,-1.125638 -2.88977 0.7634916,-1.054417 -2.322446 0.8833447,-8.858809 -6.722779 -1.863272,-8.388399 -6.748619 -1.008109,-7.945045 -6.237888 -0.4305605,-7.876507 -5.593471 0.03342772,-8.150118 -5.217395 0.4502021,-8.171893 -5.031917 -0.7101982,-8.102459 -4.372076 0.2803682,-8.092605 -4.108319 0.9237641,-8.125346 -4.004106 1.259405,-8.568127 -4.808126 -0.8099974,-8.641873 -4.10394 0.3363186,-8.638302 -5.003959 0.6359864,-8.613753 -5.605762 0.6036943,-8.968313 -4.752298 -0.7866975,-9.054305 -4.04286 0.2018579,-9.031809 -4.871715 0.327561,-9.019176 -5.447608 0.1932007,-9.358634 -4.830144 -0.7115247,-9.497517 -4.070267 -0.07965672,-9.451562 -4.409134 0.08113122,-9.399114 -4.838196 0.03910685,1.910,0 0
-1.677946 -6.847772 0.1408349,-2.26195 -6.529716 0.3534938,-2.777743 -5.888042 0.4653248,-3.135486 -5.230787 0.5980358,-3.402241 -4.847763 0.7521479,-2.340071 -4.244146 0.1146747,-2.549897 -3.182062 0.2181152,-2.652566 -2.581451 0.3192831,-2.728513 -2.017108 0.4117957,-2.014921 -4.043964 0.1894959,-2.127279 -2.827115 0.2861928,-2.127279 -2.827115 0.2861928,-2.229409 -1.429149 0.6017152,-1.692148 -4.080088 0.3275681,-1.735027 -2.899654 0.4534708,-1.793075 -2.183004 0.6069649,-1.862937 -1.552959 0.7369599,-1.35218 -4.352242 0.5068872,-1.20675 -3.471478 0.6264739,-1.114884 -2.896002 0.7578722,-1.042593 -2.331053 0.8784133,-8.935384 -6.807432 -1.483907,-8.448846 -6.808143 -0.5738066,-7.986063 -6.224918 0.04012883,-7.995544 -5.592281 0.5271986,-8.335839 -5.23789 0.9138181,-8.254525 -4.991003 -0.2967114,-8.195354 -4.379176 0.8085167,-8.215748 -4.19592 1.502593,-8.282945 -4.161264 1.855591,-8.678442 -4.779097 -0.4024446,-8.781064 -4.126814 0.8241138,-8.767239 -5.071296 1.114011,-8.726355 -5.653981 1.057186,-9.098369 -4.746084 -0.3671039,-9.208066 -4.085996 0.6860104,-9.167051 -4.972082 0.7675056,-9.132316 -5.523828 0.5912364,-9.501677 -4.856061 -0.2733144,-9.669632 -4.110649 0.3749769,-9.620451 -4.472733 0.4944568,-9.550006 -4.886469 0.3940134,2.010,0 0
-1.652262 -6.854663 0.1716414,-2.240015 -6.543785 0.4052176,-2.76752 -5.907812 0.5289826,-3.135192 -5.2399 0.6706565,-3.405541 -4.839644 0.8343359,-2.338683 -4.248499 0.166415,-2.547726 -3.189558 0.2710765,-2.649046 -2.594371 0.3656473,-2.724697 -2.036604 0.4496263,-2.009089 -4.044648 0.2311937,-2.121947 -2.832103 0.3297801,-2.121947 -2.832103 0.3297801,-2.222494 -1.448358 0.6374391,-1.683049 -4.0803 0.3634267,-1.727553 -2.899655 0.487332,-1.785938 -2.193246 0.6444802,-1.854694 -1.567667 0.774165,-1.339253 -4.353389 0.5376004,-1.19933 -3.467767 0.6573943,-1.110464 -2.894683 0.7946588,-1.041547 -2.331542 0.9156688,-8.97397 -6.871145 -1.245715,-8.473551 -6.835142 -0.3118924,-8.007527 -6.269125 0.3185292,-8.022041 -5.644525 0.8278087,-8.37537 -5.29857 1.229458,-8.268299 -5.011779 -0.03823674,-8.206291 -4.38516 1.13359,-8.222232 -4.187362 1.851685,-8.282786 -4.139488 2.208511,-8.693359 -4.7749 -0.1519321,-8.794755 -4.150074 1.149593,-8.814694 -5.152279 1.467651,-8.783183 -5.73071 1.405204,-9.113639 -4.71454 -0.1215205,-9.226258 -4.093072 0.9964191,-9.215634 -5.051012 1.073191,-9.183861 -5.606519 0.8672494,-9.523695 -4.805852 -0.02453136,-9.679267 -4.051172 0.6498399,-9.630457 -4.498716 0.7672242,-9.558497 -4.955856 0.6422901,2.110,0 0
-1.641223 -6.856567 0.088402,-2.23538 -6.559413 0.3298247,-2.762048 -5.930653 0.460433,-3.126991 -5.261487 0.6035215,-3.3888 -4.848428 0.7632846,-2.333014 -4.27436 0.09846281,-2.54124 -3.204807 0.2057599,-2.641484 -2.605852 0.2988545,-2.712804 -2.038 0.3874151,-2.002693 -4.071393 0.1590323,-2.115409 -2.845863 0.2633705,-2.115409 -2.845863 0.2633705,-2.205576 -1.457618 0.5734363,-1.675319 -4.107031 0.2889593,-1.71862 -2.919951 0.4170527,-1.776707 -2.202853 0.5780545,-1.844596 -1.570467 0.7163981,-1.330221 -4.377034 0.4590691,-1.187418 -3.480365 0.5798731,-1.10194 -2.906666 0.7194992,-1.036154 -2.348238 0.8470429,-8.977758 -6.918264 -1.224734,-8.468181 -6.875223 -0.3058668,-8.002578 -6.294805 0.3239957,-8.021526 -5.665715 0.8415918,-8.376522 -5.320472 1.26606,-8.293539 -5.026389 -0.004714608,-8.224528 -4.370838 1.17399,-8.225445 -4.172409 1.911109,-8.282402 -4.175409 2.276177,-8.72527 -4.821319 -0.1125531,-8.826041 -4.150865 1.187644,-8.824886 -5.125589 1.532356,-8.785206 -5.766859 1.497949,-9.146954 -4.792387 -0.07603812,-9.268262 -4.140998 1.047442,-9.247752 -5.056642 1.190069,-9.21519 -5.657352 1.044841,-9.550334 -4.920326 0.01738656,-9.736028 -4.134832 0.7085129,-9.697273 -4.393581 0.881671,-9.633595 -4.737741 0.8226545,2.210,0 0
-1.644474 -6.877027 0.1128589,-2.23169 -6.578023 0.3632962,-2.760417 -5.951238 0.4989435,-3.130117 -5.281675 0.6487694,-3.398594 -4.871194 0.8249427,-2.330644 -4.29214 0.1008506,-2.539397 -3.224221 0.207729,-2.637966 -2.625558 0.3056439,-2.707491 -2.062635 0.3970451,-1.999297 -4.083312 0.1528448,-2.113971 -2.867267 0.2431739,-2.113971 -2.867267 0.2431739,-2.206645 -1.476228 0.550786,-1.671963 -4.115051 0.2750536,-1.718539 -2.939074 0.3883234,-1.778041 -2.226752 0.5448349,-1.847304 -1.6028 0.6779901,-1.32788 -4.381819 0.4407376,-1.186744 -3.49576 0.5529845,-1.101674 -2.924235 0.6876222,-1.033831 -2.369761 0.8102547,-9.038805 -6.980485 -0.7815242,-8.510502 -6.916249 0.1945431,-8.048807 -6.302808 0.8550364,-8.089205 -5.727831 1.400095,-8.406466 -5.383532 1.834608,-8.247681 -5.01442 0.4950188,-8.196664 -4.417844 1.691484,-8.232568 -4.196403 2.412056,-8.306715 -4.137142 2.770885,-8.706628 -4.772291 0.3726892,-8.841416 -4.161645 1.701343,-8.859449 -5.174028 2.01369,-8.813066 -5.781833 1.933783,-9.151375 -4.72702 0.4022712,-9.291006 -4.110816 1.5422,-9.282112 -5.09547 1.61682,-9.23429 -5.666334 1.404118,-9.569206 -4.854313 0.5032396,-9.743683 -4.088403 1.213007,-9.713809 -4.5044 1.342741,-9.641056 -4.921421 1.219778,2.310,0 0
-1.624437 -6.937768 0.2336955,-2.216335 -6.646224 0.470855,-2.745468 -5.987306 0.5795529,-3.101197 -5.306722 0.7024615,-3.368755 -4.908869 0.8443072,-2.306103 -4.319658 0.2245152,-2.512764 -3.262299 0.3208396,-2.611944 -2.662932 0.4091511,-2.681462 -2.095634 0.4915529,-1.975498 -4.108955 0.2842945,-2.092871 -2.899631 0.3690903,-2.092871 -2.899631 0.3690903,-2.193678 -1.507526 0.6607293,-1.648737 -4.14783 0.4085832,-1.697209 -2.966291 0.5233665,-1.754323 -2.252758 0.679444,-1.822709 -1.631367 0.8128567,-1.305252 -4.423013 0.5784529,-1.164916 -3.535865 0.6978656,-1.075778 -2.957876 0.8405672,-1.006867 -2.399364 0.9707787,-9.073084 -7.019165 -0.7390515,-8.571567 -7.003912 0.2857429,-8.076819 -6.423764 0.9982452,-8.100644 -5.933055 1.561467,-8.419762 -5.59312 1.993277,-8.332309 -5.166893 0.7643117,-8.283264 -4.525516 2.007358,-8.298518 -4.245831 2.73328,-8.357913 -4.165296 3.111301,-8.811554 -4.9073 0.6214504,-8.941533 -4.255203 1.959633,-8.96093 -5.27461 2.209177,-8.926084 -5.908538 2.114401,-9.270954 -4.857677 0.6232351,-9.401393 -4.232001 1.774753,-9.393635 -5.221394 1.826737,-9.356127 -5.812126 1.642214,-9.68961 -4.974621 0.702646,-9.855762 -4.203348 1.414915,-9.827251 -4.581191 1.541283,-9.763949 -4.977528 1.443869,2.410,0 0
-1.620446 -6.937476 0.1638559,-2.215621 -6.636089 0.3942358,-2.742577 -5.990673 0.5157299,-3.104705 -5.308388 0.6564944,-3.375713 -4.894857 0.8207955,-2.308429 -4.328118 0.1156185,-2.51112 -3.241734 0.2082992,-2.612878 -2.637268 0.2951134,-2.683371 -2.072856 0.3813763,-1.975801 -4.128923 0.1805613,-2.085907 -2.896221 0.2604486,-2.085907 -2.896221 0.2604486,-2.17369 -1.494275 0.5517207,-1.647492 -4.166264 0.3175835,-1.688397 -2.985026 0.4251581,-1.743402 -2.265186 0.5782567,-1.808453 -1.63144 0.7106702,-1.302771 -4.43837 0.4966461,-1.161964 -3.551795 0.6010141,-1.076067 -2.989727 0.7270709,-1.007079 -2.44395 0.8466564,-9.105321 -7.071682 -0.6563526,-8.570223 -7.05882 0.3763835,-8.071882 -6.433469 1.103495,-8.163256 -5.914508 1.679482,-8.518563 -5.579652 2.117622,-8.335287 -5.208965 0.8702749,-8.294086 -4.575672 2.179256,-8.328382 -4.32402 2.937553,-8.414407 -4.273149 3.304684,-8.828722 -4.948638 0.7278001,-8.967811 -4.252378 2.118953,-8.984522 -5.290195 2.382373,-8.943892 -5.958816 2.27856,-9.293699 -4.902703 0.732716,-9.436511 -4.24027 1.937093,-9.424584 -5.261703 2.007976,-9.389318 -5.889837 1.817102,-9.712896 -5.028803 0.8135468,-9.898734 -4.236047 1.558286,-9.881168 -4.593672 1.701483,-9.825296 -4.981361 1.609091,2.510,0 0
-1.611545 -6.945758 0.1571146,-2.208072 -6.642745 0.3786653,-2.738657 -5.995212 0.4945934,-3.101815 -5.314632 0.62675,-3.370651 -4.908046 0.7782749,-2.303148 -4.342283 0.1142285,-2.503135 -3.265603 0.2010884,-2.599534 -2.665794 0.2790821,-2.667646 -2.106452 0.3588601,-1.970334 -4.139591 0.1771422,-2.08297 -2.907754 0.2567348,-2.08297 -2.907754 0.2567348,-2.168678 -1.511448 0.5482964,-1.642871 -4.173042 0.3057659,-1.687885 -2.988501 0.4124674,-1.74124 -2.270311 0.5584459,-1.803377 -1.645312 0.6883289,-1.299148 -4.438635 0.4757711,-1.155598 -3.549326 0.5836282,-1.067707 -2.980257 0.713357,-0.9981098 -2.430494 0.8343651,-9.111635 -7.133949 -0.5855685,-8.574989 -7.071275 0.4997325,-8.082129 -6.453419 1.24673,-8.193631 -6.002932 1.851925,-8.580492 -5.712001 2.305997,-8.368998 -5.13586 0.8764427,-8.327309 -4.464942 2.225285,-8.33765 -4.301154 2.994305,-8.408148 -4.356884 3.336546,-8.86857 -4.939774 0.7296466,-8.994789 -4.276914 2.206007,-9.00238 -5.350009 2.501949,-8.956536 -6.013856 2.384954,-9.339164 -4.933115 0.7511088,-9.471866 -4.304199 2.02949,-9.447147 -5.346448 2.13711,-9.40245 -5.960891 1.933278,-9.766251 -5.081172 0.8504117,-9.943726 -4.263258 1.601352,-9.930403 -4.549728 1.751169,-9.884812 -4.866859 1.644447,2.610,0 0
-1.601884 -6.940895 0.1207439,-2.202856 -6.647161 0.3248051,-2.733419 -6.008306 0.4281,-3.091457 -5.323138 0.5506002,-3.362987 -4.913661 0.6947894,-2.292463 -4.35121 0.04136393,-2.49669 -3.273386 0.1161551,-2.598705 -2.673515 0.1903172,-2.670438 -2.119505 0.2685173,-1.960682 -4.145154 0.1116637,-2.072287 -2.914288 0.1819843,-2.072287 -2.914288 0.1819843,-2.159649 -1.524204 0.4696063,-1.635139 -4.177232 0.2467233,-1.67759 -2.997488 0.3387689,-1.731187 -2.282529 0.4794451,-1.793338 -1.665371 0.6077358,-1.294305 -4.440307 0.4229106,-1.149271 -3.559997 0.5240712,-1.062714 -2.995204 0.6482183,-0.995429 -2.453215 0.7672192,-9.122917 -7.179554 -0.1600791,-8.566877 -7.118207 0.9574337,-8.061781 -6.478296 1.7204,-8.222044 -5.989568 2.32136,-8.650594 -5.704957 2.765029,-8.375206 -5.168617 1.458847,-8.34749 -4.553758 2.814714,-8.371384 -4.312459 3.591693,-8.44506 -4.252563 3.965313,-8.891653 -4.925714 1.292447,-9.038552 -4.312 2.763118,-9.026259 -5.392147 3.052361,-8.964044 -6.071024 2.956567,-9.378465 -4.895498 1.282681,-9.526288 -4.302989 2.569845,-9.486195 -5.355643 2.636685,-9.425789 -5.981815 2.419744,-9.825871 -5.029731 1.356852,-10.03811 -4.192543 2.139597,-10.01662 -4.50041 2.290105,-9.951843 -4.861844 2.181602,2.710,0 1
-1.609194 -6.960558 0.1745082,-2.200794 -6.663848 0.405487,-2.727948 -6.018797 0.5258843,-3.088377 -5.336697 0.6650888,-3.353351 -4.914232 0.8256003,-2.290453 -4.35175 0.1144609,-2.494888 -3.279737 0.1979854,-2.593776 -2.678995 0.2804227,-2.661129 -2.122514 0.3639221,-1.957258 -4.147958 0.174834,-2.069576 -2.920787 0.2448744,-2.069576 -2.920787 0.2448744,-2.153589 -1.529806 0.5400417,-1.630775 -4.18405 0.3019139,-1.67536 -3.010384 0.3964836,-1.7295 -2.292871 0.5476465,-1.791106 -1.669586 0.6818505,-1.28684 -4.454072 0.472997,-1.143723 -3.576727 0.5719297,-1.056932 -3.014987 0.6997126,-0.9881678 -2.475061 0.8206633,-9.166003 -7.16402 -0.208947,-8.587376 -7.135046 0.9046854,-8.062671 -6.507368 1.667829,-8.195376 -5.96471 2.275221,-8.649969 -5.697557 2.733699,-8.388208 -5.245027 1.459708,-8.353882 -4.557522 2.846319,-8.384669 -4.30887 3.643216,-8.47311 -4.249326 4.017993,-8.903197 -4.967756 1.299657,-9.056619 -4.326826 2.783604,-9.039977 -5.41986 3.090168,-8.971672 -6.07088 3.009835,-9.394861 -4.888614 1.286573,-9.547955 -4.252143 2.58592,-9.502892 -5.309862 2.623691,-9.439253 -5.91773 2.378621,-9.85695 -4.96141 1.357721,-10.06768 -4.101871 2.142247,-10.00018 -4.547963 2.255105,-9.898997 -5.025655 2.1024,2.810,0 1
-1.586742 -6.976883 0.1892152,-2.182333 -6.679613 0.3985833,-2.717724 -6.028319 0.5087035,-3.080289 -5.350568 0.6409057,-3.339365 -4.943663 0.7990263,-2.284664 -4.365258 0.08985206,-2.478752 -3.292421 0.165647,-2.572959 -2.695446 0.2450549,-2.636572 -2.147383 0.3254666,-1.95127 -4.162344 0.1556123,-2.059092 -2.943571 0.2109745,-2.059092 -2.943571 0.2109745,-2.139083 -1.552763 0.4936287,-1.62367 -4.196117 0.2882006,-1.66682 -3.031982 0.3688504,-1.717533 -2.319566 0.5062715,-1.778591 -1.703307 0.6316849,-1.279838 -4.46215 0.4654305,-1.134809 -3.591238 0.554618,-1.044855 -3.035245 0.672408,-0.9763041 -2.496842 0.7878639,-9.198055 -7.204475 -0.01652857,-8.629176 -7.146118 1.092035,-8.08528 -6.40571 1.846196,-8.260193 -5.76021 2.421992,-8.778037 -5.551347 2.821969,-8.537379 -5.165576 1.644033,-8.521372 -4.38318 3.000713,-8.509505 -4.166507 3.767412,-8.56472 -4.179079 4.129205,-9.04962 -4.928533 1.487979,-9.202161 -4.218606 2.949579,-9.175153 -5.338439 3.213108,-9.12047 -6.052547 3.122159,-9.531498 -4.862466 1.479368,-9.689408 -4.187393 2.754199,-9.630198 -5.251012 2.780588,-9.568857 -5.92023 2.54661,-9.984464 -4.928082 1.560919,-10.19403 -4.062889 2.334404,-10.12148 -4.555484 2.44555,-10.01444 -5.110381 2.300153,2.910,0 1
-1.566846 -6.969078 0.1136116,-2.165322 -6.673268 0.3294183,-2.692753 -6.034914 0.4471709,-3.052286 -5.362999 0.5871,-3.329437 -4.952226 0.7561381,-2.267385 -4.374657 0.04696864,-2.474727 -3.290003 0.1290718,-2.575578 -2.693586 0.212603,-2.64167 -2.146408 0.2969342,-1.93383 -4.176422 0.1146199,-2.052073 -2.944462 0.182205,-2.052073 -2.944462 0.182205,-2.138124 -1.553751 0.4739098,-1.605462 -4.211524 0.2448861,-1.654931 -3.039187 0.3367514,-1.706727 -2.326643 0.4801182,-1.767294 -1.710118 0.6121,-1.260348 -4.472957 0.4196054,-1.123766 -3.595121 0.5174664,-1.039572 -3.037103 0.6407563,-0.9751825 -2.49994 0.7598922,-9.231224 -7.200429 0.1310049,-8.636023 -7.144827 1.351143,-8.128339 -6.483175 2.162594,-8.264385 -5.970605 2.794343,-8.711548 -5.681512 3.262513,-8.455511 -5.234794 1.979321,-8.414793 -4.426368 3.338202,-8.478333 -4.154054 4.106408,-8.595874 -4.18098 4.493011,-9.011615 -4.988115 1.791019,-9.176331 -4.270362 3.305079,-9.136368 -5.354648 3.658071,-9.045932 -6.067342 3.636583,-9.521805 -4.926754 1.741611,-9.694021 -4.215951 3.053209,-9.614727 -5.273403 3.131836,-9.523291 -5.932062 2.932202,-9.984579 -5.01476 1.785635,-10.22745 -4.108579 2.614232,-10.14381 -4.560027 2.767097,-10.01141 -5.064727 2.654218,3.010,0 1
-1.563481 -6.985927 0.1654468,-2.149007 -6.69053 0.4007168,-2.677534 -6.049709 0.5350057,-3.036974 -5.373303 0.6882065,-3.315748 -4.959266 0.8729346,-2.249679 -4.376918 0.1251746,-2.453118 -3.30384 0.2197985,-2.550906 -2.710755 0.3064386,-2.615421 -2.160166 0.3920165,-1.916136 -4.176624 0.1903418,-2.027664 -2.953496 0.2709274,-2.027664 -2.953496 0.2709274,-2.104981 -1.572279 0.5666859,-1.589616 -4.220514 0.3206247,-1.631525 -3.055059 0.4243992,-1.683906 -2.347918 0.5730778,-1.740481 -1.732905 0.7080123,-1.246642 -4.496904 0.494801,-1.10309 -3.630548 0.6033182,-1.018556 -3.081376 0.7316558,-0.953825 -2.551589 0.8533064,-9.133822 -7.224859 0.03196945,-8.557343 -7.111139 1.115919,-8.05701 -6.410081 1.863681,-8.207805 -5.80436 2.46916,-8.723236 -5.563928 2.896751,-8.485004 -5.124795 1.638066,-8.441722 -4.22098 2.963248,-8.482039 -4.060757 3.682103,-8.558537 -4.190852 4.00209,-9.020496 -4.903537 1.49491,-9.190697 -4.166053 2.955596,-9.163156 -5.332061 3.247205,-9.05926 -6.070909 3.14137,-9.51281 -4.862941 1.49262,-9.705478 -4.10814 2.748411,-9.642638 -5.200133 2.797478,-9.540186 -5.880201 2.563538,-9.968729 -4.974052 1.570188,-10.23555 -4.04808 2.357284,-10.15522 -4.53048 2.501822,-10.01283 -5.073312 2.377634,3.110,0 1
-1.542837 -6.995797 0.1790081,-2.138806 -6.70405 0.4027948,-2.673799 -6.063143 0.5270588,-3.031376 -5.385038 0.6705319,-3.303858 -4.971217 0.8451945,-2.244677 -4.384481 0.1151729,-2.439375 -3.309355 0.2076397,-2.531499 -2.714361 0.2965234,-2.591233 -2.163678 0.3817232,-1.90797 -4.184057 0.1830361,-2.013395 -2.964572 0.2564968,-2.013395 -2.964572 0.2564968,-2.082459 -1.574591 0.5593868,-1.578059 -4.231012 0.3151829,-1.618464 -3.068135 0.4093969,-1.665202 -2.364605 0.5606301,-1.718878 -1.74804 0.7002474,-1.232514 -4.509706 0.4926562,-1.088058 -3.648992 0.5958568,-1.000172 -3.098914 0.7261755,-0.9316969 -2.564019 0.8502392,-9.13646 -7.250679 0.5646005,-8.554421 -7.133544 1.665164,-8.036204 -6.407818 2.394774,-8.13197 -5.833269 2.986209,-8.623466 -5.62128 3.429927,-8.416634 -5.02238 2.178639,-8.383925 -4.234954 3.483288,-8.426912 -3.958669 4.231619,-8.477818 -3.947746 4.616273,-8.954091 -4.755077 2.027179,-9.143137 -4.117956 3.436428,-9.154781 -5.278917 3.75056,-9.065571 -6.013196 3.665787,-9.456312 -4.713405 2.015409,-9.660432 -4.017393 3.21444,-9.623348 -5.107438 3.285466,-9.511406 -5.773611 3.093312,-9.924495 -4.838722 2.097577,-10.1846 -3.980131 2.870485,-10.11705 -4.50702 3.024463,-9.957086 -5.041509 2.925982,3.210,0 1
-1.519387 -7.025667 0.1492858,-2.104792 -6.717506 0.3819708,-2.637687 -6.071451 0.5166591,-3.002615 -5.388998 0.6672591,-3.283364 -4.974392 0.8439173,-2.215628 -4.421884 0.1338806,-2.412218 -3.328297 0.2405964,-2.502787 -2.721479 0.3391732,-2.562442 -2.162028 0.4332946,-1.880272 -4.222394 0.1995241,-1.985903 -2.985234 0.2964728,-1.985903 -2.985234 0.2964728,-2.054788 -1.578784 0.6101908,-1.550105 -4.262031 0.3269351,-1.589303 -3.085004 0.44278,-1.636879 -2.371913 0.5968364,-1.693744 -1.753385 0.733366,-1.203875 -4.531478 0.4974305,-1.05803 -3.663853 0.6119828,-0.971643 -3.11359 0.7411447,-0.9078856 -2.582067 0.8659522,-8.872514 -7.1534 0.4560325,-8.26928 -6.81719 1.243495,-7.857941 -5.987844 1.845393,-7.849831 -5.077161 2.313744,-8.12396 -4.401203 2.710943,-8.162751 -5.045142 2.099315,-8.125753 -4.258987 3.205267,-8.068635 -3.840339 3.879202,-8.015199 -3.614057 4.290616,-8.643017 -4.75774 2.014703,-8.748545 -3.896327 3.090238,-8.729424 -4.789772 3.37149,-8.682811 -5.472343 3.454051,-9.122906 -4.695485 2.03233,-9.269858 -3.866874 2.9259,-9.194427 -4.733181 3.003977,-9.110725 -5.383969 2.962554,-9.60182 -4.772676 2.108354,-9.844933 -3.89088 2.741549,-9.731585 -4.310104 2.883704,-9.558555 -4.862491 2.910889,3.310,0 1
-1.520079 -7.001565 0.153657,-2.113642 -6.704525 0.3918762,-2.645283 -6.058173 0.526198,-3.016086 -5.366924 0.6734227,-3.310346 -4.967426 0.8433418,-2.210085 -4.391542 0.1261991,-2.399389 -3.292091 0.2221671,-2.491188 -2.683844 0.3176818,-2.550957 -2.127809 0.4062406,-1.866075 -4.194803 0.1778181,-1.9617 -2.95378 0.2628028,-1.9617 -2.95378 0.2628028,-2.020504 -1.544415 0.5625221,-1.532986 -4.235135 0.2913604,-1.563531 -3.06568 0.3970191,-1.60842 -2.353959 0.5426531,-1.662326 -1.737982 0.6687505,-1.18757 -4.500897 0.4494331,-1.041203 -3.632355 0.5520109,-0.9528131 -3.085824 0.6751806,-0.883553 -2.557016 0.7925115,-8.69461 -7.164363 0.2259939,-8.110209 -6.797143 0.828318,-7.729931 -6.173292 1.389995,-7.620898 -5.437511 1.907272,-7.858441 -4.798093 2.367779,-7.974321 -4.70324 0.945965,-7.773647 -3.794181 1.678156,-7.641798 -3.263587 2.26409,-7.53923 -2.869918 2.656762,-8.372615 -4.497825 1.021838,-8.326984 -3.477184 2.015171,-8.248073 -4.379961 2.439279,-8.237357 -5.17172 2.572033,-8.782087 -4.510566 1.216852,-8.80757 -3.494754 2.054581,-8.709106 -4.31442 2.352232,-8.686543 -5.085668 2.392061,-9.198415 -4.678943 1.448011,-9.359872 -3.710289 2.010551,-9.232272 -3.95173 2.1682,-9.110641 -4.508386 2.205318,3.410,0 1
-1.576888 -7.035622 0.2171495,-2.170214 -6.732097 0.4448772,-2.692979 -6.066597 0.5715222,-3.048032 -5.375243 0.7106123,-3.318371 -4.966588 0.8617701,-2.2476 -4.401687 0.189345,-2.429894 -3.300025 0.2921937,-2.53027 -2.67497 0.3921137,-2.599319 -2.097502 0.4887274,-1.905577 -4.208648 0.2503999,-1.993529 -2.959259 0.3407924,-1.993529 -2.959259 0.3407924,-2.068636 -1.531879 0.6466439,-1.574398 -4.257947 0.3815838,-1.595617 -3.065362 0.4995422,-1.643476 -2.340989 0.6548275,-1.701137 -1.694931 0.7908388,-1.229907 -4.543279 0.5496665,-1.08184 -3.656592 0.6601398,-0.9899416 -3.1058 0.7878428,-0.9185596 -2.567098 0.9078054,-8.499046 -6.787433 -0.3510014,-7.992113 -6.673407 0.4241971,-7.503177 -5.981309 0.9046206,-7.376807 -5.175848 1.309312,-7.649065 -4.605463 1.65107,-7.764945 -4.434482 0.2199625,-7.596937 -3.543404 0.8545543,-7.514991 -3.034868 1.361249,-7.425306 -2.575598 1.690616,-8.153634 -4.231578 0.1970471,-8.133067 -3.276461 1.177554,-8.091393 -4.198919 1.671394,-8.089466 -5.015777 1.76308,-8.564942 -4.249297 0.3137562,-8.59156 -3.315066 1.161912,-8.519154 -4.165096 1.568286,-8.474113 -4.951104 1.610917,-8.992142 -4.440935 0.4731268,-9.126123 -3.580802 1.080462,-9.047552 -3.697219 1.382237,-8.95456 -4.102947 1.458251,3.510,0 1
-1.585417 -7.021943 0.2451712,-2.178041 -6.716354 0.4693782,-2.702823 -6.059299 0.5842601,-3.05746 -5.372682 0.7163657,-3.324249 -4.964075 0.863333,-2.254899 -4.383587 0.1855444,-2.447394 -3.293595 0.2794998,-2.545051 -2.676933 0.3688471,-2.611357 -2.111652 0.4525616,-1.914443 -4.186734 0.2431724,-2.011531 -2.945633 0.3187792,-2.011531 -2.945633 0.3187792,-2.085258 -1.540244 0.6023031,-1.585143 -4.236512 0.3708429,-1.612789 -3.048205 0.4755017,-1.658013 -2.328048 0.6258373,-1.712797 -1.688015 0.7534969,-1.24172 -4.52443 0.5389547,-1.096375 -3.650358 0.6373283,-1.004021 -3.099339 0.763698,-0.928894 -2.561516 0.8793486,-8.489527 -6.658748 -0.8816764,-7.967991 -6.606475 -0.1162665,-7.490118 -5.948402 0.330109,-7.385743 -5.125288 0.69251,-7.661376 -4.531368 0.9948167,-7.746016 -4.439641 -0.379108,-7.581402 -3.575141 0.1763623,-7.485538 -3.025591 0.638955,-7.394238 -2.522243 0.9659116,-8.129956 -4.24546 -0.410144,-8.116835 -3.292018 0.5307734,-8.065193 -4.164333 1.022452,-8.051843 -4.936868 1.134827,-8.533278 -4.235325 -0.308677,-8.578837 -3.300938 0.5537249,-8.495901 -4.136388 1.002363,-8.432644 -4.917585 1.064871,-8.953733 -4.364769 -0.1625809,-9.077631 -3.539688 0.4361471,-8.975719 -3.725984 0.7610507,-8.865658 -4.201018 0.8703696,3.610,0 1
-1.576157 -7.039646 0.2193915,-2.174832 -6.752777 0.4669338,-2.707035 -6.105351 0.5909572,-3.063219 -5.407016 0.7252403,-3.327583 -4.981538 0.8756279,-2.26087 -4.418611 0.1910439,-2.451687 -3.327815 0.2870389,-2.547997 -2.715696 0.3829788,-2.612275 -2.147992 0.4724191,-1.920223 -4.213705 0.2412009,-2.019604 -2.970402 0.3287539,-2.019604 -2.970402 0.3287539,-2.092294 -1.556477 0.6405954,-1.588853 -4.258293 0.3583966,-1.6205 -3.07264 0.4720998,-1.666966 -2.358213 0.6308758,-1.721732 -1.724982 0.7682541,-1.242476 -4.536904 0.5185016,-1.097397 -3.660705 0.6270001,-1.006147 -3.109487 0.7563154,-0.9333787 -2.572935 0.8771605,-8.417504 -6.556865 -1.373216,-7.908781 -6.498804 -0.6061373,-7.475524 -5.909305 -0.1696851,-7.396478 -5.157115 0.1850049,-7.634287 -4.549737 0.507159,-7.710824 -4.446406 -0.8973397,-7.543214 -3.612101 -0.3332243,-7.443714 -3.068731 0.1522367,-7.356843 -2.564523 0.4931796,-8.085745 -4.275309 -0.947361,-8.053771 -3.369364 0.01678872,-8.007377 -4.230781 0.5023515,-8.000567 -4.982348 0.5873456,-8.481937 -4.247428 -0.8611336,-8.514563 -3.343766 0.004211307,-8.445284 -4.179201 0.4459248,-8.396466 -4.949627 0.4606638,-8.902174 -4.332359 -0.7307835,-9.015392 -3.530341 -0.1131711,-8.900641 -3.864087 0.1889942,-8.794948 -4.471929 0.259567,3.710,0 1
-1.574946 -7.043488 0.1801302,-2.172217 -6.741292 0.4294457,-2.7013 -6.106508 0.5611962,-3.057659 -5.414722 0.7034488,-3.320772 -4.985542 0.8623263,-2.252691 -4.432693 0.1883217,-2.451041 -3.334717 0.2931102,-2.548859 -2.719822 0.3937529,-2.611912 -2.14959 0.4907635,-1.91251 -4.228622 0.2401017,-2.013471 -2.980534 0.3370914,-2.013471 -2.980534 0.3370914,-2.086248 -1.564288 0.6683021,-1.583203 -4.272081 0.3556,-1.617341 -3.088761 0.469679,-1.66666 -2.374366 0.6303341,-1.719974 -1.744677 0.7760305,-1.235916 -4.547916 0.5123777,-1.092149 -3.662941 0.6248122,-1.00558 -3.106019 0.7593978,-0.9333119 -2.564867 0.8864158,-8.414209 -6.537477 -1.547765,-7.895877 -6.503408 -0.7544681,-7.46656 -5.940047 -0.3044652,-7.386313 -5.196043 0.05493438,-7.620662 -4.570471 0.3899691,-7.695179 -4.490081 -1.009638,-7.529597 -3.68269 -0.4258968,-7.434618 -3.16147 0.06784558,-7.352009 -2.676626 0.4164129,-8.068202 -4.319802 -1.070619,-8.027797 -3.447925 -0.105261,-7.980234 -4.294595 0.3838004,-7.977404 -5.026303 0.4807035,-8.463058 -4.283926 -0.9942142,-8.484562 -3.405977 -0.1296687,-8.417324 -4.236392 0.3146625,-8.37834 -4.997875 0.3362268,-8.880588 -4.352971 -0.8723422,-8.984616 -3.580637 -0.2479398,-8.870788 -3.926408 0.05398905,-8.769124 -4.530408 0.1269451,3.810,0 1
-1.582078 -7.043451 0.2092172,-2.180573 -6.756938 0.4731444,-2.715458 -6.107735 0.6039232,-3.073357 -5.413269 0.7384604,-3.33938 -4.98917 0.8821684,-2.269356 -4.427572 0.2143937,-2.454616 -3.328399 0.3143842,-2.55099 -2.707496 0.4120286,-2.617272 -2.136922 0.5055969,-1.925667 -4.220624 0.2509365,-2.023555 -2.972439 0.3397446,-2.023555 -2.972439 0.3397446,-2.105137 -1.555828 0.6536181,-1.59415 -4.262296 0.3566597,-1.626476 -3.072668 0.471794,-1.676395 -2.354837 0.6339321,-1.735938 -1.717112 0.7758271,-1.248556 -4.539548 0.5040972,-1.10603 -3.662939 0.6109755,-1.016763 -3.11121 0.7445676,-0.9466 -2.573714 0.8723059,-8.418652 -6.546497 -1.741096,-7.896856 -6.516144 -0.9857042,-7.466626 -5.950548 -0.5545139,-7.405723 -5.231708 -0.2057966,-7.662347 -4.670422 0.11009,-7.711953 -4.536024 -1.197207,-7.580391 -3.753255 -0.6247481,-7.481482 -3.292433 -0.1689658,-7.402544 -2.900556 0.1403496,-8.083277 -4.390853 -1.23524,-8.074257 -3.527466 -0.2711283,-8.024942 -4.346504 0.1800146,-8.014599 -5.071725 0.2682772,-8.471923 -4.367168 -1.14402,-8.511746 -3.490011 -0.2677622,-8.442754 -4.262393 0.1515248,-8.401712 -5.005622 0.1777519,-8.880363 -4.443844 -1.010191,-9.002988 -3.651133 -0.4044487,-8.902174 -3.890663 -0.0871644,-8.808435 -4.427543 0.01309597,3.910,0 1
-1.588436 -7.046409 0.1990176,-2.180393 -6.740479 0.4502924,-2.710437 -6.097076 0.5822684,-3.069332 -5.404914 0.7247157,-3.339001 -4.980701 0.8852335,-2.266025 -4.42985 0.1925076,-2.459172 -3.33006 0.2999069,-2.556157 -2.714736 0.4004959,-2.622956 -2.148242 0.4960353,-1.924289 -4.225551 0.2405047,-2.023711 -2.979722 0.3324596,-2.023711 -2.979722 0.3324596,-2.100186 -1.565878 0.6436036,-1.594419 -4.268003 0.3551323,-1.628487 -3.08511 0.469445,-1.675261 -2.372176 0.62693,-1.730238 -1.743978 0.7677105,-1.247926 -4.543592 0.5143528,-1.102467 -3.670578 0.6245134,-1.012478 -3.119923 0.7600903,-0.9392118 -2.580655 0.8875924,-8.417945 -6.608633 -1.612756,-7.904367 -6.54956 -0.8387896,-7.477304 -6.004252 -0.3722143,-7.398625 -5.303062 0.01695192,-7.643457 -4.739997 0.3749497,-7.713838 -4.586036 -0.9665846,-7.583827 -3.81739 -0.3703911,-7.494266 -3.364521 0.08438385,-7.422298 -3.006916 0.3905743,-8.09198 -4.439806 -1.00415,-8.084928 -3.584131 -0.04503441,-8.035047 -4.361941 0.3987988,-8.027609 -5.073347 0.5085219,-8.486451 -4.429079 -0.9180596,-8.52827 -3.535964 -0.05014682,-8.45706 -4.255258 0.3701711,-8.416868 -4.978906 0.4231147,-8.890956 -4.53358 -0.7863742,-9.032667 -3.718864 -0.1778044,-8.948102 -3.802993 0.1614345,-8.863172 -4.204298 0.2967128,4.010,0 1
-1.559375 -7.070221 0.2361917,-2.160482 -6.753257 0.4611413,-2.687738 -6.107954 0.5728022,-3.04335 -5.410461 0.6990864,-3.314835 -4.992784 0.8449683,-2.244382 -4.438388 0.1932178,-2.44005 -3.342977 0.2842123,-2.534262 -2.731671 0.3740463,-2.595802 -2.171819 0.4630573,-1.906634 -4.239812 0.2548825,-2.007844 -3.002412 0.3396603,-2.007844 -3.002412 0.3396603,-2.0788 -1.599875 0.635741,-1.576167 -4.284555 0.3796122,-1.611423 -3.104324 0.4868287,-1.65907 -2.396618 0.6395081,-1.714714 -1.77976 0.7697705,-1.228172 -4.560578 0.5475472,-1.082852 -3.683888 0.6566162,-0.9945602 -3.129537 0.7909185,-0.9259367 -2.592458 0.916279,-8.447738 -6.618245 -1.501731,-7.932194 -6.574897 -0.6720465,-7.505109 -6.03447 -0.1782103,-7.434673 -5.33479 0.2245249,-7.681619 -4.782306 0.5944906,-7.727668 -4.610271 -0.7249361,-7.616207 -3.880912 -0.02815962,-7.5387 -3.447606 0.5087055,-7.47895 -3.161694 0.8586046,-8.116544 -4.45018 -0.78357,-8.135125 -3.624394 0.2300524,-8.101563 -4.40652 0.6895972,-8.093718 -5.132212 0.813876,-8.515489 -4.440959 -0.7183452,-8.579025 -3.588878 0.2016331,-8.51238 -4.323049 0.6294447,-8.463374 -5.057313 0.6923341,-8.917628 -4.553113 -0.6081482,-9.077559 -3.770582 0.04244196,-9.021039 -3.831182 0.4099382,-8.94619 -4.189273 0.5649799,4.110,0 1
-1.539196 -7.057405 0.1966684,-2.134223 -6.760581 0.4481314,-2.66407 -6.127264 0.5851222,-3.029581 -5.437034 0.7321455,-3.31652 -5.025457 0.9028645,-2.232144 -4.440954 0.1882617,-2.421733 -3.345678 0.2909565,-2.513597 -2.740976 0.3928291,-2.57233 -2.184782 0.4895241,-1.891829 -4.23929 0.238269,-1.994802 -2.997965 0.3294917,-1.994802 -2.997965 0.3294917,-2.06399 -1.594981 0.6404721,-1.56077 -4.282938 0.3525564,-1.597571 -3.105936 0.464041,-1.646499 -2.399329 0.6229548,-1.701159 -1.773527 0.7605395,-1.212981 -4.557577 0.5096631,-1.072041 -3.686784 0.6183802,-0.9859676 -3.140043 0.7492621,-0.915657 -2.603876 0.8714855,-8.477581 -6.649399 -1.361842,-7.965453 -6.621324 -0.5120841,-7.524909 -6.045984 -0.01302338,-7.450331 -5.32183 0.3941119,-7.712047 -4.77597 0.7732677,-7.742971 -4.618183 -0.556415,-7.637139 -3.906301 0.1799178,-7.56916 -3.475438 0.7301829,-7.513944 -3.157428 1.075926,-8.14087 -4.447608 -0.6195904,-8.161149 -3.620809 0.4231061,-8.128682 -4.451106 0.86464,-8.121071 -5.182518 0.9581094,-8.550459 -4.434747 -0.5555802,-8.608455 -3.590877 0.3979355,-8.540891 -4.374845 0.7956586,-8.496779 -5.11193 0.8265345,-8.962765 -4.550729 -0.4423274,-9.111805 -3.752637 0.2248048,-9.044087 -3.882033 0.5618542,-8.969769 -4.287939 0.6797385,4.210,0 1
-1.534678 -7.06989 0.2183252,-2.122544 -6.782564 0.4784908,-2.660416 -6.142004 0.6228278,-3.027709 -5.450841 0.7757431,-3.309865 -5.026794 0.95102,-2.235023 -4.457223 0.2321784,-2.423606 -3.369086 0.3445901,-2.514514 -2.759326 0.4498951,-2.57089 -2.192817 0.5476361,-1.893724 -4.246753 0.2817708,-1.990644 -3.006999 0.3795664,-1.990644 -3.006999 0.3795664,-2.056245 -1.601487 0.6955954,-1.560283 -4.28551 0.3968809,-1.592109 -3.107675 0.511499,-1.640038 -2.397115 0.6715704,-1.692985 -1.774349 0.8148372,-1.209922 -4.55954 0.5548405,-1.065479 -3.684939 0.6674799,-0.9777303 -3.132955 0.8022931,-0.9066973 -2.596155 0.9307121,-8.524265 -6.72876 -1.176188,-8.020835 -6.738469 -0.3197374,-7.554392 -6.157865 0.2144797,-7.464651 -5.412797 0.6468679,-7.724257 -4.877504 1.045593,-7.748114 -4.7141 -0.2620682,-7.645631 -3.981571 0.5135283,-7.602496 -3.560745 1.090839,-7.566216 -3.277462 1.475927,-8.166854 -4.51337 -0.3228927,-8.212602 -3.655202 0.694062,-8.187363 -4.485178 1.083056,-8.168827 -5.195353 1.155251,-8.594307 -4.512181 -0.2522756,-8.666794 -3.632617 0.6702347,-8.610282 -4.397996 1.002691,-8.575102 -5.08691 1.020094,-9.008666 -4.667715 -0.1320354,-9.180051 -3.86141 0.5595467,-9.147798 -3.96236 0.877149,-9.096328 -4.292194 0.9944471,4.310,0 1
-1.534649 -7.117491 0.2653879,-2.129924 -6.823675 0.4906822,-2.66396 -6.182249 0.6091829,-3.030731 -5.489738 0.7419218,-3.314999 -5.081487 0.8948348,-2.226072 -4.485822 0.2175209,-2.411927 -3.394757 0.3194474,-2.506763 -2.782611 0.4241751,-2.566252 -2.216466 0.5233809,-1.891554 -4.279878 0.2840894,-1.985104 -3.038482 0.3717326,-1.985104 -3.038482 0.3717326,-2.060335 -1.621223 0.6781355,-1.562788 -4.320427 0.4159088,-1.592488 -3.140918 0.5280898,-1.641021 -2.427877 0.6788821,-1.693523 -1.809519 0.8102357,-1.213888 -4.593764 0.5893748,-1.064724 -3.712861 0.7047997,-0.9772935 -3.15887 0.8328947,-0.9068365 -2.625455 0.9539469,-8.888027 -6.713859 -1.030757,-8.313018 -6.791277 -0.01921773,-7.818707 -6.242031 0.6394992,-7.759554 -5.761955 1.181907,-7.912836 -5.412214 1.682776,-7.958519 -4.860219 0.4084778,-7.876545 -4.147554 1.50212,-7.803457 -3.922616 2.25631,-7.804183 -3.995119 2.674941,-8.44687 -4.726155 0.3179715,-8.494641 -4.034967 1.592671,-8.507176 -4.831815 2.083111,-8.524158 -5.45658 2.20795,-8.922567 -4.794458 0.3483983,-8.99832 -4.169452 1.493406,-8.971241 -4.920204 1.895415,-8.956641 -5.423193 2.000401,-9.355696 -4.991592 0.4499851,-9.468656 -4.31306 1.252479,-9.515317 -4.353641 1.659258,-9.534213 -4.382485 1.863402,4.410,0 1
-1.533362 -7.105096 0.200272,-2.130081 -6.798131 0.4561982,-2.658345 -6.175724 0.6070424,-3.030447 -5.490969 0.7666605,-3.322809 -5.078786 0.9482107,-2.22597 -4.485682 0.1951948,-2.411143 -3.379793 0.3024835,-2.503651 -2.768698 0.404043,-2.562355 -2.207061 0.5036654,-1.883744 -4.285728 0.2456579,-1.986362 -3.037279 0.3397128,-1.986362 -3.037279 0.3397128,-2.050668 -1.631324 0.642208,-1.550517 -4.329712 0.3614712,-1.588559 -3.145298 0.4742798,-1.633119 -2.429682 0.6307026,-1.684811 -1.805786 0.7668481,-1.2033 -4.604846 0.5230224,-1.060718 -3.722723 0.6341617,-0.973536 -3.170049 0.7664938,-0.9048491 -2.63157 0.8947275,-8.95919 -6.779296 -0.7364516,-8.403242 -6.929515 0.2924795,-7.950148 -6.4442 1.076851,-7.883195 -6.007588 1.702814,-7.932981 -5.622015 2.285372,-8.023209 -5.254158 1.11892,-7.955619 -4.522542 2.23171,-7.933973 -4.255751 2.970769,-7.965461 -4.27301 3.422294,-8.546504 -5.022214 1.031199,-8.562633 -4.211242 2.335212,-8.599678 -4.849832 2.899774,-8.630481 -5.377643 3.193931,-9.028526 -4.997419 1.035097,-9.100037 -4.26515 2.159118,-9.133875 -4.951161 2.567296,-9.16269 -5.45745 2.76827,-9.468349 -5.145418 1.11088,-9.607759 -4.375906 1.936229,-9.661182 -4.598216 2.341403,-9.662363 -4.860807 2.60995,4.510,0 1
-1.517706 -7.090658 0.1629562,-2.116966 -6.794216 0.4137475,-2.650275 -6.164989 0.5528997,-3.018918 -5.47944 0.7018995,-3.310383 -5.062038 0.8734319,-2.217636 -4.482189 0.1611263,-2.404906 -3.376209 0.2598519,-2.493255 -2.765677 0.3538815,-2.545559 -2.208 0.4442501,-1.872215 -4.28261 0.2125452,-1.972976 -3.029926 0.3013502,-1.972976 -3.029926 0.3013502,-2.034338 -1.631914 0.599141,-1.536943 -4.324506 0.3293741,-1.573135 -3.138971 0.439714,-1.617786 -2.421575 0.597193,-1.668055 -1.807424 0.7319776,-1.18672 -4.593728 0.4902269,-1.047928 -3.706349 0.6014994,-0.9651232 -3.154568 0.7352942,-0.9013128 -2.62627 0.8633014,-8.865966 -7.178249 -0.1294469,-8.331528 -7.180168 0.9131281,-7.848525 -6.565679 1.708318,-7.930364 -6.048584 2.331061,-8.213307 -5.701669 2.885233,-8.131774 -5.194238 1.609843,-8.12019 -4.411787 2.851521,-8.119013 -4.258166 3.64173,-8.194564 -4.442293 4.072166,-8.673715 -5.031971 1.496969,-8.776707 -4.22964 2.831056,-8.755985 -5.100762 3.182846,-8.717329 -5.785781 3.241109,-9.16073 -5.106214 1.522199,-9.292994 -4.387403 2.68131,-9.235427 -5.165416 2.940627,-9.192755 -5.720397 2.978419,-9.580564 -5.359321 1.627006,-9.803626 -4.505546 2.456531,-9.843164 -4.59222 2.802833,-9.855618 -4.77087 2.991252,4.610,0 1
-1.526046 -7.122032 0.2191226,-2.122935 -6.833647 0.4553979,-2.655406 -6.192754 0.5864903,-3.022599 -5.506452 0.7308428,-3.302503 -5.089015 0.897175,-2.212237 -4.500115 0.1756789,-2.401824 -3.408545 0.2748552,-2.501803 -2.798627 0.3714877,-2.567497 -2.237452 0.4647777,-1.874631 -4.296674 0.2377158,-1.968551 -3.059551 0.3229429,-1.968551 -3.059551 0.3229429,-2.041996 -1.653979 0.6352514,-1.545959 -4.342351 0.3650193,-1.579678 -3.168581 0.4766233,-1.627761 -2.458963 0.6339608,-1.680071 -1.838386 0.7734247,-1.20364 -4.622738 0.5358995,-1.053249 -3.75124 0.651652,-0.9636197 -3.204615 0.7823604,-0.8932018 -2.672832 0.9083616,-9.029557 -7.451985 -0.063412,-8.485833 -7.387372 1.105995,-7.935428 -6.625481 1.841133,-8.129442 -6.128759 2.39973,-8.595549 -5.874465 2.748973,-8.441124 -5.207045 1.485737,-8.395714 -4.437854 2.825563,-8.384013 -4.584053 3.4976,-8.441908 -4.907765 3.750903,-8.972517 -5.133444 1.355082,-9.071602 -4.539873 2.853256,-9.084724 -5.629972 3.170474,-9.076816 -6.273233 3.096566,-9.459701 -5.221315 1.386526,-9.598086 -4.717046 2.746224,-9.525537 -5.729008 2.928343,-9.49073 -6.293735 2.819246,-9.874446 -5.461121 1.506336,-10.10563 -4.753784 2.325161,-10.18151 -4.801233 2.605483,-10.23021 -4.830472 2.669041,4.710,1 2
-1.526046 -7.122032 0.2191226,-2.122935 -6.833647 0.4553979,-2.655406 -6.192754 0.5864903,-3.022599 -5.506452 0.7308428,-3.302503 -5.089015 0.897175,-2.212237 -4.500115 0.1756789,-2.401824 -3.408545 0.2748552,-2.501803 -2.798627 0.3714877,-2.567497 -2.237452 0.4647777,-1.874631 -4.296674 0.2377158,-1.968551 -3.059551 0.3229429,-1.968551 -3.059551 0.3229429,-2.041996 -1.653979 0.6352514,-1.545959 -4.342351 0.3650193,-1.579678 -3.168581 0.4766233,-1.627761 -2.458963 0.6339608,-1.680071 -1.838386 0.7734247,-1.20364 -4.622738 0.5358995,-1.053249 -3.75124 0.651652,-0.9636197 -3.204615 0.7823604,-0.8932018 -2.672832 0.9083616,-9.029557 -7.451985 -0.063412,-8.485833 -7.387372 1.105995,-7.935428 -6.625481 1.841133,-8.129442 -6.128759 2.39973,-8.595549 -5.874465 2.748973,-8.441124 -5.207045 1.485737,-8.395714 -4.437854 2.825563,-8.384013 -4.584053 3.4976,-8.441908 -4.907765 3.750903,-8.972517 -5.133444 1.355082,-9.071602 -4.539873 2.853256,-9.084724 -5.629972 3.170474,-9.076816 -6.273233 3.096566,-9.459701 -5.221315 1.386526,-9.598086 -4.717046 2.746224,-9.525537 -5.729008 2.928343,-9.49073 -6.293735 2.819246,-9.874446 -5.461121 1.506336,-10.10563 -4.753784 2.325161,-10.18151 -4.801233 2.605483,-10.23021 -4.830472 2.669041,4.810,1 2
-1.511993 -7.11634 0.1618039,-2.11582 -6.830085 0.3844579,-2.638755 -6.188524 0.5029637,-2.992917 -5.504629 0.6337746,-3.282384 -5.103441 0.7852727,-2.194627 -4.504986 0.1235244,-2.387448 -3.410047 0.2124451,-2.481372 -2.798708 0.2969948,-2.536899 -2.238567 0.3816515,-1.8561 -4.307107 0.1951872,-1.960935 -3.06604 0.2881643,-1.960935 -3.06604 0.2881643,-2.029421 -1.665189 0.593572,-1.525032 -4.352622 0.329273,-1.561452 -3.169636 0.4456007,-1.609433 -2.446825 0.6030321,-1.660319 -1.821984 0.7458849,-1.178859 -4.627313 0.5058892,-1.028794 -3.749789 0.6262705,-0.9414291 -3.192515 0.7641932,-0.8738422 -2.652288 0.9012107,-9.059626 -7.655362 0.4471544,-8.538102 -7.595369 1.65979,-8.021723 -6.836139 2.404324,-8.116645 -6.233058 2.956533,-8.554405 -5.930139 3.378984,-8.539757 -5.369834 2.147085,-8.533803 -4.600237 3.454082,-8.510515 -4.571718 4.224554,-8.551889 -4.857864 4.618506,-9.067142 -5.229375 1.970434,-9.249992 -4.558828 3.413151,-9.199308 -5.676829 3.779466,-9.145667 -6.477296 3.809712,-9.561964 -5.292182 1.946077,-9.764514 -4.651555 3.216593,-9.68953 -5.650871 3.443617,-9.629706 -6.337855 3.408587,-10.01256 -5.50919 2.003517,-10.2866 -4.661937 2.772293,-10.26966 -4.856157 3.01925,-10.21091 -5.16757 3.063106,4.910,1 2
-1.487986 -7.15456 0.1978326,-2.090488 -6.853128 0.4673025,-2.618345 -6.218739 0.6212934,-2.979572 -5.537241 0.7804646,-3.263248 -5.117997 0.9639121,-2.16964 -4.537109 0.2148542,-2.363218 -3.440651 0.3234997,-2.459089 -2.833789 0.4290416,-2.516489 -2.273711 0.5288855,-1.824326 -4.33456 0.2634948,-1.91958 -3.094051 0.3641973,-1.91958 -3.094051 0.3641973,-1.980669 -1.682419 0.6867577,-1.49124 -4.378253 0.3777359,-1.528343 -3.204795 0.4892232,-1.573958 -2.489328 0.6562555,-1.62349 -1.873682 0.8011188,-1.146688 -4.653616 0.5352935,-1.004661 -3.772599 0.6508099,-0.9200473 -3.208799 0.7918018,-0.8552208 -2.665186 0.9315016,-9.093206 -7.719543 1.075248,-8.476614 -7.583189 2.307661,-7.976698 -6.773887 3.137544,-8.165125 -6.194217 3.796669,-8.674195 -6.031353 4.257502,-8.400474 -5.347547 2.891861,-8.362013 -4.504903 4.322695,-8.465204 -4.706975 5.020425,-8.595421 -5.062618 5.310582,-9.00688 -5.143253 2.694868,-9.186842 -4.435283 4.239565,-9.12642 -5.649094 4.568565,-9.03319 -6.361154 4.441097,-9.547869 -5.151147 2.64448,-9.756517 -4.479257 3.954758,-9.648605 -5.598913 4.039819,-9.564705 -6.308937 3.823875,-10.02189 -5.353864 2.681841,-10.30837 -4.643289 3.550019,-10.22908 -5.094362 3.750651,-10.08949 -5.550518 3.649281,5.010,1 2
-1.452607 -7.199096 0.1899758,-2.043913 -6.915275 0.4823503,-2.57741 -6.285201 0.654856,-2.94289 -5.598989 0.8271699,-3.226339 -5.168682 1.018824,-2.139124 -4.581756 0.2331064,-2.317072 -3.471906 0.352212,-2.408248 -2.854295 0.4719541,-2.463183 -2.283261 0.5823032,-1.790845 -4.382032 0.272388,-1.879875 -3.136787 0.3815554,-1.879875 -3.136787 0.3815554,-1.936063 -1.733519 0.7116656,-1.45665 -4.429069 0.3815674,-1.487534 -3.255029 0.505832,-1.538365 -2.514708 0.6584145,-1.58851 -1.902143 0.806034,-1.115794 -4.683765 0.5402018,-0.9683008 -3.808265 0.6579649,-0.8844614 -3.249523 0.8022056,-0.8211861 -2.712176 0.9420704,-8.980459 -7.710472 0.866606,-8.385128 -7.499628 1.867338,-7.905048 -6.66642 2.537681,-8.050821 -5.960928 3.092326,-8.632374 -5.798258 3.505204,-8.397964 -5.234323 2.284132,-8.365398 -4.27139 3.533499,-8.401865 -4.41291 4.152937,-8.454241 -4.821807 4.381999,-8.94277 -5.038814 2.196584,-9.099833 -4.333175 3.60591,-9.099624 -5.507902 3.98652,-9.000269 -6.328356 3.937035,-9.4406 -5.033355 2.222826,-9.64862 -4.261295 3.366169,-9.598309 -5.31184 3.488369,-9.478229 -6.086465 3.330328,-9.906884 -5.177503 2.331053,-10.19652 -4.251222 3.070905,-10.1308 -4.71548 3.239476,-9.961258 -5.309844 3.174691,5.110,1 2
-1.472494 -7.222591 0.1761022,-2.060625 -6.948225 0.5047517,-2.592631 -6.342254 0.6964902,-2.956559 -5.649736 0.8780315,-3.238993 -5.203638 1.075136,-2.146481 -4.614397 0.2750953,-2.325259 -3.513108 0.4116278,-2.421786 -2.896483 0.5349859,-2.48063 -2.321852 0.6444183,-1.797903 -4.409355 0.2951298,-1.883194 -3.16115 0.4177029,-1.883194 -3.16115 0.4177029,-1.945538 -1.752653 0.7414957,-1.463631 -4.456249 0.3862289,-1.489109 -3.286578 0.5158466,-1.530415 -2.569683 0.6899993,-1.573474 -1.943079 0.8390213,-1.114976 -4.731909 0.5193168,-0.9700012 -3.850454 0.6454326,-0.8837328 -3.300077 0.788736,-0.8124089 -2.766798 0.9224327,-8.727876 -7.528711 0.6297662,-8.204372 -7.226402 1.436365,-7.771221 -6.495731 2.034138,-7.766222 -5.677624 2.546972,-8.143257 -5.297502 3.019962,-8.085457 -5.035059 1.71129,-7.968208 -4.127765 2.740817,-7.918272 -3.762957 3.389701,-7.901053 -3.660134 3.750804,-8.548569 -4.815197 1.684774,-8.57733 -3.937133 2.85113,-8.558385 -4.929445 3.317799,-8.548929 -5.750465 3.421226,-8.99662 -4.803371 1.785083,-9.10126 -3.943186 2.737687,-9.052253 -4.851903 3.008895,-8.996334 -5.611063 3.001749,-9.468294 -4.968628 1.94838,-9.689887 -4.060794 2.574064,-9.587803 -4.430221 2.76606,-9.434608 -4.999017 2.787273,5.210,1 2
-1.493866 -7.245165 0.1828167,-2.075537 -6.973482 0.5145903,-2.599713 -6.337907 0.6984729,-2.96348 -5.635276 0.8704418,-3.251087 -5.195237 1.060163,-2.152232 -4.639026 0.2883456,-2.332295 -3.531571 0.4151515,-2.432247 -2.908075 0.5369853,-2.495794 -2.331 0.6458278,-1.805132 -4.428388 0.3025186,-1.891932 -3.177666 0.4208044,-1.891932 -3.177666 0.4208044,-1.967636 -1.762052 0.7525128,-1.472585 -4.471714 0.3874013,-1.497046 -3.28707 0.5176014,-1.545346 -2.558172 0.6973788,-1.596186 -1.923937 0.8552116,-1.125278 -4.750013 0.5142287,-0.9689665 -3.866497 0.6412115,-0.8769317 -3.304319 0.7904416,-0.7993984 -2.760855 0.9326559,-8.633056 -7.216299 -0.03375671,-8.126829 -7.080849 0.8200707,-7.678305 -6.36256 1.40368,-7.628903 -5.530403 1.889344,-7.995713 -5.051963 2.294631,-7.961719 -4.949253 1.016839,-7.828073 -4.139721 1.998054,-7.7645 -3.714136 2.658261,-7.699179 -3.421848 3.052651,-8.401595 -4.68744 0.96092,-8.428265 -3.804636 2.073144,-8.400285 -4.747869 2.499471,-8.388651 -5.54004 2.565567,-8.839808 -4.685524 1.039612,-8.92211 -3.757898 1.953416,-8.878958 -4.632836 2.263934,-8.847798 -5.426149 2.276417,-9.275386 -4.884766 1.177753,-9.491004 -3.980356 1.813089,-9.441521 -4.200041 2.054105,-9.343598 -4.687181 2.117817,5.310,1 2
-1.500853 -7.259958 0.2398111,-2.084742 -6.986402 0.5720603,-2.610537 -6.344294 0.7559319,-2.972462 -5.630862 0.9266468,-3.262556 -5.186359 1.119622,-2.163081 -4.636037 0.3568403,-2.336067 -3.535875 0.4851137,-2.434208 -2.906986 0.61015,-2.497971 -2.321594 0.7216547,-1.811194 -4.427181 0.3704898,-1.893816 -3.18445 0.4915132,-1.893816 -3.18445 0.4915132,-1.967642 -1.763907 0.833742,-1.475951 -4.473071 0.4562968,-1.49875 -3.298783 0.5874375,-1.544877 -2.574591 0.7712312,-1.594523 -1.939775 0.9319957,-1.125266 -4.751709 0.5815095,-0.9712706 -3.877039 0.7090478,-0.8755522 -3.321903 0.8611723,-0.7952499 -2.780709 1.01015,-8.586141 -7.037623 -0.2525113,-8.065117 -6.934646 0.564979,-7.601072 -6.227888 1.09964,-7.538098 -5.390934 1.557826,-7.878324 -4.861246 1.952916,-7.868358 -4.753278 0.60725,-7.767766 -3.958216 1.4735,-7.690687 -3.599948 2.08549,-7.609249 -3.341625 2.476444,-8.294456 -4.517499 0.5630287,-8.316595 -3.702209 1.601702,-8.272507 -4.622015 2.054835,-8.27048 -5.365701 2.152881,-8.731334 -4.53622 0.6600811,-8.801891 -3.7165 1.549899,-8.742378 -4.56508 1.88839,-8.70531 -5.290173 1.927651,-9.172261 -4.739981 0.8099228,-9.371181 -3.917413 1.405372,-9.32675 -4.067674 1.644077,-9.249263 -4.451047 1.690231,5.410,1 2
-1.528057 -7.367416 0.326767,-2.084011 -6.996867 0.6836849,-2.537283 -6.294837 0.8727955,-2.782924 -5.535682 1.061737,-3.050802 -5.012748 1.279645,-2.152376 -4.68954 0.4692017,-2.342911 -3.59304 0.6261795,-2.443141 -2.955434 0.7599422,-2.505786 -2.353168 0.8809011,-1.793774 -4.505888 0.4716367,-1.884913 -3.25946 0.6129871,-1.884913 -3.25946 0.6129871,-1.94266 -1.838902 0.9431053,-1.457871 -4.570859 0.5593833,-1.472791 -3.406859 0.7020758,-1.509351 -2.693534 0.9091575,-1.54767 -2.052662 1.085321,-1.116227 -4.863912 0.6854506,-0.9976478 -3.980375 0.8330318,-0.9306989 -3.431686 1.009016,-0.8835311 -2.904409 1.16959,-8.484378 -6.753325 -0.6483473,-7.963639 -6.659854 0.1429045,-7.515362 -6.004341 0.6325893,-7.417263 -5.219089 1.056073,-7.648751 -4.610512 1.438209,-7.752357 -4.47817 -0.07540631,-7.599783 -3.622451 0.5965722,-7.499234 -3.131408 1.155669,-7.408298 -2.720035 1.513018,-8.135747 -4.283981 -0.1078106,-8.127084 -3.300502 0.8925875,-8.063235 -4.169054 1.431415,-8.055147 -4.944986 1.554378,-8.542444 -4.289827 0.003346086,-8.58669 -3.325284 0.8673869,-8.505941 -4.135702 1.321472,-8.464862 -4.89952 1.392369,-8.963066 -4.450683 0.159515,-9.110856 -3.603655 0.7760522,-9.014331 -3.797132 1.085506,-8.909192 -4.29301 1.182887,5.510,1 2
-1.492984 -7.39878 0.3603206,-2.07696 -6.961099 0.7585468,-2.503019 -6.243607 0.9864658,-2.687734 -5.458475 1.217411,-2.90846 -4.841188 1.469931,-2.17416 -4.710509 0.5960478,-2.392399 -3.647907 0.8054672,-2.480864 -3.005673 0.966681,-2.529335 -2.380025 1.112586,-1.797122 -4.536655 0.5860459,-1.912719 -3.325815 0.7471786,-1.912719 -3.325815 0.7471786,-1.988889 -1.942955 1.078089,-1.448953 -4.626327 0.6654755,-1.470941 -3.499964 0.8337653,-1.511933 -2.81304 1.074633,-1.545135 -2.174122 1.284011,-1.099665 -4.945396 0.7786664,-1.007489 -4.103725 0.9684827,-0.9900656 -3.565126 1.179969,-0.9874935 -3.041659 1.358093,-8.434034 -6.618285 -0.8008465,-7.925342 -6.532684 -0.02103215,-7.495151 -5.880096 0.4619148,-7.403957 -5.096809 0.8776858,-7.604198 -4.462784 1.261594,-7.707933 -4.378114 -0.2315794,-7.563263 -3.514386 0.368757,-7.460125 -3.004004 0.8729392,-7.362613 -2.546474 1.214038,-8.090387 -4.192564 -0.263441,-8.075879 -3.192479 0.7018555,-8.016452 -4.071199 1.20531,-8.004465 -4.850822 1.313211,-8.499043 -4.187427 -0.1633695,-8.543956 -3.214365 0.700377,-8.464965 -4.043891 1.15301,-8.416556 -4.835168 1.212959,-8.92411 -4.32604 -0.01977801,-9.051838 -3.465023 0.6055186,-8.935444 -3.695201 0.9227382,-8.818814 -4.236135 1.023775,5.610,1 2
-1.478571 -7.440094 0.3343623,-2.047224 -6.991975 0.7419094,-2.462259 -6.264818 0.9789467,-2.634942 -5.473427 1.223612,-2.869668 -4.828668 1.490582,-2.179908 -4.734674 0.5613276,-2.412315 -3.724595 0.762156,-2.507403 -3.081556 0.9492343,-2.562996 -2.448966 1.131507,-1.794815 -4.585374 0.541648,-1.926556 -3.483046 0.6997603,-1.926556 -3.483046 0.6997603,-2.027357 -2.24021 1.093161,-1.439761 -4.676002 0.6058075,-1.459805 -3.646595 0.7577742,-1.504246 -3.024076 1.015272,-1.549255 -2.458477 1.239804,-1.090652 -4.980596 0.7088611,-1.013402 -4.197072 0.9004025,-1.019152 -3.69946 1.105346,-1.039788 -3.215532 1.289795,-8.384978 -6.538046 -0.9422168,-7.882021 -6.41019 -0.160221,-7.4598 -5.786636 0.3054967,-7.368753 -5.020742 0.6991698,-7.567455 -4.378248 1.051548,-7.695692 -4.302469 -0.4510705,-7.527855 -3.43957 0.1307045,-7.422374 -2.892927 0.626978,-7.325624 -2.401901 0.9701265,-8.074944 -4.130785 -0.4964755,-8.04196 -3.139017 0.4753853,-7.982808 -4.02644 0.9740191,-7.974761 -4.814846 1.051698,-8.472952 -4.128274 -0.4020182,-8.507854 -3.163457 0.4555557,-8.425781 -4.014797 0.8936431,-8.372863 -4.804348 0.912189,-8.891979 -4.258934 -0.262168,-9.016377 -3.415224 0.3603983,-8.892531 -3.707196 0.6644229,-8.77549 -4.290241 0.7322954,5.710,1 2
-1.389071 -7.652798 0.09227989,-1.966743 -7.315736 0.6307528,-2.381883 -6.567981 0.991342,-2.514225 -5.816448 1.327,-2.719039 -5.131742 1.706939,-2.204617 -5.077072 0.5834837,-2.437498 -4.186689 0.9605891,-2.564977 -3.589412 1.364117,-2.666693 -3.094389 1.679699,-1.79165 -4.919378 0.6075687,-1.904268 -3.938432 1.180674,-1.904268 -3.938432 1.180674,-2.002063 -3.788011 2.13771,-1.408304 -5.030683 0.7025571,-1.441483 -4.128975 1.191871,-1.509533 -3.868238 1.771202,-1.574482 -4.00945 2.188604,-1.004864 -5.346357 0.8473952,-0.944788 -4.64125 1.314888,-1.019885 -4.437549 1.779362,-1.116867 -4.51696 2.178511,-8.388193 -6.435468 -1.13734,-7.888046 -6.388248 -0.3684626,-7.460735 -5.679554 0.04146516,-7.400471 -4.840782 0.3727663,-7.641431 -4.238622 0.6685551,-7.72967 -4.235081 -0.7332869,-7.565523 -3.306675 -0.2273241,-7.457925 -2.686918 0.2224311,-7.356822 -2.114043 0.5448961,-8.105725 -4.066059 -0.7855096,-8.073574 -3.085357 0.1318277,-8.019076 -3.934081 0.6011407,-7.999503 -4.709438 0.6648846,-8.503942 -4.06329 -0.7007376,-8.52996 -3.090545 0.1360716,-8.446964 -3.925811 0.5731655,-8.383228 -4.713245 0.5870748,-8.923851 -4.190266 -0.5757186,-9.026842 -3.36416 0.03110564,-8.909534 -3.689975 0.3343844,-8.7988 -4.295543 0.4022979,5.810,1 2
-1.403823 -7.712692 -0.04526759,-1.968891 -7.397063 0.5394768,-2.351145 -6.657826 0.9342134,-2.463068 -5.878195 1.258225,-2.656847 -5.224735 1.64374,-2.201124 -5.217815 0.7462977,-2.397625 -4.361053 1.189642,-2.507471 -3.758058 1.637116,-2.602013 -3.269243 2.016786,-1.76863 -5.082512 0.7473984,-1.833755 -4.037672 1.499392,-1.833755 -4.037672 1.499392,-1.800846 -4.642365 2.362914,-1.3592 -5.231576 0.8177783,-1.335655 -4.287228 1.467051,-1.388523 -4.523196 1.912003,-1.40808 -4.999049 2.176771,-0.929842 -5.604617 0.9209139,-0.8481855 -4.910458 1.535593,-0.9379048 -5.035285 1.943362,-1.01485 -5.368419 2.249498,-8.400466 -6.434492 -1.124561,-7.91144 -6.430625 -0.334312,-7.487578 -5.748345 0.09282851,-7.418995 -4.920377 0.4364038,-7.64834 -4.292991 0.7390285,-7.732019 -4.242963 -0.6794143,-7.567292 -3.271654 -0.1787641,-7.469553 -2.624816 0.257001,-7.378708 -2.018983 0.5762604,-8.113367 -4.066156 -0.7452528,-8.071524 -3.091722 0.1756777,-8.037448 -3.932018 0.6351805,-8.026732 -4.695747 0.6800617,-8.51768 -4.070193 -0.6771906,-8.534113 -3.09246 0.1471835,-8.467135 -3.928625 0.5667361,-8.408382 -4.707405 0.5582864,-8.942711 -4.209331 -0.5628789,-9.027991 -3.373773 0.04671359,-8.918078 -3.702481 0.3476664,-8.813427 -4.302969 0.4042561,5.910,1 2
-1.357204 -7.911304 -0.4121684,-1.865484 -7.594893 0.2521371,-2.269314 -6.701118 0.6189991,-2.389476 -5.925867 0.9210647,-2.53232 -5.250511 1.2541,-2.120619 -5.513745 0.5016301,-2.297952 -4.8549 1.175231,-2.387201 -4.37307 1.664255,-2.480633 -3.947649 2.040951,-1.673848 -5.404911 0.4402481,-1.707729 -4.798774 1.297528,-1.707729 -4.798774 1.297528,-1.74723 -6.586166 1.502394,-1.222178 -5.52654 0.4688266,-1.239176 -5.110211 1.350279,-1.354124 -6.183763 1.363452,-1.427366 -6.874689 1.244724,-0.8118796 -5.81653 0.5323533,-0.7750349 -5.398468 1.198103,-0.9459343 -6.156355 1.231921,-1.077459 -6.639854 1.174058,-8.417165 -6.439082 -1.212455,-7.920045 -6.418524 -0.4284202,-7.489494 -5.758159 -0.0003931522,-7.419211 -4.96055 0.3489395,-7.675526 -4.338038 0.6566329,-7.755493 -4.246322 -0.7966793,-7.585232 -3.218849 -0.2997238,-7.483449 -2.553267 0.1451323,-7.400715 -1.95041 0.4671386,-8.137169 -4.092245 -0.8541387,-8.091207 -3.096631 0.08116782,-8.051567 -3.92261 0.5564913,-8.040451 -4.689888 0.6163944,-8.539688 -4.109886 -0.7747725,-8.555091 -3.136451 0.05257261,-8.47696 -3.949293 0.4984456,-8.411889 -4.724905 0.5055058,-8.96128 -4.255525 -0.6536193,-9.055911 -3.427032 -0.03948879,-8.944289 -3.747391 0.2856051,-8.8364 -4.350784 0.3560377,6.010,1 2
-1.315497 -7.955453 0.3691708,-1.844884 -7.682153 1.086321,-2.279057 -6.840059 1.496121,-2.402586 -6.100612 1.831929,-2.489309 -5.411648 2.230654,-2.101071 -5.440416 1.417351,-2.252443 -5.02238 2.193899,-2.365388 -4.637363 2.727424,-2.480477 -4.266641 3.091274,-1.634157 -5.25233 1.339226,-1.689935 -5.128125 2.20983,-1.689935 -5.128125 2.20983,-1.694016 -6.965831 2.292298,-1.153708 -5.390205 1.369349,-1.191336 -5.388561 2.263859,-1.304973 -6.524673 2.211511,-1.361668 -7.181403 2.039232,-0.7182522 -5.730405 1.443777,-0.7423134 -5.624613 2.13296,-0.9126654 -6.461389 2.142029,-1.036469 -6.947971 2.057152,-8.43814 -6.437048 -1.171582,-7.926869 -6.394235 -0.400236,-7.505166 -5.72125 0.01659858,-7.443538 -4.911178 0.3578745,-7.691479 -4.300077 0.6562276,-7.759439 -4.224462 -0.7651815,-7.593271 -3.197474 -0.2789047,-7.488641 -2.520685 0.1597129,-7.405861 -1.916869 0.4827656,-8.141265 -4.079432 -0.8194693,-8.113658 -3.095108 0.09792852,-8.073666 -3.909751 0.5660001,-8.059415 -4.691606 0.6313572,-8.542159 -4.100753 -0.7345095,-8.570956 -3.137874 0.08499777,-8.488492 -3.937813 0.5251392,-8.415633 -4.72097 0.5366102,-8.958506 -4.25536 -0.6096263,-9.057703 -3.440117 0.001319647,-8.943935 -3.757604 0.3329448,-8.82781 -4.363887 0.4110113,6.110,1 2
-1.222025 -8.12133 2.58901,-1.804585 -7.837802 3.390826,-2.275521 -7.159694 4.049465,-2.397318 -6.48275 4.576712,-2.411331 -5.751801 5.207572,-2.098557 -5.349625 4.228,-2.195756 -5.358981 5.156144,-2.316308 -5.120194 5.707964,-2.453054 -4.705443 6.10364,-1.564833 -4.961412 4.110245,-1.57182 -5.74627 4.91847,-1.57182 -5.74627 4.91847,-1.697823 -7.233506 4.88909,-1.012108 -5.101789 4.098467,-1.025232 -6.122212 4.875045,-1.234459 -7.137523 4.573485,-1.348832 -7.421718 4.284611,-0.5405369 -5.550828 4.147036,-0.5992498 -6.392952 4.664556,-0.8382397 -7.217662 4.484448,-0.9850006 -7.386989 4.312092,-8.437078 -6.470985 -1.084539,-7.908546 -6.345564 -0.3553857,-7.49979 -5.647721 0.06549323,-7.452788 -4.842428 0.4156162,-7.696393 -4.248404 0.7104168,-7.764471 -4.188651 -0.7436979,-7.593574 -3.143447 -0.2639842,-7.481502 -2.46667 0.1573766,-7.394172 -1.865136 0.4590932,-8.144619 -4.080884 -0.7805921,-8.102793 -3.070668 0.1229007,-8.053705 -3.903551 0.5602372,-8.040189 -4.679195 0.5972803,-8.540624 -4.132034 -0.6738348,-8.563786 -3.146082 0.1289856,-8.472741 -3.946809 0.5253814,-8.401771 -4.714012 0.5064309,-8.959347 -4.305104 -0.5308816,-9.062668 -3.452194 0.05944324,-8.943506 -3.785076 0.363103,-8.828403 -4.396238 0.4132916,6.210,1 3
-1.221707 -8.20805 2.851063,-1.791607 -7.884025 3.636872,-2.247671 -7.212966 4.313735,-2.378631 -6.600833 4.870346,-2.406594 -5.877543 5.499339,-2.027998 -5.320938 4.423079,-2.14925 -5.422098 5.3739,-2.271865 -5.226172 5.942709,-2.356823 -4.872252 6.351281,-1.489973 -4.93172 4.315487,-1.523778 -5.965009 5.159508,-1.523778 -5.965009 5.159508,-1.69419 -7.455387 4.972192,-0.9418821 -5.114107 4.338384,-0.975584 -6.230187 5.117722,-1.226409 -7.241003 4.730597,-1.332239 -7.464742 4.384939,-0.4810224 -5.586935 4.417639,-0.5324898 -6.376107 4.912998,-0.7995853 -7.200333 4.660533,-0.9469805 -7.354333 4.414886,-8.429206 -6.510183 -0.9796364,-7.907498 -6.369014 -0.2619171,-7.490862 -5.650344 0.1516361,-7.44015 -4.826387 0.4946141,-7.696287 -4.248889 0.7834874,-7.760732 -4.197265 -0.6829894,-7.58316 -3.141943 -0.2160093,-7.472858 -2.473625 0.1954525,-7.384155 -1.871176 0.4835825,-8.138665 -4.084547 -0.7174668,-8.083953 -3.067327 0.1796067,-8.043292 -3.913982 0.6123748,-8.035702 -4.707418 0.6412578,-8.532459 -4.133846 -0.6071306,-8.541421 -3.139021 0.189431,-8.464193 -3.957276 0.5790037,-8.404917 -4.741993 0.548848,-8.950386 -4.314714 -0.4626208,-9.046993 -3.455085 0.1195391,-8.931232 -3.801787 0.4136536,-8.818361 -4.431437 0.4545243,6.310,1 3
-1.275356 -8.272194 2.764173,-1.834553 -7.93227 3.634974,-2.237391 -7.238822 4.372105,-2.349577 -6.661169 5.001761,-2.422717 -6.00871 5.766249,-2.087018 -5.314661 4.297386,-2.173169 -5.369909 5.297387,-2.271504 -5.257826 5.952145,-2.334534 -5.051712 6.399726,-1.522853 -5.010027 4.203186,-1.531318 -5.929908 5.17066,-1.531318 -5.929908 5.17066,-1.718962 -7.71706 5.119647,-0.9516678 -5.242169 4.249882,-0.9463158 -6.238715 5.124545,-1.207749 -7.373639 4.817012,-1.356172 -7.701074 4.476274,-0.4679136 -5.746999 4.368961,-0.4913387 -6.391914 4.935645,-0.7590199 -7.268423 4.738501,-0.9402885 -7.509082 4.506908,-8.447996 -6.520645 -0.8443522,-7.910642 -6.370666 -0.1346927,-7.494149 -5.647287 0.2770727,-7.440695 -4.812818 0.6215212,-7.677908 -4.217939 0.917098,-7.752704 -4.165149 -0.5556517,-7.580404 -3.139274 -0.08910698,-7.470037 -2.476299 0.3436706,-7.374158 -1.881354 0.6561267,-8.134604 -4.057774 -0.5906552,-8.098998 -3.035249 0.2789744,-8.047786 -3.888714 0.7199771,-8.031639 -4.69328 0.7681327,-8.528897 -4.110422 -0.4818767,-8.550786 -3.109758 0.2977622,-8.463385 -3.938341 0.6874439,-8.399251 -4.727068 0.6734879,-8.942056 -4.299469 -0.3396366,-9.045502 -3.459853 0.2432698,-8.92971 -3.826608 0.5365139,-8.813998 -4.45175 0.5862209,6.410,1 3
-1.503732 -7.261314 0.2521202,-1.978172 -7.43906 1.399079,-2.326573 -7.374683 2.242591,-2.52459 -7.009525 2.908819,-2.486563 -6.514318 3.538798,-2.380553 -5.525289 2.46884,-2.525068 -5.137572 3.54385,-2.555218 -5.056911 4.305228,-2.579312 -5.060346 4.789728,-1.894699 -5.306916 2.297795,-1.994232 -5.17185 3.49488,-1.994232 -5.17185 3.49488,-1.992734 -5.538799 4.937382,-1.46793 -5.423652 2.16196,-1.418861 -6.312637 3.259352,-1.441592 -7.143432 3.527042,-1.530249 -7.701774 3.604839,-1.131945 -5.854187 2.081017,-1.084854 -6.695632 2.918176,-1.105457 -7.341833 3.045344,-1.195445 -7.768064 3.123236,-8.461959 -6.538055 -0.7853275,-7.917271 -6.365366 -0.08045465,-7.50917 -5.633346 0.3322481,-7.452678 -4.796005 0.6769906,-7.690041 -4.205055 0.971626,-7.760397 -4.165129 -0.5058756,-7.58847 -3.13681 -0.04063517,-7.481164 -2.48021 0.383742,-7.391592 -1.888407 0.6857469,-8.142977 -4.057935 -0.5403973,-8.108897 -3.06042 0.3270048,-8.063326 -3.928371 0.7491516,-8.046562 -4.71898 0.7830057,-8.539336 -4.107023 -0.4301336,-8.557536 -3.132107 0.3519782,-8.473829 -3.964082 0.7305658,-8.412692 -4.740383 0.7069347,-8.953794 -4.29434 -0.2872096,-9.04958 -3.460303 0.2897495,-8.935603 -3.833631 0.5801111,-8.822866 -4.450297 0.6246916,6.510,1 3
-1.674588 -7.268022 -2.394454,-2.095726 -7.34966 -1.400749,-2.291025 -7.046773 -0.7094156,-2.24171 -6.457438 -0.2364569,-2.206181 -5.868062 0.3050759,-2.402033 -6.563777 -0.3543584,-2.45261 -6.168729 0.5520077,-2.455543 -5.736017 1.213603,-2.426701 -5.251595 1.649493,-2.000434 -6.310195 -0.5545282,-1.896099 -5.967298 0.5335481,-1.896099 -5.967298 0.5335481,-1.880956 -4.984622 2.006632,-1.579266 -6.143655 -0.761948,-1.260936 -6.344098 0.1910248,-1.218738 -6.882339 0.3032076,-1.236217 -7.205281 0.2214153,-1.18648 -6.149023 -0.9100536,-0.9138842 -6.519738 -0.1512873,-0.891573 -7.037417 -0.01365042,-0.9242563 -7.371858 -0.002797842,-8.482279 -6.556036 -0.7886432,-7.935653 -6.379381 -0.09070456,-7.532528 -5.650938 0.3119724,-7.483933 -4.823344 0.6529899,-7.717556 -4.240715 0.9488702,-7.794427 -4.178005 -0.5042703,-7.629273 -3.146048 -0.03604585,-7.523109 -2.479774 0.3906645,-7.436431 -1.896109 0.6901975,-8.177838 -4.075982 -0.5340737,-8.158731 -3.05235 0.3327851,-8.113032 -3.910534 0.7601694,-8.092724 -4.713719 0.795236,-8.570692 -4.130546 -0.4227652,-8.604877 -3.134217 0.3597841,-8.516398 -3.94908 0.7475319,-8.447977 -4.728885 0.7320449,-8.980032 -4.320848 -0.2791521,-9.092573 -3.474632 0.2971473,-8.979974 -3.825307 0.5932646,-8.859598 -4.429577 0.645736,6.610,1 3
-1.697747 -7.20971 -2.816208,-2.163941 -7.025342 -2.050312,-2.37065 -6.492559 -1.540423,-2.470766 -5.847712 -1.249659,-2.550065 -5.41467 -0.9412891,-2.191959 -6.98103 -0.6905386,-2.197766 -6.260522 0.004657507,-2.270495 -5.493 0.5068128,-2.312306 -4.690378 0.8646739,-1.784282 -7.104421 -0.84156,-1.52681 -6.432585 -0.1420794,-1.52681 -6.432585 -0.1420794,-1.380692 -4.770288 0.5264413,-1.409474 -7.165012 -1.034842,-1.102549 -6.637434 -0.2857625,-1.076674 -5.945877 0.0190587,-1.084972 -5.389522 0.2379704,-1.103868 -7.149074 -1.200997,-0.8627877 -6.808719 -0.5734048,-0.8434067 -6.362205 -0.318996,-0.8551612 -5.969364 -0.09068131,-8.538651 -6.569681 -0.8046938,-8.010428 -6.394762 -0.1037532,-7.62018 -5.681671 0.2909391,-7.567243 -4.864464 0.6294888,-7.806679 -4.257696 0.9194652,-7.866157 -4.188473 -0.5807422,-7.706245 -3.155059 -0.1252667,-7.600639 -2.521863 0.2710726,-7.517293 -1.957176 0.5251418,-8.243896 -4.087154 -0.6168421,-8.226273 -3.110027 0.2677134,-8.208388 -3.994488 0.6825845,-8.20293 -4.772399 0.6736786,-8.637215 -4.128998 -0.514887,-8.670485 -3.190579 0.2875977,-8.602782 -4.024546 0.6568873,-8.544833 -4.789484 0.5969299,-9.043307 -4.300415 -0.378167,-9.133619 -3.500064 0.1821747,-9.039161 -3.88174 0.4576794,-8.933422 -4.47643 0.4721265,6.710,1 3
-1.169374 -7.961059 -1.550342,-1.937554 -7.45819 -1.170575,-2.368353 -6.513778 -0.7015077,-2.557754 -5.611324 -0.3418881,-2.765709 -5.028816 0.01312017,-2.135893 -6.552227 0.163268,-2.137208 -5.427883 0.9828796,-2.171824 -4.574342 1.358479,-2.231659 -3.665894 1.590571,-1.647707 -6.583392 0.2812394,-1.586261 -5.443404 1.178906,-1.586261 -5.443404 1.178906,-1.646562 -4.337371 1.725626,-1.175067 -6.640369 0.3736252,-1.077063 -5.591129 1.109381,-1.129692 -5.099586 1.380038,-1.205428 -4.737018 1.562924,-0.7033606 -6.716617 0.4842429,-0.5655041 -5.824313 1.028116,-0.6184988 -5.412122 1.353391,-0.7018766 -5.062967 1.626451,-8.576539 -6.58548 -0.7902308,-8.035291 -6.41967 -0.0620029,-7.640258 -5.708297 0.3488231,-7.586771 -4.903572 0.6973585,-7.797769 -4.301389 1.005867,-7.893187 -4.212936 -0.4934796,-7.728859 -3.183467 -0.0278126,-7.629074 -2.532284 0.3934581,-7.545134 -1.944886 0.68257,-8.277273 -4.105011 -0.5383872,-8.261017 -3.116605 0.3539553,-8.213255 -4.00317 0.7903597,-8.181764 -4.824432 0.8122448,-8.671732 -4.156145 -0.4396361,-8.711261 -3.205506 0.3624182,-8.624791 -4.041297 0.7438015,-8.545197 -4.820787 0.7027838,-9.08087 -4.342809 -0.3045858,-9.190319 -3.518209 0.2869003,-9.082469 -3.894426 0.5775015,-8.959541 -4.501446 0.6076299,6.810,1 3
-1.245985 -7.757005 -1.064285,-1.895542 -7.381891 -0.6345793,-2.336845 -6.494428 -0.4334576,-2.52136 -5.634562 -0.2475275,-2.730475 -4.984621 -0.08598477,-2.013896 -5.529642 -0.6990007,-2.095889 -4.81034 -0.3553668,-2.186562 -4.121671 -0.1112444,-2.230914 -3.4672 0.09311187,-1.619199 -5.3276 -0.7340147,-1.654306 -4.435802 -0.2146808,-1.654306 -4.435802 -0.2146808,-1.708411 -5.253243 0.06046236,-1.213284 -5.328396 -0.694554,-1.213566 -4.470054 -0.1233286,-1.339655 -5.228865 0.0313462,-1.34996 -5.95013 -0.03906226,-0.7658358 -5.497627 -0.6155229,-0.7625122 -4.746646 -0.06987494,-0.9054079 -5.206933 0.1447423,-0.944159 -5.818843 0.1676821,-8.558286 -6.670005 -0.7749171,-8.019974 -6.459382 -0.07264805,-7.605389 -5.761302 0.3442498,-7.553978 -4.9635 0.7001996,-7.812615 -4.384232 0.9932773,-7.877215 -4.285476 -0.4835204,-7.720339 -3.237372 -0.01169914,-7.612465 -2.5942 0.405859,-7.516508 -2.020889 0.6914999,-8.258853 -4.186342 -0.5119054,-8.202592 -3.17518 0.3873483,-8.155848 -4.048099 0.8436443,-8.148378 -4.866798 0.8926743,-8.653259 -4.235912 -0.3962541,-8.654284 -3.282506 0.401518,-8.574572 -4.115978 0.7906981,-8.522099 -4.903878 0.765965,-9.076808 -4.409794 -0.2464842,-9.161395 -3.550772 0.3295205,-9.042014 -3.918397 0.6175456,-8.929036 -4.564561 0.6568385,6.910,1 3
-1.410119 -7.625656 -0.9934653,-1.966426 -7.259737 -0.5586532,-2.357773 -6.386247 -0.3602722,-2.52458 -5.510549 -0.1707035,-2.659871 -4.715543 -0.02302033,-2.087629 -5.270298 -0.9503864,-2.202536 -4.514659 -0.6190463,-2.2946 -3.967535 -0.3351566,-2.387545 -3.475289 -0.1195212,-1.707237 -5.143478 -0.9559911,-1.765339 -4.299221 -0.2764757,-1.765339 -4.299221 -0.2764757,-1.825083 -5.633003 0.09670055,-1.332548 -5.21735 -0.879734,-1.370513 -4.459575 -0.1838903,-1.493788 -5.368935 -0.009108126,-1.528829 -6.102226 -0.09649724,-0.9346876 -5.45631 -0.7618934,-0.9275093 -4.729145 -0.2412139,-1.087585 -5.261071 -0.09723496,-1.173701 -5.853905 -0.1292334,-8.541863 -6.685147 -0.7722055,-7.995805 -6.478155 -0.08926851,-7.582304 -5.764402 0.3190625,-7.529955 -4.968915 0.671474,-7.782782 -4.403038 0.9651984,-7.8542 -4.300935 -0.4774658,-7.693966 -3.267954 -0.01328963,-7.588066 -2.614446 0.3935707,-7.497116 -2.022655 0.6771822,-8.230911 -4.203886 -0.4925263,-8.17857 -3.201984 0.3946879,-8.126308 -4.065717 0.8507893,-8.118814 -4.874343 0.9152701,-8.625032 -4.254102 -0.3679835,-8.626298 -3.298005 0.41738,-8.540251 -4.128126 0.7948306,-8.488363 -4.913332 0.7762753,-9.047091 -4.43735 -0.2141871,-9.125116 -3.589969 0.3618263,-8.99805 -3.939748 0.6431807,-8.886668 -4.569611 0.6790713,7.010,1 3
-1.444722 -7.61948 -0.9652588,-1.9962 -7.250534 -0.4756933,-2.372888 -6.378446 -0.2654846,-2.499427 -5.511961 -0.08240259,-2.587569 -4.728977 0.0645802,-2.106112 -5.236669 -0.7618155,-2.208068 -4.505599 -0.4115575,-2.291964 -3.96471 -0.1549044,-2.37975 -3.479302 0.04336536,-1.710173 -5.131362 -0.7916476,-1.755347 -4.379446 -0.1169388,-1.755347 -4.379446 -0.1169388,-1.816347 -5.797791 0.2060987,-1.325637 -5.234144 -0.7356719,-1.362125 -4.583198 -0.0326339,-1.482109 -5.501857 0.1128104,-1.522452 -6.210639 0.02611923,-0.9314308 -5.498593 -0.6382738,-0.9068413 -4.818502 -0.1178981,-1.06809 -5.34882 0.01289332,-1.166408 -5.912935 -0.02044487,-8.525972 -6.671485 -0.7980678,-7.981209 -6.483709 -0.1085032,-7.571716 -5.771628 0.2890776,-7.520976 -4.960058 0.6277205,-7.768053 -4.392398 0.9138126,-7.850903 -4.299909 -0.5287602,-7.692348 -3.266903 -0.07114875,-7.590615 -2.613231 0.3372648,-7.505265 -2.028013 0.6217365,-8.227726 -4.192504 -0.552868,-8.183763 -3.187435 0.3259978,-8.129286 -4.049331 0.7796835,-8.114539 -4.860563 0.8410727,-8.616588 -4.23305 -0.4364913,-8.624981 -3.275653 0.3458062,-8.540177 -4.098938 0.7347643,-8.485511 -4.883581 0.720713,-9.026161 -4.41365 -0.2883452,-9.114104 -3.571591 0.2838317,-8.995001 -3.894578 0.5748233,-8.887304 -4.498355 0.6205323,7.110,1 3
-1.424164 -7.589757 -1.263214,-1.969699 -7.258478 -0.7548631,-2.344048 -6.391078 -0.536335,-2.454025 -5.524602 -0.3575493,-2.518268 -4.754972 -0.2127177,-2.07147 -5.275357 -1.035559,-2.191844 -4.528755 -0.7038091,-2.275244 -3.973247 -0.4520105,-2.355828 -3.500779 -0.2409365,-1.677282 -5.187742 -1.068493,-1.718734 -4.449958 -0.4104414,-1.718734 -4.449958 -0.4104414,-1.765505 -5.938462 -0.09961927,-1.288726 -5.300029 -1.011552,-1.335327 -4.660604 -0.3336511,-1.44344 -5.58004 -0.1935506,-1.476157 -6.29183 -0.2629331,-0.8907938 -5.562362 -0.9131291,-0.879837 -4.905302 -0.4046381,-1.031821 -5.457904 -0.28431,-1.126068 -6.024604 -0.3065676,-8.523534 -6.645161 -0.8615431,-7.966549 -6.437927 -0.1665178,-7.55363 -5.751999 0.2489147,-7.50347 -4.968967 0.6059967,-7.748008 -4.388796 0.9059057,-7.82768 -4.284832 -0.5364522,-7.668591 -3.246277 -0.06234002,-7.557364 -2.585943 0.3532524,-7.465732 -2.002999 0.6388118,-8.209712 -4.193334 -0.5551676,-8.166126 -3.194063 0.3416058,-8.112361 -4.043359 0.7984126,-8.102471 -4.846834 0.866164,-8.60546 -4.239633 -0.4352567,-8.618564 -3.28544 0.3635448,-8.526486 -4.100326 0.7608151,-8.466297 -4.886142 0.7530571,-9.024361 -4.409542 -0.2842569,-9.114534 -3.573467 0.2996024,-8.986794 -3.906082 0.5972714,-8.87127 -4.527414 0.6482358,7.210,1 3
-1.405747 -7.663753 -1.396263,-1.887482 -7.395261 -0.8028544,-2.240993 -6.498882 -0.5244449,-2.338391 -5.644735 -0.3001432,-2.395782 -4.872215 -0.0723263,-1.981684 -5.370705 -0.8776791,-2.111439 -4.649038 -0.4053155,-2.171919 -4.093797 -0.07105803,-2.235857 -3.621106 0.20548,-1.584003 -5.330889 -0.9325427,-1.620909 -4.763785 -0.1916732,-1.620909 -4.763785 -0.1916732,-1.682777 -6.423126 -0.02039135,-1.191545 -5.47123 -0.8924329,-1.233102 -5.045082 -0.1157929,-1.335696 -6.043164 -0.06942141,-1.399888 -6.754928 -0.1989443,-0.8062844 -5.741439 -0.8185588,-0.7818508 -5.233415 -0.2188051,-0.9368658 -5.896139 -0.1615427,-1.064397 -6.445911 -0.2289432,-8.451124 -6.642314 -0.7713699,-7.915255 -6.4472 -0.07809734,-7.504498 -5.7421 0.3395444,-7.454669 -4.938073 0.6957422,-7.712152 -4.361378 0.9926723,-7.778038 -4.265003 -0.4633505,-7.615021 -3.225048 0.01567763,-7.509352 -2.575167 0.4251767,-7.420439 -1.984041 0.7010949,-8.156209 -4.159595 -0.4850706,-8.098412 -3.158221 0.4179164,-8.051491 -4.0372 0.8524652,-8.046421 -4.843015 0.8871702,-8.552707 -4.208795 -0.3663739,-8.549407 -3.243125 0.4273286,-8.468552 -4.085783 0.7957454,-8.420129 -4.874101 0.7587584,-8.97488 -4.395059 -0.2159894,-9.054173 -3.522308 0.3599602,-8.92614 -3.864484 0.6381701,-8.815166 -4.498104 0.6648203,7.310,1 3
-1.383533 -7.738727 -1.41235,-1.881078 -7.483774 -0.7934028,-2.247138 -6.598361 -0.506804,-2.326024 -5.73907 -0.2922792,-2.391164 -4.953757 -0.0642153,-1.960554 -5.487065 -0.7567205,-2.095265 -4.793857 -0.2946624,-2.154999 -4.206917 0.02686846,-2.214867 -3.716403 0.3056325,-1.5593 -5.437658 -0.8282454,-1.606067 -4.893816 -0.1167353,-1.606067 -4.893816 -0.1167353,-1.649238 -6.586496 0.02277792,-1.171571 -5.570704 -0.8090979,-1.223559 -5.192853 -0.01911628,-1.31567 -6.188161 0.03481019,-1.365894 -6.938539 -0.07519555,-0.7902002 -5.839571 -0.7643414,-0.7724271 -5.343498 -0.1270145,-0.9171882 -5.999703 -0.04584932,-1.03565 -6.552898 -0.07912493,-8.478439 -6.635799 -0.7937461,-7.938335 -6.489435 -0.08085614,-7.523867 -5.768123 0.3360256,-7.472747 -4.946549 0.6812428,-7.717358 -4.365799 0.9831314,-7.774879 -4.274122 -0.4937506,-7.608894 -3.245424 -0.03718209,-7.506137 -2.594373 0.3750266,-7.419567 -2.011991 0.6660323,-8.160696 -4.159645 -0.532338,-8.124688 -3.164337 0.3303983,-8.077398 -4.035568 0.751496,-8.058871 -4.84752 0.7903084,-8.558105 -4.206718 -0.4255426,-8.575176 -3.246931 0.3563521,-8.491766 -4.075706 0.7291026,-8.429457 -4.854658 0.7041843,-8.975892 -4.393223 -0.2853993,-9.072316 -3.546936 0.2957622,-8.956174 -3.913822 0.5853249,-8.839576 -4.531353 0.6290369,7.410,1 3
-1.414775 -7.799636 -1.434028,-1.915341 -7.54029 -0.809087,-2.270399 -6.632713 -0.5172147,-2.32764 -5.74996 -0.3021115,-2.401986 -4.94943 -0.07922029,-1.983483 -5.57094 -0.7431138,-2.117337 -4.881915 -0.2413731,-2.178281 -4.288131 0.1047335,-2.241727 -3.767082 0.3938774,-1.57866 -5.512781 -0.8167019,-1.630561 -4.97946 -0.05825007,-1.630561 -4.97946 -0.05825007,-1.667458 -6.699886 0.05224645,-1.186017 -5.63439 -0.7981558,-1.242635 -5.26659 0.02112663,-1.33491 -6.301343 0.05614364,-1.382407 -7.052478 -0.08062792,-0.7991276 -5.887779 -0.7581221,-0.7875824 -5.390501 -0.1216253,-0.9346762 -6.071105 -0.06352592,-1.05163 -6.628904 -0.1164678,-8.496501 -6.640438 -0.7880214,-7.960176 -6.495204 -0.06901765,-7.547706 -5.78478 0.3389988,-7.489915 -4.978929 0.676544,-7.726138 -4.400508 0.9698414,-7.794658 -4.27867 -0.5033203,-7.627909 -3.24975 -0.03947318,-7.5332 -2.617555 0.3667963,-7.452724 -2.042944 0.6448593,-8.1773 -4.160364 -0.5510532,-8.137513 -3.193047 0.3406663,-8.09795 -4.098502 0.7554502,-8.078009 -4.92403 0.7648383,-8.574386 -4.203702 -0.4487494,-8.584531 -3.277938 0.3447367,-8.510747 -4.12845 0.7023757,-8.449145 -4.905086 0.6514894,-8.989311 -4.386308 -0.3127623,-9.075148 -3.56108 0.2726535,-8.965445 -3.948378 0.5543932,-8.852674 -4.563373 0.5817766,7.510,1 3
-1.432535 -7.951746 -0.7008129,-1.964484 -7.701082 -0.06279624,-2.338943 -6.782629 0.2747142,-2.39154 -5.898609 0.5404859,-2.491793 -5.113229 0.869521,-2.059668 -5.632964 0.1800168,-2.217794 -5.104331 0.8536462,-2.302467 -4.587422 1.321183,-2.386795 -4.109878 1.655141,-1.626153 -5.508731 0.1183811,-1.704665 -5.196193 0.9786158,-1.704665 -5.196193 0.9786158,-1.713515 -7.067815 1.048092,-1.195565 -5.62972 0.1660234,-1.259401 -5.405542 1.082563,-1.367783 -6.510339 1.091933,-1.434667 -7.274593 0.9234468,-0.7929649 -5.90397 0.2228496,-0.8284197 -5.681921 0.9250294,-1.003263 -6.464547 0.9436097,-1.142356 -6.991118 0.8483884,-8.489462 -6.679742 -0.8018426,-7.974077 -6.51897 -0.04563117,-7.556298 -5.84786 0.3901449,-7.489153 -5.065925 0.7470837,-7.730217 -4.471006 1.058261,-7.816791 -4.322366 -0.4413362,-7.650652 -3.289956 0.0454402,-7.549101 -2.666117 0.4676949,-7.462397 -2.111505 0.7618153,-8.20284 -4.206407 -0.5030239,-8.162794 -3.246747 0.4251829,-8.115442 -4.1654 0.8605263,-8.089027 -5.00954 0.8880113,-8.60032 -4.250804 -0.4139898,-8.61574 -3.334926 0.4051554,-8.53682 -4.187967 0.7836741,-8.470907 -4.972866 0.742649,-9.012465 -4.430385 -0.2875804,-9.105113 -3.579843 0.3139015,-8.999806 -3.959035 0.6028808,-8.888697 -4.585514 0.6336964,7.610,1 3
-1.414236 -7.953676 0.2512306,-1.97696 -7.730716 0.9564114,-2.373073 -6.850955 1.329506,-2.432952 -5.986192 1.604849,-2.529957 -5.225763 1.952831,-2.097361 -5.490466 1.313274,-2.232622 -5.202577 2.063314,-2.351496 -4.770033 2.554967,-2.480175 -4.276432 2.886211,-1.655029 -5.273242 1.206975,-1.754507 -5.259206 2.008832,-1.754507 -5.259206 2.008832,-1.742126 -7.160826 2.006286,-1.205331 -5.390925 1.222319,-1.298016 -5.488536 2.116688,-1.411915 -6.641428 2.088396,-1.471602 -7.385736 1.907518,-0.798234 -5.730478 1.247942,-0.890007 -5.847291 1.957224,-1.071112 -6.691501 1.956556,-1.193997 -7.195423 1.84171,-8.507744 -6.671043 -0.8720096,-7.974988 -6.50056 -0.1396858,-7.550816 -5.819713 0.282977,-7.499077 -5.034739 0.6347859,-7.761285 -4.473498 0.9333062,-7.817445 -4.330732 -0.5456418,-7.65406 -3.298099 -0.06256282,-7.546527 -2.658904 0.3555434,-7.450941 -2.082433 0.6411408,-8.202094 -4.218721 -0.5863156,-8.157798 -3.257106 0.3290164,-8.107915 -4.15072 0.7763511,-8.085983 -4.983942 0.8187134,-8.599616 -4.266456 -0.4770671,-8.615021 -3.349149 0.3345339,-8.529847 -4.196121 0.714839,-8.461952 -4.984923 0.680599,-9.017349 -4.442937 -0.3344613,-9.108986 -3.60844 0.2556576,-8.996309 -3.977966 0.5390822,-8.88017 -4.599714 0.5675454,7.710,1 3
-1.451355 -7.943941 1.082321,-2.036427 -7.683063 1.918622,-2.418025 -6.87383 2.391579,-2.46336 -6.072057 2.725681,-2.551755 -5.3465 3.146692,-2.135629 -5.33988 2.399249,-2.238109 -5.20313 3.246965,-2.360453 -4.847751 3.757894,-2.499254 -4.362551 4.107368,-1.650765 -5.083086 2.24199,-1.726656 -5.298631 3.105644,-1.726656 -5.298631 3.105644,-1.776694 -7.112186 3.192255,-1.157541 -5.200388 2.214931,-1.244507 -5.598915 3.14342,-1.390717 -6.789245 3.073251,-1.477928 -7.462171 2.861874,-0.7291789 -5.597608 2.206814,-0.8460798 -5.975346 2.954016,-1.050078 -6.866621 2.951195,-1.185248 -7.314748 2.802295,-8.521441 -6.656703 -0.8788416,-7.987624 -6.526169 -0.1221104,-7.579504 -5.850986 0.3080454,-7.527798 -5.067539 0.6671318,-7.7705 -4.485192 0.9793761,-7.829479 -4.316797 -0.5470198,-7.666778 -3.291299 -0.07147145,-7.568064 -2.66467 0.340323,-7.483563 -2.100274 0.61891,-8.215973 -4.205333 -0.6021134,-8.191888 -3.276003 0.321092,-8.155214 -4.19277 0.7516892,-8.130715 -5.022033 0.7680298,-8.613514 -4.253412 -0.5077368,-8.639856 -3.369251 0.3237184,-8.56561 -4.223433 0.6984882,-8.497243 -5.001793 0.6475468,-9.025602 -4.427398 -0.3768227,-9.116308 -3.632757 0.2258213,-9.018161 -4.028322 0.5133448,-8.908735 -4.63512 0.5333858,7.810,1 3
