TiagoOliveira98/Thesis-Project/Difficulty_0/Motor_Task/Unity_Project/DataLogging/JointData/Logs(1646876829)_ttttt_Motor.csv
WRIST,THUMB_CMC,THUMB_MCP,THUMB_IP,THUMB_TIP,INDEX_FINGER_MCP,INDEX_FINGER_PIP,INDEX_FINGER_DIP,INDEX_FINGER_TIP,MIDDLE_FINGER_MCP,MIDDLE_FINGER_PIP,MIDDLE_FINGER_DIP,MIDDLE_FINGER_TIP,RING_FINGER_MCP,RING_FINGER_PIP,RING_FINGER_DIP,RING_FINGER_TIP,PINKY_MCP,PINKY_PIP,PINKY_DIP,PINKY_TIP,WRIST2,THUMB_CMC2,THUMB_MCP2,THUMB_IP2,THUMB_TIP2,INDEX_FINGER_MCP2,INDEX_FINGER_PIP2,INDEX_FINGER_DIP2,INDEX_FINGER_TIP2,MIDDLE_FINGER_MCP2,MIDDLE_FINGER_PIP2,MIDDLE_FINGER_DIP2,MIDDLE_FINGER_TIP2,RING_FINGER_MCP2,RING_FINGER_PIP2,RING_FINGER_DIP2,RING_FINGER_TIP2,PINKY_MCP2,PINKY_PIP2,PINKY_DIP2,PINKY_TIP2,Timestamp,Event
-2.744661 -6.541851 8.890829E-05,-3.345678 -6.380404 0.2830111,-3.88286 -5.826638 0.4122685,-4.258991 -5.287153 0.5403298,-4.561659 -4.995107 0.6697694,-3.479191 -4.268158 0.1541665,-3.687605 -3.299562 0.3076255,-3.789431 -2.712616 0.4370349,-3.87418 -2.176651 0.5419364,-3.148134 -4.026937 0.1910301,-3.289787 -2.908881 0.3350861,-3.289787 -2.908881 0.3350861,-3.427309 -1.569086 0.6450666,-2.818111 -4.025661 0.2882269,-2.889367 -2.934616 0.4562234,-2.958397 -2.229768 0.6056256,-3.038354 -1.648349 0.7440569,-2.473548 -4.252607 0.4209544,-2.344336 -3.442859 0.5768449,-2.280433 -2.896897 0.7065945,-2.237136 -2.38979 0.8265141,-8.439236 -6.365465 0.0003886525,-7.875538 -6.106763 0.2481752,-7.37401 -5.492532 0.4360552,-7.027274 -4.909088 0.6531767,-6.722918 -4.572589 0.8654957,-7.835933 -3.848019 0.1436201,-7.734502 -2.797431 0.2754063,-7.703568 -2.170231 0.4221924,-7.674162 -1.642329 0.5459949,-8.178749 -3.685611 0.1847083,-8.103766 -2.482352 0.2937668,-8.06006 -1.722165 0.4911765,-8.023879 -1.065724 0.6715059,-8.511382 -3.740888 0.2569208,-8.482065 -2.638664 0.3642591,-8.452545 -1.950841 0.5051705,-8.401898 -1.363279 0.6120136,-8.847568 -4.001899 0.3605576,-8.951395 -3.181365 0.4705264,-9.000243 -2.65228 0.5616012,-9.010856 -2.136858 0.6328288,0.010, -1 1
-2.757629 -6.492671 -0.1967938,-3.377257 -6.331008 0.06022051,-3.893829 -5.767545 0.1822277,-4.262349 -5.226459 0.3112833,-4.580272 -4.946681 0.4457603,-3.486263 -4.267139 -0.1036895,-3.691879 -3.312891 0.03782326,-3.80551 -2.722816 0.1745491,-3.903416 -2.190532 0.2860336,-3.164123 -4.032319 -0.05114286,-3.302586 -2.94251 0.09701049,-3.302586 -2.94251 0.09701049,-3.442791 -1.574946 0.4118971,-2.835685 -4.032968 0.05241892,-2.902721 -2.967268 0.2109541,-2.974786 -2.253002 0.3571541,-3.05081 -1.667015 0.4925013,-2.493146 -4.260313 0.1885511,-2.374023 -3.448729 0.3355823,-2.323237 -2.898407 0.45927,-2.283394 -2.392467 0.5701845,-8.438416 -6.38648 0.05908844,-7.873729 -6.119195 0.2996466,-7.373044 -5.495505 0.4812396,-7.030815 -4.904996 0.6950311,-6.731836 -4.566911 0.9051172,-7.834459 -3.848427 0.187414,-7.724819 -2.811143 0.3155744,-7.687584 -2.185318 0.4662797,-7.652561 -1.654733 0.5938726,-8.176739 -3.689065 0.2313652,-8.096588 -2.495031 0.3314776,-8.051475 -1.733427 0.5329043,-8.016371 -1.071538 0.7125151,-8.507619 -3.746776 0.3062547,-8.473599 -2.657554 0.399093,-8.441653 -1.97171 0.5338373,-8.3915 -1.38295 0.6384307,-8.842448 -4.007881 0.4149903,-8.944357 -3.193074 0.5157905,-8.992284 -2.66275 0.6056841,-9.006296 -2.141203 0.672842,0.110, -1 1
-2.718424 -6.598617 0.1219433,-3.335033 -6.443429 0.3591099,-3.86324 -5.886467 0.4746355,-4.269384 -5.343534 0.6019076,-4.616223 -5.10109 0.7853532,-3.573711 -4.306643 0.3902297,-3.730871 -3.325761 0.6546869,-3.824474 -2.731505 0.8568046,-3.897449 -2.164583 0.9977526,-3.242683 -4.090721 0.4943031,-3.339027 -2.982566 0.730102,-3.339027 -2.982566 0.730102,-3.447621 -1.540709 1.073957,-2.895828 -4.143602 0.637396,-2.945551 -3.054819 0.8454509,-2.97316 -2.355793 0.9716459,-2.995681 -1.701099 1.077249,-2.530806 -4.430925 0.7992324,-2.444807 -3.607017 1.058433,-2.406961 -3.106107 1.221747,-2.35616 -2.616753 1.322564,-8.433374 -6.391658 0.04159139,-7.873346 -6.119783 0.2734836,-7.37023 -5.508894 0.4563126,-7.02499 -4.928268 0.6697913,-6.731186 -4.581703 0.8787865,-7.839631 -3.856493 0.1639414,-7.738449 -2.807314 0.2873439,-7.704981 -2.17349 0.4340823,-7.673229 -1.638741 0.5614274,-8.179198 -3.69831 0.2096246,-8.105742 -2.507255 0.3155484,-8.063168 -1.74423 0.5174744,-8.027377 -1.081979 0.6999168,-8.509222 -3.759639 0.2850449,-8.482751 -2.675152 0.3848264,-8.450282 -1.983856 0.5275357,-8.394744 -1.390729 0.6361203,-8.842343 -4.024196 0.3895985,-8.951105 -3.208058 0.4954115,-8.99801 -2.675774 0.5893698,-9.00449 -2.152818 0.6593299,0.210, -1 1
-2.724161 -6.643095 0.2240723,-3.309856 -6.469279 0.4656146,-3.841507 -5.892972 0.5831311,-4.215025 -5.331768 0.7158328,-4.525814 -4.998346 0.8664491,-3.456606 -4.288777 0.2910363,-3.662902 -3.313678 0.4143347,-3.768864 -2.733332 0.5119233,-3.852756 -2.211454 0.6002426,-3.130327 -4.060251 0.3617967,-3.268547 -2.935297 0.4763774,-3.268547 -2.935297 0.4763774,-3.40015 -1.59221 0.7535304,-2.802041 -4.073228 0.4882246,-2.870098 -2.967184 0.6403611,-2.945628 -2.254262 0.7851543,-3.022627 -1.668048 0.9101041,-2.458793 -4.320417 0.6533245,-2.332798 -3.493209 0.8005545,-2.271632 -2.938786 0.931731,-2.226917 -2.427263 1.046799,-8.43596 -6.416584 0.0971422,-7.881155 -6.138122 0.3307632,-7.384713 -5.504276 0.5102948,-7.03732 -4.906544 0.7257971,-6.735601 -4.563276 0.9387721,-7.845629 -3.862093 0.1939681,-7.743515 -2.826766 0.3065467,-7.706596 -2.199223 0.4493753,-7.672235 -1.669844 0.5717844,-8.184779 -3.705581 0.2410273,-8.107393 -2.509956 0.331773,-8.05927 -1.740944 0.5278637,-8.017314 -1.078374 0.701756,-8.511807 -3.769329 0.3211254,-8.482347 -2.66674 0.4121563,-8.445708 -1.970194 0.5556308,-8.388185 -1.376217 0.6627357,-8.8414 -4.037246 0.4338776,-8.952345 -3.214489 0.5378643,-8.996829 -2.664001 0.6421129,-9.005888 -2.127896 0.713435,0.310, -1 1
-2.706355 -6.704954 0.3868175,-3.303295 -6.470117 0.5762036,-3.832691 -5.885684 0.6860977,-4.211142 -5.344133 0.8301786,-4.515007 -5.025041 1.005307,-3.438488 -4.282415 0.3569297,-3.653559 -3.298213 0.486957,-3.769123 -2.718345 0.5927076,-3.861929 -2.192294 0.6803291,-3.120998 -4.073843 0.4632148,-3.263319 -2.947706 0.568685,-3.263319 -2.947706 0.568685,-3.409142 -1.620383 0.8431728,-2.799104 -4.092483 0.6342167,-2.870298 -2.977458 0.7779481,-2.94902 -2.264144 0.9080036,-3.033575 -1.675058 1.019243,-2.456123 -4.335413 0.8400302,-2.320668 -3.498144 0.9749007,-2.256413 -2.937115 1.088366,-2.208676 -2.418934 1.191566,-8.435553 -6.420022 0.07442221,-7.868958 -6.146753 0.291871,-7.373875 -5.512086 0.4615723,-7.030471 -4.909924 0.6674247,-6.734024 -4.566141 0.8660575,-7.838355 -3.872312 0.1743704,-7.738188 -2.826149 0.2849397,-7.700705 -2.192609 0.4323955,-7.667871 -1.651369 0.5604281,-8.181046 -3.716168 0.2243415,-8.110893 -2.509094 0.31354,-8.066263 -1.735354 0.5145087,-8.02704 -1.070713 0.6916701,-8.510777 -3.779611 0.3023648,-8.48656 -2.666441 0.3929484,-8.45185 -1.959095 0.5382612,-8.397466 -1.360975 0.6474219,-8.84071 -4.045219 0.4090008,-8.954399 -3.215408 0.5199012,-8.9991 -2.653946 0.6227884,-9.008347 -2.110387 0.6873503,0.410, -1 1
-2.713791 -6.71697 0.3827606,-3.314535 -6.477014 0.5833467,-3.84812 -5.882153 0.6954404,-4.224571 -5.31992 0.8456866,-4.525648 -4.980599 1.024555,-3.439959 -4.296955 0.3426423,-3.663594 -3.323654 0.4763746,-3.781355 -2.754641 0.5813138,-3.874582 -2.233965 0.6628795,-3.119504 -4.085159 0.4393525,-3.267603 -2.962545 0.5454929,-3.267603 -2.962545 0.5454929,-3.408403 -1.636854 0.8249287,-2.795162 -4.09781 0.6025092,-2.87184 -3.002603 0.7380432,-2.948434 -2.302766 0.8701055,-3.028439 -1.71663 0.9872542,-2.450563 -4.331167 0.8009364,-2.316748 -3.500553 0.9275078,-2.247139 -2.947959 1.035254,-2.193353 -2.430032 1.141962,-8.429729 -6.414163 0.05939406,-7.863398 -6.131485 0.2857952,-7.370491 -5.502186 0.4618485,-7.027479 -4.901668 0.6692242,-6.72467 -4.564128 0.8734954,-7.832208 -3.87114 0.1870178,-7.733752 -2.822795 0.3048579,-7.700148 -2.185922 0.4492898,-7.670339 -1.638413 0.5743127,-8.177485 -3.71562 0.2292836,-8.108829 -2.504869 0.3285473,-8.067817 -1.732073 0.5307854,-8.032587 -1.062641 0.7102498,-8.508623 -3.780469 0.2968134,-8.484159 -2.661636 0.3990788,-8.452266 -1.95651 0.5495941,-8.399595 -1.354819 0.6601241,-8.840292 -4.043251 0.3918471,-8.951224 -3.214905 0.5084423,-8.995022 -2.659874 0.613021,-9.001926 -2.118532 0.6776518,0.510, -1 1
-2.707951 -6.7201 0.4430317,-3.311165 -6.484014 0.6367284,-3.841515 -5.871016 0.73394,-4.218 -5.289139 0.8750808,-4.525781 -4.951881 1.04491,-3.436163 -4.281474 0.372331,-3.653278 -3.302814 0.4882948,-3.763828 -2.726539 0.5775239,-3.846514 -2.200322 0.6537612,-3.114328 -4.070491 0.4701952,-3.261657 -2.942003 0.563913,-3.261657 -2.942003 0.563913,-3.393289 -1.610054 0.8109823,-2.787549 -4.082673 0.6326212,-2.858897 -2.977236 0.7581409,-2.937392 -2.270757 0.8770093,-3.017534 -1.680679 0.9819453,-2.439546 -4.322273 0.8327723,-2.305468 -3.484123 0.9534093,-2.241191 -2.927412 1.058681,-2.193328 -2.4031 1.158417,-8.417933 -6.391986 0.0413339,-7.857615 -6.12642 0.2677526,-7.365088 -5.495004 0.4450026,-7.028239 -4.893448 0.6594082,-6.724892 -4.553373 0.8709926,-7.829821 -3.852204 0.1614856,-7.724713 -2.805236 0.2816141,-7.688155 -2.17451 0.4296489,-7.657933 -1.633613 0.5525135,-8.174483 -3.698032 0.2144165,-8.101679 -2.483209 0.3105195,-8.057531 -1.709806 0.5060917,-8.020337 -1.046299 0.6758063,-8.504779 -3.76388 0.295894,-8.474829 -2.642175 0.3954297,-8.440392 -1.936779 0.5398061,-8.389064 -1.333424 0.6460525,-8.835452 -4.027887 0.4079586,-8.939298 -3.19058 0.5259542,-8.98014 -2.633593 0.630676,-8.986375 -2.090671 0.6962876,0.610, -1 1
-2.681828 -6.727256 0.5237679,-3.281277 -6.490985 0.7190503,-3.821062 -5.883932 0.8329691,-4.195723 -5.321126 0.9890509,-4.505604 -4.97894 1.179614,-3.434581 -4.272537 0.4770133,-3.646541 -3.291629 0.6121256,-3.762747 -2.720602 0.7191561,-3.857693 -2.201268 0.8022362,-3.11161 -4.058398 0.5789772,-3.256319 -2.937557 0.6819921,-3.256319 -2.937557 0.6819921,-3.402225 -1.607221 0.9476662,-2.784934 -4.073612 0.7472953,-2.862906 -2.975057 0.8784307,-2.940993 -2.277386 1.007487,-3.024105 -1.693539 1.118578,-2.438417 -4.308748 0.9556515,-2.307285 -3.473413 1.080828,-2.240397 -2.91974 1.190276,-2.188593 -2.404878 1.295472,-8.436368 -6.393961 0.04963014,-7.866895 -6.135259 0.2779077,-7.362067 -5.509159 0.450023,-7.017285 -4.906789 0.6590422,-6.722958 -4.557241 0.862528,-7.822194 -3.855698 0.1310626,-7.720264 -2.805254 0.2479486,-7.684744 -2.167229 0.4051895,-7.653779 -1.619609 0.5383503,-8.166149 -3.697739 0.1793356,-8.097143 -2.491454 0.265945,-8.058604 -1.717343 0.4699058,-8.028891 -1.04701 0.6555578,-8.499962 -3.76209 0.2578734,-8.470835 -2.649631 0.3413692,-8.437638 -1.953094 0.4769828,-8.388294 -1.359456 0.5826891,-8.839072 -4.027574 0.3672219,-8.94075 -3.197695 0.4695402,-8.981868 -2.649015 0.559688,-8.989096 -2.111356 0.6175645,0.710, -1 1
-2.686027 -6.722414 0.4980891,-3.28701 -6.494487 0.7011837,-3.828161 -5.894359 0.8013879,-4.211573 -5.316237 0.9365188,-4.515532 -4.98674 1.097299,-3.433838 -4.279459 0.4358791,-3.641894 -3.301347 0.554939,-3.748292 -2.733854 0.651171,-3.83231 -2.206945 0.7331322,-3.111372 -4.059814 0.5250871,-3.261831 -2.949817 0.6138133,-3.261831 -2.949817 0.6138133,-3.398279 -1.634387 0.8751538,-2.784318 -4.071503 0.677101,-2.864407 -2.989814 0.804338,-2.942719 -2.300787 0.9294136,-3.026018 -1.725751 1.037199,-2.435516 -4.310621 0.870486,-2.308315 -3.497844 0.9968649,-2.245762 -2.961499 1.103419,-2.203797 -2.456569 1.202646,-8.443701 -6.39549 0.07237847,-7.872215 -6.145904 0.2852998,-7.364445 -5.510709 0.4505095,-7.022138 -4.898658 0.6549521,-6.725657 -4.546619 0.8534369,-7.828094 -3.852619 0.1283379,-7.724781 -2.803058 0.2281807,-7.687935 -2.171603 0.3688154,-7.655602 -1.635798 0.48963,-8.170991 -3.691904 0.1774754,-8.09847 -2.486001 0.2532039,-8.053515 -1.714436 0.4443619,-8.015306 -1.050683 0.6205557,-8.502022 -3.751354 0.2602886,-8.472296 -2.641004 0.3374204,-8.434856 -1.935646 0.4686672,-8.378615 -1.337775 0.5739294,-8.835818 -4.011739 0.3712266,-8.938941 -3.179716 0.4632847,-8.98097 -2.629941 0.5544662,-8.986639 -2.094263 0.6194897,0.810, -1 1
-2.683152 -6.706397 0.4691266,-3.28926 -6.484436 0.6461528,-3.831994 -5.872721 0.7330308,-4.209123 -5.306472 0.8615865,-4.510695 -4.985963 1.0161,-3.436546 -4.26822 0.373551,-3.653215 -3.306541 0.4792084,-3.764895 -2.745058 0.5623556,-3.849627 -2.228742 0.6315433,-3.115602 -4.053233 0.4725042,-3.268495 -2.947435 0.5524285,-3.268495 -2.947435 0.5524285,-3.4079 -1.644503 0.7927653,-2.790773 -4.060731 0.636557,-2.870779 -2.979141 0.7462295,-2.94613 -2.289449 0.8573542,-3.022224 -1.711891 0.9578261,-2.440832 -4.289116 0.8390086,-2.311004 -3.476717 0.9477419,-2.245108 -2.935829 1.047516,-2.194233 -2.425598 1.147939,-8.432442 -6.404338 0.1007712,-7.865875 -6.140537 0.3518816,-7.363297 -5.494944 0.5344341,-7.021842 -4.883691 0.7522994,-6.716805 -4.534961 0.9637334,-7.826313 -3.854738 0.2280412,-7.722837 -2.805692 0.3492022,-7.685719 -2.170871 0.4993927,-7.654589 -1.633394 0.6253472,-8.16987 -3.694701 0.2677596,-8.09383 -2.487238 0.3630182,-8.046407 -1.713123 0.5599477,-8.008874 -1.048965 0.7364293,-8.500243 -3.753242 0.338997,-8.468631 -2.641649 0.435917,-8.430101 -1.938543 0.5767696,-8.374931 -1.340198 0.682563,-8.833665 -4.014463 0.4445573,-8.935329 -3.181075 0.5555255,-8.974227 -2.633542 0.6548843,-8.979332 -2.100081 0.7222765,0.910, -1 1
-2.681922 -6.73031 0.5187842,-3.286917 -6.497488 0.682851,-3.82325 -5.880361 0.7697909,-4.190968 -5.301142 0.906292,-4.494184 -4.971428 1.068945,-3.432396 -4.276136 0.4228206,-3.649014 -3.310674 0.5458676,-3.763864 -2.753527 0.6393695,-3.852745 -2.237141 0.7119387,-3.114744 -4.062871 0.5352933,-3.263282 -2.954715 0.6338042,-3.263282 -2.954715 0.6338042,-3.402258 -1.64134 0.8832659,-2.793736 -4.077396 0.7111753,-2.870899 -2.99065 0.8409942,-2.947694 -2.304322 0.9570031,-3.029621 -1.721581 1.056707,-2.449547 -4.31954 0.9262681,-2.321716 -3.508095 1.046622,-2.260682 -2.967488 1.149319,-2.216061 -2.454694 1.238415,-8.433599 -6.402635 0.07826716,-7.869417 -6.136707 0.3175929,-7.370928 -5.498025 0.500936,-7.031367 -4.892374 0.7185189,-6.727938 -4.546424 0.9366341,-7.823932 -3.85883 0.2161049,-7.720738 -2.810505 0.3397441,-7.686627 -2.175782 0.4894681,-7.658772 -1.633156 0.6184223,-8.170236 -3.700619 0.2620086,-8.094784 -2.491171 0.3638413,-8.050065 -1.713661 0.5604742,-8.013736 -1.045166 0.739831,-8.503927 -3.760337 0.3369916,-8.474468 -2.645581 0.436499,-8.437832 -1.94191 0.5766922,-8.382729 -1.345371 0.6846743,-8.841393 -4.021009 0.4444184,-8.941521 -3.181723 0.559478,-8.979432 -2.627773 0.6556703,-8.983545 -2.090054 0.7216944,1.010, -1 1
-2.660682 -6.74677 0.5309108,-3.254599 -6.495698 0.7145236,-3.792928 -5.877119 0.8129643,-4.15852 -5.294046 0.957552,-4.459317 -4.943264 1.13502,-3.412237 -4.286502 0.4764529,-3.631998 -3.315982 0.6003841,-3.746887 -2.748223 0.6944163,-3.829303 -2.218947 0.7707807,-3.097311 -4.076847 0.5799019,-3.25383 -2.963945 0.6783043,-3.25383 -2.963945 0.6783043,-3.39105 -1.644519 0.945374,-2.777568 -4.095719 0.7443544,-2.860239 -3.008705 0.8746526,-2.93696 -2.316172 1.00288,-3.016592 -1.72789 1.116453,-2.433208 -4.339396 0.9496752,-2.312975 -3.520714 1.076872,-2.253361 -2.983946 1.189169,-2.208996 -2.479616 1.291224,-8.438746 -6.40608 0.05448497,-7.872624 -6.143197 0.2888049,-7.373682 -5.51634 0.4720226,-7.033488 -4.912375 0.6936359,-6.73349 -4.563709 0.9125253,-7.828116 -3.869029 0.1765786,-7.726154 -2.81396 0.3006181,-7.68941 -2.17769 0.4536616,-7.658018 -1.629512 0.582162,-8.171016 -3.710607 0.2271853,-8.096903 -2.49643 0.3334827,-8.051556 -1.71878 0.5380841,-8.013928 -1.043686 0.7200691,-8.50298 -3.775768 0.3101587,-8.471753 -2.657924 0.4134018,-8.437177 -1.944377 0.5602882,-8.386341 -1.333889 0.6729547,-8.840137 -4.044187 0.422341,-8.940903 -3.196992 0.5424041,-8.980901 -2.632883 0.647498,-8.988253 -2.084312 0.7171919,1.110, -1 1
-2.629255 -6.868825 0.7227235,-3.225097 -6.507755 0.8598983,-3.716888 -5.818726 0.9252921,-4.001183 -5.136887 1.064391,-4.272615 -4.676471 1.228734,-3.392987 -4.325025 0.530185,-3.611689 -3.362994 0.6490509,-3.74299 -2.79206 0.7424755,-3.841192 -2.265576 0.8187586,-3.087961 -4.147573 0.6501028,-3.246207 -3.050757 0.7092775,-3.246207 -3.050757 0.7092775,-3.421644 -1.765285 0.9256207,-2.776876 -4.182559 0.8507202,-2.862147 -3.122591 0.9435338,-2.949803 -2.467113 1.055435,-3.041709 -1.900746 1.157423,-2.438748 -4.425332 1.09512,-2.361923 -3.623619 1.200741,-2.346244 -3.098987 1.312724,-2.347281 -2.625206 1.406115,-8.451756 -6.418792 0.113501,-7.885701 -6.155221 0.3588443,-7.384372 -5.509693 0.5427013,-7.045662 -4.896194 0.7614405,-6.747028 -4.548165 0.9749646,-7.837187 -3.865923 0.2576964,-7.730697 -2.81064 0.3970574,-7.694613 -2.175243 0.5561956,-7.665173 -1.630513 0.6854224,-8.183737 -3.707456 0.3020542,-8.103585 -2.489927 0.4163795,-8.05927 -1.710046 0.616778,-8.024134 -1.038257 0.7969497,-8.517469 -3.768289 0.3770243,-8.479961 -2.642108 0.4872815,-8.443899 -1.928852 0.6316128,-8.392415 -1.320693 0.7435305,-8.854332 -4.03348 0.4843296,-8.948293 -3.188694 0.5983633,-8.985439 -2.634202 0.6978016,-8.991671 -2.093065 0.7704304,1.210, -1 1
-2.593939 -6.873675 0.4335657,-3.15868 -6.499004 0.6609212,-3.605772 -5.769907 0.7303888,-3.800221 -5.074079 0.875845,-3.96393 -4.532152 1.014351,-3.348226 -4.342214 0.173893,-3.530435 -3.368512 0.2091487,-3.633707 -2.802217 0.2954549,-3.729933 -2.280927 0.3766705,-3.011337 -4.234752 0.2502628,-3.100058 -3.226575 0.296474,-3.100058 -3.226575 0.296474,-3.233075 -2.695133 0.6384788,-2.703273 -4.322187 0.4048362,-2.73572 -3.427652 0.5012408,-2.7925 -3.01817 0.7744433,-2.872795 -2.896686 0.9880779,-2.376522 -4.577547 0.6193156,-2.353052 -3.90308 0.7417363,-2.415086 -3.599433 0.9415428,-2.501329 -3.461421 1.132587,-8.459305 -6.415056 0.1343491,-7.889567 -6.153675 0.3819817,-7.384346 -5.513372 0.5681273,-7.033656 -4.90695 0.7872877,-6.731262 -4.555681 1.004449,-7.83695 -3.861269 0.2716633,-7.733083 -2.812322 0.3971142,-7.698269 -2.176336 0.5512127,-7.669339 -1.634375 0.6779466,-8.181866 -3.69764 0.3077893,-8.108177 -2.487129 0.4083596,-8.066885 -1.710301 0.6137823,-8.035475 -1.03673 0.7987934,-8.516251 -3.758642 0.3733464,-8.485379 -2.641992 0.4710648,-8.451886 -1.934614 0.6166856,-8.403917 -1.334662 0.7303879,-8.854653 -4.023712 0.4699905,-8.960407 -3.193311 0.5775509,-9.003709 -2.641454 0.6744542,-9.013901 -2.102189 0.7406346,1.310, -1 1
-2.603023 -6.781515 0.1569307,-3.171164 -6.458955 0.4584436,-3.590036 -5.718873 0.6399816,-3.806088 -4.98469 0.8667693,-3.98941 -4.347541 1.083522,-3.360903 -4.279642 0.000512585,-3.519207 -3.361914 0.04702111,-3.627858 -2.789285 0.1893616,-3.717836 -2.252743 0.3503555,-3.021192 -4.217737 0.07686569,-3.064939 -3.151435 0.3806702,-3.064939 -3.151435 0.3806702,-3.107445 -3.443425 0.9550151,-2.701437 -4.306604 0.2187559,-2.703017 -3.317926 0.5155439,-2.787885 -3.322551 0.9043867,-2.83494 -3.653098 1.124763,-2.365062 -4.5376 0.4080848,-2.35523 -3.788219 0.6715909,-2.452526 -3.763713 0.9509745,-2.518518 -4.030576 1.155898,-8.441173 -6.416807 0.1590417,-7.886705 -6.149532 0.4041744,-7.390376 -5.492304 0.5890371,-7.052575 -4.876157 0.811682,-6.74934 -4.528967 1.032022,-7.841219 -3.849263 0.2898756,-7.73667 -2.805472 0.4147415,-7.699801 -2.174196 0.5637614,-7.669065 -1.635625 0.6865185,-8.184747 -3.69075 0.3402642,-8.103178 -2.479958 0.4444419,-8.056242 -1.701686 0.6437629,-8.02085 -1.031493 0.8200136,-8.514794 -3.752192 0.423401,-8.47924 -2.629318 0.5325004,-8.442949 -1.910238 0.6843587,-8.391448 -1.296813 0.8014291,-8.849418 -4.02093 0.5392883,-8.952719 -3.176722 0.658044,-8.993205 -2.620295 0.7666776,-9.002025 -2.079248 0.8440726,1.410, -1 1
-2.576896 -7.001569 -0.350287,-3.093 -6.58529 -0.03338277,-3.508381 -5.830326 0.1478832,-3.702993 -5.068707 0.3458581,-3.796824 -4.401474 0.5338952,-3.309155 -4.632129 -0.229867,-3.482077 -3.737844 -0.02106416,-3.590331 -3.218205 0.1515554,-3.682534 -2.710555 0.3120417,-2.976572 -4.586774 -0.1766563,-3.018619 -3.903766 0.358561,-3.018619 -3.903766 0.358561,-3.036341 -5.462768 0.4840008,-2.641076 -4.672669 -0.07091361,-2.672761 -4.075471 0.4458426,-2.756702 -4.954929 0.4818171,-2.786248 -5.52699 0.3970366,-2.304048 -4.888435 0.06142879,-2.324779 -4.368993 0.4100005,-2.449041 -4.94231 0.4592505,-2.525939 -5.361977 0.4330522,-8.453825 -6.437622 0.1658102,-7.898461 -6.15871 0.382664,-7.402849 -5.498202 0.553104,-7.066293 -4.877416 0.7645819,-6.766459 -4.520521 0.9743429,-7.85845 -3.860443 0.2595555,-7.754287 -2.807837 0.3798739,-7.71773 -2.170715 0.5311734,-7.685692 -1.626254 0.6593765,-8.203039 -3.707294 0.3178178,-8.127237 -2.492118 0.4192926,-8.080954 -1.710408 0.6223044,-8.044926 -1.038782 0.8049693,-8.534577 -3.774726 0.4078096,-8.503537 -2.653306 0.5136101,-8.466312 -1.938172 0.6619905,-8.411105 -1.324041 0.7747439,-8.86951 -4.05063 0.526472,-8.97402 -3.206928 0.6391618,-9.014311 -2.655044 0.74023,-9.021211 -2.110189 0.8137361,1.510, -1 1
-2.526734 -7.01578 -0.4654123,-3.041405 -6.629417 -0.125389,-3.472605 -5.88418 0.06942296,-3.681299 -5.121129 0.2701711,-3.743665 -4.46934 0.4784746,-3.28064 -4.704154 -0.2421259,-3.446985 -3.87894 0.0654819,-3.538593 -3.409997 0.2906569,-3.620667 -2.963474 0.4529504,-2.934881 -4.644238 -0.1998898,-2.944743 -4.146671 0.3921949,-2.944743 -4.146671 0.3921949,-2.952485 -5.650168 0.5258709,-2.586175 -4.727909 -0.1105272,-2.589059 -4.3618 0.4444785,-2.660727 -5.240109 0.474474,-2.697221 -5.741292 0.3771603,-2.249538 -4.943193 0.006860644,-2.239154 -4.536239 0.3780552,-2.347873 -5.163908 0.4061889,-2.424494 -5.57691 0.3461393,-8.46187 -6.433242 0.1667538,-7.896374 -6.162876 0.3948446,-7.400322 -5.514269 0.574791,-7.062895 -4.891511 0.7903116,-6.763996 -4.533189 1.002679,-7.857371 -3.860887 0.2834214,-7.758098 -2.80729 0.3998484,-7.723194 -2.16742 0.5509859,-7.693232 -1.622192 0.6789092,-8.203775 -3.704265 0.3347948,-8.136811 -2.48978 0.4305514,-8.096835 -1.712983 0.6293914,-8.066206 -1.043146 0.808663,-8.536761 -3.772696 0.4162508,-8.516849 -2.657399 0.5086975,-8.484999 -1.951444 0.6459656,-8.435508 -1.349728 0.7506273,-8.871908 -4.046014 0.527541,-8.983357 -3.213792 0.6342419,-9.026124 -2.660377 0.7255601,-9.035095 -2.118269 0.7831942,1.610, -1 1
-2.477973 -6.944093 -0.8873867,-2.9684 -6.581831 -0.4735034,-3.361897 -5.8766 -0.2549426,-3.514119 -5.13751 -0.04076809,-3.638451 -4.516387 0.178586,-3.175869 -4.77263 -0.5086383,-3.322412 -4.032082 -0.08837658,-3.399729 -3.579406 0.179921,-3.458637 -3.144725 0.3843031,-2.830557 -4.707586 -0.4797835,-2.809246 -4.294191 0.1850746,-2.809246 -4.294191 0.1850746,-2.825515 -5.789869 0.3074402,-2.480095 -4.818698 -0.3944689,-2.448901 -4.545118 0.2180424,-2.51947 -5.433794 0.2083513,-2.564714 -5.934659 0.09291142,-2.150398 -5.064958 -0.2732726,-2.080487 -4.675838 0.1488445,-2.192318 -5.298094 0.1547225,-2.28637 -5.721151 0.06007427,-8.467404 -6.439445 0.1794114,-7.914511 -6.167707 0.42403,-7.419805 -5.504119 0.6067029,-7.083673 -4.883982 0.8266651,-6.779695 -4.532728 1.042728,-7.872187 -3.866947 0.3155727,-7.770549 -2.815248 0.4418123,-7.736432 -2.176079 0.5922862,-7.708534 -1.627735 0.7215211,-8.214982 -3.707315 0.3628944,-8.143879 -2.493103 0.4713213,-8.102965 -1.714216 0.6773666,-8.070822 -1.038199 0.86217,-8.543932 -3.770507 0.4411252,-8.521027 -2.652282 0.5526701,-8.491158 -1.940917 0.7043566,-8.442007 -1.330631 0.8218666,-8.875523 -4.038367 0.5498436,-8.986184 -3.204949 0.6733359,-9.029619 -2.652234 0.7775487,-9.03885 -2.108601 0.8483875,1.710, -1 1
-2.454547 -6.892787 -0.8685618,-2.922772 -6.580051 -0.4220099,-3.314602 -5.903162 -0.1717489,-3.475929 -5.196426 0.05699235,-3.618195 -4.593505 0.3088223,-3.126163 -4.745004 -0.3592353,-3.268587 -4.036195 0.1186712,-3.331499 -3.59395 0.4323975,-3.368362 -3.181265 0.6546595,-2.777863 -4.667228 -0.3589963,-2.760209 -4.403881 0.3264149,-2.760209 -4.403881 0.3264149,-2.770578 -5.836824 0.4958287,-2.422284 -4.788435 -0.3017598,-2.406719 -4.66448 0.3118391,-2.475066 -5.524328 0.3208804,-2.511487 -5.991609 0.2301517,-2.091788 -5.049459 -0.2185271,-2.01826 -4.749441 0.2216437,-2.129307 -5.38096 0.2386956,-2.221056 -5.786019 0.1567168,-8.482112 -6.424732 0.1327553,-7.916361 -6.164301 0.3678518,-7.423071 -5.525192 0.554395,-7.082438 -4.904633 0.7770705,-6.781655 -4.538726 0.9968504,-7.874104 -3.873822 0.2527004,-7.773946 -2.820952 0.3799126,-7.742851 -2.193962 0.5351601,-7.720426 -1.657281 0.6649874,-8.216797 -3.706345 0.3027031,-8.149434 -2.479108 0.4013363,-8.112676 -1.703433 0.6014081,-8.085526 -1.032523 0.7800783,-8.546525 -3.766047 0.3838296,-8.525263 -2.633121 0.4858016,-8.496615 -1.917048 0.6380835,-8.45449 -1.299064 0.7590387,-8.879505 -4.035423 0.4948777,-8.993396 -3.199569 0.6127824,-9.040823 -2.639334 0.7220772,-9.056763 -2.089682 0.7975472,1.810, -1 1
-2.389906 -6.878588 -1.215696,-2.850044 -6.6042 -0.6667862,-3.238728 -5.955694 -0.3510066,-3.392223 -5.284935 -0.0888412,-3.511544 -4.680134 0.1713257,-3.026783 -4.858686 -0.510045,-3.139544 -4.16934 0.02618182,-3.189089 -3.713619 0.3654696,-3.213748 -3.288162 0.6180904,-2.661753 -4.797295 -0.5341514,-2.600597 -4.539505 0.2241883,-2.600597 -4.539505 0.2241883,-2.680998 -5.919046 0.3093473,-2.289707 -4.922294 -0.4861703,-2.222932 -4.786764 0.1907853,-2.316506 -5.644811 0.1550471,-2.391784 -6.091208 0.03025627,-1.949749 -5.164916 -0.4014547,-1.834198 -4.856748 0.07652497,-1.95463 -5.491716 0.07513726,-2.07385 -5.87865 -0.0151341,-8.489521 -6.457376 0.1928896,-7.930504 -6.180831 0.4158345,-7.435251 -5.519632 0.5980674,-7.094918 -4.89697 0.8183144,-6.787113 -4.54109 1.039993,-7.888412 -3.879383 0.3179033,-7.784588 -2.823007 0.4408049,-7.749174 -2.190279 0.5900689,-7.719319 -1.647398 0.7141863,-8.237428 -3.720942 0.3704621,-8.16653 -2.503089 0.469617,-8.126964 -1.717308 0.6704731,-8.096025 -1.037365 0.8497381,-8.572249 -3.79124 0.4520403,-8.545588 -2.662384 0.5499685,-8.514142 -1.940648 0.6934915,-8.466522 -1.325836 0.8044952,-8.908654 -4.066453 0.5637318,-9.016935 -3.221747 0.6748055,-9.057911 -2.660429 0.7782005,-9.066358 -2.11186 0.8453119,1.910, -1 1
-2.338089 -6.8658 -1.408515,-2.806924 -6.628982 -0.8490252,-3.189644 -5.994167 -0.5080553,-3.339016 -5.331821 -0.2378216,-3.444161 -4.723861 0.02643371,-2.969121 -4.94523 -0.5827876,-3.074024 -4.261109 -0.04995441,-3.114038 -3.781148 0.2774068,-3.125587 -3.313732 0.5241326,-2.596903 -4.879068 -0.6235269,-2.508273 -4.64056 0.1136167,-2.508273 -4.64056 0.1136167,-2.630157 -5.926698 0.1135931,-2.219536 -5.004509 -0.6022274,-2.133579 -4.866874 0.05044496,-2.254886 -5.705348 -0.03383815,-2.346733 -6.098024 -0.1751726,-1.884595 -5.235693 -0.5436535,-1.766217 -4.96999 -0.09054697,-1.898638 -5.589565 -0.1212541,-2.021288 -5.925985 -0.2278484,-8.510743 -6.469831 0.2440026,-7.944157 -6.198881 0.4888679,-7.441225 -5.540246 0.6722198,-7.098229 -4.915723 0.8908309,-6.790667 -4.547688 1.107803,-7.890631 -3.886489 0.3750427,-7.788067 -2.826872 0.4994202,-7.753031 -2.187294 0.6479504,-7.727674 -1.6383 0.7680872,-8.239508 -3.720469 0.4208143,-8.169726 -2.501847 0.5224721,-8.132103 -1.722514 0.7217605,-8.104096 -1.046878 0.8943338,-8.57524 -3.789304 0.5000603,-8.54565 -2.652916 0.6028647,-8.513809 -1.931325 0.7533849,-8.467373 -1.317303 0.8660262,-8.915016 -4.06726 0.6094394,-9.026481 -3.22625 0.7293251,-9.068285 -2.66466 0.8402051,-9.078305 -2.119007 0.9116229,2.010, -1 1
-2.303066 -6.791954 -1.215488,-2.776128 -6.607971 -0.5224443,-3.117588 -5.991579 -0.1023673,-3.225374 -5.393629 0.2178489,-3.348619 -4.828655 0.5405978,-2.866455 -4.943783 -0.07750893,-2.940297 -4.436395 0.6460471,-2.968042 -3.989454 1.072564,-2.981106 -3.493592 1.358467,-2.468385 -4.850603 -0.1789485,-2.380275 -4.756166 0.6438959,-2.380275 -4.756166 0.6438959,-2.572324 -6.066638 0.5022869,-2.080264 -4.982423 -0.2011759,-1.988883 -4.947467 0.5633619,-2.148122 -5.816247 0.3882108,-2.271239 -6.188057 0.1536183,-1.75288 -5.231122 -0.1705523,-1.646806 -5.074644 0.3084437,-1.809175 -5.67522 0.2231041,-1.954954 -5.94416 0.07019961,-8.508456 -6.517871 0.3096488,-7.945067 -6.230361 0.5359112,-7.450272 -5.561786 0.7128898,-7.117931 -4.926258 0.9296698,-6.813365 -4.566859 1.14394,-7.902166 -3.911982 0.4297226,-7.801826 -2.857578 0.5531556,-7.7658 -2.216098 0.7107902,-7.738153 -1.663392 0.8438761,-8.249925 -3.748333 0.4849986,-8.18107 -2.531828 0.5858176,-8.143852 -1.742054 0.7964777,-8.118154 -1.058497 0.9844955,-8.583124 -3.81678 0.5705839,-8.560663 -2.68986 0.6676356,-8.532149 -1.966488 0.8152855,-8.491264 -1.351872 0.9313982,-8.919538 -4.096241 0.6862178,-9.035231 -3.247234 0.8038266,-9.080987 -2.676836 0.9105002,-9.099378 -2.121972 0.9791117,2.110, -1 1
-2.189421 -6.876297 -0.376605,-2.682203 -6.640878 0.2848963,-3.067586 -6.069711 0.7746046,-3.204071 -5.491877 1.168495,-3.318084 -4.918172 1.59787,-2.845757 -4.975969 0.9335275,-2.92826 -4.544084 1.734907,-2.923711 -4.132555 2.200116,-2.901901 -3.639637 2.485923,-2.417089 -4.764933 0.8385506,-2.324817 -4.909314 1.63387,-2.324817 -4.909314 1.63387,-2.49906 -6.099294 1.440217,-1.987932 -4.867223 0.8291792,-1.894239 -5.046547 1.561135,-2.065919 -5.911995 1.317094,-2.182981 -6.173897 1.052108,-1.631524 -5.110474 0.8644478,-1.540345 -5.133075 1.282096,-1.714936 -5.789213 1.122635,-1.852406 -6.000465 0.9326886,-8.503995 -6.504022 0.2720479,-7.939605 -6.211334 0.4943108,-7.448961 -5.546152 0.6708193,-7.115706 -4.918807 0.8900668,-6.809093 -4.556194 1.107981,-7.907763 -3.898475 0.395703,-7.809525 -2.844812 0.5161654,-7.763132 -2.201531 0.665329,-7.725695 -1.648407 0.7934399,-8.254339 -3.74526 0.4597729,-8.192003 -2.524134 0.5554495,-8.151093 -1.727485 0.7613952,-8.121402 -1.043956 0.9424914,-8.587622 -3.824743 0.5538394,-8.566289 -2.695833 0.6538321,-8.53263 -1.976484 0.8050286,-8.483117 -1.363911 0.9171389,-8.924473 -4.108639 0.6782962,-9.042204 -3.268575 0.8075536,-9.088542 -2.703344 0.9197279,-9.10216 -2.146508 0.9874021,2.210, -1 1
-2.156787 -6.905772 0.4114187,-2.660287 -6.720287 1.070657,-3.065401 -6.156963 1.602186,-3.206295 -5.569149 2.052651,-3.30569 -4.948534 2.530788,-2.870729 -4.82757 1.687727,-2.949014 -4.542164 2.479817,-2.931078 -4.219366 2.936884,-2.88712 -3.796039 3.204051,-2.42861 -4.523092 1.589377,-2.367438 -4.93689 2.34065,-2.367438 -4.93689 2.34065,-2.50108 -6.133667 2.119573,-1.978758 -4.613224 1.59339,-1.923437 -5.031576 2.27392,-2.071903 -5.936724 1.995082,-2.159101 -6.1497 1.716395,-1.602911 -4.871908 1.643817,-1.554106 -5.039457 1.992696,-1.717187 -5.743143 1.789661,-1.833052 -5.933902 1.571269,-8.498423 -6.501055 0.241962,-7.935734 -6.204831 0.4722774,-7.44521 -5.541955 0.6538368,-7.113037 -4.914237 0.8769428,-6.799544 -4.559065 1.101388,-7.903064 -3.905731 0.3733141,-7.806618 -2.843286 0.5010362,-7.768044 -2.202404 0.6557784,-7.737393 -1.650903 0.7842339,-8.251719 -3.751112 0.4358368,-8.188658 -2.526295 0.5412318,-8.151919 -1.729043 0.7550568,-8.125238 -1.04059 0.941117,-8.586165 -3.826207 0.5273001,-8.565135 -2.692955 0.6304854,-8.54145 -1.968899 0.785713,-8.505017 -1.353353 0.9038532,-8.923195 -4.10698 0.651061,-9.041192 -3.255013 0.7755437,-9.090181 -2.684792 0.8890863,-9.110515 -2.129762 0.9605418,2.310, -1 1
-2.141572 -6.882421 0.3881104,-2.644222 -6.666704 1.02242,-3.073105 -6.228975 1.591853,-3.235503 -5.705122 2.072277,-3.301823 -5.03499 2.551726,-2.890439 -4.923599 1.85868,-2.950428 -4.702266 2.696822,-2.931683 -4.404554 3.148755,-2.888527 -4.029973 3.424587,-2.434114 -4.628273 1.779547,-2.322248 -5.11301 2.549949,-2.322248 -5.11301 2.549949,-2.508821 -6.088827 2.267868,-1.973391 -4.737195 1.786423,-1.859798 -5.213209 2.489278,-2.064891 -6.01823 2.100111,-2.191895 -6.088093 1.760901,-1.597036 -5.014999 1.836631,-1.518534 -5.279681 2.202135,-1.727355 -5.896799 1.969189,-1.879807 -5.967918 1.746124,-8.51491 -6.509451 0.2595327,-7.955881 -6.227239 0.4890572,-7.464235 -5.567586 0.6814555,-7.127478 -4.941591 0.9160726,-6.82062 -4.577325 1.150268,-7.913786 -3.909461 0.3967025,-7.819829 -2.844196 0.5319022,-7.78634 -2.195167 0.6974996,-7.761086 -1.6327 0.8280503,-8.261558 -3.755583 0.4605563,-8.196756 -2.525296 0.574013,-8.158298 -1.724718 0.7870676,-8.131062 -1.036596 0.9704428,-8.598613 -3.835195 0.5550178,-8.57456 -2.687455 0.6687068,-8.545312 -1.941711 0.8303376,-8.503793 -1.311768 0.9521241,-8.939587 -4.128278 0.6787676,-9.056459 -3.264295 0.808089,-9.104101 -2.682487 0.9267939,-9.123183 -2.121266 1.001921,2.410, -1 2
-2.190372 -6.941493 0.8054254,-2.690445 -6.713251 1.462901,-3.087243 -6.274237 2.070381,-3.235715 -5.81842 2.590782,-3.33075 -5.174318 3.127641,-2.912348 -4.807118 2.215921,-2.951837 -4.659568 3.02368,-2.924153 -4.422073 3.473279,-2.846009 -4.138477 3.757776,-2.438645 -4.511028 2.140942,-2.341601 -5.235433 2.904693,-2.341601 -5.235433 2.904693,-2.524875 -6.289658 2.663967,-1.96951 -4.662872 2.162068,-1.875587 -5.303119 2.836317,-2.09294 -6.139823 2.482325,-2.199516 -6.227697 2.184212,-1.596268 -4.991783 2.230795,-1.53358 -5.362168 2.579037,-1.760073 -6.004113 2.348189,-1.896257 -6.082815 2.126114,-8.527649 -6.527721 0.2772409,-7.966043 -6.239923 0.5002749,-7.472091 -5.582857 0.6810728,-7.137183 -4.951269 0.9011178,-6.829781 -4.590953 1.121273,-7.921979 -3.925828 0.4105092,-7.833436 -2.85784 0.533937,-7.795521 -2.213383 0.6791451,-7.763973 -1.667593 0.7993702,-8.272951 -3.768123 0.467701,-8.208411 -2.538436 0.5766313,-8.169539 -1.742604 0.7856038,-8.137527 -1.05742 0.9695926,-8.609648 -3.84696 0.5544071,-8.582807 -2.701299 0.6632748,-8.557196 -1.961593 0.8250996,-8.515909 -1.334629 0.9509584,-8.948995 -4.134019 0.6677023,-9.068706 -3.271789 0.7946094,-9.117475 -2.697232 0.9196774,-9.133278 -2.136215 1.002512,2.510, -1 2
-2.136662 -6.949401 1.028316,-2.637998 -6.771888 1.727652,-3.057018 -6.366355 2.37891,-3.239456 -5.938954 2.953517,-3.330325 -5.302194 3.57774,-2.921383 -4.801816 2.449553,-2.971758 -4.658638 3.263756,-2.930799 -4.453495 3.7228,-2.839886 -4.241882 4.025161,-2.460302 -4.464422 2.381594,-2.34966 -5.292345 3.169885,-2.34966 -5.292345 3.169885,-2.526087 -6.421124 3.00616,-1.987067 -4.607599 2.411451,-1.881539 -5.373849 3.112944,-2.087472 -6.248487 2.802728,-2.198166 -6.385679 2.539413,-1.597143 -4.940464 2.497492,-1.512944 -5.427103 2.871678,-1.728746 -6.116665 2.657043,-1.871989 -6.232947 2.451039,-8.536983 -6.526834 0.323713,-7.974951 -6.239458 0.5488319,-7.482775 -5.579305 0.7391233,-7.144155 -4.944038 0.9701794,-6.829531 -4.575859 1.205364,-7.935416 -3.917372 0.4726842,-7.842237 -2.849773 0.6016255,-7.807966 -2.207332 0.75181,-7.779395 -1.656711 0.8762871,-8.284959 -3.755154 0.534948,-8.223275 -2.529128 0.6407,-8.188066 -1.735547 0.8448877,-8.161061 -1.053071 1.026969,-8.621466 -3.83463 0.6266525,-8.601651 -2.694778 0.7313225,-8.575548 -1.963113 0.8858211,-8.535734 -1.34251 1.003045,-8.960853 -4.126092 0.7460204,-9.080572 -3.269128 0.8732347,-9.131651 -2.69207 0.9938157,-9.153308 -2.127756 1.072481,2.610, -1 2
-2.216392 -7.098854 1.659614,-2.691559 -6.838764 2.435262,-3.077425 -6.383239 3.121397,-3.218885 -5.989746 3.714662,-3.258121 -5.392745 4.382813,-2.919977 -4.737398 3.151456,-2.963159 -4.64212 3.989902,-2.905008 -4.48596 4.507215,-2.785198 -4.30289 4.8666,-2.427328 -4.414423 3.045447,-2.301569 -5.292492 3.83953,-2.301569 -5.292492 3.83953,-2.489407 -6.552906 3.701068,-1.938731 -4.605724 3.046574,-1.831239 -5.435299 3.763959,-2.06501 -6.327135 3.456263,-2.18873 -6.502593 3.19746,-1.546787 -4.999511 3.110275,-1.46727 -5.500551 3.501415,-1.707899 -6.209291 3.263983,-1.854371 -6.343653 3.055675,-8.546825 -6.564504 0.3731533,-7.983456 -6.26383 0.5901442,-7.497975 -5.596773 0.7673576,-7.168446 -4.960124 0.9845496,-6.858099 -4.59634 1.197868,-7.955759 -3.932551 0.4899681,-7.86905 -2.872801 0.6084442,-7.841012 -2.220135 0.7562775,-7.815866 -1.655374 0.8853354,-8.301463 -3.77559 0.5500089,-8.246264 -2.557093 0.6472714,-8.211093 -1.770442 0.8494684,-8.180742 -1.093318 1.022007,-8.635294 -3.850438 0.6403261,-8.622864 -2.712757 0.7372307,-8.597244 -1.993457 0.8818476,-8.553986 -1.385263 0.9846228,-8.971029 -4.137228 0.7561548,-9.094765 -3.294972 0.8774277,-9.145567 -2.720564 0.9834539,-9.168388 -2.162626 1.046477,2.710, -1 2
-2.172433 -7.135822 1.451655,-2.645061 -6.914545 2.236032,-3.044688 -6.456357 2.900949,-3.193113 -5.979679 3.47626,-3.270894 -5.33853 4.111399,-2.885243 -4.83265 2.914031,-2.930933 -4.651392 3.788276,-2.871665 -4.441448 4.315449,-2.764648 -4.158443 4.667907,-2.39806 -4.499753 2.798957,-2.259667 -5.258255 3.606563,-2.259667 -5.258255 3.606563,-2.46662 -6.4598 3.382418,-1.918943 -4.661914 2.793799,-1.796889 -5.375218 3.528848,-2.028047 -6.304672 3.198354,-2.161479 -6.438073 2.901997,-1.538545 -5.009904 2.857238,-1.448167 -5.4543 3.249292,-1.685156 -6.164371 2.995824,-1.845838 -6.263849 2.761048,-8.568067 -6.577491 0.3386705,-8.007599 -6.275402 0.574458,-7.519101 -5.594627 0.7605903,-7.188824 -4.959193 0.9865173,-6.875513 -4.595359 1.213761,-7.96992 -3.95066 0.4978214,-7.88028 -2.887409 0.6371572,-7.846725 -2.234466 0.7923296,-7.819378 -1.668906 0.9201342,-8.321683 -3.801867 0.5614333,-8.258823 -2.570225 0.6835483,-8.221161 -1.764167 0.8993393,-8.191408 -1.06961 1.083847,-8.659167 -3.884544 0.6555021,-8.638159 -2.732987 0.775026,-8.609123 -1.993864 0.9371367,-8.563391 -1.366816 1.058912,-9.000858 -4.1765 0.7784458,-9.113656 -3.307012 0.9200326,-9.159047 -2.721709 1.044909,-9.174698 -2.152731 1.127938,2.810, -1 2
-2.181494 -7.244752 -0.06848084,-2.688043 -6.913574 0.4809563,-3.044436 -6.232989 0.8865629,-3.217716 -5.609004 1.254816,-3.459136 -5.102947 1.676124,-2.769159 -5.021223 0.9193094,-2.858225 -4.450516 1.538852,-2.882166 -3.946461 1.863032,-2.876156 -3.47087 2.041134,-2.370371 -4.898576 0.8714234,-2.307217 -4.768817 1.63925,-2.307217 -4.768817 1.63925,-2.398168 -6.249254 1.732104,-1.973523 -5.020385 0.8803853,-1.902151 -4.936083 1.558785,-2.013298 -5.820361 1.519713,-2.094912 -6.316949 1.367483,-1.616409 -5.312545 0.915665,-1.513133 -5.022823 1.399209,-1.637823 -5.655174 1.407228,-1.758025 -6.066049 1.300642,-8.607062 -6.585605 0.3362224,-8.037505 -6.279318 0.5506481,-7.541458 -5.609001 0.7211732,-7.203034 -4.971354 0.9313026,-6.891797 -4.613092 1.130356,-8.001227 -3.95908 0.4364745,-7.913447 -2.892292 0.5593917,-7.874923 -2.231178 0.7087795,-7.837521 -1.667917 0.8336507,-8.35089 -3.806962 0.4909914,-8.291821 -2.575033 0.6018251,-8.249942 -1.779712 0.8104382,-8.215231 -1.101008 0.9934813,-8.687191 -3.888237 0.5769909,-8.667994 -2.734511 0.6824642,-8.637494 -2.003534 0.8323027,-8.586886 -1.385507 0.9401003,-9.026194 -4.179219 0.6874735,-9.137679 -3.323732 0.8049446,-9.179584 -2.759994 0.9116399,-9.193177 -2.212757 0.9825456,2.910, -1 2
-2.270095 -7.092922 -0.669074,-2.759529 -6.716733 -0.1806323,-3.128214 -5.971529 0.1439122,-3.333006 -5.300256 0.3785868,-3.578175 -4.799314 0.6061405,-2.789545 -4.923109 0.2256192,-2.870907 -4.240159 0.6384153,-2.927117 -3.641237 0.8800272,-2.982976 -3.079943 1.074757,-2.40826 -4.885918 0.1637912,-2.420238 -4.214747 0.740572,-2.420238 -4.214747 0.740572,-2.506725 -5.204616 0.9680268,-2.042655 -5.033216 0.1421844,-2.012971 -4.489763 0.7087373,-2.134806 -5.096097 0.7750094,-2.209812 -5.628107 0.720396,-1.698566 -5.315588 0.1454418,-1.623997 -4.67502 0.5669141,-1.742602 -5.005656 0.6687317,-1.837569 -5.441418 0.6665559,-8.577076 -6.574319 0.3364303,-8.01598 -6.268611 0.5816545,-7.530705 -5.606153 0.7769347,-7.201878 -4.966756 1.005769,-6.882835 -4.609012 1.224927,-7.994339 -3.952662 0.5032507,-7.907551 -2.885402 0.6400049,-7.874475 -2.229846 0.7926105,-7.84478 -1.665378 0.9210113,-8.345117 -3.797276 0.5484475,-8.285611 -2.563979 0.6742402,-8.250887 -1.769613 0.8845346,-8.223444 -1.084354 1.073586,-8.680948 -3.87435 0.6234165,-8.665534 -2.718607 0.7411147,-8.642147 -1.990432 0.8952889,-8.599359 -1.371717 1.009755,-9.019164 -4.16327 0.7262188,-9.138261 -3.309139 0.851788,-9.186079 -2.74665 0.9582535,-9.203085 -2.199016 1.030957,3.010, -1 2
-2.331155 -6.834707 -0.6092052,-2.89422 -6.530012 -0.1839835,-3.276278 -5.748992 0.01262492,-3.417432 -4.9759 0.1919625,-3.605062 -4.275345 0.3619978,-2.987042 -4.542295 -0.4233359,-3.093165 -3.681421 -0.1998612,-3.142378 -3.084694 0.08308697,-3.153828 -2.54527 0.3394407,-2.614184 -4.47808 -0.4331921,-2.629932 -3.662948 -0.02737451,-2.629932 -3.662948 -0.02737451,-2.565586 -3.168182 0.6650002,-2.261222 -4.59468 -0.3609131,-2.22066 -3.794818 0.05590451,-2.23499 -3.474254 0.4954479,-2.232665 -3.463252 0.7822485,-1.906389 -4.876689 -0.2700554,-1.818352 -4.211581 0.09898734,-1.849882 -4.003372 0.4360317,-1.89963 -4.057069 0.6973951,-8.565505 -6.575338 0.3066026,-8.006521 -6.268659 0.5503364,-7.51808 -5.613041 0.7385485,-7.187228 -4.984396 0.9646001,-6.875458 -4.634242 1.191646,-7.984314 -3.95745 0.4356253,-7.895065 -2.895159 0.5568295,-7.85407 -2.247657 0.7119231,-7.820506 -1.698575 0.8419457,-8.333336 -3.804351 0.4826223,-8.278933 -2.577754 0.5841373,-8.239844 -1.786542 0.7946053,-8.21019 -1.104052 0.9822527,-8.668 -3.883348 0.5583779,-8.650546 -2.744098 0.6542066,-8.623214 -2.024081 0.7958692,-8.58098 -1.412715 0.9021474,-9.004768 -4.165367 0.6685247,-9.125958 -3.315915 0.7783338,-9.174216 -2.749469 0.87247,-9.19399 -2.197143 0.9315379,3.110, -1 2
-2.385515 -6.72463 -0.1798943,-2.947618 -6.476522 0.1931091,-3.334917 -5.668615 0.3152313,-3.478165 -4.890476 0.4545783,-3.659772 -4.189107 0.5811567,-3.004543 -4.326452 -0.3312488,-3.152493 -3.452665 -0.2758656,-3.224823 -2.844744 -0.1284043,-3.268548 -2.290721 0.04782557,-2.639353 -4.23951 -0.3333061,-2.685156 -3.310703 -0.1529282,-2.685156 -3.310703 -0.1529282,-2.714874 -2.765333 0.3437614,-2.308973 -4.348304 -0.2530638,-2.288718 -3.459965 -0.03690495,-2.316294 -3.044206 0.3270172,-2.35544 -2.933746 0.5650546,-1.977139 -4.632576 -0.1244416,-1.920871 -3.934238 0.09511915,-1.941021 -3.582603 0.3515285,-1.991631 -3.434812 0.5375751,-8.560514 -6.56079 0.2699334,-7.988834 -6.260932 0.483355,-7.504998 -5.601398 0.6587107,-7.177604 -4.97426 0.8792037,-6.863279 -4.618568 1.102305,-7.969881 -3.944052 0.3850987,-7.879995 -2.873402 0.50573,-7.833029 -2.220825 0.6515198,-7.7939 -1.663486 0.7703165,-8.322012 -3.801065 0.4486457,-8.272313 -2.565757 0.5464034,-8.233736 -1.766101 0.7499354,-8.202363 -1.077251 0.9263721,-8.657804 -3.890386 0.5379844,-8.641667 -2.740147 0.6312101,-8.61397 -2.016483 0.7739402,-8.571237 -1.398935 0.8762143,-8.992136 -4.175007 0.6573591,-9.113012 -3.320751 0.7710219,-9.162724 -2.747082 0.8715324,-9.1823 -2.180871 0.9291254,3.210, -1 2
-2.444359 -6.658616 -0.05760524,-3.011969 -6.379879 0.1926302,-3.450926 -5.664737 0.2817782,-3.692238 -4.940753 0.4039531,-3.898308 -4.349672 0.5334736,-3.051552 -4.27174 -0.0847297,-3.225641 -3.294054 0.02439043,-3.327286 -2.662817 0.1213257,-3.385365 -2.087796 0.1922891,-2.726305 -4.136762 -0.04587521,-2.823213 -3.081934 0.0208104,-2.823213 -3.081934 0.0208104,-2.951531 -1.844462 0.1985077,-2.40841 -4.205385 0.06580687,-2.424885 -3.20137 0.1575295,-2.486027 -2.5352 0.2824967,-2.534881 -1.972966 0.3916308,-2.074064 -4.473482 0.2212004,-2.016666 -3.696851 0.3163676,-2.021053 -3.165523 0.4505743,-2.029379 -2.671602 0.5634471,-8.537996 -6.507665 0.2358529,-7.962838 -6.222883 0.4727295,-7.473555 -5.574232 0.665168,-7.144316 -4.953167 0.900122,-6.83466 -4.593611 1.136621,-7.943174 -3.90772 0.3686315,-7.853484 -2.845624 0.4999457,-7.814518 -2.199368 0.6548429,-7.78336 -1.639928 0.7772196,-8.296342 -3.759024 0.42968,-8.246724 -2.541219 0.5310978,-8.211835 -1.748815 0.7328424,-8.182459 -1.068766 0.9088951,-8.634759 -3.841633 0.5210636,-8.616964 -2.704196 0.6216899,-8.586913 -1.982364 0.7668338,-8.542143 -1.372551 0.8709085,-8.975844 -4.122613 0.6459269,-9.084881 -3.270958 0.7719827,-9.130116 -2.690816 0.8772151,-9.145392 -2.123196 0.9358594,3.310, -1 2
-2.455778 -6.811545 0.4424,-3.02009 -6.557022 0.6512448,-3.487047 -5.779207 0.723234,-3.766041 -5.018165 0.8315102,-4.065087 -4.466328 0.9803303,-3.0818 -4.322454 0.4057297,-3.278164 -3.289946 0.5004216,-3.387592 -2.644289 0.5538408,-3.448038 -2.057596 0.6166868,-2.764059 -4.149082 0.4771088,-2.868066 -2.979688 0.5741118,-2.868066 -2.979688 0.5741118,-2.990969 -1.601019 0.7736709,-2.44896 -4.188935 0.6204311,-2.47439 -3.052653 0.738013,-2.549951 -2.316681 0.8691689,-2.610189 -1.679945 0.9909079,-2.117231 -4.44573 0.79839,-2.039768 -3.545247 0.9027929,-2.020866 -2.945537 1.052719,-2.002924 -2.384537 1.196127,-8.520625 -6.503589 0.2354116,-7.951459 -6.224042 0.4844333,-7.460555 -5.57798 0.6913322,-7.122751 -4.955549 0.937973,-6.815026 -4.586092 1.186889,-7.921255 -3.912942 0.3875693,-7.825619 -2.857267 0.5249711,-7.784508 -2.215439 0.6894027,-7.752326 -1.667569 0.8210408,-8.271878 -3.75667 0.4424743,-8.211514 -2.53226 0.5539009,-8.172329 -1.736295 0.7624748,-8.142994 -1.053683 0.9445331,-8.609135 -3.835912 0.52922,-8.586434 -2.69181 0.6365514,-8.555659 -1.963239 0.7936668,-8.513 -1.348012 0.9099935,-8.948927 -4.121385 0.6503094,-9.060912 -3.268074 0.7779924,-9.105999 -2.687903 0.8904318,-9.12162 -2.123754 0.9620353,3.410, -1 2
-2.460224 -6.878347 0.748533,-3.037443 -6.596178 0.9310006,-3.510839 -5.776521 0.9839296,-3.780855 -4.986225 1.075164,-4.082359 -4.459797 1.20087,-3.106762 -4.313619 0.6586962,-3.308146 -3.278592 0.745226,-3.415051 -2.644107 0.7866146,-3.479735 -2.055318 0.8394562,-2.785504 -4.129567 0.7456698,-2.903141 -2.951529 0.8432464,-2.903141 -2.951529 0.8432464,-3.029973 -1.547938 1.030793,-2.46821 -4.174209 0.9094794,-2.512368 -3.014184 1.039896,-2.58825 -2.263143 1.173282,-2.655561 -1.613779 1.291563,-2.130377 -4.448452 1.108724,-2.050462 -3.542125 1.22125,-2.025363 -2.948677 1.369235,-2.005365 -2.387783 1.513068,-8.518224 -6.509306 0.2434267,-7.953865 -6.218874 0.4696741,-7.461962 -5.557119 0.6631674,-7.123943 -4.933666 0.8992599,-6.807646 -4.577362 1.142193,-7.915762 -3.919466 0.3889118,-7.822233 -2.854607 0.5202439,-7.783298 -2.220716 0.6750895,-7.750989 -1.681128 0.7999542,-8.266678 -3.760772 0.4561105,-8.202661 -2.531835 0.5622379,-8.161927 -1.740415 0.7676684,-8.129187 -1.058528 0.9485108,-8.602706 -3.83741 0.5520244,-8.579874 -2.692579 0.6594112,-8.553593 -1.956534 0.814666,-8.513374 -1.329505 0.9352468,-8.941786 -4.119289 0.677426,-9.056009 -3.256134 0.803063,-9.10221 -2.674505 0.9208551,-9.11857 -2.10523 0.9964043,3.510, -1 2
-2.454173 -6.985147 0.9902737,-3.045294 -6.63762 1.171678,-3.541491 -5.84163 1.248337,-3.829988 -5.043312 1.372101,-4.132876 -4.481868 1.528002,-3.132436 -4.344915 0.8615596,-3.320415 -3.286453 0.9546406,-3.416054 -2.649493 1.005683,-3.467933 -2.054416 1.066011,-2.812403 -4.171054 0.9552867,-2.942851 -2.958074 1.046513,-2.942851 -2.958074 1.046513,-3.058946 -1.565556 1.257193,-2.493487 -4.219304 1.130204,-2.544109 -3.01912 1.264029,-2.612313 -2.260042 1.400021,-2.674277 -1.597974 1.521356,-2.144083 -4.488259 1.342514,-2.060743 -3.558534 1.467935,-2.026855 -2.969677 1.619543,-1.99409 -2.411685 1.768665,-8.523879 -6.531709 0.3479876,-7.964958 -6.246206 0.5924122,-7.476896 -5.569229 0.7873806,-7.144073 -4.930061 1.022189,-6.825469 -4.562511 1.253985,-7.927472 -3.912965 0.4975868,-7.835588 -2.856554 0.6348113,-7.79944 -2.204525 0.7919993,-7.768867 -1.638153 0.9183146,-8.276652 -3.752389 0.5565531,-8.208134 -2.527208 0.6777896,-8.167326 -1.731291 0.886997,-8.136249 -1.044267 1.070404,-8.612131 -3.828001 0.6495786,-8.58643 -2.673144 0.7718691,-8.558086 -1.927845 0.9362919,-8.514183 -1.28988 1.058716,-8.954638 -4.119452 0.7718084,-9.065534 -3.254753 0.9090183,-9.110808 -2.677074 1.031718,-9.12634 -2.11119 1.111987,3.610, -1 2
-2.449771 -7.006438 1.063655,-3.03995 -6.648534 1.234069,-3.533554 -5.85485 1.297387,-3.826311 -5.070174 1.411916,-4.133083 -4.533998 1.559594,-3.12516 -4.347577 0.9136406,-3.32002 -3.297088 1.001399,-3.421055 -2.661503 1.049318,-3.477368 -2.070553 1.106633,-2.803202 -4.170852 1.013168,-2.936759 -2.96019 1.104196,-2.936759 -2.96019 1.104196,-3.060084 -1.557443 1.321152,-2.482852 -4.219776 1.194175,-2.531689 -3.032073 1.333397,-2.601029 -2.276292 1.47802,-2.665703 -1.618268 1.602091,-2.134768 -4.489688 1.410984,-2.059255 -3.568972 1.546564,-2.030412 -2.985303 1.703815,-2.008038 -2.434843 1.85119,-8.546768 -6.54533 0.3936288,-7.978738 -6.250352 0.6215362,-7.482052 -5.572835 0.8038793,-7.150354 -4.939479 1.024568,-6.840032 -4.573423 1.245,-7.935097 -3.910288 0.5314713,-7.842338 -2.843787 0.6533273,-7.805713 -2.197639 0.7991126,-7.775054 -1.646432 0.919961,-8.290691 -3.752515 0.5860127,-8.231341 -2.524048 0.6876841,-8.194935 -1.734649 0.8936455,-8.164925 -1.049405 1.071105,-8.62895 -3.833408 0.6684816,-8.604004 -2.686738 0.7694344,-8.573005 -1.958519 0.9199835,-8.527895 -1.338439 1.031776,-8.967838 -4.120431 0.7793663,-9.081984 -3.26298 0.8959351,-9.126842 -2.689208 1.007491,-9.142315 -2.128939 1.076657,3.710, -1 2
-2.447787 -7.041011 1.129449,-3.044428 -6.663885 1.292219,-3.541458 -5.86016 1.356956,-3.834352 -5.071207 1.477578,-4.140507 -4.530168 1.631174,-3.130539 -4.357974 0.9614147,-3.330276 -3.305837 1.044581,-3.433786 -2.676444 1.085001,-3.495054 -2.09159 1.134153,-2.806413 -4.187456 1.063208,-2.94227 -2.969369 1.152894,-2.94227 -2.969369 1.152894,-3.060614 -1.562505 1.364057,-2.486899 -4.240896 1.247881,-2.534725 -3.047049 1.3865,-2.604738 -2.292742 1.530461,-2.670594 -1.633564 1.652441,-2.141554 -4.512544 1.470186,-2.063858 -3.583219 1.601941,-2.038506 -3.002999 1.75706,-2.019531 -2.453922 1.900342,-8.558779 -6.538587 0.3477492,-7.979658 -6.245618 0.5833368,-7.486319 -5.58908 0.766735,-7.158264 -4.948587 0.9879248,-6.857958 -4.561634 1.204524,-7.947205 -3.918581 0.4893082,-7.85694 -2.847679 0.6157268,-7.823359 -2.19314 0.7658691,-7.796504 -1.622748 0.890528,-8.301076 -3.759316 0.5424692,-8.246287 -2.533403 0.647675,-8.213977 -1.742216 0.8541532,-8.18714 -1.057725 1.034048,-8.63805 -3.838087 0.6249709,-8.624352 -2.692999 0.7249323,-8.594145 -1.968236 0.8776053,-8.545854 -1.349527 0.9902532,-8.975543 -4.121723 0.7361468,-9.094495 -3.266734 0.8635184,-9.139783 -2.687932 0.9786648,-9.153583 -2.119802 1.046741,3.810, -1 2
-2.453379 -7.083665 1.182618,-3.046382 -6.699039 1.339482,-3.535605 -5.883563 1.402016,-3.8141 -5.077764 1.519515,-4.12281 -4.531299 1.675269,-3.131573 -4.38879 1.040767,-3.328627 -3.335927 1.12648,-3.430745 -2.705335 1.158185,-3.491128 -2.114561 1.204687,-2.805901 -4.213508 1.144592,-2.936819 -2.996338 1.235816,-2.936819 -2.996338 1.235816,-3.057871 -1.591357 1.440353,-2.484343 -4.26489 1.327801,-2.533366 -3.070591 1.465119,-2.605418 -2.319009 1.609876,-2.675491 -1.666343 1.736619,-2.139094 -4.539032 1.546308,-2.065511 -3.607255 1.682555,-2.040788 -3.020481 1.843759,-2.024814 -2.467141 1.993485,-8.552994 -6.54255 0.3419562,-7.986406 -6.251301 0.5939765,-7.502439 -5.575933 0.7787422,-7.177514 -4.933053 0.9974889,-6.869943 -4.560787 1.207633,-7.961607 -3.922087 0.4888597,-7.869985 -2.850795 0.6283683,-7.836727 -2.192699 0.7836424,-7.808007 -1.626759 0.9113634,-8.312481 -3.763087 0.532775,-8.250904 -2.523546 0.6534106,-8.212954 -1.729708 0.8621393,-8.180776 -1.040329 1.045218,-8.647105 -3.830909 0.6095987,-8.626603 -2.669324 0.7252944,-8.599326 -1.938734 0.8821511,-8.552968 -1.31397 0.9994655,-8.98516 -4.108247 0.7167909,-9.098171 -3.251703 0.8413206,-9.145607 -2.678181 0.9516501,-9.16219 -2.116059 1.027562,3.910, -1 2
-2.409059 -7.103112 1.166322,-2.989047 -6.715642 1.355993,-3.471426 -5.943788 1.441735,-3.746552 -5.178911 1.577885,-4.023874 -4.620763 1.748495,-3.108166 -4.424512 1.054517,-3.314999 -3.374075 1.165247,-3.417486 -2.736205 1.236292,-3.477882 -2.137956 1.312869,-2.783738 -4.240292 1.147701,-2.915763 -3.020997 1.246465,-2.915763 -3.020997 1.246465,-3.038986 -1.642917 1.476489,-2.464625 -4.285725 1.325697,-2.513808 -3.095558 1.46901,-2.586616 -2.351838 1.629122,-2.65486 -1.698487 1.771269,-2.12202 -4.547262 1.538319,-2.05126 -3.614672 1.678165,-2.034725 -3.034497 1.838183,-2.026523 -2.489866 1.983422,-8.575579 -6.540073 0.322526,-8.002767 -6.247541 0.5488943,-7.514618 -5.576713 0.728164,-7.190289 -4.933484 0.9481103,-6.879608 -4.566644 1.165635,-7.970801 -3.925052 0.4560442,-7.880317 -2.856118 0.5903424,-7.846521 -2.200341 0.745886,-7.817883 -1.630493 0.8762496,-8.321238 -3.767601 0.5155526,-8.260037 -2.531392 0.6370996,-8.223523 -1.732255 0.8519329,-8.193785 -1.040046 1.040565,-8.656844 -3.840683 0.6066099,-8.637427 -2.682283 0.7235399,-8.609128 -1.950258 0.88427,-8.564401 -1.32978 1.003857,-8.996113 -4.122928 0.7232633,-9.108994 -3.256736 0.8590693,-9.155114 -2.677593 0.9776524,-9.172153 -2.112848 1.054944,4.010, -1 2
-2.409562 -7.11516 1.138181,-2.9884 -6.746686 1.322667,-3.468082 -5.976593 1.406801,-3.734285 -5.204879 1.540193,-4.008974 -4.632108 1.70824,-3.10671 -4.446151 1.003114,-3.309053 -3.391997 1.105611,-3.411797 -2.754703 1.167709,-3.474298 -2.15367 1.235089,-2.777452 -4.259838 1.094329,-2.903924 -3.03421 1.189826,-2.903924 -3.03421 1.189826,-3.016146 -1.647848 1.405818,-2.457062 -4.300378 1.268319,-2.512298 -3.108009 1.409075,-2.580965 -2.357626 1.567291,-2.647507 -1.703491 1.703749,-2.114495 -4.549325 1.476241,-2.0484 -3.614717 1.610814,-2.02998 -3.033044 1.765957,-2.019942 -2.485547 1.905015,-8.583801 -6.570276 0.39509,-8.023661 -6.276349 0.6184595,-7.538319 -5.596134 0.8010002,-7.209354 -4.951358 1.027018,-6.894096 -4.587397 1.24814,-7.987432 -3.933841 0.5081602,-7.897691 -2.877025 0.6351228,-7.861816 -2.22389 0.7882606,-7.831517 -1.655952 0.9190671,-8.336412 -3.774984 0.5677199,-8.276825 -2.552396 0.6699235,-8.239989 -1.757696 0.8777866,-8.212515 -1.064562 1.059975,-8.671368 -3.85045 0.6590059,-8.657295 -2.701836 0.7566272,-8.633812 -1.973154 0.9008479,-8.595829 -1.34848 1.012562,-9.009214 -4.132531 0.77847,-9.119846 -3.262686 0.8990216,-9.16413 -2.675303 1.003375,-9.183727 -2.103051 1.069438,4.110, -1 2
-2.404214 -7.117234 1.131681,-2.983304 -6.751451 1.323367,-3.464319 -5.986742 1.412062,-3.729459 -5.221641 1.547742,-4.010662 -4.666454 1.723428,-3.103895 -4.452081 1.007845,-3.306874 -3.400339 1.108084,-3.408975 -2.771196 1.172958,-3.47058 -2.182764 1.242105,-2.769934 -4.263462 1.092113,-2.898076 -3.046768 1.185476,-2.898076 -3.046768 1.185476,-3.006186 -1.673194 1.396432,-2.448621 -4.305492 1.259977,-2.506421 -3.133393 1.391487,-2.57514 -2.39816 1.539217,-2.639765 -1.74945 1.672901,-2.106193 -4.555385 1.462518,-2.051619 -3.638433 1.593267,-2.039708 -3.070474 1.743774,-2.032555 -2.535047 1.8766,-8.583849 -6.57904 0.3809369,-8.021456 -6.283239 0.621509,-7.532983 -5.598909 0.8106245,-7.203481 -4.955623 1.035094,-6.889712 -4.593021 1.255378,-7.99081 -3.94412 0.5402613,-7.906279 -2.87112 0.6739256,-7.87534 -2.209753 0.8270497,-7.848161 -1.643047 0.9537083,-8.342523 -3.789539 0.5868556,-8.285215 -2.550443 0.7069796,-8.249701 -1.749849 0.9164701,-8.221222 -1.059635 1.103367,-8.678267 -3.871807 0.6637557,-8.664719 -2.710075 0.7747154,-8.642 -1.968245 0.9197004,-8.602068 -1.339723 1.0331,-9.014502 -4.163667 0.7666647,-9.129902 -3.293516 0.8895652,-9.174994 -2.717654 0.9954279,-9.19207 -2.157842 1.065251,4.210, -1 2
-2.394958 -7.144962 1.108343,-2.967354 -6.77198 1.305167,-3.435511 -6.008386 1.388947,-3.684669 -5.244747 1.520696,-3.947018 -4.675847 1.69273,-3.096514 -4.487009 0.9944279,-3.302572 -3.439792 1.108654,-3.405059 -2.8007 1.181223,-3.466626 -2.201198 1.252777,-2.766103 -4.298536 1.075835,-2.89564 -3.092136 1.178378,-2.89564 -3.092136 1.178378,-3.003979 -1.725004 1.386623,-2.443971 -4.340322 1.243141,-2.508445 -3.17198 1.387752,-2.579288 -2.432441 1.5495,-2.648815 -1.787486 1.692056,-2.097725 -4.589084 1.442013,-2.041279 -3.666691 1.587093,-2.032069 -3.087593 1.749555,-2.031204 -2.550607 1.892891,-8.577482 -6.590001 0.4324276,-8.017847 -6.284946 0.6414444,-7.532465 -5.593418 0.8201488,-7.211042 -4.946002 1.04594,-6.900853 -4.582415 1.267395,-7.990728 -3.934203 0.5434592,-7.904241 -2.868145 0.6621811,-7.872482 -2.209774 0.8144785,-7.844992 -1.650012 0.9443403,-8.343362 -3.7828 0.6045538,-8.286693 -2.549005 0.7094424,-8.252202 -1.752014 0.916531,-8.226378 -1.068206 1.099356,-8.679655 -3.862362 0.695583,-8.669862 -2.706523 0.7920798,-8.647573 -1.975251 0.9318899,-8.605931 -1.356567 1.035073,-9.01672 -4.150756 0.8129242,-9.135173 -3.284113 0.9183383,-9.180195 -2.710449 1.007235,-9.19508 -2.151355 1.064269,4.310, -1 2
-2.369538 -7.149368 1.096625,-2.939901 -6.79494 1.320972,-3.403452 -6.043288 1.419795,-3.643686 -5.275656 1.56292,-3.897351 -4.695255 1.745565,-3.088821 -4.504184 0.9932786,-3.284069 -3.455961 1.092882,-3.387089 -2.815221 1.161287,-3.448437 -2.216117 1.228589,-2.757092 -4.308574 1.05914,-2.877941 -3.103129 1.137721,-2.877941 -3.103129 1.137721,-2.986326 -1.737913 1.328033,-2.433878 -4.34395 1.215203,-2.486386 -3.181557 1.34117,-2.551881 -2.442603 1.502108,-2.614466 -1.797396 1.642114,-2.084959 -4.590785 1.408398,-2.03093 -3.680635 1.541428,-2.023098 -3.111287 1.697853,-2.021282 -2.580114 1.840106,-8.574232 -6.576055 0.3701003,-8.005393 -6.260747 0.5917537,-7.524994 -5.59123 0.7711156,-7.205388 -4.948204 0.9908645,-6.897391 -4.582455 1.204825,-7.985731 -3.937015 0.5003728,-7.900442 -2.871749 0.6251057,-7.858921 -2.221366 0.7733725,-7.824942 -1.65939 0.8981221,-8.340659 -3.787533 0.554898,-8.291794 -2.554775 0.6606136,-8.259706 -1.75808 0.8663851,-8.236994 -1.070908 1.044928,-8.676147 -3.869909 0.6393571,-8.671637 -2.723672 0.7371942,-8.648277 -2.001967 0.8769705,-8.608287 -1.384599 0.9803635,-9.011567 -4.150806 0.7504699,-9.129406 -3.290507 0.8723978,-9.174814 -2.713727 0.9765436,-9.191336 -2.144266 1.038186,4.410, -1 2
-2.361596 -7.15963 1.129075,-2.935851 -6.772956 1.388026,-3.386063 -6.00678 1.508629,-3.609764 -5.221595 1.67231,-3.8724 -4.611292 1.880208,-3.070406 -4.484478 1.062306,-3.264353 -3.43345 1.174412,-3.374976 -2.795906 1.241416,-3.449609 -2.200334 1.303826,-2.73025 -4.306806 1.107326,-2.845174 -3.121833 1.187785,-2.845174 -3.121833 1.187785,-2.954115 -1.779789 1.372018,-2.40748 -4.357382 1.243207,-2.451571 -3.229082 1.36227,-2.522152 -2.515405 1.512318,-2.5892 -1.887084 1.645115,-2.067572 -4.611965 1.419898,-2.010744 -3.719584 1.542967,-2.013031 -3.156879 1.693136,-2.018888 -2.631592 1.825591,-8.579019 -6.564117 0.3227666,-8.0073 -6.278598 0.5754267,-7.519083 -5.612194 0.7623305,-7.191134 -4.969522 0.98682,-6.882784 -4.596298 1.204842,-7.984837 -3.942354 0.4701424,-7.901958 -2.867317 0.5996606,-7.862313 -2.213869 0.7498677,-7.827442 -1.653841 0.872721,-8.336772 -3.790405 0.5148602,-8.29025 -2.55468 0.6231734,-8.254775 -1.762985 0.8293211,-8.224113 -1.080114 1.008482,-8.672921 -3.87323 0.591704,-8.660002 -2.718834 0.6976182,-8.63232 -1.990446 0.8499538,-8.587432 -1.368815 0.9619876,-9.009535 -4.158727 0.6980149,-9.127077 -3.30432 0.8285853,-9.174833 -2.726629 0.9434974,-9.191048 -2.160508 1.014473,4.510, -1 2
-2.353678 -7.191445 1.113994,-2.933812 -6.792382 1.364604,-3.382215 -6.015125 1.488475,-3.601542 -5.213812 1.650983,-3.84762 -4.58439 1.862873,-3.054205 -4.509167 1.043499,-3.246415 -3.447101 1.158848,-3.365866 -2.800385 1.237412,-3.450977 -2.201629 1.309265,-2.713621 -4.341909 1.09004,-2.824696 -3.176891 1.170109,-2.824696 -3.176891 1.170109,-2.929073 -1.819438 1.36097,-2.388692 -4.392185 1.222315,-2.436261 -3.289016 1.324395,-2.506902 -2.578668 1.478097,-2.568051 -1.963686 1.610631,-2.047815 -4.6406 1.396476,-2.000313 -3.757204 1.509725,-2.008765 -3.195493 1.660828,-2.013142 -2.674531 1.794662,-8.576119 -6.580034 0.3145308,-8.009887 -6.280468 0.5561472,-7.526152 -5.610217 0.7509873,-7.200271 -4.970628 0.9826118,-6.892241 -4.599555 1.210368,-7.981219 -3.962333 0.4717237,-7.89659 -2.889604 0.609656,-7.86555 -2.226874 0.7714767,-7.838922 -1.660399 0.9042307,-8.334123 -3.809357 0.5160034,-8.279164 -2.570448 0.633747,-8.243207 -1.775486 0.8420463,-8.215505 -1.084229 1.026562,-8.67202 -3.887818 0.5902646,-8.656371 -2.729114 0.6956353,-8.631483 -1.998995 0.8411124,-8.591535 -1.377929 0.9522469,-9.012418 -4.171512 0.6918312,-9.123031 -3.299025 0.8067464,-9.165602 -2.723687 0.9056872,-9.180206 -2.162708 0.9689162,4.610, -1 2
-2.34139 -7.171258 0.9348242,-2.923122 -6.773277 1.251921,-3.343684 -5.975979 1.381537,-3.529882 -5.166268 1.567819,-3.732725 -4.413228 1.74667,-3.067402 -4.505424 0.7351356,-3.25038 -3.502426 0.7319074,-3.35648 -2.902483 0.7848452,-3.43515 -2.32974 0.8872707,-2.716365 -4.380309 0.7642051,-2.824527 -3.390441 0.834663,-2.824527 -3.390441 0.834663,-2.935956 -2.810434 1.20173,-2.390018 -4.449131 0.8733524,-2.432886 -3.516401 0.9940794,-2.484326 -3.039889 1.294886,-2.544634 -2.84737 1.519557,-2.046283 -4.671289 1.038188,-2.043162 -3.88951 1.16324,-2.079336 -3.439003 1.3725,-2.132035 -3.132164 1.549071,-8.569566 -6.599489 0.3134598,-8.007357 -6.31111 0.5626304,-7.524778 -5.644033 0.7723798,-7.195613 -5.006633 1.01958,-6.883175 -4.630203 1.262866,-7.978248 -3.982938 0.4918652,-7.892634 -2.910705 0.6492857,-7.858934 -2.253574 0.8139537,-7.82941 -1.689193 0.9414599,-8.33083 -3.831684 0.5509524,-8.276992 -2.587694 0.6915923,-8.240989 -1.790781 0.9017041,-8.210905 -1.102495 1.082061,-8.668269 -3.913796 0.6433474,-8.656522 -2.744422 0.776118,-8.629462 -2.006419 0.9348032,-8.586129 -1.375865 1.052031,-9.007725 -4.205921 0.7629691,-9.116172 -3.323238 0.9056031,-9.157739 -2.732336 1.023708,-9.171158 -2.155925 1.102097,4.710, -1 2
-2.389125 -7.069749 0.2797468,-2.925069 -6.81947 0.6551173,-3.340176 -6.055583 0.8519616,-3.531902 -5.276989 1.068362,-3.700363 -4.550762 1.250155,-3.076591 -4.607665 0.1894051,-3.293995 -3.634357 0.2557418,-3.424824 -2.993492 0.3885733,-3.52005 -2.457312 0.5337241,-2.728273 -4.458256 0.2262966,-2.812888 -3.318698 0.5522508,-2.812888 -3.318698 0.5522508,-2.828125 -3.520477 1.134738,-2.404851 -4.497472 0.3340481,-2.42575 -3.4424 0.6175212,-2.47726 -3.243189 1.052018,-2.502115 -3.489864 1.319624,-2.057743 -4.717386 0.4867596,-2.044525 -3.899813 0.7292097,-2.121037 -3.591156 1.042279,-2.184429 -3.654029 1.278124,-8.573462 -6.629711 0.3401615,-8.001782 -6.332 0.5859231,-7.51827 -5.673124 0.7844244,-7.192516 -5.033245 1.014016,-6.887521 -4.651971 1.229825,-7.991249 -4.005037 0.5135863,-7.908219 -2.925735 0.6544698,-7.875923 -2.265932 0.8064272,-7.849028 -1.698155 0.9305958,-8.340207 -3.852127 0.5575281,-8.289205 -2.602412 0.6879171,-8.256234 -1.808183 0.8933578,-8.228191 -1.122845 1.073539,-8.673298 -3.933394 0.6321809,-8.664299 -2.762085 0.749754,-8.640213 -2.020512 0.9016908,-8.59911 -1.390258 1.01447,-9.00541 -4.221689 0.7308636,-9.118896 -3.349916 0.8596686,-9.161098 -2.767315 0.9742081,-9.168713 -2.19557 1.019183,4.810, -1 2
-2.385803 -7.135 0.5141673,-2.924651 -6.856248 0.9382112,-3.333345 -6.111331 1.173352,-3.511942 -5.356171 1.415324,-3.710121 -4.627105 1.661497,-3.090551 -4.622629 0.5380297,-3.311764 -3.721424 0.6681405,-3.424101 -3.126318 0.8411964,-3.498186 -2.621508 1.013581,-2.732047 -4.456818 0.5662348,-2.794878 -3.391317 0.9468411,-2.794878 -3.391317 0.9468411,-2.762764 -3.553446 1.60656,-2.40162 -4.502184 0.6641274,-2.399155 -3.498694 1.013767,-2.429095 -3.342996 1.485225,-2.431383 -3.620794 1.782675,-2.050683 -4.733016 0.8078861,-2.006958 -3.95735 1.113633,-2.084786 -3.72109 1.477388,-2.156249 -3.878711 1.758186,-8.578405 -6.653181 0.3947898,-8.008876 -6.362745 0.6336594,-7.520136 -5.684646 0.8373448,-7.189376 -5.044046 1.07837,-6.880666 -4.657797 1.314944,-7.984717 -4.010884 0.5684153,-7.901059 -2.935913 0.7107778,-7.867636 -2.272466 0.8695248,-7.841901 -1.697748 1.001831,-8.338546 -3.86131 0.6230691,-8.287461 -2.620265 0.7526464,-8.256787 -1.817663 0.9635829,-8.235458 -1.12758 1.145824,-8.677166 -3.944501 0.709479,-8.667733 -2.783687 0.8228252,-8.642614 -2.043054 0.9711196,-8.603168 -1.417745 1.080118,-9.016786 -4.238621 0.8211987,-9.123764 -3.362356 0.9501864,-9.165616 -2.778435 1.055708,-9.181538 -2.21471 1.120346,4.910, -1 2
-2.343428 -7.240041 0.3289115,-2.888066 -6.930126 0.8025246,-3.294237 -6.177646 1.089084,-3.456354 -5.407047 1.349808,-3.724861 -4.80502 1.658504,-3.063927 -4.75649 0.6497238,-3.248574 -3.928554 0.9134346,-3.342945 -3.402792 1.196833,-3.408228 -2.952929 1.437674,-2.682221 -4.633231 0.6486286,-2.70363 -3.627576 1.158295,-2.70363 -3.627576 1.158295,-2.677532 -3.846891 1.884661,-2.340791 -4.72025 0.7130374,-2.302251 -3.760149 1.154212,-2.334897 -3.820053 1.577417,-2.327789 -4.161887 1.825083,-1.988595 -4.988527 0.8111356,-1.919909 -4.272392 1.218132,-1.979703 -4.373309 1.569341,-2.01343 -4.701833 1.831735,-8.565693 -6.669445 0.4493297,-7.99416 -6.364244 0.6851815,-7.510103 -5.691569 0.8831719,-7.193238 -5.051425 1.124825,-6.889104 -4.662483 1.364295,-7.979143 -4.0076 0.5950922,-7.891287 -2.938346 0.7299783,-7.846858 -2.28299 0.8869642,-7.812403 -1.715253 1.012532,-8.334578 -3.859629 0.6580119,-8.293176 -2.628023 0.7619336,-8.258485 -1.83311 0.9687452,-8.232871 -1.148476 1.141731,-8.671031 -3.946117 0.7511492,-8.669249 -2.795076 0.8491549,-8.640996 -2.067152 1.004962,-8.597648 -1.448299 1.116939,-9.006804 -4.231946 0.8748969,-9.132903 -3.365469 0.999132,-9.181427 -2.775631 1.114512,-9.198642 -2.198807 1.182022,5.010, -1 2
-2.345526 -7.211975 0.1578846,-2.897352 -6.866172 0.7130915,-3.292229 -6.186543 1.089452,-3.451736 -5.437948 1.418353,-3.712013 -4.870939 1.793816,-3.042547 -4.820954 0.6617267,-3.191601 -4.024604 1.073634,-3.275852 -3.580692 1.480967,-3.337598 -3.242262 1.811114,-2.658961 -4.680542 0.657724,-2.657569 -3.625791 1.352807,-2.657569 -3.625791 1.352807,-2.719339 -4.485865 2.09122,-2.316549 -4.765433 0.7219678,-2.235545 -3.739334 1.32007,-2.334768 -4.192394 1.667333,-2.376343 -4.769236 1.780347,-1.971928 -5.052408 0.8287,-1.850301 -4.305164 1.324387,-1.933678 -4.540556 1.640898,-1.993738 -4.979589 1.812248,-8.560422 -6.67597 0.4079755,-7.995844 -6.377033 0.6531755,-7.510346 -5.702157 0.857091,-7.184236 -5.065235 1.104421,-6.875274 -4.676535 1.351385,-7.980184 -4.023725 0.5545529,-7.888384 -2.951417 0.6949453,-7.841948 -2.296748 0.8577242,-7.805737 -1.736078 0.9851658,-8.332549 -3.877498 0.6132857,-8.288113 -2.631765 0.7283745,-8.252196 -1.826877 0.9385083,-8.226591 -1.13391 1.114676,-8.668194 -3.9633 0.7026315,-8.66565 -2.803539 0.8077915,-8.639235 -2.070256 0.9567037,-8.598347 -1.446381 1.063433,-9.00392 -4.249712 0.8246126,-9.122736 -3.371786 0.9463816,-9.167063 -2.786898 1.049347,-9.182338 -2.216096 1.109662,5.110, -1 2
-2.386158 -7.029722 0.173097,-2.942584 -6.816711 0.8937315,-3.332273 -6.202894 1.382119,-3.472363 -5.451185 1.797205,-3.702204 -4.876285 2.270098,-3.095592 -4.72744 1.010228,-3.234756 -3.951823 1.631224,-3.257301 -3.664942 2.167088,-3.257453 -3.565117 2.531958,-2.677746 -4.555279 0.928745,-2.626355 -3.529626 1.746367,-2.626355 -3.529626 1.746367,-2.637647 -4.692939 2.460251,-2.311936 -4.649155 0.9249169,-2.180921 -3.657419 1.613585,-2.247898 -4.272929 1.909035,-2.315165 -4.854444 1.979004,-1.968303 -4.968169 0.9613931,-1.809639 -4.259314 1.508722,-1.880836 -4.584432 1.790685,-1.970069 -4.995234 1.91242,-8.564261 -6.691288 0.4251614,-7.997496 -6.386373 0.6794221,-7.509275 -5.720131 0.8872631,-7.185287 -5.080986 1.133973,-6.876163 -4.682128 1.374584,-7.975307 -4.039896 0.6075554,-7.888116 -2.951825 0.750428,-7.847052 -2.290064 0.9033024,-7.816091 -1.725236 1.022847,-8.330469 -3.89051 0.6575159,-8.285228 -2.637887 0.7762889,-8.253291 -1.834003 0.9805582,-8.231065 -1.143624 1.155181,-8.667381 -3.97512 0.7367654,-8.662993 -2.809573 0.8422482,-8.641468 -2.070177 0.9958307,-8.6053 -1.441052 1.111373,-9.003028 -4.260435 0.8487641,-9.125123 -3.38169 0.9735742,-9.172617 -2.795733 1.0918,-9.190533 -2.225116 1.166207,5.210, -1 2
-2.418303 -6.771244 0.1047749,-2.973497 -6.773145 1.018605,-3.397073 -6.226578 1.599792,-3.564186 -5.490076 2.073181,-3.79216 -4.93781 2.5831,-3.147527 -4.627164 1.244741,-3.268358 -3.917818 2.076589,-3.271463 -3.712596 2.749052,-3.258736 -3.751998 3.163367,-2.720869 -4.411812 1.114489,-2.630964 -3.420045 2.098745,-2.630964 -3.420045 2.098745,-2.580171 -4.792192 2.865938,-2.33746 -4.479435 1.081961,-2.18165 -3.601581 1.924981,-2.217803 -4.335792 2.267899,-2.269803 -4.948318 2.339458,-1.976152 -4.776959 1.096089,-1.801708 -4.171751 1.76152,-1.863178 -4.616343 2.073649,-1.953515 -5.070405 2.206702,-8.588861 -6.703777 0.503327,-8.005962 -6.394767 0.7665367,-7.520505 -5.726551 0.9852602,-7.200662 -5.086669 1.238348,-6.89482 -4.69314 1.486241,-7.980333 -4.037937 0.7237861,-7.896064 -2.956726 0.8846581,-7.865195 -2.296131 1.051604,-7.839514 -1.728868 1.181235,-8.339774 -3.885031 0.7717209,-8.290242 -2.632694 0.909256,-8.258258 -1.830051 1.123143,-8.232988 -1.138323 1.305347,-8.680898 -3.970335 0.8472561,-8.672203 -2.797534 0.9697332,-8.652717 -2.054038 1.123863,-8.615495 -1.424737 1.237538,-9.019134 -4.267318 0.951149,-9.135612 -3.382265 1.074516,-9.181054 -2.792296 1.183285,-9.197392 -2.220835 1.252474,5.310, -1 2
-2.427847 -6.759473 -0.02645893,-2.966856 -6.79008 0.9021065,-3.393114 -6.255056 1.479793,-3.559328 -5.529226 1.946282,-3.802069 -4.936027 2.459014,-3.139014 -4.682237 1.170074,-3.279879 -3.917408 2.000622,-3.28018 -3.687748 2.673069,-3.261827 -3.729985 3.076236,-2.706638 -4.457717 1.026883,-2.628712 -3.453189 2.052232,-2.628712 -3.453189 2.052232,-2.562057 -4.836669 2.855618,-2.319196 -4.512004 0.9793783,-2.171495 -3.643416 1.849405,-2.196298 -4.359627 2.224713,-2.246861 -4.99267 2.293368,-1.960393 -4.799818 0.9700072,-1.792955 -4.223538 1.674552,-1.841501 -4.666126 2.025572,-1.928797 -5.135099 2.170324,-8.59822 -6.704019 0.4627058,-8.030167 -6.397098 0.7089424,-7.549198 -5.722201 0.915849,-7.23099 -5.075941 1.159576,-6.925096 -4.681734 1.393657,-8.011871 -4.040524 0.664506,-7.927126 -2.952068 0.8214994,-7.889471 -2.280981 0.9857518,-7.858747 -1.696736 1.118475,-8.369913 -3.894069 0.7189934,-8.323548 -2.644351 0.8545544,-8.290526 -1.838173 1.071733,-8.26635 -1.145424 1.258145,-8.70882 -3.980297 0.801074,-8.706234 -2.807592 0.9205496,-8.685136 -2.065077 1.080263,-8.647944 -1.441679 1.200693,-9.044172 -4.270753 0.909845,-9.170815 -3.399113 1.043092,-9.224326 -2.809476 1.163101,-9.249265 -2.238284 1.239848,5.410, -1 2
-2.406217 -6.828071 0.01524084,-2.924666 -6.7907 0.9188696,-3.34128 -6.230093 1.474323,-3.509047 -5.511538 1.927689,-3.756441 -4.929746 2.419083,-3.057152 -4.653377 1.166188,-3.185034 -3.868137 1.947285,-3.193592 -3.638115 2.567224,-3.189228 -3.684339 2.952806,-2.632013 -4.490781 1.03129,-2.526449 -3.494956 2.003628,-2.526449 -3.494956 2.003628,-2.499554 -4.793257 2.788512,-2.256145 -4.613822 0.9861839,-2.099838 -3.7694 1.820557,-2.13421 -4.424867 2.208863,-2.192618 -5.00838 2.309057,-1.911439 -4.967277 0.9795462,-1.739824 -4.401634 1.663531,-1.779363 -4.75628 2.047931,-1.856199 -5.142924 2.245544,-8.653152 -6.717781 0.4938692,-8.091947 -6.402795 0.7345743,-7.616673 -5.689661 0.9266944,-7.299047 -5.023538 1.157559,-6.984197 -4.631517 1.386462,-8.074947 -4.039781 0.6672857,-7.982718 -2.964231 0.8246578,-7.942205 -2.29542 0.9900119,-7.909394 -1.704921 1.123421,-8.427825 -3.89709 0.7325401,-8.376832 -2.658988 0.8706609,-8.341551 -1.854511 1.090329,-8.313002 -1.162577 1.27313,-8.763467 -3.993426 0.8313584,-8.763086 -2.838264 0.9617791,-8.744308 -2.100321 1.128749,-8.706886 -1.466904 1.252043,-9.098298 -4.300048 0.9556782,-9.228306 -3.432991 1.117029,-9.282495 -2.845999 1.248651,-9.307378 -2.276253 1.335015,5.510, -1 2
-2.365481 -6.907129 -0.02464614,-2.866701 -6.80222 0.8396133,-3.278969 -6.1954 1.343356,-3.440657 -5.486042 1.754719,-3.666683 -4.900472 2.215151,-3.02017 -4.681535 1.027853,-3.114633 -3.896362 1.755935,-3.093087 -3.587242 2.358038,-3.060328 -3.568221 2.74357,-2.597202 -4.540987 0.88934,-2.485753 -3.541366 1.791036,-2.485753 -3.541366 1.791036,-2.443803 -4.683501 2.596068,-2.219967 -4.672218 0.8398691,-2.064283 -3.817515 1.643427,-2.086259 -4.413494 2.039029,-2.136862 -5.014995 2.165106,-1.869813 -5.009276 0.8331537,-1.709122 -4.428645 1.517046,-1.742683 -4.722302 1.919847,-1.808865 -5.101907 2.144307,-8.674608 -6.719335 0.5054088,-8.109249 -6.398649 0.7384801,-7.631194 -5.700013 0.9348454,-7.311141 -5.044346 1.172958,-6.996 -4.653314 1.409533,-8.102909 -4.032771 0.6739358,-8.019327 -2.950698 0.8274992,-7.984878 -2.28278 0.9916452,-7.953684 -1.696641 1.124439,-8.456434 -3.894744 0.7439084,-8.410612 -2.652403 0.8846714,-8.377966 -1.845505 1.10125,-8.351415 -1.156806 1.285144,-8.792705 -3.995063 0.8442091,-8.791313 -2.829832 0.9765354,-8.771658 -2.086173 1.13844,-8.732173 -1.457107 1.258752,-9.128377 -4.305105 0.9702361,-9.256772 -3.42885 1.12789,-9.311309 -2.840507 1.255271,-9.338107 -2.271487 1.33663,5.610, -1 2
-2.259901 -7.156019 0.1502922,-2.754883 -6.971791 0.9762934,-3.15321 -6.312612 1.502347,-3.309336 -5.584573 1.942595,-3.545464 -5.002935 2.436621,-2.889962 -4.850105 1.218348,-2.943229 -4.029774 1.86994,-2.901433 -3.711668 2.450792,-2.854914 -3.653709 2.860243,-2.46376 -4.746963 1.098875,-2.336857 -3.807037 1.925277,-2.336857 -3.807037 1.925277,-2.270686 -4.664106 2.7867,-2.084275 -4.9127 1.061326,-1.925718 -4.098638 1.773749,-1.927703 -4.582801 2.173827,-1.970981 -5.0761 2.346339,-1.72891 -5.286354 1.063167,-1.557827 -4.675535 1.669897,-1.564345 -4.907629 2.036842,-1.61462 -5.198324 2.267823,-8.703114 -6.716581 0.4560663,-8.138329 -6.412975 0.7216449,-7.65589 -5.731126 0.941108,-7.330242 -5.08295 1.196932,-7.022791 -4.68497 1.445092,-8.12303 -4.044974 0.6624714,-8.043208 -2.95124 0.8374044,-8.012861 -2.273644 1.014074,-7.987741 -1.67807 1.152547,-8.480034 -3.908461 0.7156296,-8.439043 -2.656503 0.8764722,-8.413927 -1.848558 1.098057,-8.39522 -1.159121 1.285603,-8.819118 -4.008136 0.8038108,-8.821441 -2.828675 0.9514071,-8.808064 -2.072985 1.121989,-8.775034 -1.432011 1.248591,-9.157782 -4.316261 0.9175049,-9.279209 -3.432905 1.072927,-9.332355 -2.845165 1.200824,-9.356625 -2.277692 1.286875,5.710, -1 2
-2.176466 -7.139804 0.1241521,-2.643721 -7.022474 1.047426,-3.014505 -6.401756 1.596983,-3.134604 -5.687174 2.029003,-3.352985 -5.12048 2.510944,-2.759559 -4.950618 1.417978,-2.827644 -4.182865 2.172587,-2.779882 -3.876491 2.766439,-2.734637 -3.799284 3.150353,-2.317652 -4.814338 1.254871,-2.208032 -3.846496 2.146873,-2.208032 -3.846496 2.146873,-2.183343 -4.737402 2.880541,-1.938232 -4.973274 1.174124,-1.760387 -4.143455 1.973742,-1.783496 -4.67572 2.332603,-1.855078 -5.194614 2.450862,-1.599079 -5.354595 1.145466,-1.422842 -4.767129 1.827584,-1.449877 -5.030773 2.196577,-1.521792 -5.332477 2.391352,-8.655197 -6.734352 0.5007906,-8.081179 -6.428903 0.7726309,-7.610523 -5.732294 0.9899467,-7.297695 -5.078073 1.243723,-6.987738 -4.691028 1.49754,-8.105992 -4.049631 0.6991193,-8.031714 -2.966321 0.8599783,-8.005839 -2.296967 1.030864,-7.986065 -1.705601 1.160769,-8.463627 -3.910106 0.7501451,-8.435145 -2.665868 0.8826942,-8.413181 -1.856504 1.099921,-8.397114 -1.165746 1.284533,-8.801965 -4.011056 0.8312117,-8.812346 -2.842086 0.9565632,-8.800086 -2.092427 1.116667,-8.7694 -1.462569 1.233192,-9.138122 -4.318927 0.9435296,-9.268716 -3.447714 1.090832,-9.323954 -2.854127 1.209357,-9.348203 -2.283926 1.280422,5.810, -1 2
-2.072472 -7.049427 0.07572199,-2.552244 -7.021242 1.129219,-2.925707 -6.465192 1.749404,-3.030317 -5.772857 2.208411,-3.20978 -5.190416 2.695836,-2.687418 -4.940635 1.443245,-2.756312 -4.26161 2.307817,-2.706914 -3.952137 2.971424,-2.668498 -3.823804 3.360314,-2.239941 -4.753667 1.231608,-2.135658 -3.831258 2.245978,-2.135658 -3.831258 2.245978,-2.038264 -5.043884 2.876404,-1.854815 -4.858282 1.131732,-1.671446 -4.11675 2.046571,-1.666711 -4.831581 2.337059,-1.72709 -5.388913 2.341551,-1.50586 -5.193986 1.084403,-1.317787 -4.685959 1.827468,-1.355321 -5.112198 2.112321,-1.451966 -5.50809 2.204128,-8.598286 -6.66957 0.3715581,-8.015795 -6.384817 0.6476003,-7.537498 -5.704816 0.8657812,-7.218702 -5.061382 1.120317,-6.908711 -4.676504 1.371138,-8.031506 -4.020828 0.578508,-7.951941 -2.928888 0.7457774,-7.917507 -2.272239 0.9194146,-7.892818 -1.698022 1.046922,-8.392981 -3.884603 0.6337476,-8.365384 -2.636003 0.7702264,-8.342195 -1.83164 0.9822634,-8.32198 -1.144714 1.163131,-8.734602 -3.986369 0.7211423,-8.742599 -2.816431 0.85585,-8.728649 -2.075183 1.023038,-8.696217 -1.447204 1.139882,-9.073118 -4.285816 0.8414506,-9.199396 -3.4153 1.000422,-9.259234 -2.820986 1.124281,-9.285632 -2.243717 1.196689,5.910, -1 2
-2.033835 -7.023703 0.1737548,-2.541776 -7.059333 1.305443,-2.901013 -6.567167 2.000602,-2.99736 -5.891864 2.514928,-3.150143 -5.326523 3.10527,-2.668794 -5.011468 1.755829,-2.751373 -4.381664 2.742309,-2.707809 -4.121866 3.460639,-2.660398 -4.042871 3.865398,-2.194391 -4.799444 1.517874,-2.061665 -3.907794 2.662774,-2.061665 -3.907794 2.662774,-1.944391 -5.303339 3.289333,-1.778953 -4.872055 1.39676,-1.570048 -4.188618 2.421079,-1.579211 -4.994779 2.70296,-1.648348 -5.56488 2.666952,-1.420887 -5.186956 1.326364,-1.193088 -4.725809 2.117063,-1.242142 -5.237108 2.382977,-1.351881 -5.645663 2.437701,-8.586759 -6.657981 0.3803936,-8.00866 -6.367786 0.6322922,-7.520988 -5.688669 0.839848,-7.197109 -5.048696 1.08639,-6.891817 -4.652585 1.327289,-7.992975 -4.009496 0.5531871,-7.907385 -2.929536 0.7101514,-7.869642 -2.272913 0.8818479,-7.841416 -1.700219 1.010589,-8.355739 -3.86959 0.6098589,-8.31936 -2.628023 0.7355022,-8.290667 -1.818222 0.9493493,-8.270206 -1.119804 1.133821,-8.700129 -3.963256 0.6967246,-8.696192 -2.799017 0.8086357,-8.673378 -2.060874 0.9556591,-8.638956 -1.433361 1.066489,-9.04286 -4.259784 0.8165374,-9.154549 -3.369834 0.9483312,-9.200232 -2.773702 1.055361,-9.222625 -2.192447 1.119897,6.010, -1 2
-2.031206 -7.047942 0.4123728,-2.532687 -7.086393 1.548295,-2.887568 -6.603555 2.296938,-2.98054 -5.942089 2.863408,-3.136769 -5.373998 3.526626,-2.678345 -5.003669 2.100184,-2.745167 -4.407745 3.111492,-2.691012 -4.158613 3.847167,-2.632676 -4.114885 4.265726,-2.17918 -4.814237 1.871291,-2.039824 -3.970258 3.04894,-2.039824 -3.970258 3.04894,-1.948375 -5.341934 3.789645,-1.742437 -4.909828 1.749987,-1.534759 -4.283824 2.790695,-1.562551 -5.048375 3.09096,-1.637555 -5.584833 3.082312,-1.3673 -5.232112 1.674545,-1.143848 -4.782472 2.469393,-1.210051 -5.274368 2.739609,-1.325735 -5.647756 2.815601,-8.577447 -6.667041 0.3920313,-8.00759 -6.384095 0.6362474,-7.514187 -5.694803 0.8372563,-7.186628 -5.0515 1.080488,-6.875107 -4.676053 1.32556,-7.988024 -4.021213 0.5632179,-7.89489 -2.930793 0.7147896,-7.849814 -2.270118 0.8820428,-7.813583 -1.707209 1.004137,-8.348539 -3.874995 0.619772,-8.298747 -2.618966 0.7410703,-8.26247 -1.811207 0.9464213,-8.235031 -1.115899 1.124483,-8.693077 -3.969473 0.7054998,-8.674979 -2.793394 0.8150139,-8.649544 -2.046792 0.9580316,-8.613921 -1.407656 1.066821,-9.036128 -4.268753 0.8222533,-9.148039 -3.376827 0.9443229,-9.194032 -2.790943 1.051632,-9.214251 -2.22142 1.119016,6.110, -1 3
-1.980697 -7.051877 0.349298,-2.532409 -7.116959 1.509124,-2.880527 -6.679218 2.31194,-2.96994 -6.034484 2.939138,-3.094389 -5.471249 3.653188,-2.631026 -5.056203 2.087608,-2.707008 -4.395742 3.151877,-2.641944 -4.197024 3.874221,-2.579616 -4.231775 4.256553,-2.108065 -4.881843 1.871992,-1.949354 -4.028757 3.15262,-1.949354 -4.028757 3.15262,-1.878773 -5.451787 3.930052,-1.656238 -4.996809 1.768823,-1.425756 -4.35938 2.90093,-1.454952 -5.153679 3.233289,-1.557669 -5.712787 3.220743,-1.278663 -5.326787 1.707289,-1.025595 -4.828294 2.544344,-1.083639 -5.314804 2.842694,-1.212448 -5.705262 2.929571,-8.615993 -6.706594 0.510847,-8.048155 -6.400588 0.7796031,-7.550449 -5.712787 0.9916056,-7.214787 -5.062685 1.231158,-6.898447 -4.676998 1.463006,-8.006665 -4.042001 0.7367705,-7.912754 -2.959681 0.9117165,-7.870106 -2.290892 1.084602,-7.830516 -1.714008 1.216802,-8.368034 -3.885782 0.7812461,-8.307182 -2.636408 0.9386242,-8.266131 -1.832013 1.157934,-8.230807 -1.137558 1.345513,-8.711909 -3.979573 0.8558873,-8.694524 -2.809667 1.002463,-8.668267 -2.059443 1.165898,-8.622559 -1.415643 1.283494,-9.053734 -4.291557 0.9547056,-9.171315 -3.417484 1.105605,-9.216148 -2.834243 1.23303,-9.228924 -2.265239 1.318077,6.210, -1 3
-1.963313 -7.053346 0.3069292,-2.509108 -7.12708 1.433983,-2.881113 -6.670518 2.232785,-2.989792 -6.01128 2.855627,-3.10963 -5.462409 3.548684,-2.59594 -5.118013 2.064934,-2.685104 -4.437126 3.10249,-2.638354 -4.212228 3.817688,-2.581788 -4.227512 4.210603,-2.081316 -4.926298 1.869341,-1.922951 -4.005687 3.123754,-1.922951 -4.005687 3.123754,-1.860809 -5.454363 3.878729,-1.639989 -5.015286 1.77408,-1.406404 -4.333951 2.857018,-1.438518 -5.132764 3.174352,-1.536869 -5.721727 3.165527,-1.267488 -5.317457 1.722493,-0.9913797 -4.769027 2.535461,-1.057022 -5.279313 2.818879,-1.202248 -5.728483 2.909872,-8.615844 -6.701525 0.5210277,-8.048615 -6.389067 0.782299,-7.558695 -5.687257 0.9840806,-7.230054 -5.026473 1.218818,-6.905499 -4.649377 1.453179,-8.027854 -4.025506 0.7219068,-7.933178 -2.950854 0.8859111,-7.892718 -2.285329 1.053371,-7.857712 -1.707489 1.189141,-8.384251 -3.87513 0.7778668,-8.326974 -2.62308 0.9218199,-8.288785 -1.814824 1.145196,-8.256394 -1.114859 1.335955,-8.723447 -3.965208 0.865309,-8.709545 -2.797825 0.9995937,-8.687369 -2.054912 1.161298,-8.645717 -1.416964 1.279622,-9.063182 -4.268604 0.9815707,-9.191485 -3.395534 1.133936,-9.248537 -2.809229 1.262425,-9.273658 -2.239503 1.346457,6.310, -1 3
-2.076815 -7.303162 0.9383298,-2.597254 -7.122777 1.846995,-2.929138 -6.529193 2.551498,-3.034834 -5.892645 3.133009,-3.202579 -5.380594 3.804899,-2.654752 -4.885931 2.388563,-2.723384 -4.138149 3.200187,-2.669879 -3.92122 3.85418,-2.603644 -4.027425 4.277069,-2.158588 -4.809871 2.258004,-2.000187 -3.894791 3.212566,-2.000187 -3.894791 3.212566,-1.983244 -5.166365 4.043541,-1.731746 -4.999027 2.206238,-1.519284 -4.221017 2.977549,-1.560012 -4.855934 3.273353,-1.657312 -5.3743 3.36484,-1.35383 -5.390651 2.20052,-1.090045 -4.767539 2.827651,-1.140962 -5.146677 3.094786,-1.274055 -5.494443 3.223881,-8.671909 -6.759593 0.6126934,-8.106746 -6.435285 0.8481686,-7.622393 -5.727979 1.045711,-7.302371 -5.068847 1.284374,-6.983937 -4.680673 1.521747,-8.092207 -4.047326 0.7820881,-8.004188 -2.963489 0.9327074,-7.968636 -2.284984 1.096093,-7.936968 -1.687922 1.231634,-8.449536 -3.904239 0.8480223,-8.39765 -2.663097 0.9867909,-8.363949 -1.848638 1.211295,-8.338769 -1.152353 1.406496,-8.789883 -4.002222 0.9453646,-8.778259 -2.842307 1.0711,-8.752934 -2.090091 1.238348,-8.711769 -1.453634 1.36439,-9.131999 -4.312774 1.066582,-9.250895 -3.427728 1.216974,-9.30221 -2.833988 1.348043,-9.327723 -2.259838 1.434748,6.410, -1 3
-2.156744 -7.328559 0.4376229,-2.673586 -7.037759 1.174154,-3.006356 -6.35557 1.707082,-3.099539 -5.645448 2.139828,-3.317009 -5.088764 2.666222,-2.702264 -4.896408 1.568966,-2.803892 -4.138475 2.158193,-2.76602 -3.712523 2.699492,-2.685468 -3.540954 3.117065,-2.2657 -4.860231 1.473731,-2.214427 -3.941872 2.19389,-2.214427 -3.941872 2.19389,-2.064839 -4.277678 3.12408,-1.882934 -5.049444 1.442504,-1.766087 -4.238838 2.060291,-1.775187 -4.563398 2.417693,-1.779698 -4.995279 2.603098,-1.51652 -5.434669 1.447885,-1.327837 -4.844129 2.009288,-1.375358 -5.061988 2.329315,-1.444939 -5.360816 2.552179,-8.69767 -6.774171 0.5362826,-8.125238 -6.45688 0.7884274,-7.643256 -5.763989 0.9997023,-7.319561 -5.111618 1.243498,-7.006612 -4.722476 1.478356,-8.118847 -4.079185 0.7465997,-8.037639 -2.976317 0.9106666,-8.002214 -2.294583 1.076663,-7.969761 -1.700336 1.210792,-8.478481 -3.943296 0.802397,-8.436301 -2.676872 0.9620672,-8.406503 -1.866511 1.185188,-8.382515 -1.176758 1.37543,-8.817006 -4.04458 0.8864481,-8.816089 -2.857058 1.037317,-8.796231 -2.094345 1.203807,-8.75697 -1.447775 1.32476,-9.153858 -4.356592 0.9924093,-9.275721 -3.465402 1.152094,-9.326365 -2.875597 1.279571,-9.349754 -2.303932 1.361712,6.510, -1 3
-2.291616 -7.256616 -0.2248995,-2.806332 -6.962934 0.336771,-3.148695 -6.19944 0.674986,-3.258265 -5.429901 0.9576992,-3.499466 -4.754057 1.292985,-2.818639 -4.890756 0.3995633,-2.954257 -4.033089 0.7683749,-2.982803 -3.489536 1.12339,-2.963734 -3.05003 1.394969,-2.431298 -4.831861 0.3232282,-2.454266 -3.95498 0.8130872,-2.454266 -3.95498 0.8130872,-2.312459 -3.56167 1.617445,-2.081558 -4.984699 0.3235523,-2.039796 -4.154447 0.7509987,-2.017398 -3.962852 1.185368,-1.978371 -4.080623 1.486105,-1.73746 -5.325655 0.3403314,-1.621432 -4.657726 0.7229363,-1.622564 -4.541295 1.071114,-1.63817 -4.671354 1.347921,-8.68487 -6.793109 0.5176064,-8.112043 -6.481031 0.8009409,-7.631139 -5.796546 1.030751,-7.311769 -5.16052 1.294551,-7.00256 -4.771354 1.555698,-8.108072 -4.101412 0.7602409,-8.027151 -2.996234 0.9393746,-7.994301 -2.323556 1.118995,-7.971192 -1.727763 1.253082,-8.468533 -3.970124 0.811223,-8.441526 -2.705105 0.9575595,-8.418017 -1.8926 1.180395,-8.401584 -1.203335 1.367041,-8.807434 -4.077041 0.8922982,-8.820314 -2.903157 1.031306,-8.805285 -2.151149 1.202057,-8.776628 -1.521476 1.325971,-9.140006 -4.384211 1.003769,-9.266737 -3.499219 1.166446,-9.318915 -2.907668 1.29916,-9.344754 -2.342636 1.378734,6.610, -1 3
-2.281694 -7.118043 -0.1158723,-2.808654 -6.845596 0.4190201,-3.148667 -6.081895 0.7032228,-3.249167 -5.295659 0.9491421,-3.446904 -4.560939 1.215908,-2.806369 -4.682298 0.1572226,-2.931403 -3.798925 0.3499458,-2.978786 -3.235723 0.636218,-2.994802 -2.783202 0.9021554,-2.427425 -4.609804 0.09120026,-2.431601 -3.738023 0.4712088,-2.431601 -3.738023 0.4712088,-2.375469 -3.571788 1.24157,-2.091177 -4.748265 0.1056384,-2.068222 -3.911764 0.4411595,-2.073115 -3.768575 0.8682216,-2.067545 -3.996919 1.164756,-1.757658 -5.061049 0.1518866,-1.667619 -4.389593 0.4799045,-1.675028 -4.252768 0.8326651,-1.690989 -4.435946 1.106532,-8.647571 -6.773117 0.4819451,-8.071953 -6.470055 0.7606195,-7.596503 -5.782228 0.9818676,-7.282828 -5.141725 1.237812,-6.97212 -4.754028 1.493608,-8.077202 -4.09526 0.7059335,-7.99488 -2.997144 0.8818694,-7.957819 -2.329597 1.059845,-7.932031 -1.741321 1.190754,-8.435589 -3.958865 0.7640768,-8.409818 -2.703081 0.9051147,-8.383996 -1.894506 1.122203,-8.363415 -1.203226 1.303367,-8.773562 -4.058406 0.8511635,-8.784386 -2.889471 0.9869897,-8.77149 -2.141229 1.154112,-8.741272 -1.507631 1.274485,-9.107927 -4.354892 0.9720923,-9.237358 -3.483385 1.132801,-9.294333 -2.892177 1.258049,-9.319555 -2.322755 1.331134,6.710, -1 3
-2.282827 -7.080094 0.1962751,-2.798423 -6.793333 0.7178566,-3.141087 -5.972305 0.99445,-3.253508 -5.169466 1.246436,-3.437515 -4.444852 1.524389,-2.817401 -4.548379 0.3951181,-2.916449 -3.637146 0.5960816,-2.961923 -3.042481 0.8827997,-2.983012 -2.577949 1.141235,-2.432664 -4.478643 0.348307,-2.398405 -3.496211 0.7546535,-2.398405 -3.496211 0.7546535,-2.363666 -3.568087 1.558932,-2.102924 -4.62013 0.3710926,-2.017746 -3.701898 0.7461874,-2.034375 -3.565155 1.262817,-2.053308 -3.877599 1.598979,-1.775465 -4.938814 0.4361461,-1.677582 -4.238651 0.7736583,-1.720218 -4.070081 1.195481,-1.76926 -4.255679 1.517855,-8.611187 -6.756512 0.4370864,-8.038716 -6.464691 0.7017053,-7.557115 -5.775655 0.9193592,-7.239561 -5.132993 1.177868,-6.933523 -4.747695 1.434025,-8.03993 -4.090571 0.6411808,-7.956264 -3.001215 0.8165937,-7.919356 -2.335701 0.9956586,-7.892975 -1.749029 1.127849,-8.400427 -3.953791 0.70622,-8.365755 -2.696472 0.8486688,-8.339563 -1.885664 1.067551,-8.319214 -1.193624 1.247966,-8.741906 -4.060415 0.8004371,-8.748798 -2.886517 0.936708,-8.730857 -2.13842 1.102495,-8.696605 -1.504493 1.21887,-9.080503 -4.371898 0.9269758,-9.211028 -3.495862 1.085697,-9.268454 -2.90117 1.210746,-9.294646 -2.321815 1.283699,6.810, -1 3
-2.308665 -7.128295 0.4406937,-2.823394 -6.796045 0.9188846,-3.16526 -5.957979 1.161406,-3.272541 -5.144727 1.406788,-3.484268 -4.408158 1.681067,-2.855703 -4.523477 0.54031,-2.962017 -3.597343 0.7194052,-3.01454 -2.986549 0.9703105,-3.040376 -2.512154 1.202083,-2.472447 -4.454304 0.5158474,-2.436058 -3.436137 0.87704,-2.436058 -3.436137 0.87704,-2.420022 -3.514957 1.634301,-2.146593 -4.592773 0.5605481,-2.052755 -3.63416 0.8940032,-2.077367 -3.483026 1.404603,-2.112939 -3.811569 1.744654,-1.814369 -4.906335 0.6512796,-1.714205 -4.170446 0.9662525,-1.77539 -3.980301 1.382755,-1.848701 -4.177353 1.714698,-8.608434 -6.747256 0.4536463,-8.027753 -6.472335 0.7466311,-7.537604 -5.79169 0.9650905,-7.213042 -5.135696 1.211289,-6.902206 -4.733416 1.448072,-8.012153 -4.093669 0.7038236,-7.91838 -3.003356 0.8755461,-7.877122 -2.340279 1.044942,-7.850062 -1.761131 1.170036,-8.375444 -3.942752 0.7352501,-8.335475 -2.687493 0.8702959,-8.307467 -1.887015 1.083398,-8.287239 -1.194458 1.268367,-8.719539 -4.033975 0.7945292,-8.715789 -2.858549 0.9188848,-8.697721 -2.1199 1.077557,-8.667802 -1.489178 1.196327,-9.060936 -4.330288 0.8867863,-9.182199 -3.453578 1.024783,-9.237009 -2.864588 1.142966,-9.263235 -2.28922 1.21761,6.910, -1 3
-2.327406 -7.145773 0.4258524,-2.837739 -6.827652 0.9037844,-3.177143 -5.980361 1.155173,-3.278763 -5.166612 1.407327,-3.49386 -4.430316 1.690045,-2.870081 -4.543823 0.5654766,-2.982081 -3.598056 0.76657,-3.031961 -2.982059 1.027689,-3.056133 -2.508723 1.262227,-2.483338 -4.477443 0.5502708,-2.448072 -3.423528 0.9463031,-2.448072 -3.423528 0.9463031,-2.433617 -3.544552 1.710601,-2.15471 -4.623836 0.6037443,-2.061296 -3.645288 0.9708079,-2.088427 -3.486633 1.484082,-2.125041 -3.813077 1.820254,-1.821338 -4.952945 0.6994216,-1.719028 -4.21253 1.038535,-1.779238 -4.002996 1.459353,-1.852505 -4.178727 1.794612,-8.600432 -6.743418 0.4375353,-8.027626 -6.447744 0.6963189,-7.541847 -5.766266 0.9050823,-7.217951 -5.116309 1.14827,-6.906329 -4.73348 1.385574,-8.015402 -4.084204 0.6449181,-7.929058 -2.990674 0.8110662,-7.891665 -2.325386 0.9835285,-7.861454 -1.749326 1.116466,-8.373836 -3.941004 0.698497,-8.328833 -2.675876 0.8426287,-8.298146 -1.86987 1.061154,-8.274532 -1.175919 1.249756,-8.713691 -4.034494 0.780652,-8.706311 -2.851972 0.9155247,-8.684417 -2.105424 1.072482,-8.650622 -1.471672 1.189121,-9.05268 -4.33457 0.8913842,-9.173747 -3.445119 1.03389,-9.227192 -2.852188 1.150726,-9.254057 -2.276557 1.226467,7.010, -1 3
-2.301717 -7.184794 0.5364381,-2.825865 -6.865145 1.020988,-3.181305 -6.023695 1.283306,-3.297472 -5.201341 1.54169,-3.520113 -4.472425 1.832075,-2.879015 -4.561182 0.6759244,-2.997159 -3.619291 0.8661656,-3.057884 -3.003225 1.115538,-3.091031 -2.524262 1.345884,-2.490707 -4.486701 0.6557751,-2.457513 -3.427758 1.074399,-2.457513 -3.427758 1.074399,-2.448831 -3.625988 1.832571,-2.156327 -4.621725 0.7051333,-2.065496 -3.641489 1.082137,-2.103224 -3.532854 1.584038,-2.139533 -3.888598 1.904168,-1.814566 -4.939203 0.7973828,-1.724314 -4.185249 1.148434,-1.795485 -4.041759 1.562818,-1.870068 -4.288618 1.887596,-8.625292 -6.785764 0.5371801,-8.056661 -6.47153 0.7932914,-7.567055 -5.779392 1.000393,-7.239609 -5.125147 1.239278,-6.928788 -4.729636 1.470361,-8.042133 -4.103882 0.733924,-7.949986 -3.022764 0.8957869,-7.909433 -2.35469 1.066949,-7.875401 -1.773184 1.206626,-8.398904 -3.95346 0.7844818,-8.343471 -2.703633 0.9255486,-8.309258 -1.899804 1.145828,-8.281215 -1.206007 1.339189,-8.737959 -4.042096 0.8646039,-8.726222 -2.870917 0.9906292,-8.701299 -2.121727 1.147962,-8.660793 -1.485227 1.267359,-9.076448 -4.343539 0.9718983,-9.201094 -3.46635 1.1101,-9.255442 -2.876426 1.22966,-9.281761 -2.303553 1.310925,7.110, -1 3
-2.30198 -7.206264 0.5627053,-2.823906 -6.878833 1.029614,-3.187696 -6.0342 1.277018,-3.313173 -5.205062 1.523848,-3.530458 -4.463442 1.788245,-2.882621 -4.580879 0.6599601,-3.006308 -3.635896 0.8344228,-3.071304 -3.024619 1.068942,-3.109272 -2.541676 1.289951,-2.501369 -4.499906 0.6411684,-2.477971 -3.442398 1.025394,-2.477971 -3.442398 1.025394,-2.475347 -3.592091 1.74701,-2.170137 -4.630821 0.6942804,-2.092969 -3.638717 1.044137,-2.126518 -3.531297 1.522846,-2.157152 -3.882322 1.827307,-1.827772 -4.94675 0.7884275,-1.740123 -4.187088 1.11586,-1.806899 -4.032381 1.507354,-1.874194 -4.261351 1.814419,-8.639019 -6.813746 0.5388069,-8.065415 -6.493709 0.7984856,-7.580302 -5.796484 1.014893,-7.256741 -5.137672 1.266969,-6.942706 -4.738563 1.512286,-8.05404 -4.1191 0.7533233,-7.970779 -3.029603 0.9221778,-7.930894 -2.356283 1.091783,-7.895581 -1.764297 1.226673,-8.413612 -3.983132 0.810295,-8.366619 -2.725827 0.9610684,-8.333469 -1.914961 1.18273,-8.307648 -1.221627 1.371803,-8.75478 -4.08418 0.8981252,-8.749148 -2.906505 1.038823,-8.724467 -2.149339 1.208284,-8.684012 -1.507911 1.333558,-9.095554 -4.39536 1.011327,-9.220534 -3.499694 1.170453,-9.273863 -2.899239 1.3058,-9.299868 -2.320028 1.394951,7.210, -1 3
-2.325521 -7.26284 0.6156624,-2.842223 -6.91172 1.081164,-3.206841 -6.066715 1.336321,-3.334365 -5.245933 1.592692,-3.556306 -4.502418 1.874594,-2.899415 -4.618331 0.7273673,-3.025738 -3.683437 0.9029203,-3.090388 -3.072395 1.136953,-3.126591 -2.586919 1.357854,-2.516426 -4.541508 0.718617,-2.486597 -3.493445 1.110962,-2.486597 -3.493445 1.110962,-2.491778 -3.622014 1.843694,-2.185227 -4.669555 0.7825826,-2.099053 -3.673292 1.147512,-2.138247 -3.574297 1.627951,-2.17285 -3.944627 1.931683,-1.844022 -4.979914 0.8852293,-1.747187 -4.209775 1.219204,-1.822602 -4.062225 1.609104,-1.904012 -4.316678 1.912467,-8.641569 -6.834446 0.6113505,-8.076996 -6.506868 0.8760024,-7.60359 -5.779966 1.088447,-7.289718 -5.119153 1.339195,-6.970122 -4.732917 1.587244,-8.08256 -4.113536 0.8394234,-8.002551 -3.019344 1.008572,-7.973357 -2.343105 1.180499,-7.952606 -1.74475 1.319058,-8.441606 -3.983091 0.9033298,-8.404661 -2.721683 1.050576,-8.37904 -1.902078 1.275519,-8.362202 -1.200641 1.463054,-8.779037 -4.086863 0.9957985,-8.782501 -2.899072 1.139785,-8.768152 -2.136423 1.316378,-8.738564 -1.493065 1.446571,-9.113883 -4.399423 1.117679,-9.241428 -3.511222 1.282074,-9.297111 -2.912421 1.417658,-9.327514 -2.335381 1.506747,7.310, -1 3
-2.334056 -7.257938 0.528338,-2.84452 -6.89851 0.985413,-3.204 -6.062667 1.22927,-3.338371 -5.247169 1.471938,-3.573215 -4.534364 1.735028,-2.903866 -4.633131 0.6431633,-3.03459 -3.686849 0.8304909,-3.099749 -3.07624 1.064103,-3.143232 -2.594251 1.281514,-2.522642 -4.561361 0.6280187,-2.493795 -3.470334 1.054732,-2.493795 -3.470334 1.054732,-2.510778 -3.686174 1.758309,-2.190272 -4.697378 0.6893295,-2.105388 -3.672853 1.081612,-2.15476 -3.635346 1.548374,-2.199132 -4.053106 1.818551,-1.846477 -5.018367 0.7845475,-1.749187 -4.237289 1.135419,-1.824881 -4.124666 1.516297,-1.901207 -4.409745 1.798578,-8.655919 -6.829134 0.6001537,-8.088672 -6.52129 0.8758462,-7.610808 -5.820474 1.096452,-7.29678 -5.162921 1.355383,-6.988169 -4.763252 1.609086,-8.084303 -4.117548 0.8340996,-8.009212 -3.023557 1.004818,-7.980369 -2.354242 1.179687,-7.960572 -1.760353 1.315449,-8.446645 -3.981951 0.8949926,-8.420196 -2.72755 1.040182,-8.397925 -1.906309 1.268345,-8.383786 -1.206684 1.460765,-8.786192 -4.090938 0.98554,-8.798112 -2.914844 1.123128,-8.782927 -2.15718 1.296389,-8.754148 -1.521972 1.424788,-9.121981 -4.406183 1.107322,-9.249406 -3.519309 1.272616,-9.304035 -2.917144 1.405611,-9.333563 -2.335211 1.483937,7.410, -1 3
-2.326604 -7.263401 0.5886538,-2.834912 -6.920582 1.072996,-3.199038 -6.093696 1.335782,-3.334736 -5.278949 1.5898,-3.567825 -4.547565 1.867116,-2.903243 -4.631914 0.7288101,-3.039894 -3.689887 0.9240583,-3.109148 -3.081025 1.17031,-3.155316 -2.60264 1.397282,-2.518672 -4.550123 0.6972389,-2.496686 -3.46701 1.130726,-2.496686 -3.46701 1.130726,-2.501069 -3.699793 1.841032,-2.185375 -4.680812 0.7412753,-2.105139 -3.679551 1.135449,-2.148896 -3.618299 1.612737,-2.184732 -4.022243 1.897065,-1.842461 -4.994806 0.8190578,-1.750242 -4.241681 1.181006,-1.815475 -4.110868 1.583526,-1.877881 -4.368469 1.885528,-8.65344 -6.826082 0.5314849,-8.086937 -6.516071 0.8127546,-7.613654 -5.827255 1.040445,-7.298512 -5.174909 1.300539,-6.987077 -4.782181 1.5535,-8.090301 -4.133221 0.7743774,-8.013245 -3.027431 0.9502003,-7.982272 -2.354948 1.12552,-7.959355 -1.75627 1.259342,-8.447454 -3.998783 0.8295985,-8.41725 -2.727201 0.9842877,-8.392061 -1.911467 1.208357,-8.374248 -1.210959 1.394617,-8.783732 -4.106639 0.9128053,-8.791615 -2.918454 1.064972,-8.776713 -2.158655 1.243065,-8.747526 -1.512537 1.371859,-9.11624 -4.424806 1.02452,-9.243815 -3.534087 1.202227,-9.299687 -2.933437 1.34374,-9.32943 -2.353789 1.43096,7.510, -1 3
-2.320465 -7.298608 0.5800188,-2.830196 -6.948677 1.051763,-3.198967 -6.124286 1.309069,-3.34153 -5.315183 1.559948,-3.579818 -4.587553 1.840551,-2.900347 -4.669047 0.7150846,-3.041477 -3.727073 0.9100738,-3.110677 -3.119174 1.160893,-3.154026 -2.636001 1.389631,-2.517224 -4.58844 0.6961681,-2.5008 -3.510688 1.125056,-2.5008 -3.510688 1.125056,-2.507072 -3.709384 1.844354,-2.184259 -4.72125 0.7525983,-2.112248 -3.71747 1.146917,-2.154412 -3.645195 1.623687,-2.189118 -4.030054 1.909628,-1.839282 -5.038778 0.8453292,-1.755548 -4.285459 1.199749,-1.826462 -4.151767 1.593608,-1.896329 -4.400781 1.891299,-8.640171 -6.820364 0.5614092,-8.073579 -6.49872 0.8302373,-7.599203 -5.791915 1.049314,-7.287924 -5.14518 1.310755,-6.979909 -4.754386 1.56933,-8.086214 -4.113718 0.776959,-8.00604 -3.02477 0.9488288,-7.973707 -2.355649 1.125562,-7.952993 -1.763686 1.263604,-8.44401 -3.981981 0.8422003,-8.414799 -2.727956 0.9839975,-8.39095 -1.913892 1.208949,-8.376902 -1.217394 1.394868,-8.780264 -4.086517 0.937261,-8.791876 -2.913733 1.074414,-8.780333 -2.157845 1.248023,-8.754327 -1.517338 1.374204,-9.112757 -4.396112 1.062552,-9.246315 -3.509654 1.225794,-9.302704 -2.912203 1.356292,-9.331919 -2.335857 1.433983,7.610, -1 3
-2.314247 -7.335866 0.6579088,-2.832531 -6.980337 1.139349,-3.199903 -6.149818 1.395143,-3.337257 -5.333372 1.641669,-3.570613 -4.60606 1.916935,-2.904768 -4.684867 0.8020607,-3.042931 -3.749585 0.9924421,-3.108953 -3.145786 1.243658,-3.148787 -2.664078 1.476017,-2.516299 -4.603723 0.7729889,-2.499646 -3.543015 1.201888,-2.499646 -3.543015 1.201888,-2.499702 -3.703126 1.940127,-2.180826 -4.739358 0.8204215,-2.106823 -3.747044 1.22036,-2.146386 -3.688503 1.713025,-2.175987 -4.081682 2.007267,-1.836993 -5.058057 0.9009739,-1.744857 -4.315111 1.266248,-1.808296 -4.192953 1.674013,-1.870131 -4.446583 1.980239,-8.664384 -6.825889 0.5245581,-8.086832 -6.518099 0.7992303,-7.605439 -5.824522 1.01847,-7.289348 -5.172796 1.274969,-6.981734 -4.774135 1.525079,-8.083627 -4.128295 0.749516,-8.005109 -3.026788 0.9225103,-7.968374 -2.351543 1.096376,-7.940424 -1.754323 1.22524,-8.4445 -3.999909 0.8058689,-8.418528 -2.739564 0.9474765,-8.392016 -1.928977 1.16695,-8.370647 -1.238057 1.348464,-8.78257 -4.108997 0.8917518,-8.793109 -2.928421 1.027256,-8.776541 -2.17308 1.19687,-8.745181 -1.533166 1.318676,-9.115891 -4.419471 1.005614,-9.244575 -3.52187 1.165158,-9.296704 -2.914672 1.296867,-9.323556 -2.329469 1.377189,7.710, -1 3
-2.304155 -7.363655 0.6113509,-2.824322 -6.983127 1.069346,-3.191324 -6.15978 1.329597,-3.338293 -5.346612 1.581376,-3.585319 -4.615815 1.860627,-2.897127 -4.723157 0.7549279,-3.031385 -3.775568 0.9627647,-3.10498 -3.161841 1.220138,-3.154175 -2.682863 1.453701,-2.513075 -4.645769 0.7350217,-2.486371 -3.568016 1.178723,-2.486371 -3.568016 1.178723,-2.52373 -3.742719 1.890868,-2.176974 -4.776933 0.7889931,-2.097523 -3.774299 1.191957,-2.16235 -3.721804 1.662399,-2.206927 -4.130443 1.942183,-1.830697 -5.084569 0.8754629,-1.740738 -4.323476 1.246654,-1.825891 -4.202214 1.650112,-1.902283 -4.466684 1.957386,-8.649586 -6.975356 0.6289583,-8.082303 -6.617924 0.8737251,-7.603166 -5.865755 1.059079,-7.28494 -5.186044 1.288798,-6.95025 -4.762229 1.529952,-8.0671 -4.2222 0.7412127,-7.957104 -3.146068 0.8748021,-7.899144 -2.514579 1.024608,-7.842154 -1.940017 1.14337,-8.440863 -4.110466 0.8105981,-8.40167 -2.999959 0.9058884,-8.373848 -2.356705 1.088959,-8.339909 -1.831097 1.225356,-8.776624 -4.209827 0.9274313,-8.786427 -3.137721 1.034936,-8.771239 -2.508367 1.186049,-8.731536 -1.986029 1.287268,-9.099566 -4.504701 1.068167,-9.186201 -3.663183 1.217404,-9.210497 -3.109478 1.340125,-9.211822 -2.577401 1.416411,7.810, -1 3
