TiagoOliveira98/Thesis-Project/Difficulty_0/Motor_Task/Unity_Project/DataLogging/JointData/Logs(1646876386)_eeee_Motor.csv
WRIST,THUMB_CMC,THUMB_MCP,THUMB_IP,THUMB_TIP,INDEX_FINGER_MCP,INDEX_FINGER_PIP,INDEX_FINGER_DIP,INDEX_FINGER_TIP,MIDDLE_FINGER_MCP,MIDDLE_FINGER_PIP,MIDDLE_FINGER_DIP,MIDDLE_FINGER_TIP,RING_FINGER_MCP,RING_FINGER_PIP,RING_FINGER_DIP,RING_FINGER_TIP,PINKY_MCP,PINKY_PIP,PINKY_DIP,PINKY_TIP,WRIST2,THUMB_CMC2,THUMB_MCP2,THUMB_IP2,THUMB_TIP2,INDEX_FINGER_MCP2,INDEX_FINGER_PIP2,INDEX_FINGER_DIP2,INDEX_FINGER_TIP2,MIDDLE_FINGER_MCP2,MIDDLE_FINGER_PIP2,MIDDLE_FINGER_DIP2,MIDDLE_FINGER_TIP2,RING_FINGER_MCP2,RING_FINGER_PIP2,RING_FINGER_DIP2,RING_FINGER_TIP2,PINKY_MCP2,PINKY_PIP2,PINKY_DIP2,PINKY_TIP2,Timestamp,Event
-2.042201 -7.16336 0.000278209,-2.710676 -6.846067 0.3173658,-3.289988 -6.335752 0.5411613,-3.743161 -5.828874 0.7590009,-4.077993 -5.505544 1.014113,-2.862237 -4.630243 0.2400355,-3.128733 -3.499699 0.5039971,-3.26892 -2.840688 0.7126233,-3.384159 -2.254866 0.8658699,-2.494887 -4.388826 0.3087005,-2.655147 -3.10545 0.5266838,-2.655147 -3.10545 0.5266838,-2.823264 -1.568024 0.9273857,-2.115138 -4.394666 0.4454769,-2.194513 -3.172924 0.6663139,-2.269646 -2.37182 0.864229,-2.367902 -1.735286 1.033671,-1.714869 -4.623769 0.6210724,-1.58312 -3.685696 0.8099986,-1.515456 -3.026105 0.9716637,-1.481065 -2.420485 1.12643,-8.301354 -7.47771 0.0004045252,-7.681577 -7.160266 0.2717717,-7.119532 -6.475152 0.5009538,-6.720038 -5.838769 0.7810327,-6.354439 -5.503175 1.062389,-7.581056 -4.580846 0.1886769,-7.465336 -3.39442 0.3507868,-7.426191 -2.658324 0.5334239,-7.395542 -2.02092 0.6867375,-7.968203 -4.41239 0.2617877,-7.880507 -3.023187 0.4098315,-7.825605 -2.143938 0.6522011,-7.789467 -1.397163 0.8559481,-8.342057 -4.503503 0.3730019,-8.304476 -3.234124 0.5189297,-8.259268 -2.42274 0.6957654,-8.196993 -1.74101 0.8261513,-8.723854 -4.826941 0.5125753,-8.811547 -3.864397 0.6775563,-8.838494 -3.234127 0.8021014,-8.83652 -2.629515 0.8815087,0.010,12 1 0
-2.04907 -7.163627 0.05840202,-2.714326 -6.869405 0.3922915,-3.295496 -6.360198 0.6240838,-3.742685 -5.841011 0.8558039,-4.073622 -5.505037 1.11603,-2.867894 -4.61107 0.2814184,-3.132946 -3.48899 0.5450588,-3.270403 -2.836519 0.7536704,-3.382776 -2.252882 0.9027451,-2.499613 -4.369686 0.3467343,-2.656372 -3.086664 0.5545806,-2.656372 -3.086664 0.5545806,-2.824059 -1.572033 0.9457367,-2.123627 -4.378629 0.4802106,-2.194341 -3.155113 0.6945978,-2.272539 -2.360393 0.8847628,-2.369918 -1.727508 1.048712,-1.726557 -4.61515 0.654618,-1.587543 -3.687845 0.8322543,-1.522325 -3.048771 0.9848719,-1.491509 -2.465719 1.124525,-8.330812 -7.488775 0.05877647,-7.70811 -7.188016 0.3432055,-7.132177 -6.499249 0.566718,-6.726651 -5.857856 0.8365778,-6.363276 -5.50932 1.111284,-7.590198 -4.585636 0.2277601,-7.466319 -3.399295 0.3779815,-7.426702 -2.660812 0.5549159,-7.394148 -2.030745 0.703477,-7.977965 -4.406246 0.2873935,-7.885919 -3.023605 0.4208814,-7.828207 -2.147972 0.6531122,-7.785626 -1.404583 0.8464523,-8.353191 -4.487077 0.3890535,-8.307267 -3.217489 0.5204685,-8.256245 -2.411994 0.6909214,-8.182236 -1.737708 0.8127839,-8.735924 -4.79861 0.5201511,-8.822871 -3.839731 0.6701494,-8.848333 -3.216722 0.7914711,-8.838814 -2.617383 0.8676217,0.110,12 1 0
-2.038058 -7.203134 0.07384245,-2.711841 -6.92357 0.381781,-3.294006 -6.378646 0.565297,-3.740221 -5.828619 0.7490755,-4.07992 -5.503646 0.9604752,-2.877582 -4.64501 0.2126305,-3.136711 -3.505809 0.4256986,-3.271807 -2.836483 0.6072598,-3.378922 -2.248417 0.7477319,-2.500547 -4.398633 0.2697785,-2.64445 -3.100058 0.4248098,-2.64445 -3.100058 0.4248098,-2.803691 -1.559181 0.7779139,-2.118574 -4.400657 0.3960209,-2.183818 -3.163396 0.5691628,-2.254399 -2.351737 0.7320488,-2.344115 -1.707232 0.8833423,-1.716858 -4.632076 0.5654157,-1.580304 -3.689053 0.7173923,-1.512547 -3.034464 0.8561534,-1.475587 -2.439182 0.9879265,-8.304111 -7.519521 0.04073717,-7.689701 -7.207302 0.3151528,-7.128501 -6.516551 0.5587969,-6.721387 -5.88732 0.8539051,-6.350875 -5.547407 1.16547,-7.597137 -4.612283 0.2317236,-7.475178 -3.413023 0.3952357,-7.431534 -2.667634 0.5871055,-7.395228 -2.02787 0.7355259,-7.984113 -4.441378 0.3039627,-7.896141 -3.04496 0.4496231,-7.837891 -2.16001 0.6850765,-7.793962 -1.412771 0.876519,-8.357203 -4.54063 0.417181,-8.323325 -3.256485 0.55447,-8.27235 -2.436222 0.7263157,-8.202511 -1.75195 0.8480476,-8.737245 -4.876066 0.5578163,-8.832245 -3.886525 0.7180504,-8.853071 -3.240989 0.8421785,-8.840514 -2.626678 0.918588,0.210,12 1 0
-2.045341 -7.195219 0.07729494,-2.708722 -6.925504 0.3842243,-3.296215 -6.387176 0.5750395,-3.739978 -5.83902 0.7720462,-4.062729 -5.493515 0.9909657,-2.87754 -4.63002 0.2149503,-3.131414 -3.49875 0.4354704,-3.261158 -2.826109 0.6129066,-3.362871 -2.235322 0.7427803,-2.50163 -4.389232 0.280557,-2.646406 -3.096122 0.4513623,-2.646406 -3.096122 0.4513623,-2.799165 -1.559511 0.8128872,-2.121651 -4.394689 0.4137355,-2.185534 -3.160041 0.6031188,-2.256952 -2.348682 0.7735467,-2.343097 -1.710969 0.9247917,-1.722633 -4.631011 0.5885256,-1.587594 -3.684234 0.7545185,-1.522492 -3.034741 0.8992722,-1.487768 -2.447152 1.030447,-8.324828 -7.522239 0.07809675,-7.70279 -7.200455 0.3302578,-7.139414 -6.505235 0.5555581,-6.730107 -5.872582 0.8338358,-6.351691 -5.541599 1.130317,-7.605375 -4.605224 0.2142777,-7.488699 -3.409839 0.3600267,-7.448644 -2.671592 0.5420357,-7.414898 -2.032131 0.6861248,-7.99169 -4.430942 0.2921955,-7.903366 -3.037289 0.4200834,-7.846612 -2.161014 0.6482277,-7.801779 -1.41637 0.8350773,-8.363133 -4.52248 0.4111865,-8.329823 -3.237421 0.5369526,-8.282202 -2.427932 0.7003925,-8.214114 -1.746711 0.8151312,-8.741754 -4.852808 0.5552406,-8.838007 -3.869645 0.711863,-8.859416 -3.228682 0.8323689,-8.848258 -2.617451 0.9012188,0.310,12 1 0
-2.041949 -7.228282 0.1440355,-2.707348 -6.954043 0.451186,-3.290821 -6.408687 0.6347638,-3.732059 -5.853857 0.8252934,-4.067894 -5.521629 1.043174,-2.875217 -4.648029 0.261049,-3.122885 -3.511663 0.4692683,-3.245762 -2.827463 0.6519927,-3.33819 -2.228761 0.7894672,-2.495715 -4.400631 0.3189017,-2.636624 -3.1111 0.4713353,-2.636624 -3.1111 0.4713353,-2.78283 -1.571264 0.8368617,-2.113221 -4.401649 0.4435657,-2.173315 -3.175183 0.6204163,-2.24583 -2.363245 0.79781,-2.333346 -1.725173 0.9510921,-1.714428 -4.634298 0.6106571,-1.582112 -3.694618 0.7750134,-1.520452 -3.045264 0.9237208,-1.490396 -2.459013 1.059176,-8.324507 -7.519633 0.1413496,-7.70137 -7.194376 0.414299,-7.137365 -6.498502 0.6467351,-6.726659 -5.863242 0.9304187,-6.346095 -5.530483 1.226171,-7.606546 -4.58435 0.3070859,-7.488803 -3.392213 0.4647712,-7.4503 -2.656345 0.6473053,-7.416226 -2.020872 0.7955188,-7.996677 -4.411251 0.3793841,-7.907557 -3.025631 0.5170368,-7.85171 -2.153188 0.7483625,-7.806314 -1.412462 0.9436101,-8.3714 -4.506389 0.4944248,-8.335381 -3.226923 0.6256161,-8.287499 -2.424111 0.7938495,-8.217298 -1.745377 0.9169871,-8.752731 -4.841321 0.6391475,-8.848587 -3.871973 0.8004015,-8.873357 -3.238933 0.9285048,-8.862822 -2.62669 1.006845,0.410,12 1 0
-2.034146 -7.205575 0.07599711,-2.70068 -6.935941 0.3538398,-3.291362 -6.387556 0.5280086,-3.742117 -5.853021 0.7069981,-4.078008 -5.54685 0.9144206,-2.884101 -4.661666 0.1985801,-3.142307 -3.534922 0.4052581,-3.278042 -2.866557 0.5774884,-3.38301 -2.285287 0.70639,-2.506444 -4.401748 0.2670611,-2.6479 -3.112724 0.4194311,-2.6479 -3.112724 0.4194311,-2.797439 -1.57787 0.7632451,-2.1226 -4.392946 0.4059865,-2.187978 -3.172166 0.5845921,-2.253959 -2.367718 0.7414992,-2.341866 -1.72911 0.8820302,-1.719438 -4.617118 0.5811794,-1.59015 -3.685203 0.7379863,-1.518852 -3.048365 0.8698812,-1.480352 -2.473169 0.9911613,-8.339129 -7.521191 0.08949445,-7.713337 -7.203493 0.3695999,-7.150503 -6.514217 0.5958118,-6.741039 -5.875892 0.8676161,-6.367542 -5.542696 1.152727,-7.619434 -4.606372 0.2484253,-7.499426 -3.418407 0.3955463,-7.456649 -2.688043 0.5768225,-7.420795 -2.054889 0.7178755,-8.005431 -4.427097 0.3097496,-7.925282 -3.033973 0.4326946,-7.872592 -2.168196 0.6601624,-7.828034 -1.42801 0.8438532,-8.374169 -4.512469 0.4134877,-8.346468 -3.236924 0.5330731,-8.302481 -2.443388 0.6997907,-8.232014 -1.773535 0.8166171,-8.746259 -4.83393 0.5461175,-8.852565 -3.882648 0.7018539,-8.884155 -3.25616 0.8249487,-8.876903 -2.652909 0.8946085,0.510,12 1 0
-2.03474 -7.217922 0.1062149,-2.699406 -6.949235 0.3959631,-3.289648 -6.391307 0.5785322,-3.735903 -5.838865 0.7668744,-4.059107 -5.506494 0.9782498,-2.865899 -4.639614 0.2387051,-3.110504 -3.506752 0.4474634,-3.237642 -2.82839 0.6202687,-3.333655 -2.238001 0.7517949,-2.493309 -4.403907 0.3089233,-2.638902 -3.094186 0.4760616,-2.638902 -3.094186 0.4760616,-2.785357 -1.557993 0.8345783,-2.116221 -4.411876 0.4442578,-2.184509 -3.16873 0.633801,-2.255686 -2.357232 0.7995862,-2.340499 -1.717948 0.9468737,-1.721495 -4.648401 0.6194636,-1.592255 -3.701083 0.7893292,-1.533179 -3.061325 0.9334395,-1.505349 -2.484542 1.060639,-8.321177 -7.521053 0.09610234,-7.703156 -7.188253 0.3692124,-7.144869 -6.484838 0.5985816,-6.741879 -5.842752 0.8779111,-6.366725 -5.516305 1.169667,-7.61641 -4.593703 0.25928,-7.49842 -3.403629 0.4165566,-7.455802 -2.663999 0.6064643,-7.420499 -2.0233 0.7596331,-8.005309 -4.423971 0.3277431,-7.92198 -3.030836 0.4645893,-7.864342 -2.153395 0.6999847,-7.820392 -1.409582 0.8949034,-8.375596 -4.516844 0.4378378,-8.347346 -3.238914 0.563902,-8.301007 -2.440472 0.7269689,-8.233681 -1.765352 0.8437157,-8.750126 -4.844238 0.577027,-8.847815 -3.882034 0.734559,-8.873087 -3.253244 0.8523899,-8.865016 -2.647333 0.9228664,0.610,12 1 0
-2.050144 -7.207775 0.07431844,-2.717818 -6.929019 0.3511522,-3.298502 -6.383193 0.5229548,-3.736044 -5.835474 0.7057734,-4.057789 -5.505193 0.9133967,-2.879716 -4.633158 0.1637131,-3.127075 -3.504474 0.3752983,-3.255277 -2.832852 0.5522628,-3.352626 -2.246744 0.6826844,-2.505828 -4.400344 0.2438988,-2.648929 -3.106861 0.40781,-2.648929 -3.106861 0.40781,-2.793773 -1.570577 0.7761134,-2.126859 -4.408739 0.3923582,-2.190777 -3.178674 0.5784563,-2.261556 -2.368268 0.7492925,-2.34507 -1.727218 0.899949,-1.728525 -4.642404 0.5813881,-1.599954 -3.701826 0.7436951,-1.540224 -3.059408 0.8823344,-1.510841 -2.475702 1.009566,-8.341949 -7.513012 0.09189992,-7.712393 -7.193826 0.372625,-7.153014 -6.488611 0.6006911,-6.750651 -5.83331 0.8784137,-6.376617 -5.499766 1.169315,-7.62833 -4.590652 0.2548479,-7.507897 -3.396898 0.4184797,-7.46583 -2.659602 0.6087683,-7.430465 -2.019023 0.7591839,-8.019163 -4.417598 0.3201267,-7.933369 -3.016353 0.456766,-7.877674 -2.141305 0.691462,-7.832699 -1.395437 0.8850555,-8.391278 -4.511055 0.4288552,-8.361293 -3.222822 0.5610024,-8.315137 -2.427736 0.7340855,-8.247205 -1.752832 0.8575708,-8.767154 -4.840375 0.5664986,-8.860036 -3.872941 0.7347218,-8.884441 -3.239342 0.863088,-8.87182 -2.629712 0.9431309,0.710,12 1 0
-1.993306 -7.249406 0.01896665,-2.667267 -6.998727 0.2644951,-3.253595 -6.439211 0.4208308,-3.691292 -5.859339 0.5929275,-4.022627 -5.494047 0.8097208,-2.85877 -4.710737 0.05911196,-3.115884 -3.598218 0.2335851,-3.258097 -2.934394 0.3976045,-3.364364 -2.346524 0.5256931,-2.496193 -4.463567 0.1394756,-2.644872 -3.176393 0.2622993,-2.644872 -3.176393 0.2622993,-2.806304 -1.611579 0.6143774,-2.122705 -4.445758 0.2860061,-2.204173 -3.229352 0.4305936,-2.287672 -2.420469 0.5952556,-2.375574 -1.770916 0.7448737,-1.724863 -4.645705 0.4689146,-1.622602 -3.684044 0.601472,-1.578968 -3.027623 0.7443334,-1.562971 -2.429873 0.881978,-8.338928 -7.549751 0.1175888,-7.723764 -7.22332 0.395854,-7.170248 -6.520355 0.6329486,-6.771821 -5.866231 0.9198798,-6.39985 -5.5158 1.215805,-7.640791 -4.620168 0.2890454,-7.521847 -3.430952 0.4512453,-7.475903 -2.69581 0.6416287,-7.437878 -2.057515 0.7931113,-8.03071 -4.44664 0.3608972,-7.948714 -3.049869 0.5009664,-7.894361 -2.175848 0.7386246,-7.850562 -1.431893 0.9308885,-8.401651 -4.542359 0.4760184,-8.375114 -3.255023 0.6048801,-8.32751 -2.457769 0.7751404,-8.255426 -1.783748 0.8971889,-8.776607 -4.877094 0.6196213,-8.876101 -3.903692 0.7827151,-8.899161 -3.271912 0.9127751,-8.885255 -2.66229 0.9909378,0.810,12 1 0
-2.009191 -7.384943 0.2389389,-2.664713 -7.082166 0.4993709,-3.222889 -6.445122 0.6407263,-3.629731 -5.803462 0.8166625,-3.959307 -5.393278 1.033444,-2.848894 -4.753547 0.2484196,-3.092875 -3.640422 0.4431336,-3.228941 -2.974261 0.5978844,-3.338379 -2.369918 0.7120309,-2.489706 -4.530104 0.3218608,-2.642074 -3.276917 0.4506792,-2.642074 -3.276917 0.4506792,-2.807167 -1.795082 0.7552087,-2.12472 -4.543584 0.4701614,-2.212803 -3.340145 0.6208531,-2.299897 -2.561605 0.7937591,-2.388798 -1.915251 0.9412341,-1.737866 -4.785957 0.6630999,-1.672472 -3.8526 0.8070644,-1.663621 -3.214471 0.9630223,-1.678337 -2.627593 1.09762,-8.366479 -7.549924 0.1054133,-7.751215 -7.225562 0.3944278,-7.195041 -6.523849 0.6415581,-6.795396 -5.871292 0.9342912,-6.422132 -5.516075 1.243124,-7.660226 -4.626207 0.3147904,-7.537866 -3.430306 0.4917428,-7.489648 -2.698854 0.6842544,-7.449195 -2.060003 0.8342891,-8.052778 -4.45424 0.3882324,-7.965684 -3.048432 0.5455742,-7.909955 -2.17442 0.7878194,-7.864413 -1.428133 0.9822983,-8.426277 -4.55282 0.5038285,-8.393289 -3.25648 0.6504058,-8.343118 -2.454362 0.8299478,-8.267035 -1.773615 0.9586815,-8.80373 -4.889976 0.6476369,-8.897069 -3.903265 0.8297842,-8.915607 -3.268163 0.969311,-8.897774 -2.656414 1.051414,0.910,12 1 0
-1.988625 -7.563496 0.2232701,-2.638452 -7.307458 0.4653275,-3.143444 -6.502231 0.5589447,-3.415421 -5.702264 0.733952,-3.746223 -5.092908 0.9474767,-2.885553 -4.912353 -0.0956476,-3.10198 -3.878035 -0.05076936,-3.215569 -3.218309 0.08459751,-3.295252 -2.618322 0.2332964,-2.512312 -4.727548 0.01087159,-2.635138 -3.645975 0.1816968,-2.635138 -3.645975 0.1816968,-2.705971 -3.173856 0.77582,-2.147317 -4.759361 0.2011846,-2.230567 -3.735956 0.4134057,-2.292947 -3.325302 0.8408096,-2.348941 -3.323259 1.143695,-1.745686 -4.976805 0.4332128,-1.779573 -4.149421 0.6524084,-1.877513 -3.805835 0.9605137,-1.977471 -3.761488 1.207181,-8.364408 -7.541259 0.1958966,-7.750338 -7.205574 0.4851686,-7.198878 -6.492723 0.718398,-6.797705 -5.828157 0.9986178,-6.423574 -5.475814 1.290142,-7.665812 -4.59074 0.3906983,-7.54212 -3.412529 0.5536132,-7.493818 -2.695772 0.741213,-7.452612 -2.071735 0.8878298,-8.056799 -4.417263 0.4605989,-7.980325 -3.029486 0.5984293,-7.92878 -2.166342 0.8339845,-7.885101 -1.427916 1.025203,-8.428296 -4.517755 0.57024,-8.399179 -3.237802 0.7051622,-8.350798 -2.445129 0.8818689,-8.278562 -1.776556 1.008839,-8.803057 -4.853523 0.7130178,-8.902755 -3.897618 0.8846306,-8.934523 -3.270616 1.01686,-8.931108 -2.665819 1.095056,1.010,12 1 0
-2.001016 -7.564626 -0.03289416,-2.627522 -7.353117 0.1993677,-3.087719 -6.556762 0.3204988,-3.331176 -5.749897 0.5147945,-3.678274 -5.10542 0.7318767,-2.942078 -5.020227 -0.3347808,-3.176157 -4.033659 -0.2956107,-3.326376 -3.351673 -0.1606718,-3.442133 -2.758227 0.01259555,-2.578689 -4.811082 -0.2012014,-2.725394 -3.67586 0.1348448,-2.725394 -3.67586 0.1348448,-2.734859 -3.764507 0.8273246,-2.211315 -4.802953 -0.001394972,-2.311865 -3.707299 0.3334624,-2.382249 -3.54838 0.8373632,-2.379383 -3.838285 1.158553,-1.802112 -4.981338 0.2357329,-1.862213 -4.106312 0.5387807,-1.998921 -3.85756 0.9076602,-2.079374 -3.997296 1.20006,-8.368455 -7.535767 0.1823681,-7.756211 -7.211308 0.473591,-7.202959 -6.497972 0.7104651,-6.799665 -5.836671 0.9919,-6.424006 -5.493695 1.285698,-7.66893 -4.59037 0.3727159,-7.541474 -3.407337 0.5350745,-7.493235 -2.688085 0.7232939,-7.454268 -2.062772 0.8704476,-8.060292 -4.414749 0.4353236,-7.982813 -3.022596 0.5695748,-7.929464 -2.154423 0.8030095,-7.887026 -1.414972 0.9988458,-8.433542 -4.513158 0.5389777,-8.404832 -3.238428 0.6646745,-8.355598 -2.449897 0.829455,-8.284817 -1.786491 0.952425,-8.807864 -4.849428 0.6772904,-8.90946 -3.8997 0.8397513,-8.939638 -3.277677 0.9616508,-8.93438 -2.677447 1.035123,1.110,12 1 0
-2.039923 -7.646554 -0.4144782,-2.645251 -7.407468 -0.09804696,-3.06777 -6.590185 0.09234446,-3.298066 -5.743757 0.3076869,-3.617568 -5.058126 0.5184417,-2.979617 -5.173588 -0.5998851,-3.179707 -4.198396 -0.4782155,-3.33938 -3.502105 -0.297796,-3.478941 -2.876669 -0.1180792,-2.602071 -4.999138 -0.5421145,-2.697328 -3.759592 -0.07364228,-2.697328 -3.759592 -0.07364228,-2.773628 -4.524738 0.4707367,-2.224942 -4.98649 -0.4104923,-2.272213 -3.792592 0.01534128,-2.409762 -4.137565 0.3902532,-2.435848 -4.739038 0.5164544,-1.807846 -5.13392 -0.2464548,-1.881723 -4.226793 0.09913129,-2.056026 -4.344145 0.3865163,-2.116595 -4.79829 0.5458609,-8.370351 -7.546167 0.2154807,-7.755721 -7.20807 0.504949,-7.204716 -6.484447 0.7379043,-6.804899 -5.809132 1.015827,-6.426332 -5.464506 1.302318,-7.67691 -4.586481 0.4142941,-7.553881 -3.407794 0.5787012,-7.505773 -2.687151 0.7656927,-7.465648 -2.059398 0.9127585,-8.068233 -4.416156 0.4822405,-7.987149 -3.02771 0.6258776,-7.933627 -2.15642 0.8634091,-7.891191 -1.411448 1.060457,-8.438719 -4.518281 0.5903989,-8.411276 -3.239645 0.7320508,-8.363669 -2.445667 0.9058009,-8.29291 -1.777014 1.032103,-8.81174 -4.85754 0.7313818,-8.909172 -3.899948 0.9046158,-8.939427 -3.272172 1.035309,-8.935302 -2.663963 1.114271,1.210,12 1 0
-2.042195 -7.654228 -0.5377741,-2.659543 -7.404379 -0.2519376,-3.081334 -6.547325 -0.09684128,-3.290686 -5.669635 0.08439225,-3.60018 -4.96673 0.2416452,-2.995459 -5.23343 -0.765092,-3.177725 -4.253961 -0.6232643,-3.35136 -3.53959 -0.4267687,-3.503595 -2.895391 -0.2519923,-2.62374 -5.049566 -0.70776,-2.714235 -3.766666 -0.226014,-2.714235 -3.766666 -0.226014,-2.80341 -4.668283 0.253683,-2.250783 -5.005185 -0.578688,-2.305593 -3.765934 -0.1527613,-2.466161 -4.183786 0.167676,-2.49132 -4.810277 0.235785,-1.834359 -5.106699 -0.4163299,-1.923482 -4.154094 -0.07565027,-2.118963 -4.325438 0.1723801,-2.175868 -4.842683 0.279121,-8.382076 -7.52811 0.1597508,-7.763179 -7.20525 0.4553651,-7.210279 -6.495037 0.6988434,-6.805258 -5.831985 0.9837471,-6.424376 -5.487821 1.281174,-7.670831 -4.591775 0.3746011,-7.551173 -3.400455 0.5464454,-7.503077 -2.680255 0.737058,-7.465596 -2.054467 0.8813903,-8.062353 -4.417047 0.4390929,-7.987208 -3.013295 0.5852901,-7.936131 -2.143258 0.8164272,-7.895956 -1.400186 1.009794,-8.435741 -4.517093 0.5432799,-8.408204 -3.227652 0.6853121,-8.360097 -2.432908 0.8560596,-8.291661 -1.763177 0.9815297,-8.810764 -4.854852 0.6812328,-8.91345 -3.895835 0.8548902,-8.947089 -3.266452 0.9841629,-8.947027 -2.656622 1.061417,1.310,12 1 0
-2.024168 -7.599388 -0.5267534,-2.640131 -7.266591 -0.1965284,-3.058557 -6.482428 0.02608413,-3.264231 -5.658223 0.2517256,-3.544818 -4.965737 0.4998673,-3.012023 -5.157729 -0.5575036,-3.216488 -4.237434 -0.4092425,-3.394112 -3.579841 -0.187914,-3.572752 -2.939172 0.0157668,-2.638628 -4.993894 -0.4831964,-2.759483 -3.837008 0.01509362,-2.759483 -3.837008 0.01509362,-2.770577 -5.248966 0.4419971,-2.253629 -4.984857 -0.3501824,-2.33575 -3.816111 0.1020117,-2.45204 -4.580871 0.3065944,-2.435373 -5.257768 0.3252895,-1.816511 -5.113615 -0.1780567,-1.926327 -4.225222 0.1473231,-2.085709 -4.677103 0.2978476,-2.099379 -5.239162 0.3522646,-8.381193 -7.529021 0.1791987,-7.762791 -7.199888 0.4586191,-7.206326 -6.472557 0.6832561,-6.805104 -5.803346 0.9530708,-6.427251 -5.458814 1.232321,-7.677787 -4.577446 0.3602631,-7.561832 -3.398654 0.5163394,-7.514139 -2.67658 0.6940919,-7.47264 -2.047266 0.8386777,-8.071479 -4.40876 0.4284219,-7.996187 -3.024021 0.5628397,-7.942671 -2.153383 0.7959392,-7.897 -1.413986 0.9951702,-8.445129 -4.510188 0.5355967,-8.41307 -3.233173 0.6677073,-8.364923 -2.434114 0.8404969,-8.292037 -1.764248 0.9681638,-8.82259 -4.848238 0.6749352,-8.919125 -3.89619 0.8419614,-8.95262 -3.274746 0.9689972,-8.951018 -2.67409 1.048093,1.410,12 1 0
-1.987644 -7.756902 -0.8720536,-2.585479 -7.453012 -0.4632425,-3.01877 -6.577737 -0.2664362,-3.235262 -5.738563 -0.08117199,-3.533163 -5.13025 0.108394,-3.008162 -5.430107 -0.7171273,-3.221235 -4.515187 -0.3672811,-3.370166 -3.879894 -0.085199,-3.529491 -3.266147 0.1558601,-2.628567 -5.266139 -0.6861836,-2.779672 -4.339389 -0.02648342,-2.779672 -4.339389 -0.02648342,-2.676248 -5.908041 0.1644088,-2.21574 -5.254219 -0.5705796,-2.327301 -4.385369 0.08761048,-2.388552 -5.443817 0.1593161,-2.369397 -6.102814 0.05934602,-1.769624 -5.399172 -0.4208944,-1.894389 -4.722801 0.07459742,-2.034095 -5.431648 0.1455171,-2.060751 -5.969017 0.0785588,-8.391357 -7.517672 0.055109,-7.772013 -7.190338 0.3394863,-7.218212 -6.482761 0.576746,-6.817087 -5.83185 0.8589318,-6.442451 -5.490013 1.156773,-7.69024 -4.601238 0.251974,-7.574821 -3.407045 0.4200024,-7.528252 -2.673025 0.6097576,-7.490679 -2.035562 0.7578413,-8.080126 -4.434556 0.3188891,-8.005126 -3.034477 0.4695445,-7.952692 -2.150598 0.7147465,-7.912526 -1.400565 0.915207,-8.452568 -4.532237 0.4257103,-8.430956 -3.246589 0.5725295,-8.385219 -2.436723 0.7514064,-8.315235 -1.759201 0.878224,-8.829618 -4.863395 0.5598697,-8.929912 -3.887833 0.7386462,-8.958884 -3.253314 0.8680341,-8.953063 -2.644949 0.9448549,1.510,12 1 0
-2.007791 -7.748912 -0.9765159,-2.604985 -7.466051 -0.5884356,-3.035242 -6.560161 -0.4270766,-3.218344 -5.718139 -0.2498878,-3.510106 -5.168149 -0.09410775,-2.989211 -5.449678 -0.7611501,-3.227798 -4.545296 -0.3241091,-3.386074 -3.925799 -0.01753211,-3.545966 -3.345872 0.2245321,-2.603046 -5.285646 -0.7042605,-2.764874 -4.555333 0.05281138,-2.764874 -4.555333 0.05281138,-2.671691 -6.150838 0.2748656,-2.183269 -5.300634 -0.5578127,-2.319397 -4.617814 0.1791581,-2.382952 -5.680707 0.2645184,-2.367812 -6.310591 0.1748213,-1.740568 -5.479805 -0.3785328,-1.866077 -4.883331 0.1700515,-2.020566 -5.594472 0.2661117,-2.066512 -6.11771 0.2123715,-8.388288 -7.535083 0.06691831,-7.767939 -7.221361 0.3386312,-7.217946 -6.504865 0.5691012,-6.813618 -5.844348 0.8417656,-6.43631 -5.502916 1.12741,-7.695754 -4.613522 0.2704538,-7.575345 -3.418177 0.4483241,-7.526441 -2.688512 0.6373051,-7.487497 -2.049798 0.7816838,-8.085155 -4.449146 0.346755,-8.006601 -3.048446 0.5064963,-7.955283 -2.163407 0.7474981,-7.915354 -1.410115 0.9466624,-8.457811 -4.558467 0.4600191,-8.426816 -3.261104 0.622975,-8.378764 -2.441041 0.8062928,-8.310966 -1.755326 0.9378261,-8.834931 -4.907411 0.6001761,-8.929123 -3.925953 0.7897793,-8.956694 -3.2835 0.9273691,-8.951855 -2.67055 1.00911,1.610,12 1 0
-2.000825 -7.698803 -1.243734,-2.568716 -7.49715 -0.8080089,-3.034002 -6.648727 -0.5493596,-3.232583 -5.788322 -0.3052397,-3.508797 -5.139463 -0.0940665,-2.98578 -5.513812 -0.8157679,-3.255713 -4.598814 -0.2414143,-3.432204 -4.022371 0.1223508,-3.606941 -3.535545 0.3756181,-2.582257 -5.346424 -0.753089,-2.762206 -4.892277 0.1098574,-2.762206 -4.892277 0.1098574,-2.635432 -6.471663 0.2165767,-2.14522 -5.35461 -0.6027514,-2.324367 -4.980957 0.1891028,-2.356061 -6.047035 0.1453049,-2.332907 -6.560417 -0.01895618,-1.697836 -5.50102 -0.4172832,-1.862441 -5.08436 0.1660352,-1.986308 -5.860654 0.1834818,-2.015324 -6.317937 0.08652103,-8.398482 -7.537408 0.1193232,-7.773547 -7.213197 0.3928885,-7.219337 -6.491659 0.6177868,-6.819409 -5.826109 0.8911494,-6.441685 -5.479208 1.174995,-7.697948 -4.603424 0.2946886,-7.579542 -3.411663 0.4548339,-7.529749 -2.680652 0.6384255,-7.485166 -2.051548 0.7845938,-8.091333 -4.433715 0.3629106,-8.014844 -3.037344 0.5049164,-7.958429 -2.161335 0.7415999,-7.91104 -1.416073 0.9423698,-8.464309 -4.53101 0.471281,-8.435577 -3.236114 0.6122222,-8.386105 -2.430158 0.7880574,-8.311024 -1.750232 0.9115071,-8.839759 -4.86203 0.6072088,-8.941609 -3.896468 0.7762013,-8.970944 -3.266165 0.901581,-8.964475 -2.655751 0.9759557,1.710,12 1 0
-2.015646 -7.708093 -1.223545,-2.561648 -7.540996 -0.7930363,-3.043388 -6.684455 -0.5632726,-3.242878 -5.824574 -0.3521118,-3.534496 -5.206972 -0.1693586,-3.010234 -5.524683 -0.8042188,-3.285631 -4.638275 -0.1893475,-3.464151 -4.068918 0.2315106,-3.636435 -3.584598 0.5247327,-2.601943 -5.349411 -0.7398888,-2.776603 -4.957838 0.1367295,-2.776603 -4.957838 0.1367295,-2.602072 -6.586259 0.2441282,-2.158213 -5.363916 -0.5841972,-2.333573 -5.092414 0.2391239,-2.342778 -6.164845 0.1952823,-2.300537 -6.651479 0.03090739,-1.697426 -5.508474 -0.3959114,-1.865681 -5.122316 0.2093074,-1.983964 -5.908098 0.2188548,-2.001832 -6.351347 0.127668,-8.401767 -7.551439 0.1612987,-7.778694 -7.230934 0.4431266,-7.220462 -6.507413 0.6736606,-6.814957 -5.842624 0.9458281,-6.436916 -5.512527 1.230863,-7.696418 -4.609107 0.3507694,-7.576751 -3.433023 0.5127816,-7.531033 -2.713768 0.7002261,-7.494513 -2.08998 0.8452504,-8.08753 -4.437254 0.4157242,-8.013659 -3.04469 0.5556823,-7.961343 -2.17239 0.7899132,-7.919574 -1.427847 0.9864695,-8.459905 -4.538862 0.5189138,-8.431931 -3.252899 0.6589901,-8.381988 -2.448718 0.832316,-8.311813 -1.775115 0.9578027,-8.833941 -4.879278 0.6543108,-8.938627 -3.927181 0.8204416,-8.973153 -3.297069 0.94743,-8.976974 -2.688715 1.027474,1.810,12 1 0
-2.015366 -7.679126 -1.212862,-2.5774 -7.490213 -0.9095346,-3.074781 -6.580142 -0.7603646,-3.259472 -5.744076 -0.5909803,-3.546904 -5.221891 -0.4245304,-3.010979 -5.493652 -0.9147711,-3.290847 -4.746858 -0.3046423,-3.488216 -4.269203 0.1125669,-3.681526 -3.849297 0.3918803,-2.615352 -5.307346 -0.8000159,-2.789868 -5.059259 0.02260518,-2.789868 -5.059259 0.02260518,-2.615423 -6.676836 0.1292076,-2.174687 -5.333994 -0.6109778,-2.345809 -5.236276 0.1843747,-2.338777 -6.289596 0.1333637,-2.291495 -6.777351 -0.01596427,-1.721412 -5.505064 -0.3948697,-1.896529 -5.251374 0.1777388,-2.009928 -6.026404 0.153316,-2.038016 -6.455207 0.05119526,-8.400765 -7.530518 0.1052596,-7.77427 -7.206466 0.395405,-7.215638 -6.499904 0.6354347,-6.806027 -5.844772 0.916312,-6.427341 -5.508922 1.207313,-7.688533 -4.606773 0.3054825,-7.573814 -3.420892 0.4738106,-7.531189 -2.695969 0.6647532,-7.496258 -2.068277 0.8128775,-8.080427 -4.433259 0.3616676,-8.009153 -3.034692 0.5057328,-7.96 -2.159885 0.7431098,-7.921985 -1.411773 0.9464648,-8.45393 -4.529686 0.4545069,-8.430075 -3.240699 0.5892516,-8.385403 -2.437229 0.7561792,-8.32095 -1.764661 0.8776233,-8.8303 -4.859945 0.5802583,-8.934616 -3.89428 0.7378417,-8.969313 -3.26513 0.8539905,-8.972432 -2.658776 0.9231198,1.910,12 1 0
-1.992716 -7.65352 -0.9809417,-2.544207 -7.492568 -0.5922274,-3.050255 -6.657167 -0.3610232,-3.26272 -5.838688 -0.1309277,-3.562117 -5.263519 0.09278035,-2.975086 -5.442502 -0.5088021,-3.269222 -4.796602 0.1296523,-3.490828 -4.334674 0.5765662,-3.714214 -3.88118 0.8903713,-2.577833 -5.235604 -0.4323955,-2.770398 -5.080667 0.3868333,-2.770398 -5.080667 0.3868333,-2.60055 -6.682138 0.4728978,-2.134229 -5.276499 -0.2774084,-2.301276 -5.242893 0.5367589,-2.322844 -6.312015 0.4722985,-2.285156 -6.77753 0.3161008,-1.687295 -5.467842 -0.08856934,-1.849473 -5.289079 0.4762895,-1.979014 -6.074633 0.4411423,-2.017967 -6.470834 0.3403633,-8.387049 -7.523714 0.08567551,-7.75762 -7.188303 0.3468544,-7.205608 -6.466283 0.5724773,-6.807792 -5.791167 0.8482768,-6.430854 -5.448745 1.138906,-7.683955 -4.598602 0.2550257,-7.567531 -3.411712 0.4172274,-7.521604 -2.682487 0.6063416,-7.483401 -2.047305 0.7539294,-8.078444 -4.429578 0.3256468,-8.003847 -3.024718 0.4667336,-7.951372 -2.146935 0.6994859,-7.908844 -1.40312 0.8954379,-8.452496 -4.525819 0.4337711,-8.427981 -3.225284 0.5713941,-8.381614 -2.420341 0.7407624,-8.312775 -1.744417 0.8618273,-8.829803 -4.854072 0.5700433,-8.925192 -3.880067 0.7351243,-8.952411 -3.241045 0.858134,-8.947618 -2.626258 0.9307335,2.010,12 1 0
-1.977028 -7.606722 -0.9082594,-2.522397 -7.503366 -0.3903592,-3.04636 -6.724737 -0.04349768,-3.270243 -5.962693 0.2574738,-3.530628 -5.411815 0.5815781,-2.991763 -5.52668 0.001899958,-3.262068 -4.821666 0.7442572,-3.457956 -4.399332 1.218952,-3.650578 -4.069559 1.542808,-2.564432 -5.284903 0.01914418,-2.700755 -5.13561 0.8873656,-2.700755 -5.13561 0.8873656,-2.53526 -6.807271 0.9191259,-2.089332 -5.301181 0.106473,-2.19098 -5.297843 0.9462533,-2.198411 -6.354564 0.8274111,-2.188196 -6.8451 0.6619711,-1.626729 -5.486436 0.2335352,-1.730565 -5.381845 0.8645177,-1.83512 -6.190799 0.8386221,-1.886805 -6.580875 0.7457793,-8.415277 -7.539623 0.09166782,-7.78302 -7.209555 0.3555324,-7.22353 -6.492972 0.5821863,-6.81916 -5.828804 0.8540179,-6.435974 -5.488839 1.143222,-7.692046 -4.613811 0.2651114,-7.574768 -3.407636 0.4226037,-7.530819 -2.669614 0.6021783,-7.491935 -2.035805 0.7419206,-8.088354 -4.44547 0.3292968,-8.013736 -3.024791 0.4732105,-7.959779 -2.148702 0.7031825,-7.914899 -1.402918 0.8932249,-8.464624 -4.540565 0.4281766,-8.437609 -3.224248 0.5727197,-8.386707 -2.417843 0.7472173,-8.312275 -1.735242 0.8701423,-8.842884 -4.867464 0.5528303,-8.944169 -3.886053 0.7243256,-8.971953 -3.250948 0.8521278,-8.965543 -2.636123 0.9288501,2.110,12 1 0
-1.908381 -7.560621 -1.50359,-2.590878 -7.391151 -1.053103,-3.151644 -6.616455 -0.6062942,-3.339861 -5.754985 -0.2821318,-3.475417 -5.094622 0.05652142,-2.886494 -6.115301 0.1419635,-3.08354 -5.225734 0.9202926,-3.313774 -4.622814 1.299824,-3.539466 -4.202768 1.583101,-2.36237 -5.847219 0.1119411,-2.574399 -5.053604 0.7190039,-2.574399 -5.053604 0.7190039,-2.617384 -6.537578 0.1631278,-1.846382 -5.77857 0.1145561,-2.085444 -5.166814 0.8081222,-2.184162 -6.020279 0.4321678,-2.165996 -6.664094 0.1262388,-1.393233 -5.845598 0.1475995,-1.602735 -5.308252 0.7032833,-1.75284 -5.919067 0.561862,-1.781142 -6.391892 0.4139627,-8.407593 -7.563785 0.148258,-7.774085 -7.237245 0.4330927,-7.214352 -6.525854 0.6730559,-6.811368 -5.86024 0.9519849,-6.431448 -5.514518 1.239381,-7.694026 -4.631569 0.360697,-7.580853 -3.44274 0.5359902,-7.534713 -2.72518 0.729287,-7.49556 -2.097403 0.877707,-8.090139 -4.455577 0.4249706,-8.022078 -3.056065 0.5767555,-7.973244 -2.185249 0.8147485,-7.930843 -1.43644 1.018261,-8.467327 -4.550338 0.5263195,-8.444386 -3.250983 0.6695291,-8.402029 -2.44516 0.8413223,-8.33478 -1.763949 0.9674042,-8.846741 -4.883583 0.6570371,-8.944254 -3.909422 0.8238715,-8.975984 -3.271034 0.9478805,-8.975849 -2.650995 1.025054,2.210,12 1 0
-1.894243 -7.444242 -1.030462,-2.525702 -7.494274 -0.3498054,-3.086037 -6.795876 0.1046388,-3.292267 -6.006752 0.4113197,-3.443708 -5.300327 0.7319776,-2.892158 -5.819953 0.5607266,-3.12104 -5.129083 1.469233,-3.331528 -4.470058 1.946505,-3.533546 -3.857782 2.257846,-2.382981 -5.474698 0.4865367,-2.508243 -5.213258 1.387331,-2.508243 -5.213258 1.387331,-2.505873 -6.874389 1.061959,-1.864264 -5.390649 0.5073626,-2.009864 -5.225878 1.435299,-2.078428 -6.286554 1.164802,-2.098761 -6.914686 0.8409264,-1.408112 -5.49842 0.570686,-1.548973 -5.352842 1.246766,-1.660448 -6.12441 1.162171,-1.714464 -6.608795 0.9903606,-8.393045 -7.553241 0.08208758,-7.765024 -7.232231 0.3510349,-7.211403 -6.519345 0.5854399,-6.807979 -5.855791 0.8641489,-6.428057 -5.510399 1.15434,-7.69453 -4.625321 0.2743535,-7.578692 -3.422733 0.4416092,-7.531555 -2.690835 0.6302501,-7.491144 -2.057653 0.7732213,-8.088867 -4.461344 0.3425789,-8.02011 -3.050713 0.4930971,-7.967306 -2.171459 0.7281657,-7.923757 -1.423472 0.9235772,-8.46279 -4.564997 0.445657,-8.440846 -3.257204 0.5965044,-8.394757 -2.443442 0.7753808,-8.323364 -1.757572 0.9014642,-8.836267 -4.900991 0.5753145,-8.938782 -3.928387 0.7445046,-8.970366 -3.290308 0.8714074,-8.967061 -2.669964 0.9456403,2.310,12 1 0
-1.860405 -7.484003 -1.458628,-2.536175 -7.451986 -0.8060911,-3.047018 -6.739711 -0.1824607,-3.228242 -5.835204 0.2897645,-3.321726 -5.118188 0.7693046,-2.758249 -6.466154 0.6267706,-2.974948 -5.490522 1.531841,-3.203575 -4.687894 2.020451,-3.376173 -3.999369 2.359718,-2.219098 -6.184951 0.5406438,-2.419044 -5.209682 1.200174,-2.419044 -5.209682 1.200174,-2.648057 -6.271444 0.7275115,-1.706789 -6.067361 0.4991529,-1.929378 -5.217475 1.259439,-2.121868 -5.853685 1.036183,-2.207142 -6.423576 0.8288537,-1.282077 -6.046312 0.4961249,-1.453305 -5.400035 1.160081,-1.640678 -5.843552 1.200805,-1.734272 -6.278085 1.218545,-8.393275 -7.559793 0.124931,-7.770443 -7.229241 0.4063113,-7.21567 -6.526215 0.6464539,-6.811046 -5.865312 0.9286436,-6.43165 -5.520658 1.224163,-7.697901 -4.622475 0.3308026,-7.58461 -3.421238 0.5054478,-7.542624 -2.688997 0.6979959,-7.503763 -2.053372 0.8459329,-8.091956 -4.45635 0.3977997,-8.019698 -3.048083 0.5571066,-7.968205 -2.170637 0.797554,-7.92453 -1.421607 0.9948559,-8.465843 -4.555908 0.5009406,-8.441859 -3.253352 0.6535304,-8.396345 -2.445961 0.8314077,-8.325311 -1.764432 0.9531959,-8.841132 -4.889008 0.6312311,-8.939515 -3.914942 0.805348,-8.969375 -3.275169 0.9318271,-8.96586 -2.655467 1.004016,2.410,12 1 0
-1.753525 -7.446012 -1.435574,-2.408181 -7.550758 -0.6435307,-2.912499 -6.926556 0.01487505,-3.088717 -6.102748 0.5081956,-3.169573 -5.337646 1.003235,-2.733379 -6.462298 0.6129086,-2.910903 -5.716634 1.611636,-3.140427 -4.997756 2.17629,-3.351494 -4.223432 2.570021,-2.210101 -6.10157 0.5211973,-2.356194 -5.309894 1.399215,-2.356194 -5.309894 1.399215,-2.692462 -5.916191 1.279488,-1.695431 -5.921619 0.4958107,-1.818134 -5.268541 1.484837,-2.0121 -6.040828 1.361344,-2.14992 -6.623611 1.108812,-1.243135 -5.891073 0.5141492,-1.349754 -5.404294 1.317461,-1.534258 -5.987647 1.363577,-1.656478 -6.483806 1.306861,-8.41928 -7.576426 0.1246421,-7.793617 -7.249176 0.4061207,-7.231485 -6.540242 0.6419051,-6.817111 -5.880184 0.9199427,-6.43872 -5.519502 1.210878,-7.705062 -4.648201 0.311095,-7.588178 -3.450298 0.478728,-7.543702 -2.719412 0.6690027,-7.506784 -2.08605 0.8156703,-8.093172 -4.473858 0.3770848,-8.017584 -3.069124 0.5256083,-7.965617 -2.191472 0.767531,-7.92426 -1.442109 0.969158,-8.464056 -4.567974 0.4813885,-8.439595 -3.264037 0.6257198,-8.392877 -2.450784 0.8089135,-8.322805 -1.76732 0.9419314,-8.838066 -4.899175 0.612004,-8.943076 -3.925771 0.7846125,-8.97382 -3.289755 0.9171757,-8.971058 -2.679243 0.9966778,2.510,12 1 0
-1.716779 -7.567832 -0.6823868,-2.390523 -7.325647 0.08541679,-2.859026 -6.655839 0.8443311,-3.046385 -5.823789 1.395423,-3.099399 -5.100153 1.901357,-2.670283 -7.086927 1.925105,-2.842444 -6.202646 3.028929,-2.995097 -5.354537 3.551634,-3.121828 -4.572177 3.867287,-2.132279 -6.954004 1.844023,-2.246323 -5.652154 2.761632,-2.246323 -5.652154 2.761632,-2.480246 -4.751062 2.788686,-1.618526 -6.780248 1.76635,-1.673064 -5.526373 2.661357,-1.848374 -5.28864 2.541332,-2.002128 -5.349718 2.414063,-1.178123 -6.631145 1.749721,-1.1485 -5.665433 2.381998,-1.301696 -5.422115 2.492464,-1.429001 -5.386411 2.56616,-8.384569 -7.586177 0.1172225,-7.759466 -7.255374 0.386693,-7.208247 -6.544518 0.6216915,-6.806995 -5.879095 0.8977675,-6.429844 -5.540075 1.183116,-7.689064 -4.650665 0.3509457,-7.580178 -3.441421 0.5388767,-7.536403 -2.708912 0.7360101,-7.499921 -2.065618 0.886146,-8.083926 -4.48846 0.4282054,-8.0163 -3.074263 0.5968293,-7.967267 -2.192051 0.8427813,-7.9292 -1.435115 1.046896,-8.46016 -4.595391 0.5380729,-8.437901 -3.289899 0.7014421,-8.394858 -2.477701 0.8826669,-8.330789 -1.789777 1.012687,-8.836496 -4.934824 0.6738133,-8.942202 -3.954813 0.8551469,-8.975313 -3.308183 0.9869441,-8.977239 -2.678535 1.06356,2.610,12 1 0
-1.609653 -7.644298 -0.9751244,-2.297567 -7.437014 -0.1399452,-2.744747 -6.727352 0.6217474,-2.871081 -5.886957 1.180391,-2.914978 -5.141718 1.725547,-2.604632 -6.822551 1.3977,-2.705353 -6.112566 2.487762,-2.864506 -5.409128 3.057231,-3.012467 -4.712224 3.44098,-2.062493 -6.592803 1.302437,-2.140621 -5.479347 2.242029,-2.140621 -5.479347 2.242029,-2.482795 -4.691829 2.428305,-1.524179 -6.404994 1.239631,-1.574468 -5.379148 2.173786,-1.786657 -5.574178 1.997419,-1.979177 -5.879177 1.77486,-1.041689 -6.311034 1.243063,-1.05147 -5.511465 1.959035,-1.261363 -5.666711 2.012815,-1.44181 -5.905424 2.004048,-8.3888 -7.581296 0.1303155,-7.760764 -7.260911 0.3904597,-7.205145 -6.540584 0.624487,-6.802034 -5.870126 0.9062645,-6.422995 -5.526405 1.201223,-7.690512 -4.639446 0.3209454,-7.577205 -3.438748 0.4867856,-7.530183 -2.702801 0.6761305,-7.488518 -2.066936 0.8241633,-8.085446 -4.47611 0.3989975,-8.012363 -3.058462 0.5495732,-7.95857 -2.167688 0.7857124,-7.916343 -1.416485 0.9837829,-8.460823 -4.582701 0.512797,-8.435238 -3.272443 0.660305,-8.384437 -2.452567 0.8330804,-8.310529 -1.763327 0.958436,-8.837648 -4.92645 0.6540328,-8.937693 -3.941976 0.8266381,-8.968754 -3.296913 0.9559515,-8.96698 -2.676664 1.034204,2.710,12 1 0
-1.522837 -7.642701 -0.8330885,-2.229983 -7.465611 0.06953585,-2.671261 -6.849927 0.850263,-2.782517 -6.109642 1.41239,-2.805494 -5.387146 1.961367,-2.60432 -6.65802 1.470238,-2.683918 -6.072758 2.605386,-2.805823 -5.421864 3.25526,-2.955959 -4.695852 3.700722,-2.046827 -6.378635 1.365572,-2.116708 -5.468225 2.431719,-2.116708 -5.468225 2.431719,-2.487482 -4.572949 2.935711,-1.490915 -6.216449 1.30695,-1.490623 -5.43527 2.365846,-1.683427 -5.71113 2.268961,-1.884101 -5.914684 2.061441,-0.9751673 -6.225732 1.311058,-0.9551926 -5.673984 2.139847,-1.121746 -5.87821 2.24091,-1.282732 -6.013999 2.24429,-8.38869 -7.594991 0.1387642,-7.768004 -7.265813 0.422361,-7.217403 -6.555133 0.6665988,-6.812531 -5.884834 0.952638,-6.428505 -5.52645 1.252382,-7.691305 -4.656888 0.353518,-7.575589 -3.455312 0.5297664,-7.525455 -2.721738 0.72439,-7.483157 -2.081418 0.8739648,-8.083262 -4.489391 0.4273811,-8.013613 -3.075109 0.5902905,-7.9613 -2.187759 0.8373914,-7.918487 -1.432652 1.0406,-8.455728 -4.592295 0.5374756,-8.436769 -3.281534 0.6951917,-8.390913 -2.457245 0.8826247,-8.320389 -1.761775 1.016321,-8.830837 -4.930761 0.6752381,-8.933803 -3.943167 0.8612336,-8.963883 -3.294348 0.9975123,-8.962296 -2.667221 1.078015,2.810,12 1 0
-1.515916 -7.549779 -0.9337357,-2.183984 -7.315456 -0.07492453,-2.58066 -6.736617 0.6843352,-2.691837 -6.005632 1.209547,-2.710143 -5.303447 1.689095,-2.471082 -6.874394 1.532902,-2.538106 -6.250399 2.737154,-2.657357 -5.498823 3.409431,-2.802898 -4.671161 3.853843,-1.942894 -6.665967 1.431682,-1.933159 -5.716878 2.585613,-1.933159 -5.716878 2.585613,-2.226729 -4.254567 3.249646,-1.424726 -6.49002 1.344725,-1.350654 -5.624774 2.382228,-1.486692 -5.467155 2.34485,-1.66085 -5.319826 2.199841,-0.9454536 -6.447909 1.304592,-0.828856 -5.866033 2.0852,-0.9316378 -5.659286 2.253909,-1.069475 -5.439722 2.316775,-8.396676 -7.586009 0.1116331,-7.771905 -7.256814 0.3925515,-7.214012 -6.553771 0.6374906,-6.804922 -5.893466 0.9299765,-6.417446 -5.54664 1.230801,-7.68104 -4.65847 0.3300398,-7.563517 -3.451877 0.5109241,-7.516338 -2.714529 0.7057841,-7.475101 -2.076259 0.8541555,-8.074391 -4.490657 0.4078532,-7.994382 -3.074713 0.5775713,-7.939058 -2.185823 0.8252465,-7.897844 -1.434084 1.030557,-8.450046 -4.590307 0.5232959,-8.418755 -3.277943 0.6918015,-8.369833 -2.454892 0.8802449,-8.298084 -1.761205 1.014396,-8.830509 -4.927457 0.6650521,-8.926672 -3.935604 0.8550932,-8.953458 -3.290587 0.9922363,-8.947996 -2.669812 1.07568,2.910,12 1 0
-1.576674 -7.412553 -0.9471489,-2.149793 -7.294837 0.08304536,-2.503959 -6.746517 0.8493823,-2.573773 -6.064074 1.359617,-2.603024 -5.36407 1.813657,-2.516745 -6.528925 1.517204,-2.553196 -6.047124 2.658219,-2.635977 -5.350259 3.32543,-2.748714 -4.493352 3.794873,-1.975863 -6.316436 1.328329,-1.941897 -5.63878 2.398466,-1.941897 -5.63878 2.398466,-2.121985 -4.412914 2.869339,-1.421083 -6.205413 1.205468,-1.31148 -5.715709 2.269,-1.408679 -5.844623 2.113931,-1.56477 -5.77393 1.881247,-0.9011621 -6.251609 1.149382,-0.7600284 -6.003591 2.019933,-0.8318682 -5.969181 2.169222,-0.9383345 -5.769948 2.231884,-8.397983 -7.579721 0.1251197,-7.770517 -7.247732 0.3911862,-7.21288 -6.538255 0.6196445,-6.803758 -5.879053 0.897625,-6.419983 -5.537572 1.18763,-7.689 -4.639291 0.3033382,-7.571955 -3.431501 0.4645083,-7.527574 -2.688927 0.6510149,-7.488349 -2.050224 0.7967621,-8.082137 -4.476171 0.3804373,-8.004599 -3.062844 0.5323166,-7.950409 -2.177217 0.7706185,-7.906868 -1.429443 0.9667708,-8.456318 -4.581328 0.4940071,-8.427378 -3.269171 0.644305,-8.378228 -2.451534 0.8224435,-8.304391 -1.762065 0.9454642,-8.832926 -4.921732 0.6331818,-8.931761 -3.940444 0.8089756,-8.959075 -3.299637 0.9378918,-8.952702 -2.682141 1.013947,3.010,12 1 0
-1.57167 -7.41607 -1.341589,-2.119946 -7.1295 -0.4612975,-2.467742 -6.538902 0.1798646,-2.581438 -5.827302 0.5939165,-2.668421 -5.164154 0.9764227,-2.375264 -6.744239 1.152469,-2.39088 -6.133199 2.257106,-2.458282 -5.352046 2.865331,-2.560368 -4.44323 3.261538,-1.893896 -6.758613 0.9906155,-1.746267 -5.886566 1.94845,-1.746267 -5.886566 1.94845,-1.672066 -4.268365 2.228683,-1.397262 -6.75258 0.8845628,-1.17425 -5.995153 1.862898,-1.15952 -5.570838 1.798034,-1.232725 -5.227872 1.657763,-0.9208212 -6.791992 0.8309087,-0.6864843 -6.347741 1.684719,-0.6646767 -5.906602 2.005518,-0.702888 -5.472143 2.226048,-8.38698 -7.586391 0.1518546,-7.762163 -7.246402 0.4259036,-7.212978 -6.537391 0.671829,-6.810008 -5.870082 0.9625453,-6.425265 -5.5221 1.271526,-7.693034 -4.639136 0.363146,-7.576734 -3.440071 0.5324873,-7.528413 -2.707233 0.7268002,-7.485473 -2.075382 0.8788099,-8.088073 -4.476181 0.4384949,-8.015396 -3.056746 0.5946248,-7.959886 -2.172842 0.831974,-7.916344 -1.427743 1.028589,-8.462588 -4.583615 0.5466899,-8.43698 -3.261665 0.70068,-8.384161 -2.442338 0.8825145,-8.310676 -1.749378 1.009697,-8.837159 -4.928646 0.6835672,-8.943117 -3.946891 0.8636441,-8.974969 -3.30027 0.9979503,-8.974401 -2.673658 1.078538,3.110,12 1 0
-1.706854 -7.109091 2.641118,-2.467408 -7.160526 3.663024,-3.129416 -6.883806 4.748979,-3.367853 -6.574617 5.547655,-3.309692 -6.36609 6.26951,-2.641789 -5.563356 5.922082,-2.570131 -5.02642 7.24943,-2.559139 -5.190889 7.669863,-2.550185 -5.340835 7.7478,-1.905982 -5.344127 5.752565,-1.697714 -5.177434 6.900711,-1.697714 -5.177434 6.900711,-2.004462 -6.15666 6.377731,-1.233683 -5.505851 5.597453,-1.078634 -5.690453 6.520585,-1.327955 -6.328031 5.924483,-1.518392 -6.539308 5.531746,-0.7128253 -5.759614 5.550582,-0.5878029 -5.833708 6.035176,-0.8472333 -6.346724 5.706464,-1.055214 -6.571422 5.51135,-8.412253 -7.578887 0.1361178,-7.776715 -7.256183 0.4433312,-7.212029 -6.548873 0.6894022,-6.798471 -5.880561 0.9683542,-6.413795 -5.530187 1.255991,-7.688004 -4.656519 0.3791508,-7.569308 -3.455829 0.5605885,-7.529209 -2.730762 0.752418,-7.498967 -2.098478 0.8979119,-8.080988 -4.477548 0.4335499,-8.008381 -3.064191 0.5975498,-7.962125 -2.195045 0.8370992,-7.927123 -1.449229 1.036433,-8.455012 -4.567997 0.5253057,-8.432505 -3.260887 0.6900718,-8.392593 -2.455681 0.8747653,-8.331868 -1.775241 1.008091,-8.831352 -4.893442 0.6453903,-8.937217 -3.924242 0.8270587,-8.97382 -3.290866 0.9608145,-8.97757 -2.675309 1.044775,3.210,12 1 0
-1.481544 -7.828228 2.726196,-2.203333 -7.635084 3.567903,-2.906703 -7.356571 4.507792,-3.226676 -6.988587 5.302099,-3.083209 -6.521301 6.009936,-2.481201 -5.56443 5.124627,-2.503708 -5.235317 6.386458,-2.42862 -5.187196 6.739491,-2.384809 -5.022998 6.766968,-1.781383 -5.068985 5.030154,-1.709115 -5.795784 6.240393,-1.709115 -5.795784 6.240393,-1.874466 -6.436588 5.724853,-1.146073 -5.081378 5.03111,-1.061822 -5.885746 5.970435,-1.331895 -6.714546 5.33321,-1.486586 -6.353528 4.820015,-0.6225872 -5.357439 5.123245,-0.6245112 -5.987331 5.429129,-0.9435925 -6.7191 5.071011,-1.083711 -6.532589 4.797067,-8.406746 -7.579492 0.1246168,-7.776485 -7.253534 0.394272,-7.219964 -6.545619 0.63159,-6.816475 -5.875264 0.9190671,-6.428774 -5.527329 1.220833,-7.692289 -4.64502 0.3135934,-7.575318 -3.431229 0.4815837,-7.528507 -2.689412 0.675273,-7.48407 -2.052095 0.8240566,-8.0924 -4.476473 0.3863222,-8.013113 -3.058664 0.5383403,-7.955807 -2.175536 0.7763842,-7.909702 -1.430171 0.9748726,-8.471766 -4.576875 0.4941064,-8.43659 -3.254253 0.6452212,-8.386449 -2.431671 0.8266508,-8.312025 -1.732399 0.9522437,-8.853499 -4.913654 0.6286971,-8.949726 -3.924384 0.7998637,-8.977555 -3.281671 0.9281464,-8.972727 -2.6574 1.006886,3.310,12 1 0
-1.359465 -7.721227 2.117847,-2.036427 -7.680404 2.917281,-2.712784 -7.522523 3.770997,-3.136878 -7.323091 4.488348,-3.135983 -6.997171 5.175394,-2.353603 -5.699836 4.466461,-2.366692 -5.400159 5.749837,-2.325802 -5.220333 6.253139,-2.298365 -4.959192 6.4157,-1.719213 -5.16662 4.38337,-1.581159 -5.879383 5.572279,-1.581159 -5.879383 5.572279,-1.738062 -6.570625 5.204122,-1.131549 -5.143382 4.382462,-0.9745083 -5.863702 5.347782,-1.194492 -6.630823 4.746226,-1.374804 -6.343648 4.229205,-0.6438513 -5.407514 4.449148,-0.5354757 -5.878149 4.855315,-0.7911649 -6.517223 4.543457,-0.9660254 -6.393312 4.265749,-8.402139 -7.589578 0.1570494,-7.773304 -7.272911 0.4437448,-7.214331 -6.559255 0.6858335,-6.807108 -5.888349 0.9677991,-6.417749 -5.536146 1.261422,-7.688236 -4.650408 0.3758802,-7.575289 -3.440879 0.5531778,-7.529079 -2.707961 0.7448117,-7.490107 -2.067735 0.8883801,-8.086098 -4.479751 0.4454909,-8.021605 -3.062583 0.6040044,-7.969449 -2.181507 0.8432097,-7.927034 -1.433536 1.042882,-8.463869 -4.581379 0.5501901,-8.442482 -3.264775 0.708586,-8.395892 -2.450702 0.8922309,-8.326241 -1.761963 1.022306,-8.843071 -4.918371 0.6839789,-8.948142 -3.935016 0.8682394,-8.979021 -3.291142 1.002205,-8.977339 -2.669852 1.080214,3.410,12 1 0
-1.354785 -7.633056 1.013268,-2.070004 -7.596302 1.867452,-2.744702 -7.476356 2.735357,-3.135554 -7.234346 3.455929,-3.068157 -6.871807 4.106237,-2.336271 -5.986314 3.442647,-2.360267 -5.501319 4.764538,-2.330368 -5.300964 5.258728,-2.315176 -5.08198 5.375583,-1.68674 -5.578044 3.334218,-1.529249 -5.819934 4.591525,-1.529249 -5.819934 4.591525,-1.736701 -6.450748 4.272895,-1.095935 -5.566707 3.305832,-0.8954716 -5.85457 4.341156,-1.140646 -6.570373 3.784826,-1.338036 -6.381368 3.264685,-0.6172004 -5.775202 3.342243,-0.4757438 -5.895376 3.845008,-0.7352147 -6.50015 3.593886,-0.9108276 -6.49607 3.335541,-8.397531 -7.584726 0.1341861,-7.765579 -7.266729 0.4070258,-7.207018 -6.55712 0.6455634,-6.802293 -5.890715 0.9288549,-6.418558 -5.537298 1.225616,-7.692323 -4.649113 0.329108,-7.57908 -3.442986 0.4930264,-7.534929 -2.707354 0.6847922,-7.495584 -2.071916 0.8345727,-8.089926 -4.478548 0.3992365,-8.017897 -3.061896 0.5488222,-7.964854 -2.177787 0.7849777,-7.922592 -1.432077 0.981917,-8.466549 -4.575226 0.5037209,-8.442882 -3.259895 0.6499195,-8.393368 -2.442543 0.822779,-8.319637 -1.755154 0.9449323,-8.845324 -4.908592 0.6361028,-8.94798 -3.927495 0.8087647,-8.977987 -3.286505 0.9326144,-8.974209 -2.667579 1.00499,3.510,12 1 0
-1.240246 -7.788064 0.8257702,-1.967843 -7.55928 1.520408,-2.662276 -7.193965 2.296297,-3.165859 -6.885849 2.948536,-3.354762 -6.577938 3.577281,-2.325209 -6.057832 3.119447,-2.312015 -5.498407 4.321947,-2.262928 -5.262512 4.707645,-2.206973 -5.092208 4.790007,-1.698796 -5.739851 3.057669,-1.499116 -5.763788 4.162127,-1.499116 -5.763788 4.162127,-1.670874 -6.685277 3.484396,-1.120768 -5.707782 3.051437,-0.9155445 -5.712217 3.959638,-1.081069 -6.511968 3.287935,-1.283292 -6.591129 2.685175,-0.6468387 -5.869392 3.110339,-0.4685531 -5.65051 3.589934,-0.6484051 -6.187786 3.304898,-0.8458114 -6.344553 2.988215,-8.431761 -7.620067 0.2306688,-7.801313 -7.295392 0.5166187,-7.236699 -6.574474 0.7560278,-6.82524 -5.900445 1.039407,-6.439237 -5.540025 1.333753,-7.713133 -4.659182 0.4227444,-7.592535 -3.461985 0.5855107,-7.546295 -2.727909 0.7752458,-7.503052 -2.096283 0.9244792,-8.110182 -4.486787 0.4873652,-8.029785 -3.073751 0.6396775,-7.973397 -2.189382 0.8796309,-7.928486 -1.436878 1.083649,-8.48894 -4.583004 0.5901964,-8.454157 -3.26199 0.7340898,-8.403298 -2.442319 0.9096163,-8.329123 -1.748484 1.037228,-8.871371 -4.921128 0.7212645,-8.964818 -3.935719 0.8916453,-8.990299 -3.29943 1.020651,-8.985753 -2.685434 1.104262,3.610,12 1 0
-1.253294 -7.902988 1.758163,-1.954896 -7.731374 2.571251,-2.627084 -7.342079 3.38236,-3.088037 -7.012071 4.082606,-3.280935 -6.687477 4.765865,-2.323077 -5.704269 3.83371,-2.340887 -5.254986 5.083896,-2.303874 -5.158883 5.57619,-2.269342 -5.048938 5.71699,-1.72247 -5.286951 3.764915,-1.555058 -5.769227 4.949332,-1.555058 -5.769227 4.949332,-1.716067 -6.995409 4.52082,-1.157086 -5.278987 3.783668,-0.9743819 -5.674197 4.791257,-1.123305 -6.747159 4.290544,-1.317882 -6.897557 3.792272,-0.6838694 -5.527629 3.886819,-0.5128059 -5.552974 4.381501,-0.7012653 -6.334392 4.149053,-0.9135785 -6.566547 3.868311,-8.437078 -7.648714 0.2363899,-7.810289 -7.30158 0.5136209,-7.253026 -6.577459 0.7577834,-6.844239 -5.897796 1.049398,-6.451762 -5.538917 1.349469,-7.725827 -4.680162 0.4400402,-7.605693 -3.475984 0.6130746,-7.557977 -2.736918 0.807029,-7.51783 -2.092322 0.963124,-8.120525 -4.514999 0.5131426,-8.035366 -3.10535 0.6809804,-7.978237 -2.214382 0.9309191,-7.936835 -1.45472 1.141359,-8.495936 -4.615659 0.6218094,-8.463694 -3.30297 0.7802065,-8.416061 -2.476332 0.9579373,-8.347611 -1.774805 1.083438,-8.875923 -4.955787 0.7566859,-8.969607 -3.962017 0.9345489,-8.99606 -3.314165 1.061701,-8.995648 -2.687798 1.138398,3.710,12 1 0
-1.467497 -8.020935 0.4823023,-2.111135 -7.802125 1.247019,-2.69927 -7.306488 1.933559,-3.04258 -6.87153 2.522478,-3.182673 -6.483406 3.081862,-2.366822 -6.027877 2.360239,-2.505496 -5.272875 3.510183,-2.478151 -4.912223 4.210431,-2.414065 -4.614185 4.602529,-1.801892 -5.704669 2.303962,-1.652007 -5.713506 3.457354,-1.652007 -5.713506 3.457354,-1.825479 -7.074975 3.390907,-1.276176 -5.735303 2.302283,-1.125344 -5.856951 3.316918,-1.271104 -6.888318 3.117298,-1.406024 -7.134328 2.828799,-0.8412762 -5.919794 2.375174,-0.6717572 -5.827878 2.909772,-0.8658133 -6.637077 2.795051,-1.047089 -6.870996 2.626413,-8.452413 -7.663903 0.2458796,-7.830331 -7.333261 0.5342836,-7.2706 -6.594998 0.7714052,-6.867192 -5.910953 1.056732,-6.483595 -5.54873 1.343468,-7.749069 -4.699627 0.4386686,-7.630594 -3.510223 0.6046579,-7.587697 -2.779352 0.7935975,-7.556583 -2.142517 0.9493077,-8.14051 -4.525035 0.4994796,-8.057343 -3.130836 0.6506949,-8.005391 -2.244434 0.8963994,-7.973475 -1.480737 1.107503,-8.513397 -4.61581 0.5991918,-8.484238 -3.320251 0.7412244,-8.442278 -2.49839 0.9119645,-8.382698 -1.801464 1.038999,-8.893559 -4.943433 0.727124,-8.985509 -3.956253 0.888917,-9.013942 -3.312781 1.010323,-9.013665 -2.694257 1.0866,3.810,12 1 0
-1.494368 -8.219061 0.6654765,-2.136425 -7.834171 1.372803,-2.670055 -7.230806 1.976176,-2.952077 -6.670732 2.519133,-3.105186 -6.120964 3.06488,-2.380314 -5.933729 2.227055,-2.527489 -5.233844 3.304232,-2.560034 -4.776771 3.954117,-2.577804 -4.276408 4.302504,-1.860581 -5.621269 2.157458,-1.687325 -5.674329 3.192196,-1.687325 -5.674329 3.192196,-1.858373 -7.051244 3.074585,-1.354921 -5.6704 2.157631,-1.195444 -5.812673 3.067007,-1.3393 -6.880369 2.862314,-1.472519 -7.085551 2.593398,-0.939971 -5.905147 2.232259,-0.7654982 -5.867833 2.700107,-0.9425049 -6.706041 2.568945,-1.110814 -6.900849 2.38517,-8.456163 -7.648361 0.2304087,-7.827051 -7.308736 0.5133545,-7.273663 -6.58169 0.7432572,-6.874478 -5.902784 1.023399,-6.485727 -5.554229 1.311717,-7.74322 -4.683336 0.410526,-7.629318 -3.495352 0.5761811,-7.588631 -2.767646 0.7634527,-7.554283 -2.140839 0.9105949,-8.143714 -4.513361 0.4761426,-8.07119 -3.105267 0.6226861,-8.024228 -2.232933 0.8588642,-7.991091 -1.483468 1.05919,-8.519264 -4.601928 0.5783399,-8.494565 -3.284933 0.7207104,-8.455744 -2.481049 0.8915237,-8.39587 -1.790929 1.014469,-8.893235 -4.926418 0.712145,-8.995573 -3.948788 0.8691139,-9.027249 -3.319954 0.9843863,-9.02792 -2.703578 1.059746,3.910,12 1 0
-1.561939 -8.014961 -0.885172,-2.16317 -7.753417 -0.1517941,-2.606209 -7.033426 0.3767211,-2.707976 -6.262807 0.7990911,-2.73173 -5.505285 1.205677,-2.4284 -6.112636 0.6440428,-2.528943 -5.566059 1.66096,-2.615216 -4.90981 2.264549,-2.708655 -4.127586 2.653908,-1.92923 -5.912004 0.5546887,-1.877034 -5.549882 1.507535,-1.877034 -5.549882 1.507535,-1.988966 -6.913833 1.269389,-1.434844 -5.940353 0.552907,-1.372812 -5.65269 1.477965,-1.525949 -6.657475 1.17362,-1.639326 -7.086329 0.8310302,-1.010894 -6.137279 0.6066082,-0.9405899 -5.745088 1.2067,-1.125588 -6.470241 1.04947,-1.273874 -6.872911 0.8173602,-8.439035 -7.659498 0.2044519,-7.805454 -7.346083 0.4841237,-7.251054 -6.62782 0.7212415,-6.849772 -5.958407 1.001336,-6.471018 -5.617929 1.284,-7.730846 -4.706552 0.40862,-7.618325 -3.511734 0.5816011,-7.576262 -2.785554 0.7793965,-7.53968 -2.1504 0.9307649,-8.127496 -4.533895 0.4745644,-8.059908 -3.121763 0.6228131,-8.013522 -2.247905 0.8547005,-7.97949 -1.498584 1.050836,-8.503583 -4.623298 0.5743566,-8.476442 -3.306985 0.7086903,-8.437317 -2.493536 0.8705475,-8.38062 -1.804485 0.9886674,-8.879055 -4.950075 0.7050102,-8.980082 -3.967374 0.8571571,-9.018293 -3.326229 0.9674745,-9.029599 -2.706126 1.035332,4.010,12 1 0
-1.551926 -8.006247 -1.18175,-2.146059 -7.86783 -0.4333557,-2.529156 -7.094491 0.05023205,-2.583106 -6.271244 0.4088207,-2.636536 -5.471567 0.7333574,-2.240035 -6.005205 0.1955049,-2.372655 -5.432072 1.078215,-2.483018 -4.824502 1.576621,-2.578703 -4.16955 1.881109,-1.764546 -5.877225 0.09260976,-1.799748 -5.440151 1.067986,-1.799748 -5.440151 1.067986,-1.934214 -6.940312 0.8818531,-1.309962 -5.985194 0.08071089,-1.327489 -5.571907 1.042979,-1.474389 -6.579218 0.8551683,-1.558893 -7.138238 0.5434031,-0.9071946 -6.239806 0.116993,-0.8771152 -5.754989 0.7867416,-1.061686 -6.414606 0.7473594,-1.195692 -6.880766 0.5819368,-8.398604 -7.622768 0.1628426,-7.768023 -7.296088 0.45861,-7.214437 -6.591613 0.7085993,-6.810428 -5.921821 0.9983686,-6.432039 -5.571722 1.289602,-7.693222 -4.67958 0.3976197,-7.58297 -3.47629 0.5892719,-7.542246 -2.745975 0.7926586,-7.507965 -2.107216 0.9448935,-8.088346 -4.511878 0.4640315,-8.023553 -3.097356 0.6353269,-7.97682 -2.214447 0.8866265,-7.942236 -1.457878 1.099388,-8.46635 -4.613588 0.5671662,-8.44472 -3.302217 0.7285773,-8.404839 -2.485855 0.9102942,-8.347522 -1.79483 1.04344,-8.846539 -4.951852 0.6994702,-8.950292 -3.974184 0.8744296,-8.986243 -3.332537 1.001445,-8.992627 -2.707356 1.081089,4.110,12 1 0
-1.530849 -7.949142 -0.8033707,-2.11334 -7.857708 0.02131271,-2.492864 -7.092807 0.5264021,-2.542849 -6.313358 0.9085431,-2.594317 -5.509902 1.297688,-2.219777 -5.768679 0.5064105,-2.360532 -5.289012 1.414838,-2.448074 -4.760934 1.939675,-2.523035 -4.189607 2.25464,-1.739589 -5.646748 0.3830804,-1.776479 -5.434532 1.417708,-1.776479 -5.434532 1.417708,-1.897552 -7.086999 1.317582,-1.282245 -5.806131 0.3790386,-1.303507 -5.622085 1.405235,-1.45188 -6.690763 1.274794,-1.542076 -7.260335 0.9785068,-0.8895302 -6.119848 0.4268298,-0.8616824 -5.849166 1.148603,-1.054031 -6.565648 1.14528,-1.206583 -7.005512 0.9882872,-8.399525 -7.597396 0.124801,-7.768969 -7.287648 0.4213758,-7.21077 -6.581096 0.6674049,-6.801674 -5.906773 0.952885,-6.417485 -5.548247 1.246662,-7.685567 -4.671872 0.3600631,-7.571453 -3.457708 0.5447985,-7.526734 -2.723165 0.7439407,-7.489806 -2.083389 0.8931834,-8.08147 -4.49842 0.4275912,-8.014159 -3.074495 0.5923434,-7.963832 -2.188576 0.8358805,-7.924513 -1.436451 1.039955,-8.458171 -4.601747 0.5305381,-8.435667 -3.27964 0.6948993,-8.390242 -2.45972 0.8819423,-8.323354 -1.76527 1.01496,-8.836564 -4.944866 0.6637768,-8.940054 -3.960683 0.8510884,-8.971975 -3.316667 0.9896982,-8.971029 -2.694023 1.072329,4.210,12 1 0
-1.54782 -7.941244 -1.112376,-2.139623 -7.763132 -0.3491831,-2.517976 -7.020682 0.1875619,-2.56128 -6.229436 0.5806918,-2.625993 -5.408582 0.9544196,-2.261061 -6.012031 0.485491,-2.348826 -5.47002 1.409269,-2.432065 -4.824331 1.948753,-2.504774 -4.132629 2.320015,-1.739844 -5.933993 0.3826324,-1.77002 -5.455438 1.330073,-1.77002 -5.455438 1.330073,-1.974541 -6.835166 1.179241,-1.247694 -6.060447 0.3537245,-1.253638 -5.676445 1.31471,-1.455425 -6.582494 1.069464,-1.585344 -7.138278 0.7459755,-0.8146315 -6.305671 0.385383,-0.7870107 -5.850259 1.057235,-1.018471 -6.423049 0.9865146,-1.181231 -6.831687 0.8305863,-8.39854 -7.604103 0.1293896,-7.771808 -7.299419 0.4272847,-7.210151 -6.596292 0.6800546,-6.798804 -5.931594 0.9752821,-6.418696 -5.563282 1.288303,-7.686856 -4.680614 0.3466557,-7.564028 -3.474365 0.5338341,-7.515088 -2.738241 0.7365633,-7.474362 -2.098082 0.8891951,-8.078705 -4.502304 0.4143522,-7.998123 -3.082447 0.5770124,-7.944037 -2.195681 0.8186194,-7.903521 -1.439445 1.018724,-8.453884 -4.598552 0.5229089,-8.422923 -3.282063 0.6816229,-8.372587 -2.458031 0.868836,-8.300191 -1.761224 1.001016,-8.834236 -4.93648 0.6613499,-8.932083 -3.945826 0.8485916,-8.9599 -3.300941 0.9876869,-8.954591 -2.681175 1.071154,4.310,12 1 0
-1.533886 -7.960424 -1.451625,-2.144828 -7.519273 -0.7747384,-2.514469 -6.750255 -0.1090671,-2.605474 -5.879745 0.3613085,-2.653126 -5.12024 0.7670575,-2.290726 -7.233438 0.9441558,-2.391897 -6.293174 2.048886,-2.554362 -5.343347 2.561605,-2.678095 -4.470201 2.886943,-1.77348 -7.200687 0.8262495,-1.755535 -5.792829 1.669133,-1.755535 -5.792829 1.669133,-1.943799 -5.219543 1.097651,-1.280206 -7.065727 0.7474569,-1.223513 -5.664655 1.505706,-1.424385 -5.393754 1.150335,-1.603312 -5.375522 0.8252159,-0.852406 -6.90746 0.6996781,-0.7462492 -5.803335 1.191187,-0.9458065 -5.550889 1.123778,-1.132048 -5.5118 1.039093,-8.426757 -7.630876 0.1957623,-7.791123 -7.306566 0.4635577,-7.2221 -6.587507 0.6952719,-6.807306 -5.921699 0.9790858,-6.414953 -5.574134 1.276668,-7.687661 -4.680725 0.357582,-7.565597 -3.477894 0.518927,-7.520021 -2.736589 0.7079564,-7.48126 -2.09538 0.8570614,-8.085176 -4.508454 0.4356867,-7.999458 -3.096491 0.5865474,-7.945166 -2.201799 0.8276941,-7.90605 -1.44021 1.033533,-8.464798 -4.603342 0.5521888,-8.426131 -3.286659 0.6958257,-8.378512 -2.457681 0.8729085,-8.310127 -1.755759 0.9986607,-8.850732 -4.939231 0.6979878,-8.940326 -3.945605 0.8682666,-8.964605 -3.304509 0.9996892,-8.96105 -2.689136 1.083962,4.410,12 1 0
-1.572232 -7.842597 -0.7891508,-2.226073 -7.457487 0.1204047,-2.57123 -6.663398 0.9144012,-2.609903 -5.787014 1.438656,-2.600706 -5.045671 1.898644,-2.438373 -7.134583 1.862188,-2.459546 -6.286132 3.119164,-2.617386 -5.372503 3.787288,-2.749593 -4.488421 4.216621,-1.872125 -7.055099 1.67285,-1.786875 -5.760877 2.595948,-1.786875 -5.760877 2.595948,-1.9026 -5.074067 2.385035,-1.322234 -6.942745 1.549034,-1.236602 -5.643425 2.431516,-1.44644 -5.468841 2.138506,-1.656635 -5.548442 1.905946,-0.8773556 -6.876577 1.479822,-0.767458 -5.877458 2.028282,-0.987009 -5.684936 2.010804,-1.199727 -5.653362 2.000799,-8.417737 -7.627766 0.2304255,-7.795822 -7.290924 0.5061743,-7.236822 -6.572752 0.7451254,-6.835243 -5.89294 1.033898,-6.452409 -5.550699 1.325004,-7.69872 -4.667872 0.4181811,-7.583486 -3.47857 0.5801939,-7.550219 -2.742963 0.7670462,-7.524611 -2.110746 0.9200825,-8.094597 -4.494779 0.4877444,-8.010333 -3.090562 0.641636,-7.957963 -2.201177 0.882924,-7.923854 -1.446821 1.092618,-8.472876 -4.592599 0.5924819,-8.441797 -3.285893 0.7360108,-8.395287 -2.470903 0.899967,-8.330879 -1.780282 1.021023,-8.857433 -4.929584 0.727361,-8.946079 -3.944801 0.8891178,-8.974398 -3.310817 1.00724,-8.97465 -2.698055 1.083094,4.510,12 1 0
-1.56195 -7.605508 -0.9456443,-2.165788 -7.545461 0.07604384,-2.544811 -6.925861 0.8595934,-2.615251 -6.176854 1.380937,-2.64735 -5.448398 1.84947,-2.473821 -6.896999 1.62631,-2.532354 -6.253416 2.820453,-2.663921 -5.538024 3.52311,-2.831317 -4.690084 3.995033,-1.901114 -6.68415 1.415822,-1.845214 -5.739088 2.442741,-1.845214 -5.739088 2.442741,-2.016369 -4.976496 2.5893,-1.323487 -6.556545 1.282561,-1.230286 -5.783296 2.317348,-1.362397 -6.051435 2.149065,-1.549479 -6.209524 1.924049,-0.8195682 -6.585787 1.198901,-0.6944861 -6.15336 2.01502,-0.8390646 -6.355602 2.094216,-1.019985 -6.47924 2.117073,-8.457727 -7.628171 0.204324,-7.829135 -7.284914 0.4686942,-7.271293 -6.560343 0.7006295,-6.870788 -5.8733 0.9851654,-6.48055 -5.523278 1.280756,-7.731784 -4.677511 0.379382,-7.618763 -3.475408 0.5386844,-7.586221 -2.73966 0.7283014,-7.559651 -2.102621 0.8837758,-8.128097 -4.503115 0.4581636,-8.04362 -3.091863 0.6064692,-7.9909 -2.20574 0.8475279,-7.957031 -1.447396 1.052273,-8.507397 -4.593032 0.573767,-8.472132 -3.273788 0.7115256,-8.427094 -2.459064 0.8827811,-8.365544 -1.766375 1.009709,-8.892956 -4.920024 0.7160119,-8.978509 -3.929302 0.8736777,-9.004365 -3.287652 0.999343,-9.006347 -2.663224 1.081346,4.610,12 1 0
-1.575508 -7.87951 -0.383459,-2.251214 -7.6868 0.7176226,-2.615283 -7.00707 1.58297,-2.631518 -6.293836 2.184481,-2.607687 -5.636765 2.768501,-2.553438 -6.788234 2.126293,-2.598412 -6.265815 3.351037,-2.714026 -5.655672 4.076325,-2.866018 -4.888577 4.584728,-1.95558 -6.50851 1.932574,-1.918267 -5.696765 3.147786,-1.918267 -5.696765 3.147786,-2.303326 -4.931074 3.761505,-1.363574 -6.334633 1.792768,-1.319778 -5.741579 2.912118,-1.530163 -6.501972 2.634623,-1.764027 -6.975036 2.270137,-0.8402953 -6.372274 1.746473,-0.8155541 -6.024536 2.661051,-1.021323 -6.655099 2.675054,-1.216782 -7.068832 2.557923,-8.467928 -7.647879 0.2638645,-7.848757 -7.303014 0.5407537,-7.298174 -6.574749 0.7841675,-6.899939 -5.896252 1.080311,-6.510236 -5.539962 1.390937,-7.756332 -4.680557 0.4360129,-7.637647 -3.509563 0.6039015,-7.601098 -2.78623 0.8011314,-7.574525 -2.153111 0.9634176,-8.147073 -4.50455 0.5151695,-8.064054 -3.114973 0.6684134,-8.014084 -2.234103 0.9193144,-7.984545 -1.476163 1.132207,-8.521486 -4.590358 0.6324025,-8.497271 -3.29289 0.7811378,-8.456491 -2.477952 0.9576443,-8.400267 -1.785709 1.086953,-8.903629 -4.916694 0.778598,-9.000093 -3.930045 0.9456006,-9.028316 -3.283425 1.067313,-9.031509 -2.653928 1.144374,4.710,12 1 0
-1.530641 -7.672206 0.3117006,-2.123145 -7.438407 1.271333,-2.589171 -6.815408 2.119045,-2.790919 -6.168471 2.738092,-2.882776 -5.567873 3.301704,-2.494213 -7.133799 3.292802,-2.416167 -6.402101 4.602328,-2.473632 -5.715679 5.306304,-2.537944 -5.051218 5.741181,-1.950353 -7.059804 3.13255,-1.804721 -5.836767 4.142338,-1.804721 -5.836767 4.142338,-2.164748 -5.168644 3.938798,-1.359637 -6.941123 3.049848,-1.2258 -5.791754 4.039979,-1.41095 -5.824733 3.673991,-1.665187 -5.931401 3.3814,-0.8210888 -6.873005 3.038674,-0.6500187 -6.107713 3.808999,-0.8229494 -6.13918 3.849124,-1.06288 -6.229812 3.866101,-8.479672 -7.677333 0.2396852,-7.858435 -7.336952 0.5545276,-7.301678 -6.618465 0.8096761,-6.896886 -5.947017 1.106626,-6.512198 -5.587001 1.407055,-7.781773 -4.709815 0.4709737,-7.666897 -3.509727 0.6579738,-7.631527 -2.77449 0.8613712,-7.602557 -2.134893 1.024721,-8.176394 -4.542507 0.5291092,-8.098443 -3.141487 0.702064,-8.05569 -2.252836 0.9561763,-8.03051 -1.488416 1.180021,-8.552725 -4.638658 0.625941,-8.524592 -3.341626 0.7909641,-8.487648 -2.51939 0.9756054,-8.435072 -1.819664 1.114545,-8.935514 -4.975361 0.7556362,-9.033037 -3.996619 0.9305528,-9.070642 -3.360536 1.054052,-9.081136 -2.740154 1.13806,4.810,12 1 0
-1.446429 -7.610733 -0.554829,-2.061668 -7.639247 0.6254996,-2.530963 -7.096431 1.457524,-2.623891 -6.379148 2.00977,-2.629381 -5.548061 2.502712,-2.427076 -6.497097 1.950353,-2.43198 -6.078285 3.139901,-2.535832 -5.507674 3.867089,-2.672503 -4.797209 4.370098,-1.838285 -6.239692 1.701627,-1.76006 -5.794511 2.882875,-1.76006 -5.794511 2.882875,-2.045646 -5.712316 3.194006,-1.261037 -6.165302 1.552156,-1.179183 -5.894386 2.762424,-1.342487 -6.440036 2.76555,-1.55756 -6.665166 2.575475,-0.7584515 -6.30924 1.468668,-0.6820135 -6.266845 2.493197,-0.8314419 -6.713046 2.686925,-1.016895 -6.913131 2.742451,-8.527982 -7.691668 0.3103549,-7.895444 -7.362205 0.6304054,-7.332693 -6.632165 0.8777008,-6.926696 -5.947893 1.167091,-6.528131 -5.583144 1.464247,-7.790155 -4.717135 0.522256,-7.6707 -3.527305 0.6947426,-7.631862 -2.790127 0.8837537,-7.601149 -2.148755 1.035249,-8.188445 -4.537662 0.5710839,-8.107286 -3.146739 0.7194138,-8.057808 -2.266361 0.9535313,-8.026687 -1.504881 1.16496,-8.569174 -4.61679 0.6607533,-8.529843 -3.310916 0.8003404,-8.490461 -2.499127 0.9661695,-8.436965 -1.80551 1.091405,-8.957283 -4.935002 0.7844603,-9.043418 -3.951105 0.9369175,-9.074443 -3.323189 1.04841,-9.084007 -2.711593 1.126473,4.910,12 1 0
-1.4952 -8.195992 -0.9381471,-2.152688 -7.767646 -0.131555,-2.5314 -6.909482 0.5766367,-2.550737 -6.048278 1.068698,-2.5216 -5.266983 1.49103,-2.323845 -7.120286 1.484399,-2.365294 -6.276566 2.624602,-2.543064 -5.436727 3.243822,-2.708127 -4.624912 3.685576,-1.767424 -7.022354 1.320213,-1.786852 -5.820446 2.156312,-1.786852 -5.820446 2.156312,-1.989404 -5.400361 1.883041,-1.233603 -6.960582 1.215718,-1.251955 -5.803955 2.064551,-1.49969 -5.925851 1.718273,-1.727954 -6.13444 1.413521,-0.7875261 -6.975418 1.153411,-0.7929449 -6.115869 1.755526,-1.052915 -6.250717 1.70522,-1.273892 -6.444828 1.637893,-8.536557 -7.705841 0.2169185,-7.913869 -7.371444 0.5299762,-7.359306 -6.657489 0.7852548,-6.956003 -5.981616 1.085133,-6.566965 -5.612892 1.396192,-7.828232 -4.749427 0.4537457,-7.713047 -3.547658 0.6354256,-7.674802 -2.807059 0.8354689,-7.641259 -2.164107 0.9872456,-8.22706 -4.579188 0.5168193,-8.152692 -3.170412 0.6816047,-8.107767 -2.283638 0.9240056,-8.079456 -1.529967 1.129833,-8.604958 -4.673843 0.6205094,-8.582212 -3.360083 0.7745915,-8.540104 -2.539764 0.9591061,-8.48007 -1.846385 1.091315,-8.987049 -5.006158 0.7548289,-9.084625 -4.010553 0.9339836,-9.117456 -3.369493 1.063034,-9.123721 -2.749611 1.144355,5.010,12 1 0
-1.420539 -8.271955 -1.237553,-2.064399 -8.002241 -0.6289334,-2.483188 -7.186472 -0.03253245,-2.568906 -6.342236 0.3971795,-2.604482 -5.575395 0.7750924,-2.260764 -7.144376 0.9564881,-2.391037 -6.267502 1.952522,-2.571796 -5.371165 2.470347,-2.712739 -4.498455 2.870057,-1.747375 -6.998744 0.8586566,-1.822263 -5.847797 1.620954,-1.822263 -5.847797 1.620954,-2.035545 -5.562673 1.232253,-1.264313 -6.905363 0.7925963,-1.317342 -5.815462 1.537722,-1.562693 -5.866567 1.219022,-1.747937 -6.01881 0.92275,-0.8392487 -6.881669 0.7539861,-0.8734522 -6.045088 1.305533,-1.116712 -6.23068 1.260665,-1.299999 -6.507273 1.175843,-8.538032 -7.740629 0.273731,-7.902829 -7.415939 0.5737284,-7.345901 -6.68844 0.8164194,-6.939119 -6.011429 1.101735,-6.553606 -5.649767 1.393569,-7.824298 -4.765689 0.4825485,-7.708819 -3.576036 0.6626977,-7.673457 -2.838524 0.8626463,-7.643613 -2.197803 1.006883,-8.221193 -4.595971 0.5479386,-8.151387 -3.203062 0.7047375,-8.112896 -2.314369 0.9437286,-8.088664 -1.558509 1.147615,-8.598557 -4.69609 0.6525262,-8.57408 -3.394455 0.8037431,-8.539422 -2.573632 0.9812203,-8.485877 -1.881315 1.107318,-8.979665 -5.038513 0.7892391,-9.074925 -4.050655 0.9654036,-9.106965 -3.406429 1.090989,-9.114046 -2.786022 1.167645,5.110,12 1 0
-1.47983 -8.318953 -1.475609,-2.117623 -8.06468 -0.896705,-2.525084 -7.182407 -0.3231661,-2.605017 -6.313235 0.08584905,-2.670299 -5.5517 0.4570041,-2.254023 -7.092494 0.6034483,-2.393744 -6.184133 1.579177,-2.592475 -5.285452 2.132073,-2.738408 -4.425861 2.532995,-1.755612 -6.96945 0.49747,-1.803436 -5.785277 1.200513,-1.803436 -5.785277 1.200513,-2.069786 -5.72965 0.8096792,-1.29776 -6.937698 0.4311965,-1.334842 -5.808321 1.140769,-1.57914 -5.953799 0.8801824,-1.747173 -6.212499 0.625439,-0.8974171 -6.989017 0.3850417,-0.9147253 -6.100976 0.9247974,-1.146367 -6.252971 0.9142953,-1.313204 -6.527009 0.8701407,-8.498992 -7.789075 0.3478914,-7.877153 -7.416965 0.6316589,-7.339729 -6.675436 0.8607965,-6.959701 -5.981777 1.141195,-6.566338 -5.599386 1.42329,-7.819657 -4.775737 0.495268,-7.717863 -3.596637 0.6254481,-7.682909 -2.872055 0.7925622,-7.646028 -2.242877 0.9320993,-8.219329 -4.61478 0.5608871,-8.161606 -3.267945 0.6745422,-8.128956 -2.436451 0.8906069,-8.106009 -1.741266 1.07222,-8.593459 -4.703859 0.6676434,-8.580821 -3.427425 0.7849485,-8.558491 -2.642725 0.9560428,-8.512344 -1.983802 1.074865,-8.974613 -5.024999 0.8040438,-9.071523 -4.048442 0.9477015,-9.11219 -3.414651 1.051265,-9.127503 -2.796331 1.113185,5.210,12 1 0
-1.481237 -8.248604 -1.527509,-2.110063 -8.050673 -0.9082367,-2.506524 -7.230059 -0.3836123,-2.592651 -6.440759 -0.02233398,-2.699597 -5.69807 0.2972062,-2.217406 -6.754481 0.3015902,-2.352893 -6.003181 1.144596,-2.512395 -5.17131 1.634278,-2.656771 -4.349073 2.024163,-1.739467 -6.622329 0.2067943,-1.838796 -5.765242 1.042451,-1.838796 -5.765242 1.042451,-2.106486 -6.490398 0.9257891,-1.284685 -6.626352 0.1524321,-1.34557 -5.79162 0.9837966,-1.530969 -6.41843 0.7851491,-1.648705 -6.970537 0.5341148,-0.8588676 -6.756654 0.1297693,-0.9170365 -6.05801 0.7634971,-1.138036 -6.4806 0.7598431,-1.291294 -6.954586 0.6870174,-8.524013 -7.943753 0.06753924,-7.921532 -7.53959 0.3182232,-7.443402 -6.72516 0.5181408,-7.116743 -5.923837 0.7739901,-6.780118 -5.344329 1.011433,-7.834947 -4.988515 0.02878629,-7.667403 -3.848949 0.1359257,-7.624702 -3.128948 0.2894835,-7.605083 -2.500554 0.4002075,-8.247919 -4.842737 0.1118478,-8.208268 -3.633538 0.3008516,-8.175086 -3.338312 0.5497701,-8.171156 -3.339082 0.714667,-8.621584 -4.926372 0.2349179,-8.638564 -3.797273 0.4034944,-8.594289 -3.440422 0.5799951,-8.549669 -3.346349 0.6872965,-8.998369 -5.218055 0.3898048,-9.064782 -4.284933 0.5629009,-9.032331 -3.833553 0.6761986,-8.966324 -3.56705 0.7428115,5.310,12 1 0
-1.467792 -8.232203 -1.453886,-2.091431 -8.031954 -0.8308826,-2.487089 -7.212482 -0.2896953,-2.583259 -6.375236 0.074422,-2.676564 -5.631494 0.396116,-2.242321 -6.896204 0.5378863,-2.374922 -6.0412 1.394768,-2.518558 -5.155117 1.86951,-2.643559 -4.315568 2.246202,-1.754368 -6.739229 0.419368,-1.854966 -5.778675 1.199912,-1.854966 -5.778675 1.199912,-2.058823 -6.447021 0.9271308,-1.288694 -6.686876 0.335922,-1.367605 -5.770959 1.101944,-1.516764 -6.365057 0.7848047,-1.605693 -6.929006 0.4744117,-0.8587394 -6.73673 0.2860445,-0.9263954 -5.959854 0.8698195,-1.125562 -6.333517 0.8172871,-1.254849 -6.803083 0.7213103,-8.593619 -8.093573 -1.210676,-7.940228 -7.58738 -1.017148,-7.541964 -6.796772 -0.7156464,-7.37856 -5.910649 -0.4418066,-7.315675 -5.285487 -0.2054814,-7.845048 -5.467153 -0.7557197,-7.749137 -4.142774 -0.543828,-7.694979 -3.33097 -0.3604274,-7.665459 -2.68321 -0.2221797,-8.274741 -5.410058 -0.7101255,-8.27353 -3.939881 -0.5299965,-8.16204 -4.431396 -0.4751758,-8.133534 -5.060045 -0.4347147,-8.671131 -5.530814 -0.6647543,-8.680713 -4.224752 -0.5058827,-8.533668 -4.705362 -0.499432,-8.487478 -5.310022 -0.5084895,-9.074426 -5.775251 -0.62176,-9.108943 -4.663639 -0.5104556,-8.965135 -4.763895 -0.5480406,-8.887607 -5.107952 -0.5852468,5.410,12 1 0
-1.482453 -8.201674 -1.480564,-2.100746 -8.084898 -0.8100025,-2.517601 -7.319377 -0.3024882,-2.617405 -6.493712 0.07416058,-2.737633 -5.696714 0.429754,-2.286921 -6.461624 0.08220041,-2.43836 -5.764373 0.9714241,-2.572242 -5.05535 1.479744,-2.706439 -4.315507 1.824482,-1.788112 -6.323883 -0.009471416,-1.877626 -5.761178 1.003071,-1.877626 -5.761178 1.003071,-2.013039 -7.105127 0.9132471,-1.317552 -6.361097 -0.03019309,-1.360225 -5.871252 0.9789712,-1.512779 -6.801811 0.842809,-1.619177 -7.390146 0.5490315,-0.8977923 -6.517068 -0.02977753,-0.935421 -6.106632 0.671607,-1.135457 -6.715079 0.6651785,-1.290638 -7.169128 0.5297165,-8.642229 -8.064398 -1.666335,-8.094514 -7.667772 -1.07525,-7.675688 -6.936695 -0.6377723,-7.65108 -6.110795 -0.2515476,-7.941269 -5.680967 0.07669747,-7.964469 -5.555616 -1.26231,-7.832635 -4.463628 -0.7227999,-7.773752 -3.863301 -0.3320024,-7.721608 -3.317701 -0.1190798,-8.382104 -5.493595 -1.244124,-8.338771 -4.723835 -0.4078106,-8.341266 -5.791859 -0.2059426,-8.339646 -6.517787 -0.3149536,-8.775378 -5.600287 -1.094727,-8.757418 -4.943029 -0.3409715,-8.714448 -5.935845 -0.1894082,-8.688622 -6.548965 -0.3328549,-9.182561 -5.854539 -0.9116617,-9.202909 -5.06887 -0.4057958,-9.10618 -5.637355 -0.2412065,-9.036446 -6.117456 -0.2711869,5.510,12 1 0
-1.589367 -8.239197 -1.39515,-2.209208 -8.089819 -0.7558759,-2.599473 -7.265575 -0.2353215,-2.667381 -6.419239 0.1462562,-2.76761 -5.583794 0.5257219,-2.323802 -6.587808 0.2912592,-2.473275 -5.807329 1.111041,-2.654553 -5.031882 1.627015,-2.823845 -4.280452 2.03937,-1.828706 -6.430162 0.2084069,-1.918947 -5.642451 0.9833044,-1.918947 -5.642451 0.9833044,-2.110477 -6.777917 0.8916415,-1.360476 -6.470556 0.1879162,-1.437851 -5.723885 1.043221,-1.613643 -6.553278 0.9373084,-1.722142 -7.251329 0.74309,-0.9361868 -6.638823 0.1903732,-0.9992943 -5.963772 0.8628114,-1.203771 -6.503086 0.9019703,-1.340036 -7.045243 0.8783575,-8.718408 -8.001629 -1.799088,-8.182647 -7.674373 -1.123034,-7.776945 -6.955991 -0.6825707,-7.769503 -6.146017 -0.3095912,-8.053644 -5.704557 -0.01044023,-8.053865 -5.550474 -1.301578,-7.93325 -4.533683 -0.7036564,-7.863238 -3.964501 -0.2683936,-7.806984 -3.430299 -0.04340589,-8.470063 -5.477041 -1.327341,-8.478789 -4.749826 -0.4417908,-8.467634 -5.791753 -0.2232305,-8.451053 -6.490392 -0.3440834,-8.864155 -5.598057 -1.21899,-8.89692 -4.980592 -0.4011133,-8.835125 -5.959363 -0.2328303,-8.792964 -6.56457 -0.3902893,-9.260162 -5.86553 -1.066475,-9.320334 -5.131134 -0.5244151,-9.224081 -5.697152 -0.3413703,-9.143248 -6.171997 -0.3788817,5.610,12 1 0
-1.64998 -8.230106 -1.860793,-2.272936 -8.052896 -1.270508,-2.705255 -7.195128 -0.840391,-2.883427 -6.377025 -0.4935402,-3.13625 -5.638315 -0.1273689,-2.387207 -6.399217 -0.6223344,-2.565842 -5.538907 0.1157115,-2.71109 -4.835037 0.5484771,-2.855878 -4.187978 0.8795558,-1.929077 -6.277513 -0.6849732,-2.02442 -5.60172 0.215824,-2.02442 -5.60172 0.215824,-2.070935 -7.150452 0.05422056,-1.501008 -6.336277 -0.6647866,-1.563373 -5.68533 0.2109746,-1.663487 -6.619442 0.1066248,-1.727168 -7.289335 -0.1710258,-1.112 -6.512931 -0.6229712,-1.131285 -5.853767 -0.01053953,-1.257565 -6.403141 -0.00919342,-1.34705 -6.893534 -0.1435992,-8.85799 -7.968686 -2.163871,-8.316278 -7.734472 -1.453985,-7.898349 -6.989097 -1.017893,-7.907758 -6.199861 -0.660144,-8.187505 -5.810892 -0.3787708,-8.197587 -5.60982 -1.589631,-8.080321 -4.644093 -0.9784088,-8.002621 -4.092525 -0.5277035,-7.943735 -3.582185 -0.2672433,-8.620048 -5.566217 -1.613846,-8.65103 -4.830179 -0.6409882,-8.614099 -5.832551 -0.3986156,-8.587545 -6.57188 -0.5257975,-9.032462 -5.722143 -1.500784,-9.081309 -5.076893 -0.5746906,-8.992594 -5.990465 -0.3912241,-8.930679 -6.608129 -0.5688461,-9.441664 -6.02024 -1.341004,-9.543786 -5.236125 -0.7498475,-9.429957 -5.669555 -0.5537227,-9.321794 -6.118062 -0.5798742,5.710,12 1 0
-1.764568 -8.115601 -1.741809,-2.364903 -7.909317 -1.099048,-2.810976 -7.06402 -0.7235395,-3.010476 -6.235935 -0.3875794,-3.272426 -5.468202 -0.03817511,-2.524144 -6.055144 -0.9747387,-2.728054 -5.341918 -0.2555397,-2.857792 -4.763799 0.1859177,-2.98606 -4.210569 0.4869134,-2.107556 -5.920406 -1.038863,-2.223174 -5.365803 -0.04459381,-2.223174 -5.365803 -0.04459381,-2.153918 -7.060163 -0.008051634,-1.69193 -5.964302 -0.9846197,-1.765241 -5.433081 -0.05646324,-1.822162 -6.504314 -0.07071114,-1.858616 -7.172581 -0.307832,-1.286959 -6.162231 -0.907726,-1.314395 -5.605811 -0.2677231,-1.44096 -6.298568 -0.2572979,-1.537105 -6.848293 -0.4151022,-9.012012 -7.995492 -2.315962,-8.502941 -7.781933 -1.612005,-8.079199 -6.988511 -1.179292,-8.120918 -6.233108 -0.8264803,-8.433954 -5.945571 -0.5374653,-8.426969 -5.68523 -1.675959,-8.327928 -4.755674 -1.045027,-8.241834 -4.223164 -0.6188705,-8.187689 -3.738331 -0.3736041,-8.856454 -5.655826 -1.668562,-8.889853 -4.93034 -0.6633264,-8.827797 -5.897878 -0.4355767,-8.804931 -6.630001 -0.549822,-9.282498 -5.831729 -1.532735,-9.337656 -5.205682 -0.5741501,-9.237494 -6.095739 -0.3982549,-9.187145 -6.710298 -0.5603074,-9.702799 -6.144151 -1.347846,-9.846767 -5.375475 -0.7501022,-9.743752 -5.731285 -0.57227,-9.654495 -6.141864 -0.598718,5.810,12 1 0
-1.829041 -8.036306 -1.876192,-2.41396 -7.855379 -1.263593,-2.85708 -7.000792 -0.9386743,-3.065032 -6.192267 -0.6481413,-3.343751 -5.478196 -0.3564757,-2.578066 -5.998655 -1.201234,-2.773727 -5.292343 -0.5399522,-2.890134 -4.72673 -0.139621,-3.009844 -4.215932 0.1423472,-2.175839 -5.853333 -1.270037,-2.300243 -5.296033 -0.3290642,-2.300243 -5.296033 -0.3290642,-2.216734 -7.01064 -0.2647425,-1.76646 -5.881977 -1.22807,-1.855392 -5.350368 -0.3293856,-1.901027 -6.396147 -0.3070358,-1.928363 -7.080492 -0.5214584,-1.360627 -6.055042 -1.163009,-1.392753 -5.516719 -0.5220602,-1.520264 -6.17311 -0.4756759,-1.61373 -6.722589 -0.6105541,-9.10502 -8.025822 -2.162595,-8.60004 -7.835813 -1.378762,-8.19326 -7.022501 -0.9026304,-8.246191 -6.248434 -0.5259483,-8.552394 -5.911579 -0.2062296,-8.534246 -5.712412 -1.327948,-8.45179 -4.8019 -0.6245697,-8.370662 -4.252529 -0.148438,-8.314697 -3.752787 0.1306572,-8.976195 -5.685813 -1.361975,-9.038321 -4.926578 -0.3320216,-8.958704 -5.876573 -0.08972692,-8.914564 -6.574152 -0.2030952,-9.406187 -5.874721 -1.265416,-9.494483 -5.224761 -0.3172687,-9.381174 -6.118629 -0.1371148,-9.318937 -6.706607 -0.2851808,-9.816763 -6.202653 -1.115173,-9.985048 -5.462364 -0.5162394,-9.896178 -5.81497 -0.3304902,-9.812885 -6.193338 -0.3442186,5.910,12 1 0
-1.930174 -7.958787 -1.820373,-2.537393 -7.714342 -1.348425,-2.98269 -6.816076 -1.096097,-3.204955 -5.984144 -0.8179997,-3.517321 -5.370037 -0.5602881,-2.620862 -5.78425 -1.484706,-2.74431 -5.390071 -0.6131593,-2.700624 -6.031244 -0.1535306,-2.62458 -6.500116 0.03422189,-2.253349 -5.69874 -1.481759,-2.379708 -5.198307 -0.5231248,-2.379708 -5.198307 -0.5231248,-2.326789 -6.82926 -0.3802222,-1.874518 -5.736759 -1.367038,-1.997643 -5.252387 -0.493888,-2.055029 -6.311805 -0.4916918,-2.053782 -6.932083 -0.7369472,-1.475936 -5.914724 -1.233236,-1.592617 -5.445486 -0.6073074,-1.716733 -6.140699 -0.5753834,-1.76617 -6.65583 -0.7385874,-9.328938 -8.187597 -1.705079,-8.808531 -8.038681 -0.7550319,-8.403872 -7.248467 -0.2012385,-8.448119 -6.461431 0.1951119,-8.753057 -6.047106 0.529559,-8.698002 -5.835716 -0.6756295,-8.594585 -5.033978 0.1884353,-8.57207 -4.531525 0.7642428,-8.567597 -3.977073 1.106389,-9.171247 -5.753194 -0.7846388,-9.26396 -5.042588 0.3787137,-9.193473 -6.143274 0.6206952,-9.13184 -6.842243 0.4682261,-9.639842 -5.900306 -0.7334211,-9.752577 -5.254973 0.3285083,-9.638292 -6.313819 0.4712132,-9.557634 -6.931674 0.2478045,-10.08362 -6.18683 -0.6182731,-10.27126 -5.470235 0.05841064,-10.16214 -6.022066 0.2058783,-10.04891 -6.513118 0.1306996,6.010,12 1 0
-1.960061 -7.925905 -1.91719,-2.548275 -7.708616 -1.431135,-2.993929 -6.839551 -1.144716,-3.217686 -6.030771 -0.8569767,-3.543621 -5.414355 -0.5703708,-2.653346 -5.800779 -1.512473,-2.794045 -5.272089 -0.7034572,-2.859639 -5.231852 -0.1941878,-2.888817 -5.221774 0.1047726,-2.293099 -5.708187 -1.503642,-2.42723 -5.164934 -0.5566999,-2.42723 -5.164934 -0.5566999,-2.349977 -6.829278 -0.4479306,-1.911862 -5.760213 -1.385571,-2.028045 -5.24822 -0.5135064,-2.08386 -6.316722 -0.5204103,-2.090175 -6.933842 -0.7574658,-1.51436 -5.956102 -1.243936,-1.622587 -5.464627 -0.5968966,-1.755135 -6.163637 -0.5665318,-1.810706 -6.683288 -0.7169312,-9.353614 -8.287853 -1.565306,-8.837184 -8.107885 -0.5888326,-8.43562 -7.325684 -0.01724565,-8.474706 -6.525535 0.3931668,-8.808588 -6.096298 0.7243102,-8.737145 -5.895011 -0.5446255,-8.633442 -5.053092 0.3190448,-8.610669 -4.579225 0.8815441,-8.608309 -4.037406 1.224721,-9.213552 -5.802799 -0.6635618,-9.290151 -5.020617 0.5009217,-9.208674 -6.133245 0.8006115,-9.154328 -6.814197 0.6993132,-9.694464 -5.927834 -0.6231451,-9.796183 -5.206282 0.4285878,-9.672112 -6.282564 0.5866439,-9.603662 -6.907262 0.3695629,-10.1583 -6.196859 -0.51213,-10.35205 -5.430179 0.1553128,-10.21476 -5.998588 0.2951584,-10.09369 -6.521593 0.2043453,6.110,12 1 0
-2.037455 -7.922592 -2.013376,-2.586692 -7.736054 -1.503171,-3.028137 -6.807233 -1.251326,-3.238646 -5.986354 -1.014856,-3.57221 -5.391209 -0.7503617,-2.68038 -5.806057 -1.618694,-2.868297 -5.30054 -0.8481383,-2.998626 -5.082374 -0.3227966,-3.083974 -4.909697 0.0190177,-2.33431 -5.723012 -1.626627,-2.507101 -5.170005 -0.6944515,-2.507101 -5.170005 -0.6944515,-2.409726 -6.941267 -0.5923908,-1.953152 -5.778961 -1.516307,-2.100826 -5.264207 -0.6197606,-2.162743 -6.359715 -0.6199344,-2.152387 -7.019161 -0.8341202,-1.537833 -5.962599 -1.375605,-1.662381 -5.468228 -0.6963925,-1.804663 -6.186435 -0.6386226,-1.852864 -6.72636 -0.737622,-9.438801 -8.471487 -1.260124,-8.916455 -8.219576 -0.2602397,-8.51345 -7.400501 0.350176,-8.588673 -6.612531 0.8018721,-8.95027 -6.261329 1.187621,-8.839436 -6.003881 -0.1591488,-8.727905 -5.117576 0.7321767,-8.696774 -4.620798 1.300784,-8.684916 -4.077221 1.644483,-9.335903 -5.922613 -0.2752422,-9.412963 -5.124996 0.9573022,-9.327957 -6.26514 1.260715,-9.262796 -7.019197 1.157599,-9.827394 -6.057278 -0.227825,-9.937998 -5.310361 0.8795308,-9.815929 -6.40434 1.036708,-9.736347 -7.087177 0.8230666,-10.29784 -6.338665 -0.1146321,-10.52116 -5.522991 0.596619,-10.38831 -6.07931 0.7577018,-10.25304 -6.640102 0.6828871,6.210,12 1 0
-2.023629 -7.933702 -2.083015,-2.593254 -7.748041 -1.593654,-3.035732 -6.842742 -1.347989,-3.2369 -6.018579 -1.121634,-3.555175 -5.41262 -0.8764431,-2.694833 -5.864604 -1.7003,-2.891061 -5.332166 -0.9385552,-3.031184 -5.054243 -0.4203764,-3.130217 -4.833358 -0.08297586,-2.344449 -5.757318 -1.699235,-2.528361 -5.208887 -0.7860768,-2.528361 -5.208887 -0.7860768,-2.419551 -6.966304 -0.7084649,-1.960649 -5.801913 -1.582745,-2.123169 -5.286971 -0.7121392,-2.171396 -6.372433 -0.7074108,-2.145095 -7.016759 -0.9549016,-1.531854 -5.965541 -1.468503,-1.66555 -5.465889 -0.8115758,-1.799741 -6.178612 -0.7745987,-1.84887 -6.706514 -0.9128219,-9.49827 -8.545588 -1.07259,-8.970907 -8.31278 -0.03673553,-8.571851 -7.509623 0.5744518,-8.63776 -6.714651 1.021501,-8.989826 -6.318256 1.40984,-8.897779 -6.049186 0.09377086,-8.778065 -5.154445 1.001409,-8.756398 -4.646932 1.583503,-8.756593 -4.126891 1.935741,-9.400739 -5.952401 -0.05317199,-9.505652 -5.179217 1.188523,-9.417795 -6.328247 1.515656,-9.333208 -7.105249 1.432227,-9.896769 -6.083795 -0.03406525,-10.04022 -5.420858 1.07921,-9.915668 -6.535106 1.265592,-9.808386 -7.228988 1.073613,-10.36538 -6.358988 0.04875159,-10.61318 -5.610862 0.7805037,-10.47533 -6.207508 0.9607733,-10.31235 -6.779768 0.8983568,6.310,12 1 0
-2.034534 -7.957889 -1.963823,-2.591577 -7.775548 -1.459027,-3.016874 -6.863247 -1.214691,-3.199968 -6.024618 -0.9733592,-3.517202 -5.401798 -0.7253444,-2.698673 -5.830963 -1.579888,-2.854588 -5.356736 -0.7810498,-2.916675 -5.432624 -0.2855623,-2.945614 -5.525292 0.00929153,-2.344042 -5.744777 -1.581221,-2.49918 -5.222949 -0.6453489,-2.49918 -5.222949 -0.6453489,-2.414525 -6.937442 -0.5380688,-1.963226 -5.789705 -1.467097,-2.11316 -5.312826 -0.5865482,-2.162457 -6.397615 -0.6076641,-2.153327 -7.028223 -0.8305104,-1.55271 -5.963829 -1.322921,-1.685593 -5.481946 -0.6625347,-1.817498 -6.199096 -0.6286114,-1.865999 -6.728923 -0.7575973,-9.532283 -8.754065 -0.4871305,-8.990557 -8.516882 0.6685419,-8.608661 -7.708663 1.367986,-8.706985 -6.87696 1.879376,-9.098297 -6.444477 2.320768,-8.953436 -6.169992 0.8711671,-8.822559 -5.331515 1.971544,-8.792493 -4.842281 2.638123,-8.793531 -4.277318 3.016777,-9.487484 -6.044981 0.6931415,-9.591584 -5.325283 2.051975,-9.497087 -6.563873 2.369284,-9.4152 -7.241168 2.263144,-10.00282 -6.16784 0.6886355,-10.15436 -5.580482 1.93133,-10.00918 -6.793284 2.096306,-9.886164 -7.412804 1.850665,-10.48254 -6.459233 0.7563689,-10.75217 -5.746782 1.557227,-10.58386 -6.430635 1.716717,-10.39053 -6.988574 1.621881,6.410,12 1 0
-2.017512 -7.942604 -1.861312,-2.592125 -7.742995 -1.374032,-3.026084 -6.811872 -1.133746,-3.218179 -5.977441 -0.907534,-3.544595 -5.380346 -0.6579198,-2.695194 -5.796371 -1.505816,-2.884843 -5.316837 -0.7297996,-3.014314 -5.089675 -0.217914,-3.10707 -4.890556 0.1207232,-2.339039 -5.698375 -1.495737,-2.523057 -5.183186 -0.5657614,-2.523057 -5.183186 -0.5657614,-2.410188 -6.938442 -0.4832269,-1.950947 -5.751533 -1.368385,-2.119212 -5.27264 -0.4883163,-2.165491 -6.378034 -0.4942453,-2.147349 -7.01754 -0.7071629,-1.533556 -5.951557 -1.217789,-1.688466 -5.485472 -0.5397239,-1.830029 -6.211505 -0.4903487,-1.874138 -6.737377 -0.5941572,-9.59381 -8.885084 0.1002962,-9.034945 -8.714819 1.324967,-8.569163 -7.916715 2.128007,-8.64138 -7.092897 2.721735,-9.103688 -6.624801 3.240507,-8.918503 -6.299915 1.761863,-8.798904 -5.536011 3.043527,-8.790104 -5.105358 3.859255,-8.797565 -4.680113 4.3187,-9.489098 -6.134411 1.575683,-9.585887 -5.446802 3.056558,-9.506036 -6.745843 3.427375,-9.434831 -7.519059 3.396094,-10.03562 -6.255812 1.560005,-10.16242 -5.702355 2.869142,-10.03339 -6.989053 2.987649,-9.92445 -7.656331 2.743259,-10.5439 -6.565637 1.62372,-10.8014 -5.853366 2.529144,-10.6213 -6.634752 2.688252,-10.41355 -7.233193 2.593475,6.510,12 1 0
-2.039042 -7.949329 -1.958307,-2.604997 -7.733318 -1.473392,-3.040965 -6.789953 -1.23309,-3.230963 -5.946111 -0.9873038,-3.564054 -5.346977 -0.7256114,-2.678392 -5.797075 -1.604259,-2.821935 -5.314941 -0.7881922,-2.880694 -5.443136 -0.2657005,-2.903428 -5.566503 0.04758799,-2.326595 -5.727603 -1.599991,-2.487195 -5.19942 -0.6606548,-2.487195 -5.19942 -0.6606548,-2.398265 -6.925292 -0.548314,-1.948205 -5.780616 -1.477415,-2.106899 -5.298967 -0.5972981,-2.156251 -6.381439 -0.6105394,-2.141019 -6.999446 -0.8337535,-1.53973 -5.961449 -1.323139,-1.681779 -5.482435 -0.6706401,-1.813283 -6.199237 -0.6336738,-1.854174 -6.722673 -0.757188,-9.546631 -8.981155 0.1986672,-8.980521 -8.764021 1.444469,-8.526219 -7.950476 2.277921,-8.617953 -7.124446 2.899811,-9.110337 -6.678522 3.439723,-8.877841 -6.381114 1.921824,-8.766267 -5.636302 3.272216,-8.754015 -5.221211 4.129839,-8.76368 -4.833513 4.614477,-9.460727 -6.229478 1.732113,-9.56221 -5.516052 3.262526,-9.473343 -6.819587 3.630118,-9.404108 -7.579935 3.597292,-10.01444 -6.350086 1.709729,-10.13489 -5.760618 3.06168,-9.986197 -7.061473 3.137037,-9.88732 -7.727198 2.862159,-10.52952 -6.670442 1.774589,-10.79021 -5.93194 2.70608,-10.59505 -6.74349 2.854296,-10.38968 -7.359924 2.745086,6.610,12 1 0
-2.046095 -7.928059 -1.968754,-2.607216 -7.738444 -1.492681,-3.047082 -6.799158 -1.249763,-3.247471 -5.958444 -1.018953,-3.578045 -5.370815 -0.7489456,-2.722572 -5.81999 -1.604172,-2.90028 -5.32357 -0.8442414,-3.027216 -5.077779 -0.3193176,-3.116683 -4.878777 0.03293133,-2.370842 -5.716163 -1.600379,-2.542216 -5.20116 -0.6933444,-2.542216 -5.20116 -0.6933444,-2.431866 -6.952178 -0.5894598,-1.978852 -5.762905 -1.48242,-2.133157 -5.287341 -0.6211599,-2.17571 -6.37459 -0.611871,-2.158779 -7.018773 -0.8076735,-1.555247 -5.947883 -1.339443,-1.699244 -5.485868 -0.6865095,-1.834652 -6.206047 -0.6375515,-1.877943 -6.734331 -0.7322078,-9.586743 -9.097748 0.7351227,-8.995862 -8.917021 2.034893,-8.470533 -8.113655 2.888958,-8.560444 -7.29776 3.523,-9.084222 -6.882938 4.077999,-8.827164 -6.448784 2.569509,-8.709002 -5.730537 4.0276,-8.706274 -5.336698 4.921543,-8.714516 -4.964013 5.385628,-9.443316 -6.224505 2.361212,-9.556182 -5.588247 3.98061,-9.498664 -6.979347 4.338233,-9.425241 -7.785182 4.265449,-10.02984 -6.325279 2.333904,-10.16041 -5.853597 3.756017,-10.02778 -7.218848 3.82354,-9.91368 -7.900815 3.527541,-10.57137 -6.639218 2.394438,-10.83477 -6.00279 3.369236,-10.6355 -6.87957 3.52767,-10.4139 -7.503155 3.403689,6.710,12 1 0
-2.046033 -7.94577 -1.946102,-2.611853 -7.734476 -1.494142,-3.031309 -6.784534 -1.273305,-3.214043 -5.936336 -1.032959,-3.545258 -5.33035 -0.7914481,-2.686353 -5.78199 -1.643506,-2.827403 -5.312431 -0.8259515,-2.85031 -5.585582 -0.3382634,-2.832329 -5.7978 -0.06814814,-2.336193 -5.71503 -1.625892,-2.497005 -5.210748 -0.6944093,-2.497005 -5.210748 -0.6944093,-2.423592 -6.905925 -0.6121837,-1.96218 -5.770118 -1.492008,-2.127562 -5.314443 -0.6253963,-2.179974 -6.409332 -0.6496856,-2.160388 -7.004201 -0.8831614,-1.559653 -5.954818 -1.329323,-1.712344 -5.483666 -0.7059509,-1.843191 -6.198781 -0.690117,-1.87731 -6.705307 -0.8294916,-9.618562 -9.089376 0.742618,-9.014665 -8.952419 2.040739,-8.445021 -8.162897 2.92012,-8.561246 -7.379074 3.574576,-9.102391 -7.002349 4.11405,-8.823395 -6.563706 2.734824,-8.740391 -5.845074 4.275297,-8.737221 -5.423465 5.185198,-8.743546 -5.030719 5.643642,-9.459949 -6.318803 2.540679,-9.585648 -5.691867 4.199974,-9.533812 -7.097019 4.499915,-9.457684 -7.888774 4.386055,-10.06267 -6.395643 2.522346,-10.18731 -5.93062 3.996709,-10.05536 -7.310062 3.984624,-9.94343 -7.970004 3.643198,-10.61744 -6.684862 2.591631,-10.884 -6.024801 3.571947,-10.67446 -6.910636 3.698441,-10.45464 -7.521065 3.558145,6.810,12 1 0
-2.05647 -7.951845 -1.913734,-2.618458 -7.72396 -1.45613,-3.029189 -6.778945 -1.217616,-3.204399 -5.947671 -0.9689797,-3.531899 -5.339583 -0.7051754,-2.679358 -5.769748 -1.584471,-2.828424 -5.288879 -0.7664139,-2.87114 -5.387109 -0.2503393,-2.87499 -5.459718 0.05338168,-2.331015 -5.714399 -1.562235,-2.494979 -5.210893 -0.6161301,-2.494979 -5.210893 -0.6161301,-2.415176 -6.94239 -0.5303724,-1.952103 -5.782209 -1.423892,-2.110732 -5.332021 -0.5519754,-2.159605 -6.420574 -0.5769832,-2.145612 -7.019896 -0.8134394,-1.54287 -5.979923 -1.258482,-1.68861 -5.51404 -0.6214793,-1.823357 -6.225291 -0.6115645,-1.86657 -6.732056 -0.7555901,-9.617691 -9.281311 1.098448,-8.959205 -8.969986 2.375101,-8.432214 -8.14024 3.332988,-8.651489 -7.435749 4.011386,-9.210972 -7.105505 4.587866,-8.850588 -6.871175 3.485475,-8.853826 -5.997514 5.010885,-8.880973 -5.437855 5.950246,-8.966116 -5.074206 6.483922,-9.54213 -6.677691 3.296609,-9.703953 -5.731729 4.881874,-9.54401 -6.885948 5.207334,-9.420266 -7.763606 5.296067,-10.17033 -6.72947 3.229663,-10.32351 -6.052965 4.625778,-10.11057 -7.28449 4.54283,-9.977867 -8.015732 4.268211,-10.74044 -7.013599 3.255057,-11.02847 -6.121383 4.229546,-10.78024 -6.85438 4.322367,-10.54557 -7.503364 4.237704,6.910,12 1 0
-2.041055 -7.963153 -1.960977,-2.601186 -7.733774 -1.507807,-3.014733 -6.795694 -1.285358,-3.197386 -5.973337 -1.058287,-3.530735 -5.397359 -0.8033224,-2.664525 -5.793613 -1.664255,-2.827852 -5.307536 -0.8795027,-2.914221 -5.300044 -0.3571177,-2.956776 -5.326416 -0.03337264,-2.319385 -5.734674 -1.644692,-2.490444 -5.237394 -0.7223947,-2.490444 -5.237394 -0.7223947,-2.413581 -6.990077 -0.6059794,-1.941166 -5.797624 -1.510274,-2.102099 -5.341654 -0.6463481,-2.149268 -6.423032 -0.6461293,-2.134918 -7.051423 -0.8630943,-1.530531 -5.984756 -1.350421,-1.677547 -5.501409 -0.7063144,-1.807353 -6.206014 -0.6659632,-1.845723 -6.729465 -0.7865975,-9.696293 -9.378544 1.331502,-9.007564 -9.028187 2.630524,-8.462823 -8.214718 3.621894,-8.674513 -7.555923 4.336714,-9.257545 -7.227822 4.91767,-8.919133 -7.001747 3.84857,-8.917978 -6.086483 5.413055,-8.956191 -5.483056 6.344528,-9.053501 -5.091563 6.840887,-9.619338 -6.798589 3.658121,-9.788574 -5.836998 5.264719,-9.647412 -6.991687 5.578588,-9.514215 -7.881624 5.64159,-10.2496 -6.828208 3.574336,-10.43319 -6.21083 4.996816,-10.23294 -7.484963 4.891673,-10.07508 -8.243494 4.578896,-10.82421 -7.056905 3.586305,-11.12511 -6.142389 4.556647,-10.88475 -6.950435 4.645806,-10.63873 -7.645227 4.518064,7.010,12 1 0
-1.985319 -7.983218 -2.046773,-2.557269 -7.779488 -1.549812,-2.99952 -6.864446 -1.329625,-3.192292 -6.021961 -1.108031,-3.503845 -5.42005 -0.8787849,-2.649334 -5.876997 -1.71227,-2.82814 -5.442476 -0.8766217,-2.888972 -5.691792 -0.3834831,-2.918156 -5.917916 -0.1102329,-2.299723 -5.786988 -1.713987,-2.455942 -5.278142 -0.7783856,-2.455942 -5.278142 -0.7783856,-2.388031 -7.019968 -0.6753416,-1.923584 -5.822506 -1.597117,-2.074963 -5.363964 -0.700806,-2.129983 -6.449723 -0.7087272,-2.124709 -7.097232 -0.9424226,-1.523123 -5.983545 -1.454316,-1.666381 -5.533391 -0.7856214,-1.79243 -6.250252 -0.7416372,-1.836127 -6.77792 -0.8724477,-9.639344 -9.438839 1.464361,-8.996583 -9.061243 2.73246,-8.458621 -8.240259 3.732619,-8.650825 -7.606884 4.495276,-9.233253 -7.276688 5.096204,-8.880268 -6.919511 3.821463,-8.871873 -6.124243 5.428299,-8.903306 -5.579223 6.367671,-8.972692 -5.143054 6.875497,-9.567739 -6.710403 3.675946,-9.746548 -5.96865 5.354272,-9.61128 -7.221605 5.679729,-9.479014 -8.041424 5.685293,-10.18798 -6.773897 3.649318,-10.35987 -6.194553 5.096525,-10.14433 -7.462266 4.974638,-9.972704 -8.137447 4.625617,-10.75562 -7.041288 3.721018,-11.05442 -6.190647 4.682654,-10.80718 -7.002111 4.738633,-10.56251 -7.646572 4.589089,7.110,12 1 0
-1.971677 -8.047728 -1.848443,-2.535702 -7.840239 -1.362198,-2.967 -6.912546 -1.137572,-3.156991 -6.069413 -0.905625,-3.477755 -5.457462 -0.6598212,-2.607874 -5.87285 -1.48195,-2.745522 -5.472835 -0.6572138,-2.780875 -5.724714 -0.1680882,-2.793734 -5.936933 0.1055351,-2.251164 -5.795108 -1.477045,-2.393445 -5.347785 -0.5364394,-2.393445 -5.347785 -0.5364394,-2.336113 -7.07891 -0.4107196,-1.871215 -5.844144 -1.356424,-2.020325 -5.447825 -0.47247,-2.07374 -6.534137 -0.4909525,-2.070459 -7.166149 -0.7250456,-1.46972 -6.025875 -1.210646,-1.608518 -5.606373 -0.5490311,-1.735459 -6.320564 -0.5160978,-1.782408 -6.835378 -0.654873,-9.597149 -9.297316 0.222951,-8.968547 -8.971415 1.397495,-8.436517 -8.248577 2.315112,-8.486685 -7.435226 3.026855,-9.024703 -7.001369 3.622558,-8.803402 -7.167982 2.409132,-8.734812 -6.284467 3.940862,-8.718826 -5.683658 4.914385,-8.768795 -5.220848 5.43848,-9.417313 -6.914403 2.287777,-9.538963 -5.863775 3.927826,-9.434594 -6.832674 4.513511,-9.367876 -7.555494 4.694046,-9.994617 -6.852602 2.250325,-10.15638 -6.068248 3.629011,-9.986444 -7.197912 3.606371,-9.872255 -7.870853 3.310845,-10.55798 -6.982528 2.303835,-10.83355 -6.027645 3.218655,-10.61789 -6.733016 3.297305,-10.4204 -7.400488 3.156555,7.210,12 1 0
-1.947562 -8.072691 -1.696301,-2.513825 -7.868763 -1.212839,-2.947686 -6.927763 -0.9841642,-3.142321 -6.091588 -0.7700732,-3.469564 -5.477861 -0.51581,-2.600346 -5.87955 -1.302499,-2.777232 -5.392572 -0.5395252,-2.893244 -5.186435 -0.05803835,-2.983725 -4.996624 0.2586464,-2.242639 -5.781023 -1.304416,-2.409172 -5.332828 -0.3780878,-2.409172 -5.332828 -0.3780878,-2.327802 -7.144845 -0.312508,-1.856472 -5.840478 -1.190743,-2.000849 -5.433389 -0.318523,-2.053187 -6.538715 -0.3383514,-2.05364 -7.176257 -0.5629433,-1.451782 -6.048503 -1.057729,-1.581046 -5.607883 -0.3848706,-1.723409 -6.324643 -0.349282,-1.779659 -6.846696 -0.4716055,-9.501312 -9.212046 -0.1444637,-8.848372 -8.824532 0.8443614,-8.335088 -8.041548 1.631578,-8.317532 -7.378091 2.258577,-8.725218 -7.123458 2.803394,-8.738621 -7.031295 1.836827,-8.661011 -6.192923 3.058474,-8.591346 -5.553279 3.869732,-8.561704 -5.063848 4.389979,-9.345391 -6.835466 1.766074,-9.411512 -5.865959 3.144623,-9.301916 -6.491785 3.865492,-9.244877 -7.049448 4.277363,-9.901025 -6.789448 1.747786,-10.00883 -6.015977 2.858517,-9.836795 -6.893898 2.952766,-9.733879 -7.51313 2.872188,-10.45345 -6.967403 1.816945,-10.70545 -5.981132 2.599133,-10.50331 -6.459609 2.746275,-10.30805 -7.056537 2.756635,7.310,12 1 0
-1.904695 -8.092356 -2.03898,-2.471658 -7.917869 -1.505633,-2.92019 -7.030981 -1.262611,-3.115108 -6.195978 -1.046408,-3.39706 -5.516399 -0.821991,-2.616945 -6.049839 -1.539766,-2.83031 -5.464321 -0.8358861,-2.964231 -5.06096 -0.409753,-3.072271 -4.686212 -0.115923,-2.244395 -5.924843 -1.560023,-2.412549 -5.386573 -0.628359,-2.412549 -5.386573 -0.628359,-2.3099 -7.127756 -0.5968028,-1.851133 -5.953096 -1.464486,-1.989282 -5.45161 -0.5710729,-2.042564 -6.524449 -0.5895255,-2.045507 -7.196307 -0.8152786,-1.440719 -6.124132 -1.352787,-1.548809 -5.617383 -0.6729929,-1.690379 -6.340259 -0.6314975,-1.757637 -6.90582 -0.7601751,-9.151769 -9.110538 -0.5462612,-8.54197 -8.580976 0.06846124,-8.103691 -7.80306 0.6207298,-8.022194 -6.949115 1.135066,-8.406951 -6.428974 1.580409,-8.425386 -6.474945 0.1723536,-8.165648 -5.491337 1.028827,-7.986626 -4.878781 1.673045,-7.842158 -4.279005 2.036954,-8.880656 -6.290164 0.2319861,-8.780262 -5.291608 1.310818,-8.73021 -6.337831 1.717707,-8.741208 -7.09267 1.748616,-9.339581 -6.281591 0.413803,-9.315806 -5.363728 1.29528,-9.241924 -6.333555 1.504675,-9.241117 -7.121076 1.408758,-9.830033 -6.40419 0.6368484,-9.975429 -5.426114 1.203518,-9.810759 -5.784629 1.312712,-9.66724 -6.443264 1.229814,7.410,12 1 0
-1.93778 -8.106503 -1.89054,-2.506848 -7.934848 -1.387977,-2.951898 -7.021232 -1.152188,-3.13052 -6.183231 -0.9427831,-3.41308 -5.536127 -0.7235017,-2.608997 -6.025375 -1.385378,-2.816338 -5.488615 -0.6874509,-2.955604 -5.115573 -0.2649314,-3.074925 -4.76106 0.02010417,-2.235116 -5.893083 -1.393099,-2.413265 -5.419548 -0.4819225,-2.413265 -5.419548 -0.4819225,-2.31735 -7.143102 -0.4916306,-1.841059 -5.920093 -1.292368,-1.998366 -5.458582 -0.402856,-2.054434 -6.540983 -0.4448566,-2.060919 -7.228263 -0.6850039,-1.430708 -6.097003 -1.171431,-1.555987 -5.607173 -0.497152,-1.706779 -6.335683 -0.46454,-1.778015 -6.919662 -0.5906037,-8.997172 -8.738178 -1.015993,-8.403425 -8.343956 -0.3253977,-7.939702 -7.549018 0.2312229,-7.868022 -6.677476 0.7325972,-8.23025 -6.168499 1.133549,-8.268009 -6.203149 -0.2871778,-8.042711 -5.294805 0.5489345,-7.88244 -4.723482 1.176486,-7.737185 -4.123024 1.558165,-8.716346 -6.046657 -0.2814409,-8.654829 -5.089651 0.7281699,-8.610558 -6.078634 1.079068,-8.616854 -6.767339 1.055112,-9.170641 -6.098501 -0.15183,-9.163083 -5.163187 0.6520925,-9.104583 -6.069307 0.8260609,-9.098402 -6.781459 0.7323315,-9.653152 -6.275525 0.03321922,-9.788726 -5.324232 0.5094987,-9.653009 -5.638313 0.5931772,-9.534038 -6.214326 0.4985579,7.510,12 1 0
-1.94567 -8.103664 -1.813217,-2.537796 -7.896509 -1.303176,-2.979367 -7.020497 -1.009851,-3.16997 -6.170634 -0.7219635,-3.447198 -5.481016 -0.4247144,-2.636516 -5.981308 -1.294441,-2.788713 -5.506973 -0.4766017,-2.842094 -5.680944 -0.01663804,-2.888239 -5.805744 0.2315817,-2.254589 -5.873209 -1.297163,-2.389637 -5.397689 -0.3378019,-2.389637 -5.397689 -0.3378019,-2.321061 -7.065783 -0.2582031,-1.863368 -5.906105 -1.192,-1.991302 -5.475922 -0.3050177,-2.039019 -6.55443 -0.3606119,-2.05694 -7.180971 -0.6256768,-1.467342 -6.079849 -1.06868,-1.589599 -5.618964 -0.417639,-1.711975 -6.332995 -0.4193126,-1.779055 -6.861174 -0.5935891,-8.936918 -8.232798 -1.230424,-8.339746 -8.110756 -0.3683735,-7.876916 -7.37248 0.1695771,-7.819443 -6.505376 0.6387724,-8.099878 -5.859979 1.010781,-8.129873 -5.76897 -0.5001717,-7.927381 -4.90509 0.2675803,-7.799542 -4.330002 0.8529379,-7.683582 -3.662769 1.225184,-8.585787 -5.595939 -0.5619412,-8.559999 -4.751218 0.5246797,-8.530277 -5.849451 0.9328177,-8.52591 -6.515485 0.8839924,-9.061979 -5.627672 -0.4820846,-9.08696 -4.81912 0.4853228,-9.025319 -5.861516 0.7305896,-8.993899 -6.517541 0.586894,-9.552136 -5.796047 -0.3485591,-9.655338 -4.965427 0.258249,-9.540201 -5.474649 0.3632314,-9.456947 -6.042871 0.2130568,7.610,12 1 0
-1.986934 -8.128038 -1.599445,-2.56861 -7.891724 -1.138403,-3.005481 -6.965246 -0.8844242,-3.175968 -6.10923 -0.6045083,-3.451743 -5.434455 -0.2980521,-2.66045 -5.90212 -1.205452,-2.826201 -5.530071 -0.3515912,-2.868486 -5.836578 0.1612294,-2.88599 -6.062801 0.450608,-2.287941 -5.813191 -1.182972,-2.451779 -5.381151 -0.2411574,-2.451779 -5.381151 -0.2411574,-2.355278 -7.116575 -0.1247857,-1.8986 -5.861583 -1.047253,-2.064073 -5.465251 -0.169175,-2.106605 -6.571535 -0.2158654,-2.100331 -7.214143 -0.4637469,-1.493491 -6.061047 -0.8929138,-1.64649 -5.651721 -0.2475755,-1.773507 -6.39389 -0.2625827,-1.834168 -6.922023 -0.4322597,-8.917061 -8.116137 -1.277947,-8.353366 -7.99591 -0.343888,-7.894549 -7.188827 0.1943269,-7.874914 -6.305382 0.6087046,-8.169002 -5.751793 0.9513944,-8.209097 -5.675391 -0.3660325,-8.001608 -4.787944 0.3521619,-7.863605 -4.154926 0.8671225,-7.741614 -3.462257 1.215968,-8.666912 -5.53289 -0.4330976,-8.661177 -4.673101 0.6899145,-8.604506 -5.698877 1.11731,-8.575431 -6.388429 1.120085,-9.153111 -5.597465 -0.3579937,-9.198833 -4.728954 0.6814997,-9.106632 -5.705579 1.049641,-9.049261 -6.402016 0.9950107,-9.644795 -5.798362 -0.2243739,-9.786371 -4.925753 0.4308009,-9.662769 -5.324779 0.6824296,-9.551078 -5.867706 0.6988584,7.710,12 1 0
-2.005011 -8.148901 -1.553991,-2.573692 -7.909488 -1.052293,-2.99769 -6.973872 -0.7830132,-3.168743 -6.129376 -0.492551,-3.471157 -5.491024 -0.1756957,-2.656704 -5.909282 -1.071622,-2.806593 -5.597221 -0.1945343,-2.826903 -6.06638 0.2919308,-2.834275 -6.390463 0.5510728,-2.279222 -5.832159 -1.062231,-2.415128 -5.415536 -0.08958352,-2.415128 -5.415536 -0.08958352,-2.351936 -7.171866 0.02112925,-1.893299 -5.88964 -0.9456075,-2.024615 -5.496596 -0.05427766,-2.078319 -6.602827 -0.09647882,-2.093252 -7.237949 -0.3397707,-1.497656 -6.096584 -0.8056563,-1.622101 -5.678397 -0.1453134,-1.749039 -6.402153 -0.152169,-1.820516 -6.919496 -0.320864,-8.972424 -8.166727 -0.9886981,-8.413219 -8.05254 -0.01167846,-7.930447 -7.215581 0.5463642,-7.905132 -6.331581 0.972959,-8.2213 -5.827943 1.319854,-8.24346 -5.67316 0.0009230971,-8.053899 -4.756301 0.7881421,-7.927192 -4.15908 1.321938,-7.816818 -3.483328 1.66889,-8.723475 -5.515119 -0.08617842,-8.730813 -4.694158 1.09334,-8.675968 -5.807336 1.45835,-8.650764 -6.52606 1.385663,-9.227995 -5.57463 -0.01547325,-9.284242 -4.713273 1.065536,-9.198607 -5.777012 1.341954,-9.156219 -6.504392 1.202699,-9.73101 -5.786129 0.1175414,-9.882008 -4.90101 0.7939916,-9.767092 -5.383888 0.984556,-9.669323 -5.973613 0.9311577,7.810,12 1 0
