TiagoOliveira98/Thesis-Project/Difficulty_1/Dual_Task/Unity_Project/DataLogging/JointData/Logs(1646438212)_a2_Dual.csv
WRIST,THUMB_CMC,THUMB_MCP,THUMB_IP,THUMB_TIP,INDEX_FINGER_MCP,INDEX_FINGER_PIP,INDEX_FINGER_DIP,INDEX_FINGER_TIP,MIDDLE_FINGER_MCP,MIDDLE_FINGER_PIP,MIDDLE_FINGER_DIP,MIDDLE_FINGER_TIP,RING_FINGER_MCP,RING_FINGER_PIP,RING_FINGER_DIP,RING_FINGER_TIP,PINKY_MCP,PINKY_PIP,PINKY_DIP,PINKY_TIP,WRIST2,THUMB_CMC2,THUMB_MCP2,THUMB_IP2,THUMB_TIP2,INDEX_FINGER_MCP2,INDEX_FINGER_PIP2,INDEX_FINGER_DIP2,INDEX_FINGER_TIP2,MIDDLE_FINGER_MCP2,MIDDLE_FINGER_PIP2,MIDDLE_FINGER_DIP2,MIDDLE_FINGER_TIP2,RING_FINGER_MCP2,RING_FINGER_PIP2,RING_FINGER_DIP2,RING_FINGER_TIP2,PINKY_MCP2,PINKY_PIP2,PINKY_DIP2,PINKY_TIP2,Timestamp,Event
-2.072012 -9.266375 0.0008428152,-2.761799 -9.008156 0.2023405,-3.403874 -8.15864 0.2968311,-3.878804 -7.393538 0.408976,-4.30468 -7.086177 0.5235901,-3.019501 -6.340806 0.02605282,-3.251132 -5.177986 0.1636789,-3.352631 -4.469265 0.2671279,-3.419392 -3.810104 0.3864832,-2.639038 -6.078281 0.1227033,-2.802242 -4.714624 0.3281974,-2.802242 -4.714624 0.3281974,-2.931163 -3.13843 0.68612,-2.261822 -6.082109 0.2780564,-2.364405 -4.805198 0.5032686,-2.448994 -4.010731 0.6634369,-2.516754 -3.321324 0.7863103,-1.864183 -6.334809 0.4727459,-1.798582 -5.365955 0.6718047,-1.773185 -4.756431 0.8094242,-1.755791 -4.164344 0.9235938,-9.045017 -8.293459 0.0007766367,-8.359087 -8.064774 0.2639351,-7.748408 -7.348064 0.490292,-7.335013 -6.61284 0.7754199,-6.948568 -6.154476 1.087739,-8.074064 -5.520764 0.1898074,-7.864496 -4.350265 0.3870196,-7.759601 -3.620738 0.5887547,-7.674332 -2.989067 0.7309577,-8.44724 -5.249226 0.2811101,-8.232237 -3.889289 0.4083537,-8.097763 -3.02642 0.6343299,-7.998941 -2.280565 0.8061192,-8.835423 -5.257717 0.4136605,-8.666767 -3.983447 0.5371495,-8.528821 -3.214164 0.7109355,-8.403273 -2.561595 0.8567811,-9.256409 -5.494443 0.5787787,-9.241336 -4.494208 0.7386676,-9.193713 -3.857902 0.8740063,-9.118213 -3.25539 0.9867404,0.010, 6
-2.078805 -9.268553 -0.02107024,-2.766572 -9.019854 0.1853833,-3.411945 -8.179039 0.285845,-3.889033 -7.416473 0.403124,-4.325027 -7.108795 0.5284137,-3.024691 -6.350555 0.01454413,-3.257898 -5.180927 0.1558924,-3.357851 -4.472958 0.265958,-3.423988 -3.813015 0.3918483,-2.644547 -6.086984 0.1112437,-2.810322 -4.719991 0.3269163,-2.810322 -4.719991 0.3269163,-2.942925 -3.134763 0.7025169,-2.268992 -6.088325 0.2663858,-2.371192 -4.812595 0.5012623,-2.456752 -4.021669 0.6698702,-2.526587 -3.330845 0.7991785,-1.872228 -6.335966 0.4577023,-1.809908 -5.366804 0.6687925,-1.787118 -4.761281 0.818327,-1.774705 -4.169919 0.9414042,-9.038355 -8.29208 0.0279885,-8.357437 -8.056664 0.2578351,-7.751112 -7.34083 0.4692319,-7.340676 -6.609295 0.7461063,-6.95454 -6.151325 1.050421,-8.084386 -5.493925 0.1558325,-7.879633 -4.323875 0.3455797,-7.772887 -3.605651 0.5451919,-7.686244 -2.984224 0.6827694,-8.454794 -5.233566 0.2660685,-8.245406 -3.878169 0.3856094,-8.113108 -3.020141 0.6097617,-8.016405 -2.286255 0.7766032,-8.841426 -5.255949 0.4196624,-8.677253 -3.989381 0.5390657,-8.541467 -3.22681 0.7099786,-8.418548 -2.587939 0.8517191,-9.262296 -5.501749 0.6028876,-9.243704 -4.502002 0.7672875,-9.187411 -3.865475 0.9053589,-9.100426 -3.275196 1.016602,0.110, 6
-2.073736 -9.258087 -0.04377318,-2.759323 -8.996511 0.1695775,-3.410784 -8.186399 0.2827424,-3.890459 -7.436862 0.4124781,-4.317973 -7.10856 0.5453343,-3.012749 -6.34133 0.01617859,-3.252567 -5.175607 0.1588223,-3.353944 -4.473773 0.27431,-3.420706 -3.820294 0.4035193,-2.632125 -6.082612 0.1064101,-2.806158 -4.72106 0.3191239,-2.806158 -4.72106 0.3191239,-2.946264 -3.158764 0.7044837,-2.256775 -6.084201 0.2511106,-2.364788 -4.812452 0.4791351,-2.452874 -4.030715 0.6525006,-2.524773 -3.355682 0.7893228,-1.863768 -6.331863 0.4316634,-1.801662 -5.362477 0.6354485,-1.780978 -4.759694 0.7835568,-1.773366 -4.17789 0.9093769,-9.047972 -8.293369 0.004091686,-8.362789 -8.064329 0.2479165,-7.757578 -7.361192 0.4684715,-7.353216 -6.622103 0.754204,-6.962783 -6.166193 1.071456,-8.078975 -5.525949 0.1697483,-7.867098 -4.361341 0.3643949,-7.761198 -3.639341 0.5697824,-7.677622 -3.01097 0.7199011,-8.44847 -5.248647 0.2859877,-8.231013 -3.899131 0.4109832,-8.099239 -3.028317 0.6443294,-8.002071 -2.293176 0.8220165,-8.835428 -5.251811 0.4474134,-8.664966 -3.984021 0.5769811,-8.53164 -3.195529 0.750392,-8.407206 -2.543355 0.897327,-9.261736 -5.481658 0.6408805,-9.230937 -4.45789 0.8113491,-9.175936 -3.794309 0.9490988,-9.088387 -3.177173 1.06075,0.210, 6
-2.050389 -9.28343 -0.08717421,-2.736341 -9.024565 0.1179265,-3.386318 -8.218287 0.2255827,-3.869968 -7.472269 0.3495612,-4.303202 -7.15205 0.4780314,-2.999454 -6.380435 -0.05241032,-3.23345 -5.204831 0.07827422,-3.336683 -4.490524 0.1945796,-3.403365 -3.833088 0.3278465,-2.618117 -6.121271 0.0415961,-2.790482 -4.752731 0.2391591,-2.790482 -4.752731 0.2391591,-2.930492 -3.181841 0.6260522,-2.242991 -6.119288 0.1927078,-2.347364 -4.833745 0.4103725,-2.43619 -4.041331 0.5827731,-2.508268 -3.360513 0.7177136,-1.851961 -6.358994 0.3786893,-1.78735 -5.379213 0.5699388,-1.768529 -4.772949 0.7098038,-1.760061 -4.186127 0.8311835,-9.050814 -8.297989 0.02991102,-8.366113 -8.067085 0.2773225,-7.757035 -7.345079 0.4931377,-7.345154 -6.604101 0.7732443,-6.951456 -6.149624 1.08027,-8.083211 -5.513771 0.1789604,-7.873566 -4.351533 0.3617835,-7.766354 -3.626858 0.5577463,-7.680805 -2.997766 0.6964908,-8.453456 -5.242296 0.2772677,-8.240619 -3.894164 0.3863018,-8.107966 -3.028427 0.6115879,-8.01276 -2.288965 0.7796013,-8.83769 -5.251883 0.4200382,-8.673008 -3.982855 0.5338382,-8.53837 -3.210483 0.7096165,-8.418115 -2.562717 0.8582506,-9.257842 -5.482769 0.5925875,-9.236259 -4.478358 0.7611209,-9.183153 -3.838537 0.9030826,-9.104338 -3.238494 1.017749,0.310, 6
-2.047547 -9.285116 -0.03602486,-2.734768 -9.035631 0.1536102,-3.381219 -8.219627 0.2627647,-3.864769 -7.462624 0.3952199,-4.299886 -7.134716 0.538537,-3.004875 -6.367712 -0.001433499,-3.239145 -5.198455 0.1376364,-3.338848 -4.493953 0.251972,-3.40028 -3.840556 0.3808312,-2.624702 -6.110542 0.109677,-2.793398 -4.748299 0.3176045,-2.793398 -4.748299 0.3176045,-2.930091 -3.17943 0.69386,-2.247187 -6.120397 0.2763096,-2.348787 -4.84258 0.4999014,-2.437963 -4.065021 0.6667058,-2.507998 -3.391361 0.7947096,-1.850995 -6.378585 0.4777701,-1.785171 -5.405795 0.6764049,-1.767144 -4.804651 0.8138363,-1.760317 -4.221157 0.9307852,-9.053583 -8.293613 0.07075839,-8.372859 -8.051796 0.3365234,-7.764032 -7.337818 0.5596605,-7.355359 -6.60893 0.8410234,-6.973373 -6.153543 1.147576,-8.092974 -5.495075 0.2545372,-7.878989 -4.342386 0.4476112,-7.772993 -3.625178 0.6496073,-7.689501 -3.005565 0.7927172,-8.464886 -5.226426 0.3428293,-8.250944 -3.881437 0.4575931,-8.121346 -3.021481 0.6789617,-8.025718 -2.283917 0.8518878,-8.851872 -5.243022 0.4761664,-8.684351 -3.977054 0.5955951,-8.551127 -3.203293 0.7708092,-8.431934 -2.552497 0.9204073,-9.27415 -5.485307 0.6402322,-9.254372 -4.496269 0.7963817,-9.20532 -3.86385 0.9327642,-9.127311 -3.267006 1.05109,0.410, 6
-2.054267 -9.356594 0.01317645,-2.740518 -9.100632 0.2161199,-3.389654 -8.262478 0.3107515,-3.868465 -7.503841 0.4248711,-4.304376 -7.202194 0.5461749,-3.000755 -6.42579 0.03694601,-3.235603 -5.25416 0.1728003,-3.337547 -4.539432 0.2850693,-3.40382 -3.878279 0.4144171,-2.618672 -6.164484 0.1361935,-2.789485 -4.801322 0.3397614,-2.789485 -4.801322 0.3397614,-2.932837 -3.227878 0.7150202,-2.241076 -6.16651 0.2962776,-2.344656 -4.887008 0.521848,-2.434387 -4.100601 0.6861854,-2.506742 -3.417042 0.814186,-1.844216 -6.413173 0.4919438,-1.782457 -5.437 0.6990626,-1.765332 -4.832723 0.8420678,-1.762695 -4.2437 0.9630069,-9.061576 -8.328249 0.1137469,-8.376377 -8.103695 0.3711871,-7.774563 -7.382238 0.5927526,-7.373099 -6.640758 0.8768296,-6.976946 -6.177504 1.187869,-8.096828 -5.520441 0.2809681,-7.885105 -4.359481 0.4783004,-7.779584 -3.637916 0.6807989,-7.695763 -3.007755 0.8224779,-8.466368 -5.249959 0.3881832,-8.254402 -3.905903 0.5147801,-8.123828 -3.045785 0.7431545,-8.025261 -2.311143 0.9085562,-8.851067 -5.272451 0.5454507,-8.689596 -4.001682 0.6758165,-8.557152 -3.223264 0.8606351,-8.43088 -2.568834 1.014892,-9.270392 -5.525386 0.7323028,-9.254681 -4.526666 0.9137408,-9.200557 -3.879938 1.066937,-9.112047 -3.273221 1.191037,0.510, 6
-2.064045 -9.362823 0.0222091,-2.760849 -9.09746 0.2269589,-3.408045 -8.264519 0.3244737,-3.881323 -7.504436 0.4446797,-4.31427 -7.197773 0.5711487,-3.012161 -6.421237 0.04799482,-3.242124 -5.255334 0.1921784,-3.339218 -4.545999 0.3110582,-3.401181 -3.888143 0.4427798,-2.625658 -6.167809 0.1509198,-2.7901 -4.800405 0.3707807,-2.7901 -4.800405 0.3707807,-2.920541 -3.216292 0.7621701,-2.245625 -6.177613 0.3144324,-2.345572 -4.89501 0.5541615,-2.431043 -4.103578 0.7309681,-2.50005 -3.413146 0.8644594,-1.846294 -6.429487 0.5118401,-1.781373 -5.453804 0.7270392,-1.758844 -4.848436 0.8782759,-1.75071 -4.252185 1.002795,-9.072858 -8.328152 0.1308462,-8.387095 -8.093851 0.3876341,-7.778569 -7.366638 0.613951,-7.371771 -6.636118 0.9036149,-6.975021 -6.185776 1.223959,-8.097528 -5.516025 0.3174023,-7.889975 -4.356014 0.5225242,-7.782849 -3.636214 0.727388,-7.696924 -3.012349 0.8686811,-8.470492 -5.248451 0.4286496,-8.260555 -3.908412 0.5640721,-8.130322 -3.046649 0.7986751,-8.031647 -2.311878 0.9684532,-8.858066 -5.273807 0.5854237,-8.69486 -4.00823 0.7251461,-8.559932 -3.228224 0.9118375,-8.435736 -2.578508 1.063141,-9.281837 -5.528574 0.7723352,-9.261938 -4.523538 0.9571157,-9.206892 -3.878522 1.105837,-9.119542 -3.276491 1.22533,0.610, 6
-2.057324 -9.343264 -0.01650227,-2.749743 -9.086792 0.2041126,-3.401167 -8.261 0.3154318,-3.873888 -7.500805 0.4414577,-4.301284 -7.183903 0.5725471,-3.009676 -6.415929 0.06042951,-3.24152 -5.238168 0.2085239,-3.339352 -4.524603 0.324157,-3.402002 -3.860932 0.4523809,-2.625856 -6.162609 0.1523533,-2.793584 -4.793973 0.3797881,-2.793584 -4.793973 0.3797881,-2.925616 -3.224098 0.7646027,-2.248303 -6.169769 0.3021771,-2.351891 -4.890148 0.5467635,-2.439497 -4.10435 0.7218388,-2.50863 -3.419079 0.8579448,-1.850882 -6.417106 0.4871896,-1.791851 -5.442573 0.7040126,-1.77275 -4.844965 0.8553356,-1.764017 -4.260502 0.9810773,-9.085757 -8.321138 0.1087338,-8.398232 -8.093533 0.3717647,-7.788725 -7.365556 0.5876088,-7.378297 -6.625461 0.8608344,-6.98463 -6.179126 1.157965,-8.114139 -5.510827 0.2930969,-7.901863 -4.343145 0.4941494,-7.793331 -3.622028 0.6997002,-7.705523 -2.992522 0.8438783,-8.487749 -5.244848 0.3828803,-8.281421 -3.89329 0.5144646,-8.14814 -3.02761 0.7450666,-8.047571 -2.281167 0.9158912,-8.874394 -5.272818 0.518599,-8.714185 -4.006376 0.6512805,-8.575327 -3.235654 0.8285529,-8.450212 -2.590032 0.9734218,-9.293781 -5.529932 0.6838955,-9.276028 -4.54479 0.8628203,-9.222966 -3.913837 1.008725,-9.141892 -3.323123 1.122392,0.710, 6
-2.067558 -9.327143 -0.05059288,-2.762275 -9.073824 0.1533721,-3.41256 -8.245193 0.242745,-3.88884 -7.484846 0.3524492,-4.31357 -7.169439 0.4665225,-3.011429 -6.4125 -0.0478556,-3.243921 -5.240417 0.07527089,-3.346474 -4.528629 0.1802081,-3.413942 -3.871307 0.304066,-2.629506 -6.152155 0.04407641,-2.793677 -4.78054 0.2370776,-2.793677 -4.78054 0.2370776,-2.92694 -3.200723 0.600101,-2.254171 -6.149327 0.1980164,-2.357877 -4.870147 0.409344,-2.444618 -4.077157 0.5675197,-2.513432 -3.387327 0.6921284,-1.860234 -6.383901 0.3873105,-1.801976 -5.409308 0.579801,-1.783234 -4.805967 0.7148115,-1.774941 -4.219348 0.8286599,-9.107939 -8.30917 0.1788841,-8.422867 -8.077591 0.456003,-7.818862 -7.35703 0.6912759,-7.408504 -6.623708 0.9822839,-7.011224 -6.174007 1.301523,-8.136649 -5.480281 0.3693546,-7.923967 -4.325737 0.5622572,-7.819266 -3.608667 0.7608711,-7.735041 -2.985983 0.9019345,-8.51057 -5.212675 0.4579189,-8.304497 -3.857849 0.5800056,-8.176777 -3.001529 0.7989754,-8.08127 -2.264601 0.9625512,-8.896883 -5.24802 0.593995,-8.740387 -3.979633 0.7199446,-8.605062 -3.210931 0.9005746,-8.480756 -2.55672 1.051418,-9.31424 -5.518629 0.7631214,-9.306799 -4.536829 0.9358343,-9.257002 -3.905163 1.089365,-9.176736 -3.305446 1.215785,0.810, 6
-2.071537 -9.328735 -0.06295433,-2.765544 -9.084681 0.1644144,-3.418832 -8.251888 0.272595,-3.896614 -7.49395 0.392926,-4.332474 -7.180248 0.5223162,-3.027892 -6.426445 -0.01430608,-3.254522 -5.260384 0.133182,-3.355791 -4.552576 0.253122,-3.427721 -3.892093 0.3881638,-2.64284 -6.16051 0.07371211,-2.807058 -4.795373 0.2925888,-2.807058 -4.795373 0.2925888,-2.942635 -3.205225 0.6833441,-2.26431 -6.160562 0.2249996,-2.368506 -4.883846 0.4604679,-2.45443 -4.093078 0.6364332,-2.526312 -3.397895 0.7734849,-1.866138 -6.404847 0.4133178,-1.80629 -5.430585 0.6246416,-1.784728 -4.829576 0.7732145,-1.776822 -4.238519 0.8979252,-9.102427 -8.337685 0.1937323,-8.42291 -8.088316 0.4532632,-7.823617 -7.358264 0.6838877,-7.415995 -6.623827 0.9780949,-7.013373 -6.161417 1.296845,-8.148999 -5.498596 0.3865946,-7.939546 -4.340668 0.5919974,-7.833609 -3.621545 0.798583,-7.749558 -2.991136 0.9432333,-8.515824 -5.236664 0.4928154,-8.308033 -3.895543 0.6360924,-8.180251 -3.033859 0.8811738,-8.086617 -2.287947 1.061036,-8.897419 -5.267095 0.6470166,-8.739939 -4.006923 0.7867972,-8.608292 -3.229151 0.9797053,-8.488237 -2.576679 1.13852,-9.315958 -5.527992 0.8290997,-9.299304 -4.528541 1.019911,-9.244514 -3.886561 1.178818,-9.160012 -3.285639 1.306091,0.910, 6
-2.092581 -9.323545 -0.06450146,-2.792942 -9.068863 0.1291097,-3.445542 -8.259041 0.2239788,-3.924467 -7.518301 0.3408335,-4.351786 -7.200004 0.465203,-3.038597 -6.409044 -0.05932572,-3.268435 -5.24089 0.06099759,-3.37233 -4.534184 0.1650995,-3.442833 -3.885782 0.2898582,-2.657506 -6.153409 0.03963906,-2.822272 -4.783954 0.2307141,-2.822272 -4.783954 0.2307141,-2.952694 -3.207427 0.5886351,-2.281701 -6.152977 0.1992393,-2.384208 -4.878255 0.4074399,-2.470415 -4.086955 0.5651581,-2.53914 -3.399112 0.686998,-1.888382 -6.388844 0.3928704,-1.828563 -5.410512 0.5822112,-1.807449 -4.80936 0.7155552,-1.796036 -4.22579 0.8290554,-9.1208 -8.324707 0.1855397,-8.434381 -8.095751 0.4593699,-7.833507 -7.367252 0.6921,-7.424738 -6.629146 0.9828377,-7.024659 -6.172481 1.300963,-8.150332 -5.499248 0.3909903,-7.939648 -4.347127 0.5948586,-7.835732 -3.628773 0.7994618,-7.751783 -3.003701 0.942361,-8.525179 -5.227641 0.4828901,-8.317507 -3.891103 0.6120701,-8.189855 -3.033293 0.8438814,-8.092708 -2.291833 1.014255,-8.913345 -5.254024 0.6206709,-8.755551 -3.998529 0.7504405,-8.621998 -3.225744 0.9342686,-8.498023 -2.572728 1.087274,-9.333656 -5.511429 0.7894743,-9.318133 -4.528493 0.9667383,-9.268175 -3.891633 1.11831,-9.18706 -3.288133 1.241275,1.010, 6
-2.113419 -9.328323 -0.005833038,-2.809016 -9.074539 0.1911659,-3.458559 -8.253769 0.2779486,-3.93364 -7.508593 0.3830595,-4.364675 -7.209576 0.4905173,-3.043822 -6.39418 0.01884502,-3.278683 -5.227199 0.142065,-3.38245 -4.523043 0.2446659,-3.453504 -3.872735 0.3653784,-2.659973 -6.138431 0.1120784,-2.824945 -4.779875 0.3061324,-2.824945 -4.779875 0.3061324,-2.967806 -3.225457 0.6564164,-2.283011 -6.147915 0.2626396,-2.383836 -4.881615 0.4785513,-2.47391 -4.103679 0.6366,-2.54599 -3.434924 0.7577974,-1.888767 -6.396961 0.450648,-1.831962 -5.432609 0.6485019,-1.816146 -4.835119 0.7909291,-1.811889 -4.252923 0.9112512,-9.133189 -8.310297 0.1624302,-8.442399 -8.090916 0.4383971,-7.830135 -7.34724 0.6701636,-7.418303 -6.609016 0.9602314,-7.023042 -6.148231 1.281612,-8.15376 -5.490922 0.3621608,-7.942434 -4.333438 0.5779257,-7.835038 -3.616893 0.7865989,-7.747029 -2.993379 0.9281941,-8.529895 -5.222167 0.4668186,-8.318545 -3.873044 0.613153,-8.189577 -3.013864 0.8429168,-8.090667 -2.279237 1.009415,-8.922191 -5.252113 0.6214725,-8.759183 -3.979868 0.7747497,-8.624007 -3.200538 0.9662176,-8.497455 -2.547499 1.119455,-9.35037 -5.517455 0.808826,-9.334915 -4.522401 1.001824,-9.28669 -3.877981 1.158422,-9.203042 -3.261055 1.285525,1.110, 6
-2.108278 -9.328753 -0.03201185,-2.802299 -9.074856 0.1739763,-3.451719 -8.265196 0.277252,-3.926273 -7.51923 0.3984646,-4.354105 -7.202428 0.5233918,-3.04096 -6.404575 0.009969968,-3.276249 -5.222736 0.1312917,-3.379276 -4.523086 0.2330655,-3.447455 -3.876879 0.3526546,-2.658877 -6.147623 0.09845224,-2.825521 -4.783662 0.2809344,-2.825521 -4.783662 0.2809344,-2.968794 -3.227059 0.6273628,-2.281417 -6.154369 0.2431892,-2.384133 -4.884984 0.4486634,-2.473341 -4.113765 0.5999591,-2.546433 -3.444821 0.7204902,-1.887655 -6.402327 0.4268967,-1.830356 -5.435771 0.6145529,-1.812375 -4.843597 0.7485247,-1.80503 -4.264119 0.8651636,-9.147057 -8.319672 0.1652941,-8.45433 -8.091124 0.4375935,-7.842257 -7.355906 0.6635737,-7.424532 -6.61901 0.9455703,-7.023704 -6.167669 1.255652,-8.163432 -5.498689 0.3834099,-7.954321 -4.339604 0.5955218,-7.849985 -3.622126 0.800685,-7.764645 -2.994671 0.9397213,-8.540114 -5.232221 0.4778594,-8.330987 -3.88463 0.6196533,-8.204409 -3.028028 0.8487151,-8.107306 -2.286836 1.0203,-8.932018 -5.262895 0.6170595,-8.768655 -3.994559 0.7647641,-8.635731 -3.213943 0.9488994,-8.51475 -2.558424 1.096534,-9.36064 -5.528393 0.7884845,-9.341988 -4.534513 0.972979,-9.297705 -3.890796 1.121029,-9.221829 -3.27388 1.24073,1.210, 6
-2.108796 -9.337229 -0.03084046,-2.798779 -9.084021 0.1805653,-3.448181 -8.268503 0.2803749,-3.923386 -7.525432 0.3953015,-4.357383 -7.220851 0.5146725,-3.035582 -6.411106 0.007061657,-3.268965 -5.237865 0.128031,-3.372852 -4.531867 0.2338254,-3.44492 -3.878772 0.3603099,-2.650868 -6.154088 0.09439477,-2.81692 -4.793954 0.2824853,-2.81692 -4.793954 0.2824853,-2.963662 -3.240282 0.639658,-2.274971 -6.159145 0.2401452,-2.378138 -4.89071 0.4488793,-2.470589 -4.114044 0.6057193,-2.544963 -3.443633 0.7274002,-1.882734 -6.406017 0.4253729,-1.822584 -5.438867 0.6137809,-1.805838 -4.845384 0.7474897,-1.800199 -4.26718 0.8643899,-9.146872 -8.301949 0.1476339,-8.460286 -8.08231 0.4203861,-7.853136 -7.354573 0.659187,-7.438972 -6.619498 0.9547668,-7.031661 -6.156135 1.280793,-8.16336 -5.492822 0.3889304,-7.950912 -4.346641 0.615585,-7.84358 -3.637775 0.8312613,-7.75674 -3.013288 0.9736974,-8.537527 -5.223984 0.4959413,-8.328494 -3.883289 0.652946,-8.197805 -3.02484 0.8931481,-8.101228 -2.285824 1.066947,-8.927799 -5.254594 0.649062,-8.76955 -3.994455 0.8113453,-8.633464 -3.212595 1.011529,-8.507272 -2.556413 1.171812,-9.355507 -5.518255 0.8317652,-9.338641 -4.528358 1.037547,-9.289822 -3.885183 1.20228,-9.207689 -3.268298 1.332093,1.310, 6
-2.095477 -9.335543 -0.04981329,-2.789172 -9.081564 0.1528998,-3.433868 -8.26545 0.2491019,-3.907179 -7.520592 0.3610736,-4.335541 -7.223193 0.4763619,-3.022143 -6.415641 -0.007662717,-3.255073 -5.244518 0.1095492,-3.358231 -4.542367 0.2103148,-3.428572 -3.894077 0.3349727,-2.639373 -6.158417 0.08010595,-2.808447 -4.794227 0.2675399,-2.808447 -4.794227 0.2675399,-2.956194 -3.22531 0.629673,-2.263979 -6.16205 0.223768,-2.368905 -4.891886 0.4327585,-2.460816 -4.115692 0.5875325,-2.534753 -3.442451 0.7093474,-1.873153 -6.403344 0.4038514,-1.810987 -5.437343 0.598466,-1.790668 -4.846189 0.7288895,-1.781368 -4.269222 0.8431818,-9.124466 -8.277422 0.08602688,-8.439106 -8.044426 0.3576013,-7.837651 -7.319466 0.5958177,-7.432986 -6.58799 0.8939659,-7.037837 -6.119501 1.227028,-8.158798 -5.47443 0.2849323,-7.955766 -4.318487 0.50104,-7.850042 -3.604327 0.7145362,-7.762969 -2.981995 0.8569854,-8.533298 -5.209569 0.3933058,-8.331928 -3.870544 0.5401002,-8.203861 -3.017497 0.7821714,-8.105121 -2.285495 0.9525596,-8.922209 -5.234131 0.5484612,-8.769699 -3.973873 0.6974527,-8.636934 -3.203592 0.8924531,-8.509694 -2.558165 1.045529,-9.34634 -5.486402 0.7355326,-9.330555 -4.495956 0.9290845,-9.278035 -3.853006 1.08076,-9.190097 -3.248268 1.197717,1.410, 6
-2.092417 -9.369646 -0.04876917,-2.785156 -9.108965 0.1669717,-3.432126 -8.287861 0.2714394,-3.904597 -7.531515 0.3896888,-4.336758 -7.206336 0.5136241,-3.011931 -6.446857 0.01943474,-3.246246 -5.267868 0.1522217,-3.350727 -4.560189 0.2572603,-3.421541 -3.903574 0.3824708,-2.62713 -6.191848 0.1073614,-2.794422 -4.821565 0.3159017,-2.794422 -4.821565 0.3159017,-2.934634 -3.253099 0.678838,-2.251623 -6.198059 0.2524826,-2.357122 -4.918681 0.4818838,-2.445928 -4.133102 0.6463228,-2.515417 -3.454469 0.7727418,-1.859768 -6.443248 0.4347154,-1.804821 -5.465779 0.6419449,-1.789174 -4.866704 0.787809,-1.78431 -4.281677 0.9119933,-9.121255 -8.243259 -0.02506796,-8.439122 -8.027916 0.243778,-7.840727 -7.317047 0.4721674,-7.432009 -6.586208 0.7555066,-7.037921 -6.132722 1.063898,-8.163128 -5.472955 0.1663753,-7.955262 -4.32069 0.3659536,-7.848966 -3.606908 0.5687684,-7.765027 -2.984832 0.7132648,-8.533734 -5.205362 0.2638546,-8.327886 -3.857781 0.3978359,-8.198487 -3.00246 0.6294266,-8.100039 -2.270214 0.7996255,-8.92044 -5.228393 0.4066932,-8.760714 -3.960554 0.5466853,-8.627486 -3.181497 0.7345648,-8.502413 -2.523765 0.8917761,-9.342281 -5.480497 0.5823067,-9.327387 -4.491741 0.7721512,-9.277988 -3.843687 0.9297445,-9.195157 -3.230933 1.057955,1.510, 6
-2.095051 -9.351871 -0.06932867,-2.79246 -9.09606 0.1336901,-3.442054 -8.279451 0.2288363,-3.913486 -7.543269 0.3393063,-4.342264 -7.232183 0.4537334,-3.031801 -6.439081 -0.0376854,-3.254009 -5.271419 0.08672164,-3.353317 -4.568567 0.1903835,-3.421972 -3.915211 0.3142065,-2.643457 -6.180887 0.05376389,-2.801322 -4.813949 0.2529886,-2.801322 -4.813949 0.2529886,-2.932563 -3.252154 0.6083885,-2.265828 -6.181332 0.2040488,-2.364234 -4.902285 0.4201559,-2.448471 -4.11782 0.5745403,-2.515655 -3.442701 0.6934872,-1.870728 -6.415498 0.390881,-1.813308 -5.437923 0.5844995,-1.790461 -4.842902 0.7183406,-1.778344 -4.264823 0.8312922,-9.116318 -8.275665 0.0377384,-8.443698 -8.040016 0.3030744,-7.844293 -7.319967 0.5324001,-7.433107 -6.589228 0.8206894,-7.039452 -6.136163 1.137634,-8.172241 -5.477418 0.2406684,-7.967124 -4.338109 0.4381708,-7.86132 -3.630989 0.6366702,-7.775355 -3.012913 0.7819911,-8.54435 -5.218109 0.3433602,-8.338228 -3.883655 0.480836,-8.208131 -3.025203 0.7154837,-8.113609 -2.28337 0.8912635,-8.930265 -5.255299 0.4888274,-8.770734 -4.008327 0.6324753,-8.634407 -3.224723 0.8169824,-8.514265 -2.568439 0.9688812,-9.349014 -5.527555 0.6671649,-9.33881 -4.542754 0.8504393,-9.29422 -3.900855 1.001661,-9.222095 -3.294683 1.121252,1.610, 6
-2.114611 -9.349379 -0.07681634,-2.804935 -9.099056 0.1212672,-3.450673 -8.296373 0.2182482,-3.926333 -7.564676 0.3353201,-4.35527 -7.254892 0.4553862,-3.033301 -6.430528 -0.04846634,-3.268079 -5.258722 0.07282373,-3.372187 -4.557646 0.1741465,-3.440718 -3.911764 0.2959492,-2.652361 -6.179014 0.05249228,-2.819586 -4.813888 0.2467424,-2.819586 -4.813888 0.2467424,-2.959727 -3.268518 0.5993525,-2.278433 -6.190767 0.2110122,-2.379186 -4.920469 0.4255414,-2.471723 -4.140782 0.5824612,-2.544133 -3.472751 0.7030757,-1.886568 -6.44353 0.4085473,-1.827511 -5.478549 0.6020256,-1.81609 -4.883907 0.7390285,-1.815668 -4.307733 0.8557414,-9.12018 -8.279531 -0.02066778,-8.44837 -8.035904 0.2333564,-7.856635 -7.325859 0.4618624,-7.449103 -6.603096 0.74937,-7.053775 -6.155553 1.067319,-8.186769 -5.492105 0.1806742,-7.978794 -4.341694 0.3919481,-7.867247 -3.630267 0.6010315,-7.77893 -3.008091 0.7495305,-8.556205 -5.238037 0.2901136,-8.350948 -3.896986 0.4404296,-8.216922 -3.040574 0.6875581,-8.118771 -2.304838 0.8599317,-8.942005 -5.269681 0.4421656,-8.78286 -4.011264 0.5930178,-8.645629 -3.230885 0.7883221,-8.519915 -2.574035 0.9426746,-9.361444 -5.52634 0.6236771,-9.348097 -4.53166 0.8224548,-9.292855 -3.88376 0.9817345,-9.207944 -3.275436 1.104216,1.710, 6
-2.108995 -9.373825 -0.09769312,-2.797173 -9.112547 0.1306613,-3.448229 -8.309347 0.2437598,-3.926567 -7.579561 0.3675113,-4.358067 -7.259473 0.4966946,-3.03601 -6.470976 -0.02433448,-3.265774 -5.299147 0.1155037,-3.372493 -4.591356 0.2358202,-3.448633 -3.936655 0.374915,-2.650582 -6.211366 0.05850187,-2.816327 -4.841369 0.2686501,-2.816327 -4.841369 0.2686501,-2.967006 -3.275191 0.6518014,-2.276954 -6.21108 0.2003194,-2.378183 -4.934602 0.4245737,-2.471118 -4.148662 0.5932952,-2.548782 -3.47499 0.7250906,-1.889606 -6.449539 0.3787198,-1.835632 -5.476732 0.5813588,-1.822799 -4.880331 0.7265249,-1.825036 -4.303046 0.8526422,-9.114162 -8.282766 -0.01536941,-8.444361 -8.062378 0.2560919,-7.854334 -7.346012 0.493159,-7.45124 -6.626602 0.788538,-7.051134 -6.168417 1.110283,-8.180188 -5.501007 0.2060388,-7.972054 -4.349874 0.4213586,-7.860247 -3.641781 0.6301543,-7.771761 -3.024358 0.775302,-8.548862 -5.242361 0.3181385,-8.345152 -3.906631 0.474668,-8.212571 -3.056622 0.7154824,-8.113654 -2.33331 0.8820546,-8.93557 -5.275323 0.4786199,-8.78123 -4.00984 0.644751,-8.646698 -3.226432 0.8468497,-8.518681 -2.567232 1.006869,-9.357148 -5.534835 0.667811,-9.354352 -4.530838 0.8812619,-9.305764 -3.881967 1.045844,-9.220826 -3.274118 1.170209,1.810, 6
-2.096402 -9.376451 -0.01141382,-2.78102 -9.131016 0.2100707,-3.426493 -8.318632 0.3117535,-3.89889 -7.574849 0.4299588,-4.328158 -7.250813 0.5560407,-3.024588 -6.446826 0.0199568,-3.257598 -5.274856 0.1384822,-3.361528 -4.577256 0.240394,-3.434164 -3.934183 0.3660862,-2.641643 -6.187852 0.1041352,-2.808955 -4.82738 0.2788095,-2.808955 -4.82738 0.2788095,-2.955709 -3.278848 0.6239551,-2.267008 -6.199085 0.2461995,-2.368917 -4.928058 0.4495547,-2.460683 -4.15277 0.6044163,-2.536938 -3.484434 0.7239549,-1.876096 -6.454744 0.4308606,-1.814268 -5.492557 0.6194173,-1.800885 -4.902248 0.7525488,-1.800658 -4.332332 0.8656082,-9.098986 -8.295021 0.001974252,-8.430265 -8.069098 0.2595968,-7.838515 -7.340732 0.4763336,-7.431411 -6.606117 0.7526503,-7.035003 -6.157298 1.057362,-8.177431 -5.499763 0.1659614,-7.976824 -4.354234 0.3494582,-7.870394 -3.644451 0.5463325,-7.784128 -3.021673 0.6951349,-8.544339 -5.2408 0.2661266,-8.344273 -3.913931 0.3906089,-8.21126 -3.056053 0.6247377,-8.111699 -2.318337 0.8000059,-8.924908 -5.277849 0.4113763,-8.776309 -4.030273 0.5421256,-8.643514 -3.251053 0.7208921,-8.521129 -2.598507 0.8690742,-9.336522 -5.547638 0.58991,-9.332123 -4.567241 0.7751046,-9.28478 -3.925754 0.9267383,-9.206783 -3.326278 1.044512,1.910, 6
-2.079566 -9.376654 -0.02446106,-2.774312 -9.11268 0.1827268,-3.42115 -8.296799 0.2809398,-3.8888 -7.539224 0.3958516,-4.313925 -7.202228 0.5163478,-3.008381 -6.448041 0.02424821,-3.236869 -5.268853 0.1502934,-3.339203 -4.568431 0.2551441,-3.409713 -3.917931 0.3825288,-2.622278 -6.19231 0.1141277,-2.785031 -4.826535 0.3049221,-2.785031 -4.826535 0.3049221,-2.929538 -3.258346 0.6654662,-2.24225 -6.20171 0.2588932,-2.348047 -4.924888 0.4712105,-2.438798 -4.143634 0.632259,-2.511401 -3.471435 0.7599634,-1.845169 -6.453478 0.4422027,-1.78838 -5.477348 0.6391476,-1.772802 -4.875574 0.7815942,-1.769716 -4.294531 0.903331,-9.117568 -8.277222 -0.03933161,-8.444158 -8.069317 0.2587184,-7.854345 -7.3754 0.5073764,-7.456805 -6.649007 0.8074825,-7.070105 -6.18773 1.125269,-8.183496 -5.505315 0.1913048,-7.975852 -4.358474 0.4053428,-7.866857 -3.648104 0.6136541,-7.77763 -3.020954 0.7631761,-8.553314 -5.242527 0.2841059,-8.353141 -3.904639 0.4378464,-8.221601 -3.050976 0.6810111,-8.122886 -2.313555 0.8613197,-8.937701 -5.276693 0.4270597,-8.784389 -4.019506 0.5793274,-8.649886 -3.245065 0.7728094,-8.523936 -2.583341 0.9359672,-9.355695 -5.541898 0.6034356,-9.34553 -4.5697 0.802177,-9.298073 -3.935858 0.9657108,-9.219651 -3.331048 1.096021,2.010, 6
-2.069938 -9.370598 -0.05832698,-2.763378 -9.105579 0.1642622,-3.413312 -8.29612 0.2644127,-3.892839 -7.560105 0.3793087,-4.323572 -7.247194 0.502641,-2.998294 -6.451792 -0.0342501,-3.222544 -5.28421 0.09346005,-3.323223 -4.580387 0.2052762,-3.39527 -3.931945 0.3356792,-2.61058 -6.194469 0.04767504,-2.768717 -4.829841 0.2466818,-2.768717 -4.829841 0.2466818,-2.900952 -3.256583 0.6148281,-2.23426 -6.195935 0.1918882,-2.331386 -4.930736 0.4100248,-2.417715 -4.146304 0.5735032,-2.489711 -3.472872 0.6960055,-1.843346 -6.430103 0.3724944,-1.79181 -5.461116 0.5686077,-1.779745 -4.869077 0.7102309,-1.781805 -4.291961 0.8256704,-9.111268 -8.316032 -0.005302734,-8.442801 -8.082348 0.2547825,-7.852802 -7.360624 0.4818351,-7.44702 -6.638721 0.7657254,-7.053337 -6.193185 1.077215,-8.186319 -5.51943 0.1779813,-7.987656 -4.371083 0.3728575,-7.880025 -3.661567 0.5739381,-7.793841 -3.043238 0.72072,-8.555154 -5.26629 0.2820296,-8.362969 -3.933563 0.4180024,-8.234972 -3.079113 0.6564634,-8.14194 -2.345157 0.833357,-8.938186 -5.306675 0.4302707,-8.793756 -4.062375 0.5745511,-8.66093 -3.288123 0.7662036,-8.541334 -2.638646 0.9191001,-9.351992 -5.579387 0.6107289,-9.352386 -4.606042 0.805045,-9.307519 -3.967034 0.9612643,-9.23291 -3.366575 1.082904,2.110, 6
-2.087161 -9.395229 -0.07606313,-2.775385 -9.130507 0.1309107,-3.419044 -8.321325 0.2310518,-3.896683 -7.586433 0.3516098,-4.33035 -7.272462 0.4773516,-3.002491 -6.47504 -0.04257119,-3.233573 -5.303863 0.09023915,-3.336109 -4.598674 0.1988624,-3.404873 -3.950424 0.3234506,-2.616823 -6.223291 0.053692,-2.779421 -4.851297 0.2499331,-2.779421 -4.851297 0.2499331,-2.918257 -3.299759 0.6050038,-2.240758 -6.236783 0.208784,-2.336498 -4.955091 0.4262531,-2.42574 -4.172741 0.5861222,-2.498875 -3.504742 0.7071208,-1.850241 -6.491231 0.4004859,-1.790431 -5.519346 0.6020659,-1.777634 -4.920402 0.7435857,-1.779968 -4.341587 0.8592952,-9.091922 -8.31539 -0.04920223,-8.43017 -8.084522 0.2216877,-7.844802 -7.372634 0.4581193,-7.445721 -6.655665 0.7543274,-7.051467 -6.204849 1.077536,-8.171763 -5.531342 0.1643199,-7.968868 -4.373922 0.3825734,-7.861717 -3.659779 0.5970688,-7.774543 -3.035123 0.7472237,-8.53983 -5.282024 0.2804551,-8.344689 -3.940149 0.4493845,-8.216333 -3.077863 0.7008297,-8.120793 -2.342473 0.8776462,-8.924099 -5.323558 0.4441289,-8.778106 -4.054045 0.6213986,-8.648879 -3.256917 0.8284243,-8.523508 -2.585699 0.9898689,-9.34288 -5.58953 0.6375333,-9.339104 -4.59024 0.8600247,-9.28931 -3.93421 1.027641,-9.204423 -3.317343 1.153776,2.210, 6
-2.082067 -9.412493 -0.04384243,-2.772776 -9.1467 0.1638239,-3.415609 -8.329609 0.2645818,-3.886397 -7.58648 0.3828707,-4.315349 -7.266435 0.5082622,-2.998508 -6.484145 0.002965115,-3.232038 -5.309263 0.1300576,-3.334175 -4.60743 0.2345819,-3.402611 -3.959038 0.3567593,-2.613087 -6.231657 0.09135412,-2.773559 -4.860416 0.2875334,-2.773559 -4.860416 0.2875334,-2.906407 -3.303863 0.644294,-2.237654 -6.243984 0.2358718,-2.337383 -4.968168 0.4527048,-2.423308 -4.191568 0.6145959,-2.492918 -3.522171 0.7377465,-1.846796 -6.497123 0.416945,-1.785398 -5.533594 0.6170905,-1.768235 -4.94268 0.7589052,-1.764141 -4.368132 0.8763036,-9.10602 -8.306355 -0.002221393,-8.434484 -8.088392 0.2940395,-7.838978 -7.371664 0.5354275,-7.432964 -6.637376 0.8279866,-7.036276 -6.185563 1.139938,-8.170671 -5.526741 0.2155642,-7.96662 -4.39256 0.4221946,-7.859786 -3.683411 0.6230559,-7.773639 -3.059787 0.7664919,-8.540341 -5.259395 0.3048774,-8.338165 -3.930681 0.4489478,-8.207981 -3.082366 0.6810125,-8.110506 -2.355119 0.8528919,-8.926739 -5.286981 0.4436313,-8.769913 -4.034151 0.589883,-8.637485 -3.261437 0.7761665,-8.513069 -2.607631 0.9301607,-9.350957 -5.545752 0.6178769,-9.337091 -4.569289 0.8109376,-9.286901 -3.927671 0.9676675,-9.20365 -3.319095 1.094332,2.310, 6
-2.077466 -9.422361 -0.04749492,-2.768859 -9.170427 0.1635274,-3.411785 -8.342947 0.2568446,-3.879004 -7.592456 0.3622654,-4.311185 -7.282537 0.4713342,-3.002806 -6.506366 -0.006912954,-3.226459 -5.33134 0.1111403,-3.329018 -4.624488 0.2094348,-3.398962 -3.974411 0.3301331,-2.615248 -6.24322 0.07523481,-2.774291 -4.869186 0.2651565,-2.774291 -4.869186 0.2651565,-2.914433 -3.302446 0.6106129,-2.238971 -6.240136 0.2148838,-2.338238 -4.9578 0.4240071,-2.425941 -4.171758 0.573292,-2.495572 -3.496641 0.6896836,-1.847618 -6.47028 0.3926541,-1.793931 -5.48925 0.5801942,-1.777251 -4.888825 0.7113742,-1.771964 -4.307947 0.822807,-9.105576 -8.335922 0.04481919,-8.434953 -8.099304 0.337845,-7.847934 -7.382904 0.5859057,-7.446421 -6.654678 0.887863,-7.04966 -6.195082 1.216485,-8.178592 -5.533306 0.2622073,-7.975506 -4.383491 0.4657991,-7.872399 -3.668782 0.6702778,-7.789141 -3.043445 0.8195581,-8.551291 -5.273311 0.3534881,-8.350547 -3.940162 0.4945927,-8.223718 -3.088834 0.7308251,-8.128669 -2.361826 0.9043718,-8.939394 -5.308967 0.4912723,-8.784096 -4.055681 0.6345142,-8.652582 -3.276721 0.8309781,-8.530235 -2.622337 0.9888432,-9.36097 -5.576825 0.6642341,-9.350951 -4.597759 0.8526787,-9.305398 -3.954401 1.014829,-9.226784 -3.343004 1.143248,2.410, 6
-2.070475 -9.407818 -0.05606706,-2.766688 -9.149929 0.147629,-3.415878 -8.331604 0.2393512,-3.891528 -7.584758 0.3506797,-4.324822 -7.272356 0.464627,-2.999294 -6.487247 -0.03343324,-3.23267 -5.312155 0.08982843,-3.333305 -4.606394 0.1877701,-3.400431 -3.957239 0.3051192,-2.613143 -6.231556 0.05480184,-2.775266 -4.860313 0.2466248,-2.775266 -4.860313 0.2466248,-2.904951 -3.306531 0.5930304,-2.236906 -6.237719 0.201814,-2.337131 -4.958677 0.4180309,-2.422932 -4.175575 0.5741786,-2.493185 -3.50473 0.6927896,-1.843756 -6.481954 0.3836706,-1.786095 -5.512836 0.5812919,-1.769645 -4.922906 0.7205876,-1.76757 -4.352106 0.834501,-9.120251 -8.33931 0.00659955,-8.446405 -8.118063 0.2837029,-7.856627 -7.403316 0.5172873,-7.460135 -6.665106 0.8104343,-7.072746 -6.206956 1.125779,-8.182062 -5.551376 0.198949,-7.984153 -4.404169 0.4037669,-7.879686 -3.68877 0.6056367,-7.792235 -3.062842 0.747561,-8.551272 -5.289442 0.3039745,-8.357955 -3.952819 0.4485092,-8.230888 -3.092075 0.6842643,-8.133865 -2.356552 0.8564354,-8.934093 -5.324306 0.4592602,-8.784762 -4.0671 0.606829,-8.654586 -3.282907 0.7956094,-8.529882 -2.623506 0.9477488,-9.351643 -5.590398 0.6468056,-9.348452 -4.602735 0.8399284,-9.304729 -3.957236 0.9952717,-9.225439 -3.345402 1.11684,2.510, 6
-2.085788 -9.435476 -0.05027303,-2.778668 -9.175989 0.1614469,-3.420191 -8.354733 0.2530212,-3.883583 -7.610965 0.3579158,-4.309976 -7.307917 0.4646551,-2.997741 -6.511104 -0.01224636,-3.222776 -5.335161 0.1134084,-3.325575 -4.625125 0.2233643,-3.395329 -3.96951 0.3529314,-2.612381 -6.2553 0.07319795,-2.773276 -4.88799 0.2668414,-2.773276 -4.88799 0.2668414,-2.918071 -3.3222 0.6350201,-2.237051 -6.262415 0.2167401,-2.334295 -4.987729 0.4321939,-2.423164 -4.206346 0.5921836,-2.496481 -3.533327 0.7203969,-1.847405 -6.503564 0.3978558,-1.786163 -5.53712 0.5966566,-1.76843 -4.94432 0.7370882,-1.765712 -4.365052 0.8581663,-9.117 -8.343472 0.01138537,-8.446319 -8.105625 0.2786513,-7.856843 -7.389102 0.506681,-7.452226 -6.659437 0.791433,-7.060335 -6.214384 1.103573,-8.181665 -5.547736 0.2064953,-7.979954 -4.406569 0.4111727,-7.874866 -3.69527 0.6165405,-7.789027 -3.070351 0.7613438,-8.554707 -5.290951 0.308759,-8.358478 -3.954228 0.4499914,-8.230906 -3.100105 0.6884245,-8.136062 -2.367732 0.8615905,-8.940726 -5.329881 0.4541087,-8.792449 -4.075783 0.600629,-8.662085 -3.2971 0.7858014,-8.541736 -2.645573 0.9319301,-9.360282 -5.59836 0.6319887,-9.352089 -4.61623 0.8226743,-9.305326 -3.973767 0.974912,-9.228292 -3.36881 1.092289,2.610, 6
-2.071454 -9.455927 -0.0500501,-2.764236 -9.190248 0.1504191,-3.412823 -8.364344 0.2376972,-3.889114 -7.626203 0.3405515,-4.323265 -7.322748 0.4504427,-2.998271 -6.534364 -0.03244085,-3.222145 -5.366304 0.09159367,-3.324882 -4.659968 0.1984464,-3.396187 -4.008514 0.3294223,-2.612746 -6.277801 0.06447555,-2.769026 -4.908201 0.2602707,-2.769026 -4.908201 0.2602707,-2.901958 -3.336176 0.6328573,-2.238019 -6.279338 0.221855,-2.33707 -5.003662 0.4347514,-2.421938 -4.215621 0.5920364,-2.490446 -3.537437 0.7194549,-1.847032 -6.517066 0.4155962,-1.784024 -5.542729 0.6085984,-1.76392 -4.942208 0.7460486,-1.756285 -4.35987 0.8655679,-9.109884 -8.348951 -0.004820045,-8.445385 -8.110643 0.2576542,-7.855819 -7.391918 0.4881137,-7.446436 -6.671402 0.7788463,-7.045501 -6.218782 1.096052,-8.186421 -5.551296 0.1810043,-7.984865 -4.401832 0.3802982,-7.879435 -3.691419 0.5788525,-7.795378 -3.070549 0.7233754,-8.55255 -5.300363 0.293809,-8.354709 -3.959342 0.4376381,-8.229123 -3.103714 0.6716901,-8.136196 -2.377492 0.842513,-8.934581 -5.34362 0.4535013,-8.781933 -4.087749 0.6103116,-8.651672 -3.302133 0.8108473,-8.5306 -2.639607 0.9736286,-9.350657 -5.620605 0.6443254,-9.34882 -4.645126 0.8479798,-9.304469 -4.005905 1.015833,-9.225804 -3.399427 1.14729,2.710, 6
-2.074615 -9.450542 -0.03963191,-2.76913 -9.195621 0.1838866,-3.414016 -8.381121 0.2869875,-3.884563 -7.631828 0.4001634,-4.315228 -7.314898 0.5162603,-2.989909 -6.526687 0.01993161,-3.225646 -5.350274 0.1467247,-3.328859 -4.641547 0.2538881,-3.397049 -3.98821 0.3799984,-2.604427 -6.268266 0.09471019,-2.768025 -4.901958 0.2889611,-2.768025 -4.901958 0.2889611,-2.906046 -3.353629 0.6454582,-2.230077 -6.272435 0.2282578,-2.329823 -4.99818 0.4415284,-2.420405 -4.222545 0.5995481,-2.491274 -3.558775 0.7227193,-1.841805 -6.515266 0.4002293,-1.782471 -5.546976 0.5932086,-1.767409 -4.955051 0.7330183,-1.762959 -4.380749 0.8514733,-9.132707 -8.355526 -0.01910415,-8.455927 -8.129305 0.2686426,-7.871753 -7.427095 0.5107426,-7.470978 -6.697868 0.8038907,-7.085198 -6.237732 1.116625,-8.204789 -5.56591 0.2076863,-8.004344 -4.402658 0.4125328,-7.90031 -3.683998 0.6158393,-7.812898 -3.054803 0.7643518,-8.578746 -5.312004 0.2945261,-8.384052 -3.967895 0.4389569,-8.259342 -3.11491 0.6792186,-8.166252 -2.376001 0.859603,-8.964584 -5.355433 0.4235448,-8.814701 -4.102471 0.5683038,-8.685082 -3.328327 0.7598846,-8.567837 -2.671052 0.9157921,-9.378819 -5.630704 0.5869385,-9.373063 -4.6601 0.7768543,-9.332381 -4.022098 0.9379106,-9.262094 -3.409484 1.064905,2.810, 6
-2.072448 -9.47069 -0.07137189,-2.772756 -9.203032 0.1253176,-3.416317 -8.38357 0.2119244,-3.890139 -7.646609 0.3200786,-4.322916 -7.336826 0.4313784,-2.995001 -6.549956 -0.07201431,-3.221591 -5.375539 0.05262046,-3.327084 -4.669612 0.1601842,-3.398746 -4.017314 0.2861391,-2.610396 -6.297622 0.02613131,-2.767895 -4.922256 0.2198114,-2.767895 -4.922256 0.2198114,-2.90314 -3.347135 0.589579,-2.235475 -6.304691 0.1855758,-2.333361 -5.023321 0.3999279,-2.421768 -4.236703 0.5618165,-2.493276 -3.560068 0.6874158,-1.846111 -6.546749 0.3795089,-1.788265 -5.565532 0.5770839,-1.773159 -4.963779 0.7182519,-1.771883 -4.381032 0.8353423,-9.132638 -8.375574 0.01268151,-8.463361 -8.135098 0.2950281,-7.876974 -7.427616 0.5381248,-7.469271 -6.700841 0.8334032,-7.079624 -6.240377 1.144956,-8.207831 -5.581478 0.2269816,-8.007782 -4.437849 0.4326039,-7.904601 -3.729054 0.6343377,-7.8173 -3.109054 0.7799323,-8.577152 -5.322561 0.3214022,-8.385452 -3.98756 0.4695014,-8.261475 -3.134715 0.7063037,-8.167547 -2.406644 0.8795959,-8.960157 -5.360115 0.459025,-8.817756 -4.107106 0.607717,-8.688437 -3.328342 0.8018649,-8.565327 -2.674058 0.95535,-9.374245 -5.629337 0.6306555,-9.373538 -4.657342 0.828509,-9.332953 -4.015351 0.9909355,-9.257916 -3.409749 1.113716,2.910, 6
-2.087712 -9.456625 -0.02726266,-2.783339 -9.190428 0.1689675,-3.426706 -8.388535 0.2660617,-3.897097 -7.648788 0.3849934,-4.324343 -7.333498 0.5048338,-3.008568 -6.515113 0.0002282709,-3.240726 -5.334269 0.1249666,-3.342154 -4.62993 0.2257511,-3.405502 -3.985189 0.3427593,-2.623919 -6.271444 0.09780547,-2.787228 -4.89969 0.2950066,-2.787228 -4.89969 0.2950066,-2.921127 -3.351165 0.6429813,-2.246906 -6.2921 0.250875,-2.344611 -5.016778 0.4751489,-2.430704 -4.24298 0.6331404,-2.498792 -3.578471 0.7499914,-1.853642 -6.5485 0.4414202,-1.791057 -5.586576 0.6477299,-1.774507 -4.997442 0.7934569,-1.77063 -4.42106 0.9092637,-9.138183 -8.368958 -0.0213705,-8.464828 -8.138315 0.2647956,-7.879326 -7.424244 0.5068753,-7.48209 -6.690776 0.8039708,-7.095533 -6.235525 1.123925,-8.21006 -5.578744 0.1891838,-8.017395 -4.427763 0.3936108,-7.916454 -3.709636 0.590934,-7.830513 -3.073288 0.7333325,-8.582324 -5.326299 0.2907498,-8.392318 -3.98302 0.4440959,-8.265944 -3.124804 0.6790108,-8.171174 -2.391501 0.8502164,-8.967838 -5.366797 0.4379742,-8.820222 -4.107276 0.5945672,-8.690335 -3.325441 0.7890588,-8.568534 -2.669831 0.9416196,-9.386835 -5.640728 0.620051,-9.38165 -4.655801 0.8225478,-9.340126 -4.007493 0.9884531,-9.265535 -3.387088 1.11323,3.010, 6
-2.074036 -9.471731 -0.0589746,-2.77517 -9.204557 0.1446403,-3.423462 -8.39225 0.2383748,-3.89572 -7.646085 0.3504323,-4.324814 -7.321682 0.4650146,-3.001513 -6.5505 -0.0332399,-3.232958 -5.375759 0.08737046,-3.336021 -4.673454 0.1878209,-3.405703 -4.024694 0.3093608,-2.617223 -6.296688 0.06014051,-2.780366 -4.925237 0.2507032,-2.780366 -4.925237 0.2507032,-2.91863 -3.361642 0.6088359,-2.241803 -6.302848 0.2136377,-2.344977 -5.020238 0.4276687,-2.43492 -4.233854 0.5874858,-2.507387 -3.557094 0.7139746,-1.850697 -6.546104 0.4029173,-1.79278 -5.565844 0.5978695,-1.779423 -4.963243 0.7396623,-1.778551 -4.379854 0.8591924,-9.134868 -8.371078 0.009599589,-8.464646 -8.141716 0.2881939,-7.885133 -7.416463 0.5286028,-7.484994 -6.684062 0.8232027,-7.089805 -6.221644 1.13985,-8.217542 -5.572643 0.2340384,-8.026832 -4.417299 0.4467306,-7.926956 -3.700267 0.6453962,-7.842122 -3.06827 0.7840116,-8.58667 -5.319759 0.3387243,-8.401055 -3.973523 0.4985591,-8.274714 -3.109715 0.7357222,-8.176745 -2.377354 0.9073778,-8.970625 -5.36449 0.4882428,-8.826741 -4.093305 0.6524525,-8.694856 -3.30646 0.8523145,-8.568398 -2.649579 1.008077,-9.38633 -5.645957 0.6694785,-9.386457 -4.663292 0.8778806,-9.347345 -4.019083 1.045419,-9.272381 -3.406688 1.170367,3.110, 6
-2.07916 -9.451836 -0.04647506,-2.775068 -9.193403 0.1489128,-3.421658 -8.379442 0.2416853,-3.892267 -7.632632 0.355565,-4.323997 -7.326446 0.4708776,-3.008263 -6.523759 -0.01310629,-3.240326 -5.349907 0.1085265,-3.338611 -4.649728 0.2087598,-3.400852 -4.001402 0.3296474,-2.622694 -6.273769 0.08634633,-2.786133 -4.908275 0.2840527,-2.786133 -4.908275 0.2840527,-2.921387 -3.352451 0.6478967,-2.24365 -6.28916 0.241334,-2.343891 -5.01581 0.46079,-2.431376 -4.242313 0.6220505,-2.500441 -3.57393 0.7493197,-1.848378 -6.54247 0.4325187,-1.79201 -5.57802 0.6358508,-1.778452 -4.982746 0.7831162,-1.777145 -4.397866 0.9057826,-9.150993 -8.396162 0.04721666,-8.474062 -8.157251 0.288,-7.88654 -7.425718 0.493806,-7.482763 -6.682123 0.7591003,-7.089891 -6.238296 1.042546,-8.221607 -5.584585 0.1920912,-8.036071 -4.434858 0.3632063,-7.939664 -3.722761 0.5464249,-7.856496 -3.096694 0.6833957,-8.589853 -5.328832 0.2982705,-8.405908 -3.995122 0.4182111,-8.283497 -3.134081 0.6517057,-8.189109 -2.402589 0.8271309,-8.972467 -5.367876 0.4479306,-8.828489 -4.115406 0.5769632,-8.700702 -3.331216 0.7671502,-8.579392 -2.678087 0.9225474,-9.386039 -5.64141 0.6269286,-9.387922 -4.669008 0.812587,-9.349862 -4.023357 0.9727454,-9.278922 -3.413895 1.096161,3.210, 6
-2.077652 -9.4638 -0.05196255,-2.772192 -9.208885 0.1497127,-3.416203 -8.401241 0.2447616,-3.884151 -7.659845 0.3591675,-4.311701 -7.333681 0.4764516,-3.001725 -6.540416 -0.02331377,-3.237527 -5.369266 0.09548147,-3.341557 -4.669622 0.1970509,-3.410546 -4.020198 0.3185773,-2.614428 -6.285698 0.06862841,-2.777401 -4.915004 0.2572784,-2.777401 -4.915004 0.2572784,-2.906985 -3.354983 0.6161999,-2.239032 -6.290971 0.219101,-2.342633 -5.007638 0.4266182,-2.429381 -4.224769 0.5847452,-2.496108 -3.551499 0.7079641,-1.849483 -6.529298 0.4041443,-1.795604 -5.54947 0.5916013,-1.780437 -4.947921 0.7277118,-1.776136 -4.366104 0.8429023,-9.148836 -8.431822 0.07563676,-8.471316 -8.187202 0.3271663,-7.884583 -7.448539 0.5470712,-7.482203 -6.702211 0.8245531,-7.09281 -6.24163 1.126212,-8.231128 -5.607924 0.2462772,-8.037128 -4.454273 0.4349842,-7.933661 -3.734573 0.6285887,-7.846138 -3.100042 0.7709759,-8.600011 -5.355779 0.3477368,-8.410666 -4.011831 0.4822029,-8.284696 -3.147941 0.7172647,-8.188731 -2.406839 0.8907853,-8.982544 -5.400278 0.492772,-8.836231 -4.14039 0.6322829,-8.704045 -3.360389 0.8220982,-8.579773 -2.705245 0.9746439,-9.394506 -5.678863 0.6677195,-9.395168 -4.699069 0.8598834,-9.353278 -4.052873 1.021939,-9.279119 -3.441485 1.145629,3.310, 6
-2.069788 -9.467802 -0.09978586,-2.772247 -9.20582 0.1060536,-3.421669 -8.400589 0.1917889,-3.893614 -7.663949 0.2941655,-4.320852 -7.346649 0.3975157,-2.996428 -6.562118 -0.0941783,-3.227314 -5.39211 0.02098545,-3.334139 -4.685384 0.1262212,-3.407612 -4.030765 0.250924,-2.611859 -6.303388 -0.01189156,-2.775218 -4.933952 0.1711648,-2.775218 -4.933952 0.1711648,-2.916337 -3.362559 0.5370439,-2.237851 -6.299722 0.130924,-2.340876 -5.024274 0.3326874,-2.430604 -4.243261 0.4926944,-2.504668 -3.572693 0.6192759,-1.849555 -6.523607 0.3081047,-1.798652 -5.549283 0.4934587,-1.78546 -4.95713 0.63197,-1.785788 -4.382484 0.75032,-9.134189 -8.451555 0.09732224,-8.464442 -8.203123 0.364801,-7.881148 -7.462146 0.5976181,-7.487533 -6.717896 0.8879073,-7.096577 -6.261974 1.200275,-8.223085 -5.620275 0.304733,-8.038755 -4.462698 0.5136693,-7.940416 -3.746789 0.7140532,-7.85635 -3.112782 0.857652,-8.593031 -5.372293 0.4158325,-8.410384 -4.032274 0.5800005,-8.28617 -3.166082 0.8274604,-8.191653 -2.425387 1.002392,-8.97595 -5.420438 0.5749433,-8.834844 -4.154016 0.7410551,-8.706748 -3.359241 0.9426321,-8.584868 -2.697235 1.10122,-9.391193 -5.701876 0.7609188,-9.390788 -4.711014 0.9724907,-9.347091 -4.060144 1.13854,-9.272054 -3.448822 1.263373,3.410, 6
-2.068514 -9.467463 -0.02553272,-2.766644 -9.215847 0.172447,-3.410631 -8.394472 0.2567191,-3.876961 -7.646634 0.3589004,-4.307871 -7.344617 0.4650017,-2.998997 -6.539344 -0.01485142,-3.228821 -5.367378 0.09849127,-3.330462 -4.669683 0.1950278,-3.397341 -4.027277 0.310567,-2.613528 -6.282402 0.07550189,-2.773425 -4.921735 0.2573239,-2.773425 -4.921735 0.2573239,-2.911444 -3.376068 0.5956608,-2.237017 -6.292108 0.2231054,-2.335671 -5.021354 0.4335625,-2.424312 -4.24911 0.581248,-2.494291 -3.581467 0.6959908,-1.842838 -6.542358 0.4101856,-1.786129 -5.578258 0.6026699,-1.769272 -4.981823 0.7366605,-1.762952 -4.398483 0.8477709,-9.143186 -8.436583 0.0720211,-8.466318 -8.205498 0.3477734,-7.878862 -7.479838 0.5866674,-7.480876 -6.738989 0.8828647,-7.093412 -6.262168 1.202371,-8.22392 -5.618225 0.2894181,-8.033443 -4.463731 0.4979265,-7.932004 -3.74755 0.6963198,-7.845244 -3.119574 0.8381481,-8.597144 -5.365739 0.3919179,-8.412254 -4.019485 0.5420196,-8.288945 -3.160471 0.7776927,-8.195189 -2.427387 0.9501615,-8.984365 -5.41238 0.5389591,-8.842209 -4.144857 0.6927428,-8.712133 -3.361654 0.8898072,-8.588396 -2.70287 1.045693,-9.402918 -5.694149 0.7179812,-9.400586 -4.700056 0.9098259,-9.358066 -4.057167 1.071558,-9.282861 -3.445652 1.195036,3.510, 6
-2.051848 -9.470125 -0.03162803,-2.740618 -9.204645 0.1727047,-3.384197 -8.400791 0.2614297,-3.853426 -7.651058 0.3699952,-4.281862 -7.328478 0.4793187,-2.972754 -6.540302 -0.02220763,-3.202583 -5.363373 0.09354226,-3.302802 -4.666892 0.1999144,-3.368982 -4.021793 0.3252569,-2.590351 -6.28564 0.06789398,-2.758134 -4.92501 0.2434372,-2.758134 -4.92501 0.2434372,-2.899639 -3.376206 0.5966772,-2.212995 -6.295689 0.2139782,-2.31969 -5.029021 0.4150712,-2.407536 -4.265216 0.5665175,-2.478456 -3.604184 0.6853104,-1.817762 -6.543363 0.4026848,-1.764587 -5.585083 0.5897415,-1.751749 -4.995842 0.7230523,-1.750793 -4.417761 0.8336176,-9.141546 -8.443913 0.1031305,-8.468369 -8.212864 0.391526,-7.876059 -7.483984 0.6356496,-7.478061 -6.741172 0.9337112,-7.088375 -6.276071 1.254573,-8.217782 -5.620288 0.3101203,-8.029563 -4.471025 0.5133457,-7.932386 -3.753426 0.7112823,-7.848974 -3.124197 0.8561726,-8.5926 -5.362751 0.4059355,-8.408054 -4.025671 0.5505767,-8.287119 -3.166743 0.7899712,-8.196228 -2.433124 0.9653869,-8.980299 -5.403989 0.5508481,-8.834595 -4.143419 0.6970626,-8.706812 -3.361125 0.8961273,-8.585455 -2.703908 1.057926,-9.403016 -5.678863 0.7288778,-9.394247 -4.697786 0.9207107,-9.350929 -4.058216 1.084047,-9.274426 -3.446928 1.212311,3.610, 6
-2.051326 -9.413721 -0.03195107,-2.74734 -9.15424 0.1621254,-3.390205 -8.310686 0.2389232,-3.848036 -7.540562 0.3339757,-4.266867 -7.213687 0.4303617,-2.990221 -6.491464 -0.03077837,-3.21134 -5.338014 0.09085043,-3.311335 -4.640888 0.1878743,-3.378007 -3.988605 0.3022823,-2.605274 -6.231697 0.05569407,-2.757995 -4.874563 0.2501511,-2.757995 -4.874563 0.2501511,-2.880818 -3.313628 0.5951068,-2.229038 -6.228979 0.2030129,-2.329261 -4.955476 0.417498,-2.410853 -4.17308 0.5672564,-2.475062 -3.495767 0.6855898,-1.833307 -6.458183 0.3865807,-1.788443 -5.481739 0.5734818,-1.774814 -4.882964 0.70999,-1.772096 -4.300641 0.8220727,-9.139103 -8.47032 0.1039583,-8.462485 -8.23423 0.4000645,-7.869319 -7.50536 0.6479205,-7.471103 -6.75853 0.9496915,-7.077621 -6.278108 1.276488,-8.214567 -5.64698 0.3223922,-8.018262 -4.496681 0.5258502,-7.917317 -3.777538 0.7235842,-7.83177 -3.140812 0.8714131,-8.588844 -5.390869 0.4239551,-8.395492 -4.051501 0.5754057,-8.275609 -3.194973 0.8150172,-8.186798 -2.46375 0.991592,-8.977137 -5.426055 0.5776303,-8.82218 -4.151477 0.7347507,-8.694717 -3.370862 0.9426903,-8.573032 -2.712586 1.108761,-9.400791 -5.695316 0.7635515,-9.39115 -4.698102 0.9626098,-9.348658 -4.050292 1.127964,-9.272007 -3.424485 1.258139,3.710, 6
-2.072694 -9.342396 -0.09930059,-2.771957 -9.076239 0.08649774,-3.413412 -8.247038 0.1638638,-3.865465 -7.493449 0.2645216,-4.273487 -7.165533 0.3631441,-3.006894 -6.432317 -0.09572464,-3.229856 -5.287775 0.02402816,-3.33016 -4.60398 0.1130176,-3.402534 -3.961504 0.223195,-2.628627 -6.180496 -0.003931455,-2.78371 -4.833227 0.2011597,-2.78371 -4.833227 0.2011597,-2.912637 -3.28574 0.5507269,-2.25698 -6.182291 0.145858,-2.355684 -4.924785 0.3753746,-2.435289 -4.154846 0.5256238,-2.502184 -3.484546 0.6454349,-1.864551 -6.41213 0.3295019,-1.813454 -5.447197 0.5343316,-1.794056 -4.853538 0.6783543,-1.788923 -4.267374 0.7886951,-9.136093 -8.474522 0.1214787,-8.462026 -8.239796 0.4194083,-7.867342 -7.507374 0.6625826,-7.469721 -6.765485 0.9595186,-7.078949 -6.296948 1.283379,-8.209722 -5.640354 0.324222,-8.014213 -4.491397 0.5209457,-7.914311 -3.77169 0.7205074,-7.828584 -3.139901 0.8653459,-8.584248 -5.387889 0.4177096,-8.398137 -4.045888 0.5538155,-8.278374 -3.187335 0.7858221,-8.186372 -2.451087 0.9555002,-8.971281 -5.425337 0.5637529,-8.825079 -4.156289 0.7074075,-8.702107 -3.376556 0.9059198,-8.583491 -2.712614 1.065869,-9.390368 -5.697248 0.744495,-9.387053 -4.709708 0.9296371,-9.353292 -4.065341 1.089659,-9.286662 -3.439947 1.218196,3.810, 6
-2.080621 -9.237194 -0.1767296,-2.768486 -8.965485 0.01472032,-3.404829 -8.156748 0.108309,-3.862082 -7.419378 0.2229963,-4.27376 -7.088398 0.3419103,-2.996612 -6.344779 -0.1292833,-3.235238 -5.194332 -0.002226666,-3.343029 -4.504833 0.09814951,-3.41444 -3.857532 0.2175336,-2.62608 -6.097682 -0.03511287,-2.791885 -4.753727 0.1691717,-2.791885 -4.753727 0.1691717,-2.923974 -3.218238 0.5316907,-2.260441 -6.101887 0.1135137,-2.366325 -4.844533 0.3376021,-2.453925 -4.073607 0.5014954,-2.52081 -3.411328 0.6356573,-1.875627 -6.338024 0.2971508,-1.828488 -5.37593 0.500527,-1.815026 -4.775192 0.6522143,-1.810199 -4.196144 0.7814147,-9.132617 -8.487167 0.08931501,-8.452381 -8.27141 0.3744906,-7.855363 -7.534614 0.6097202,-7.459536 -6.779508 0.8992643,-7.074265 -6.298524 1.212016,-8.20481 -5.669513 0.2953334,-8.010197 -4.519965 0.4966275,-7.909538 -3.804887 0.6902052,-7.820987 -3.178402 0.8281571,-8.583665 -5.410171 0.3935061,-8.397439 -4.055896 0.5260262,-8.273206 -3.194209 0.7526837,-8.179026 -2.458263 0.918806,-8.973814 -5.443286 0.5408754,-8.82492 -4.164416 0.6827229,-8.695469 -3.387171 0.8755817,-8.573206 -2.72697 1.033076,-9.394209 -5.7115 0.7210922,-9.388031 -4.710411 0.9060739,-9.350295 -4.070123 1.063923,-9.278503 -3.45213 1.190341,3.910, 6
-2.097075 -9.187931 -0.1898781,-2.787492 -8.931608 0.007454902,-3.427425 -8.109491 0.09166408,-3.88171 -7.371715 0.1944708,-4.294058 -7.070899 0.2990425,-3.023128 -6.305577 -0.1879753,-3.246085 -5.168024 -0.070201,-3.345753 -4.483593 0.02579637,-3.413422 -3.84355 0.1416939,-2.64521 -6.050726 -0.1015752,-2.807426 -4.721885 0.08749831,-2.807426 -4.721885 0.08749831,-2.940713 -3.181425 0.426029,-2.274697 -6.049765 0.04450573,-2.376878 -4.804925 0.2513211,-2.461096 -4.039068 0.4030659,-2.530918 -3.370142 0.5226861,-1.88435 -6.27831 0.2290006,-1.839729 -5.318463 0.4177017,-1.823577 -4.726522 0.5556586,-1.819721 -4.154282 0.6689836,-9.153961 -8.496716 0.1087919,-8.466949 -8.281742 0.3917627,-7.872469 -7.551579 0.6317781,-7.481269 -6.79268 0.9263066,-7.101635 -6.289322 1.244933,-8.217221 -5.674316 0.3030801,-8.023354 -4.522922 0.5034119,-7.922344 -3.799118 0.6998462,-7.834343 -3.159445 0.8459437,-8.592033 -5.415782 0.4067088,-8.404055 -4.067697 0.5472884,-8.278817 -3.206314 0.7866575,-8.184163 -2.462974 0.9645063,-8.979638 -5.454214 0.5639409,-8.830945 -4.185933 0.7130869,-8.6983 -3.404778 0.9183109,-8.572112 -2.738898 1.085483,-9.398622 -5.729339 0.75092,-9.393931 -4.736054 0.9466414,-9.353144 -4.092284 1.117976,-9.279994 -3.466218 1.252642,4.010, 6
-2.108294 -9.166328 -0.197089,-2.795805 -8.920479 0.001231983,-3.431411 -8.106682 0.08028132,-3.888119 -7.363391 0.1770512,-4.304371 -7.076908 0.2810901,-3.034369 -6.289417 -0.2138228,-3.255178 -5.150219 -0.1030602,-3.352113 -4.467201 -0.008360803,-3.416058 -3.832881 0.1063339,-2.661763 -6.03157 -0.132692,-2.820006 -4.696712 0.04189916,-2.820006 -4.696712 0.04189916,-2.938286 -3.156854 0.3729829,-2.295012 -6.030204 0.007788494,-2.396637 -4.787158 0.2058011,-2.4774 -4.019464 0.355953,-2.539443 -3.348907 0.4744033,-1.906076 -6.258968 0.1891121,-1.861194 -5.309232 0.3742493,-1.846725 -4.722551 0.5115015,-1.838438 -4.15381 0.6229864,-9.139812 -8.498125 0.1066447,-8.466932 -8.246782 0.3543379,-7.877807 -7.520956 0.582018,-7.481349 -6.783264 0.8658788,-7.097527 -6.297054 1.17176,-8.2304 -5.660295 0.3104089,-8.034299 -4.510067 0.5097082,-7.935166 -3.791276 0.70035,-7.851216 -3.15779 0.8442424,-8.6026 -5.415376 0.4243999,-8.414545 -4.062689 0.5670131,-8.292542 -3.202085 0.8030671,-8.201949 -2.464905 0.9740418,-8.987557 -5.466861 0.5828112,-8.843534 -4.198129 0.7387653,-8.71506 -3.418313 0.942686,-8.594348 -2.759191 1.103976,-9.400149 -5.75707 0.7650101,-9.401245 -4.771327 0.9639019,-9.361611 -4.132896 1.13106,-9.288376 -3.51894 1.256506,4.110, 6
-2.146214 -9.1642 -0.2039471,-2.824632 -8.923618 -0.009788245,-3.459785 -8.110104 0.0674969,-3.923464 -7.384489 0.1675252,-4.3428 -7.108644 0.2744809,-3.072534 -6.294405 -0.2153732,-3.300322 -5.170016 -0.09075809,-3.402676 -4.490182 0.0133418,-3.473027 -3.854616 0.1358893,-2.698685 -6.031736 -0.1187679,-2.863027 -4.710517 0.07595456,-2.863027 -4.710517 0.07595456,-2.995756 -3.165745 0.4257007,-2.329895 -6.029811 0.03745092,-2.435655 -4.794803 0.2524363,-2.52438 -4.029641 0.4101661,-2.595335 -3.362641 0.5325073,-1.939717 -6.261676 0.2325096,-1.90043 -5.308737 0.4319921,-1.889625 -4.716237 0.5760739,-1.887976 -4.141193 0.6896697,-9.18224 -8.527697 0.1595618,-8.512636 -8.265533 0.4497156,-7.932498 -7.559859 0.6950955,-7.540398 -6.821063 0.9920219,-7.161548 -6.350151 1.303064,-8.275524 -5.678804 0.3704529,-8.079589 -4.532863 0.5579429,-7.983104 -3.81136 0.7498341,-7.903465 -3.181549 0.9016842,-8.651342 -5.426178 0.4543301,-8.467219 -4.085364 0.5832551,-8.346939 -3.219419 0.8225607,-8.261353 -2.474839 1.008228,-9.035824 -5.470268 0.5862725,-8.899799 -4.225049 0.7176321,-8.775011 -3.449189 0.9111255,-8.661807 -2.794599 1.070598,-9.445129 -5.749122 0.7499563,-9.452397 -4.785554 0.9291306,-9.41653 -4.157687 1.093138,-9.353756 -3.555135 1.21996,4.210, 6
-2.152165 -9.141928 -0.2077564,-2.832315 -8.906408 -0.01584028,-3.466736 -8.102777 0.06118491,-3.924749 -7.376346 0.1632273,-4.343338 -7.090879 0.2713922,-3.081686 -6.27072 -0.2312359,-3.30714 -5.143722 -0.1236244,-3.407796 -4.46126 -0.03050297,-3.477427 -3.823816 0.08379966,-2.705258 -6.010302 -0.1386926,-2.87131 -4.684783 0.03981765,-2.87131 -4.684783 0.03981765,-3.003445 -3.153559 0.3730631,-2.337478 -6.008485 0.01320364,-2.443141 -4.767309 0.2126154,-2.53089 -3.999777 0.363869,-2.601023 -3.331436 0.480754,-1.948038 -6.237763 0.2032584,-1.909604 -5.287633 0.3902952,-1.899918 -4.697522 0.5256658,-1.899956 -4.129517 0.6384428,-9.209951 -8.545321 0.1133714,-8.52787 -8.304346 0.3959237,-7.938483 -7.586072 0.6298449,-7.544217 -6.828012 0.9225408,-7.168144 -6.342531 1.230947,-8.288948 -5.713674 0.2615347,-8.096211 -4.56409 0.4348043,-7.997133 -3.842546 0.621723,-7.911927 -3.211577 0.7653884,-8.660174 -5.456031 0.3559562,-8.478769 -4.111462 0.471682,-8.358739 -3.250564 0.7012215,-8.26928 -2.512121 0.8762636,-9.041321 -5.486345 0.5029672,-8.900126 -4.227668 0.6302085,-8.774664 -3.446463 0.8241462,-8.656903 -2.782754 0.9784396,-9.453166 -5.748588 0.6833907,-9.463171 -4.758779 0.8592442,-9.432703 -4.116876 1.0197,-9.37212 -3.494455 1.145069,4.310, 6
-2.158376 -9.16011 -0.2145815,-2.834017 -8.917051 -0.02622291,-3.467558 -8.100664 0.06372777,-3.923558 -7.361065 0.1783595,-4.344629 -7.046693 0.3004377,-3.078655 -6.284641 -0.1853978,-3.31134 -5.135312 -0.0585393,-3.417185 -4.443868 0.03952527,-3.487156 -3.799092 0.1558037,-2.705728 -6.031337 -0.08590561,-2.873221 -4.696716 0.1135257,-2.873221 -4.696716 0.1135257,-3.004619 -3.157531 0.4600704,-2.338867 -6.033826 0.06900454,-2.445572 -4.781392 0.2826417,-2.538043 -4.013662 0.439062,-2.608039 -3.351788 0.5627541,-1.953228 -6.269928 0.2602645,-1.90974 -5.30779 0.4592144,-1.897182 -4.702768 0.6061577,-1.891582 -4.124172 0.7298597,-9.229374 -8.559504 0.1325143,-8.539927 -8.310417 0.4071369,-7.949059 -7.582569 0.6309985,-7.555424 -6.826888 0.9117792,-7.183967 -6.348341 1.206143,-8.302732 -5.71957 0.3026937,-8.108681 -4.567047 0.4880526,-8.011864 -3.846666 0.6889688,-7.929722 -3.212137 0.8385314,-8.6767 -5.466996 0.3976152,-8.499475 -4.122957 0.5207089,-8.381533 -3.264444 0.7587501,-8.29387 -2.524599 0.9374781,-9.058464 -5.497609 0.5401834,-8.916932 -4.234741 0.6713874,-8.792835 -3.459043 0.8698953,-8.679672 -2.796263 1.02958,-9.469363 -5.756721 0.7154621,-9.475582 -4.773717 0.8911908,-9.445315 -4.132312 1.048814,-9.389381 -3.505944 1.172018,4.410, 6
-2.151994 -9.169657 -0.1704563,-2.830941 -8.927256 0.03702579,-3.469483 -8.108397 0.1254445,-3.927792 -7.366811 0.2332071,-4.348948 -7.063629 0.3496475,-3.083957 -6.288747 -0.1469752,-3.307287 -5.149068 -0.0256508,-3.407544 -4.462799 0.07464607,-3.476085 -3.821096 0.1981655,-2.708567 -6.029138 -0.0565639,-2.876745 -4.704355 0.1372468,-2.876745 -4.704355 0.1372468,-3.018223 -3.171474 0.4862592,-2.339681 -6.02458 0.09215635,-2.450571 -4.783996 0.3025672,-2.542599 -4.018736 0.4582008,-2.614219 -3.352589 0.5831749,-1.949628 -6.253524 0.2812473,-1.91348 -5.296813 0.4741496,-1.902362 -4.700569 0.6147674,-1.897327 -4.126171 0.7365746,-9.224388 -8.570776 0.1305197,-8.534245 -8.339476 0.382611,-7.945366 -7.586881 0.5897504,-7.550966 -6.832969 0.858111,-7.178415 -6.359186 1.145013,-8.296882 -5.723848 0.2586062,-8.106587 -4.566722 0.4358416,-8.008522 -3.841985 0.6360543,-7.92364 -3.207732 0.7816429,-8.670383 -5.476482 0.3638673,-8.501415 -4.115718 0.4735767,-8.381916 -3.250263 0.7030981,-8.290142 -2.506294 0.8700079,-9.054507 -5.511317 0.517176,-8.921867 -4.232629 0.6470636,-8.795928 -3.453393 0.8413665,-8.680647 -2.788186 0.9924982,-9.467125 -5.776986 0.7027947,-9.474666 -4.782926 0.8754734,-9.448777 -4.133378 1.021736,-9.397267 -3.505817 1.130906,4.510, 6
-2.14983 -9.154137 -0.2112052,-2.827236 -8.910835 0.0005269051,-3.466766 -8.110556 0.1029058,-3.929319 -7.372785 0.2260815,-4.352018 -7.055745 0.3600937,-3.091495 -6.282106 -0.1881195,-3.315914 -5.140298 -0.06001209,-3.416925 -4.453989 0.04650792,-3.487612 -3.813183 0.1717915,-2.715523 -6.027188 -0.0940957,-2.882564 -4.699047 0.09405059,-2.882564 -4.699047 0.09405059,-3.022291 -3.177749 0.4415932,-2.34496 -6.03445 0.05813944,-2.452118 -4.79103 0.2664145,-2.543583 -4.02765 0.4286094,-2.618761 -3.368139 0.5539907,-1.953347 -6.280631 0.25033,-1.911228 -5.32956 0.4415718,-1.904905 -4.737079 0.5861166,-1.910753 -4.171654 0.7041909,-9.236394 -8.564619 0.1227624,-8.553869 -8.323606 0.3975509,-7.967961 -7.592363 0.6238469,-7.579288 -6.847207 0.9054123,-7.210941 -6.38145 1.19831,-8.31942 -5.721818 0.3031281,-8.12723 -4.565911 0.4916387,-8.026099 -3.851024 0.6908827,-7.939796 -3.219757 0.8362617,-8.689125 -5.475336 0.4032995,-8.514353 -4.106792 0.5388002,-8.395699 -3.248445 0.7759758,-8.30705 -2.501918 0.9523079,-9.066511 -5.511411 0.5528814,-8.931646 -4.231751 0.6960575,-8.809731 -3.447144 0.8964721,-8.69635 -2.767048 1.059047,-9.472614 -5.779891 0.7325094,-9.488995 -4.795002 0.9205706,-9.46769 -4.15027 1.0848,-9.417498 -3.521064 1.212139,4.610, 6
-2.159392 -9.153515 -0.208257,-2.841913 -8.91721 -0.007620603,-3.480332 -8.104702 0.07603508,-3.936615 -7.356714 0.1822591,-4.353107 -7.049576 0.2943262,-3.095491 -6.281619 -0.2123755,-3.322649 -5.146076 -0.09556633,-3.427647 -4.466318 -0.002451748,-3.502704 -3.832357 0.1113254,-2.718808 -6.023607 -0.1208817,-2.885459 -4.699243 0.06143799,-2.885459 -4.699243 0.06143799,-3.023695 -3.164405 0.4069828,-2.347206 -6.02539 0.02919009,-2.456426 -4.786457 0.2357258,-2.547401 -4.022733 0.3961765,-2.620183 -3.356832 0.521457,-1.955101 -6.259319 0.2178861,-1.914342 -5.307394 0.405456,-1.904385 -4.714908 0.5508353,-1.9032 -4.138404 0.6699588,-9.236056 -8.598875 0.201455,-8.556252 -8.348427 0.4478672,-7.967057 -7.599033 0.6514133,-7.572737 -6.841897 0.919745,-7.201662 -6.372425 1.200948,-8.324131 -5.723134 0.3209182,-8.134932 -4.572249 0.492417,-8.037591 -3.851747 0.6901319,-7.956178 -3.221572 0.8382521,-8.696119 -5.480789 0.4256826,-8.524714 -4.126777 0.5341184,-8.404746 -3.259291 0.7721075,-8.318582 -2.514926 0.9504799,-9.076437 -5.525329 0.5768638,-8.945421 -4.261501 0.6980526,-8.820864 -3.475743 0.8880533,-8.710768 -2.811153 1.041582,-9.484425 -5.804279 0.7596341,-9.493756 -4.82125 0.9267392,-9.467376 -4.179889 1.07694,-9.417118 -3.566523 1.192386,4.710, 6
-2.167888 -9.148798 -0.2128716,-2.848182 -8.917511 -0.0005203187,-3.486385 -8.120983 0.09512392,-3.942887 -7.376758 0.2102244,-4.358677 -7.049545 0.3314062,-3.106708 -6.281097 -0.2073464,-3.329798 -5.151453 -0.09144174,-3.431612 -4.472957 0.01007396,-3.503993 -3.835385 0.1320293,-2.731743 -6.021062 -0.1250703,-2.898854 -4.704753 0.05554387,-2.898854 -4.704753 0.05554387,-3.043854 -3.185352 0.4029006,-2.363694 -6.019825 0.01718728,-2.472978 -4.786642 0.2173823,-2.566662 -4.030906 0.3807365,-2.643167 -3.376601 0.5104988,-1.977064 -6.253028 0.1992565,-1.938957 -5.305786 0.3848642,-1.933533 -4.718627 0.5306709,-1.940223 -4.155765 0.6493424,-9.247066 -8.630983 0.2630772,-8.563421 -8.368851 0.5231544,-7.976952 -7.602173 0.7327124,-7.585186 -6.836176 0.9986002,-7.203115 -6.37282 1.278953,-8.337999 -5.741939 0.4239903,-8.146138 -4.589781 0.5976597,-8.045854 -3.871103 0.784534,-7.957656 -3.243286 0.9188963,-8.714342 -5.495831 0.5141123,-8.542365 -4.130155 0.625814,-8.422673 -3.270223 0.843972,-8.331217 -2.534628 1.006549,-9.093864 -5.537836 0.6501266,-8.963273 -4.256485 0.7739519,-8.840438 -3.474864 0.9562701,-8.726906 -2.81265 1.101773,-9.499346 -5.817128 0.8158779,-9.505783 -4.836381 0.9834338,-9.484065 -4.201563 1.130706,-9.437824 -3.591444 1.245007,4.810, 6
-2.172852 -9.11587 -0.2288159,-2.846999 -8.875071 -0.02163021,-3.479799 -8.077711 0.0758929,-3.935073 -7.33768 0.196072,-4.346514 -7.001943 0.3256203,-3.098997 -6.2516 -0.2120647,-3.331631 -5.126613 -0.09863569,-3.437937 -4.451913 -0.009037539,-3.512148 -3.818207 0.1055581,-2.726675 -5.991408 -0.1264258,-2.899748 -4.670043 0.04940745,-2.899748 -4.670043 0.04940745,-3.038214 -3.145805 0.3853323,-2.360551 -5.988178 0.01643059,-2.475734 -4.742628 0.2152202,-2.570438 -3.977219 0.3676961,-2.643346 -3.317929 0.4894357,-1.973069 -6.222558 0.197263,-1.936895 -5.262544 0.3804146,-1.930492 -4.666822 0.5200288,-1.930869 -4.103432 0.6383437,-9.255548 -8.615761 0.1348605,-8.571184 -8.363071 0.3998089,-7.980148 -7.603948 0.616783,-7.589114 -6.843614 0.8897717,-7.215371 -6.368177 1.185646,-8.331035 -5.7624 0.3195671,-8.142964 -4.588693 0.5076734,-8.043053 -3.862469 0.704439,-7.95659 -3.230211 0.8444773,-8.705705 -5.523795 0.4194637,-8.535685 -4.143512 0.5452849,-8.418847 -3.273693 0.7679718,-8.328794 -2.526274 0.9315197,-9.086625 -5.568563 0.5656757,-8.954947 -4.269908 0.7075806,-8.833941 -3.480917 0.8977218,-8.722672 -2.805697 1.047967,-9.496602 -5.845047 0.7409959,-9.497287 -4.840654 0.9209834,-9.475338 -4.195056 1.070494,-9.429615 -3.568386 1.189957,4.910, 6
-2.142698 -9.08176 -0.2663585,-2.817302 -8.840939 -0.05335712,-3.452413 -8.05983 0.04194182,-3.904963 -7.32249 0.1560632,-4.322528 -6.990763 0.2802696,-3.074793 -6.232537 -0.2372356,-3.312967 -5.101274 -0.1268397,-3.420061 -4.414764 -0.02984293,-3.492168 -3.769206 0.09279805,-2.705792 -5.970041 -0.1577908,-2.886787 -4.646078 0.01607573,-2.886787 -4.646078 0.01607573,-3.025604 -3.12005 0.3648213,-2.343151 -5.959744 -0.02372408,-2.460752 -4.717994 0.1649879,-2.555536 -3.956958 0.3212653,-2.627489 -3.29717 0.4527962,-1.958701 -6.179208 0.1508688,-1.934808 -5.225253 0.3268025,-1.936357 -4.63153 0.46545,-1.943381 -4.070564 0.5874615,-9.245229 -8.599882 0.1933904,-8.563009 -8.324799 0.4504419,-7.975233 -7.572346 0.6753314,-7.58079 -6.82543 0.9574838,-7.206579 -6.35769 1.2579,-8.334211 -5.727479 0.3673559,-8.145275 -4.579138 0.5465637,-8.044081 -3.864748 0.7404909,-7.95425 -3.241689 0.8816445,-8.706546 -5.488274 0.4711766,-8.536976 -4.12722 0.5895044,-8.419684 -3.266592 0.809544,-8.328629 -2.529686 0.9756929,-9.08639 -5.531082 0.6211606,-8.955725 -4.251771 0.7554173,-8.830971 -3.472517 0.9413573,-8.714398 -2.808351 1.086013,-9.494526 -5.808703 0.8009669,-9.497195 -4.81517 0.9766243,-9.474524 -4.174093 1.117573,-9.426968 -3.553001 1.228965,5.010, 6
-2.102343 -8.944307 -0.2731004,-2.781685 -8.715342 -0.02889913,-3.419875 -7.932092 0.08008918,-3.870867 -7.202567 0.1998122,-4.287156 -6.91679 0.3253512,-3.056541 -6.104381 -0.2098524,-3.281605 -4.99755 -0.08738552,-3.380853 -4.331134 0.01634446,-3.444838 -3.699743 0.142532,-2.688139 -5.839365 -0.1483825,-2.868006 -4.548644 0.03462437,-2.868006 -4.548644 0.03462437,-3.001335 -3.04972 0.3884898,-2.3216 -5.830692 -0.02964482,-2.444578 -4.630762 0.1734938,-2.534161 -3.89627 0.3350392,-2.59831 -3.249204 0.4691653,-1.932549 -6.055136 0.133048,-1.901587 -5.126262 0.3222438,-1.891374 -4.553911 0.4638369,-1.882505 -3.999126 0.5895906,-9.281555 -8.644213 0.2470885,-8.597301 -8.374014 0.5415254,-8.0169 -7.632926 0.7873161,-7.627093 -6.87997 1.085412,-7.249258 -6.392978 1.394658,-8.378096 -5.76354 0.451465,-8.187023 -4.618869 0.6364832,-8.087552 -3.898 0.8380799,-8.001057 -3.272199 0.990075,-8.747749 -5.517128 0.535435,-8.576709 -4.158603 0.6658614,-8.45809 -3.298196 0.9002548,-8.367488 -2.558574 1.075732,-9.121819 -5.557858 0.6678876,-8.99611 -4.285903 0.8030245,-8.87205 -3.50623 0.9993827,-8.755664 -2.845568 1.151616,-9.522829 -5.836288 0.8310062,-9.530869 -4.850668 1.00954,-9.502618 -4.210383 1.166642,-9.45005 -3.599308 1.286641,5.110, 6
-2.106964 -8.930611 -0.3481394,-2.782104 -8.695768 -0.1133394,-3.415648 -7.931166 -0.006932259,-3.870468 -7.210714 0.1172566,-4.285803 -6.911872 0.2466008,-3.055419 -6.105698 -0.3133923,-3.287619 -4.982503 -0.1937744,-3.389088 -4.310298 -0.09160337,-3.4536 -3.682734 0.03191078,-2.687803 -5.845846 -0.2431351,-2.87013 -4.535238 -0.06651843,-2.87013 -4.535238 -0.06651843,-3.005807 -3.032472 0.2799524,-2.323174 -5.840068 -0.114342,-2.446476 -4.625992 0.08710095,-2.537866 -3.874376 0.2525506,-2.607101 -3.218474 0.3842108,-1.935489 -6.069236 0.05544823,-1.904322 -5.136863 0.2467166,-1.899422 -4.555715 0.3969412,-1.899322 -3.998448 0.5216486,-9.309009 -8.65493 0.2269991,-8.615061 -8.393368 0.518186,-8.021026 -7.652516 0.7523341,-7.63381 -6.883874 1.038002,-7.264393 -6.385416 1.336064,-8.381637 -5.785682 0.433251,-8.191836 -4.626538 0.6163253,-8.094762 -3.90342 0.8127763,-8.008712 -3.271289 0.9588516,-8.754795 -5.53742 0.5171708,-8.58459 -4.184074 0.638239,-8.469724 -3.323062 0.8685014,-8.37958 -2.578865 1.04343,-9.13284 -5.570878 0.6497701,-9.001291 -4.302577 0.7762727,-8.882729 -3.518656 0.9644092,-8.769951 -2.854164 1.115922,-9.537804 -5.837121 0.8112826,-9.537865 -4.839593 0.975895,-9.515668 -4.194825 1.126381,-9.466582 -3.574632 1.245322,5.210, 6
-2.130653 -8.942627 -0.3390059,-2.81233 -8.714314 -0.1362844,-3.440344 -7.941638 -0.05786425,-3.884624 -7.217126 0.03890657,-4.287568 -6.928902 0.1408209,-3.074836 -6.124593 -0.3684538,-3.307423 -5.027431 -0.2674553,-3.40789 -4.370353 -0.1822129,-3.473644 -3.759745 -0.07444298,-2.717838 -5.854885 -0.2988434,-2.897539 -4.575822 -0.1421563,-2.897539 -4.575822 -0.1421563,-3.034153 -3.094996 0.1724318,-2.359703 -5.837289 -0.1714357,-2.481442 -4.647994 0.009493679,-2.570881 -3.919876 0.1500683,-2.63654 -3.282278 0.2677045,-1.975287 -6.052011 -0.002283365,-1.944728 -5.133413 0.1697429,-1.936836 -4.566955 0.301962,-1.932052 -4.023893 0.4132944,-9.29875 -8.716358 0.3495427,-8.610185 -8.458393 0.6318504,-8.016129 -7.689691 0.860072,-7.628911 -6.918327 1.145549,-7.245384 -6.43413 1.44812,-8.373892 -5.809104 0.5128375,-8.196157 -4.666746 0.6807721,-8.101746 -3.944161 0.8715237,-8.01639 -3.317367 1.010386,-8.750117 -5.559088 0.6037214,-8.58818 -4.211238 0.7108292,-8.474068 -3.351199 0.9321988,-8.383661 -2.612845 1.096156,-9.131436 -5.598701 0.7454846,-9.00363 -4.329465 0.8652667,-8.885069 -3.551591 1.049424,-8.772964 -2.889309 1.193228,-9.540386 -5.880904 0.9193588,-9.547771 -4.889255 1.079176,-9.531212 -4.244678 1.222851,-9.488983 -3.623884 1.333983,5.310, 6
-2.14644 -8.939888 -0.3922339,-2.815976 -8.726465 -0.1597764,-3.447999 -7.961646 -0.06133506,-3.895626 -7.237426 0.04699954,-4.299395 -6.93209 0.1618357,-3.106087 -6.145634 -0.3530086,-3.33747 -5.047872 -0.2339417,-3.437058 -4.390083 -0.1431337,-3.502048 -3.770048 -0.02875274,-2.748593 -5.871791 -0.295312,-2.929741 -4.596582 -0.1237006,-2.929741 -4.596582 -0.1237006,-3.060488 -3.123374 0.1971143,-2.389285 -5.851213 -0.1805962,-2.51752 -4.661125 0.006000817,-2.607636 -3.937323 0.1536951,-2.673679 -3.298923 0.2782452,-2.003373 -6.06421 -0.02422455,-1.985405 -5.140792 0.1528487,-1.984758 -4.576309 0.2917276,-1.987093 -4.033823 0.4084733,-9.317631 -8.74255 0.2879775,-8.639007 -8.47197 0.5766968,-8.051816 -7.725644 0.8167311,-7.66103 -6.971385 1.112095,-7.284256 -6.489919 1.421017,-8.394367 -5.847562 0.4518546,-8.210206 -4.701335 0.6205106,-8.122821 -3.98203 0.8101977,-8.050194 -3.363373 0.9493734,-8.764019 -5.603055 0.5296569,-8.593014 -4.24895 0.6356518,-8.482388 -3.392951 0.851002,-8.398835 -2.652352 1.013252,-9.138498 -5.63988 0.6586165,-9.018682 -4.378095 0.7662493,-8.90109 -3.610979 0.941551,-8.791265 -2.953741 1.079354,-9.542173 -5.910129 0.8177933,-9.547716 -4.937797 0.9704833,-9.524758 -4.311698 1.102175,-9.477657 -3.71197 1.203732,5.410, 6
-2.158823 -8.92292 -0.4329582,-2.825408 -8.708797 -0.1896472,-3.458261 -7.951462 -0.08722398,-3.909853 -7.232222 0.02444792,-4.315945 -6.93906 0.1389679,-3.117913 -6.143064 -0.3855129,-3.349802 -5.058367 -0.2631242,-3.451708 -4.407623 -0.166576,-3.521004 -3.789665 -0.05074236,-2.762097 -5.866977 -0.3340933,-2.941473 -4.599304 -0.1583011,-2.941473 -4.599304 -0.1583011,-3.079098 -3.132739 0.1700392,-2.405801 -5.847118 -0.2248956,-2.529679 -4.664657 -0.03445753,-2.622539 -3.939358 0.11945,-2.692217 -3.306749 0.2450656,-2.023334 -6.063069 -0.07303882,-2.000589 -5.150547 0.1025285,-2.002943 -4.588192 0.2405396,-2.01009 -4.052647 0.3565595,-9.311141 -8.756947 0.3082111,-8.636501 -8.491875 0.5866253,-8.04657 -7.731527 0.8171212,-7.658839 -6.959028 1.104486,-7.280602 -6.481691 1.411555,-8.396194 -5.850519 0.4775511,-8.222157 -4.710103 0.6427991,-8.140429 -3.995896 0.8265491,-8.068886 -3.380007 0.9631065,-8.773292 -5.609429 0.557503,-8.61241 -4.265989 0.6533459,-8.506413 -3.412312 0.8625886,-8.423687 -2.673427 1.021858,-9.153458 -5.652763 0.6834447,-9.038478 -4.39585 0.7882017,-8.930154 -3.625198 0.9521158,-8.828693 -2.973378 1.085749,-9.560707 -5.929804 0.8417474,-9.559609 -4.951005 0.9808691,-9.542662 -4.327457 1.101496,-9.502618 -3.73038 1.196476,5.510, 6
-2.180391 -8.929392 -0.4793851,-2.835452 -8.704237 -0.2332943,-3.458714 -7.955257 -0.1211373,-3.908455 -7.242572 0.005830973,-4.318614 -6.937234 0.1459245,-3.134081 -6.16125 -0.4166191,-3.375149 -5.079393 -0.2879115,-3.480364 -4.426185 -0.1880997,-3.549215 -3.805812 -0.07015878,-2.780737 -5.887075 -0.3607331,-2.967884 -4.625207 -0.1802812,-2.967884 -4.625207 -0.1802812,-3.107628 -3.163577 0.1545325,-2.426695 -5.864679 -0.2476396,-2.556391 -4.692112 -0.05392584,-2.652694 -3.970033 0.1079577,-2.723621 -3.340662 0.2384285,-2.046664 -6.076347 -0.09449682,-2.033435 -5.164365 0.08716828,-2.041896 -4.600663 0.2360253,-2.053186 -4.064167 0.3587792,-9.326731 -8.775902 0.24739,-8.653988 -8.518045 0.5244656,-8.077188 -7.746477 0.7533093,-7.697381 -6.975008 1.04032,-7.319647 -6.501832 1.345096,-8.430105 -5.881816 0.4110932,-8.260523 -4.726282 0.5745775,-8.182295 -4.003881 0.7632557,-8.118239 -3.38115 0.9027698,-8.801139 -5.643615 0.4917007,-8.640493 -4.288693 0.5962404,-8.530329 -3.425595 0.813836,-8.447833 -2.681489 0.9824845,-9.175839 -5.688079 0.6210843,-9.063681 -4.425092 0.7366464,-8.952123 -3.649632 0.9078527,-8.852271 -2.992493 1.045707,-9.577537 -5.966897 0.7790313,-9.578168 -4.985296 0.9375954,-9.556751 -4.355665 1.068238,-9.520104 -3.757465 1.168455,5.610, 6
-2.18758 -8.924526 -0.5327309,-2.84232 -8.695295 -0.2864674,-3.462838 -7.963588 -0.1718719,-3.908129 -7.254528 -0.04621524,-4.31446 -6.941894 0.09214628,-3.139036 -6.169561 -0.4606199,-3.37603 -5.085244 -0.3346938,-3.481058 -4.429808 -0.2341992,-3.549619 -3.811871 -0.1153181,-2.790579 -5.898439 -0.410959,-2.976769 -4.633274 -0.2392959,-2.976769 -4.633274 -0.2392959,-3.110111 -3.172612 0.09592688,-2.441605 -5.877668 -0.3058836,-2.567668 -4.697572 -0.12597,-2.660016 -3.979418 0.02465069,-2.726404 -3.356348 0.1521263,-2.066648 -6.087905 -0.1589498,-2.049808 -5.17574 0.003673017,-2.054644 -4.617439 0.1375114,-2.059599 -4.091888 0.2525266,-9.344748 -8.781693 0.2469988,-8.660426 -8.536333 0.5381294,-8.072559 -7.760828 0.7639748,-7.69091 -6.98129 1.045477,-7.314195 -6.49147 1.336841,-8.444214 -5.892568 0.4035585,-8.269498 -4.745368 0.5629672,-8.180842 -4.035305 0.7541084,-8.107353 -3.423223 0.8928906,-8.819198 -5.64826 0.4746879,-8.66329 -4.294755 0.5721755,-8.556427 -3.433511 0.7942098,-8.47859 -2.692451 0.9661987,-9.194218 -5.685403 0.5983682,-9.080298 -4.430742 0.7059146,-8.970147 -3.656599 0.8755386,-8.870141 -3.001983 1.01345,-9.59486 -5.956411 0.7526351,-9.594788 -4.984689 0.9049898,-9.575365 -4.364203 1.032808,-9.538247 -3.771516 1.130534,5.710, 6
-2.210307 -8.93586 -0.5976599,-2.857415 -8.705584 -0.3533835,-3.466278 -7.964315 -0.2399255,-3.903345 -7.248924 -0.1159964,-4.306299 -6.926418 0.02202463,-3.149567 -6.200527 -0.5113938,-3.389522 -5.128924 -0.3788645,-3.495843 -4.483312 -0.2797571,-3.564754 -3.872514 -0.1636683,-2.807976 -5.928238 -0.4616894,-2.995521 -4.674226 -0.2765861,-2.995521 -4.674226 -0.2765861,-3.130799 -3.224027 0.05888599,-2.464297 -5.901771 -0.3561659,-2.591229 -4.726329 -0.1668299,-2.682726 -4.014062 -0.01371998,-2.747738 -3.390547 0.1152031,-2.093268 -6.104985 -0.2106615,-2.075808 -5.200208 -0.03769749,-2.078279 -4.641395 0.0990063,-2.07891 -4.111204 0.2139585,-9.348958 -8.804447 0.1901604,-8.662348 -8.555874 0.4634508,-8.074581 -7.779447 0.6786361,-7.693919 -7.002582 0.9514152,-7.32051 -6.517434 1.238274,-8.441652 -5.928066 0.3392528,-8.267389 -4.77547 0.49541,-8.179911 -4.061357 0.6813446,-8.105882 -3.447787 0.8175467,-8.817356 -5.687831 0.4078324,-8.65941 -4.336775 0.4975042,-8.556239 -3.480488 0.7068113,-8.479733 -2.737929 0.8645334,-9.192093 -5.724737 0.5276176,-9.0781 -4.465086 0.6256155,-8.974057 -3.690241 0.7891797,-8.880127 -3.033457 0.9216955,-9.593929 -5.99461 0.6748874,-9.592156 -5.017812 0.8131121,-9.575683 -4.391843 0.9379658,-9.542611 -3.792482 1.034352,5.810, 6
-2.200056 -8.925461 -0.717749,-2.840445 -8.703821 -0.4581291,-3.451056 -7.957048 -0.3455151,-3.879646 -7.237819 -0.2250717,-4.274954 -6.898458 -0.09074372,-3.162197 -6.233766 -0.6344858,-3.402425 -5.15689 -0.511215,-3.505355 -4.51252 -0.4163947,-3.570284 -3.916782 -0.3034048,-2.826033 -5.957746 -0.6043397,-3.025494 -4.719516 -0.4433573,-3.025494 -4.719516 -0.4433573,-3.150164 -3.277172 -0.1374782,-2.485831 -5.927042 -0.5147586,-2.622051 -4.777038 -0.3487937,-2.709205 -4.073786 -0.2089463,-2.778656 -3.454966 -0.09151143,-2.117195 -6.127067 -0.3827229,-2.100195 -5.244873 -0.2300915,-2.099889 -4.700141 -0.1006002,-2.101194 -4.188505 0.006423116,-9.325113 -8.803631 0.186116,-8.642843 -8.569794 0.4755466,-8.055319 -7.782276 0.6987396,-7.681242 -7.000692 0.9764471,-7.310346 -6.508968 1.273325,-8.419369 -5.936477 0.350959,-8.243448 -4.801949 0.5173975,-8.155666 -4.097011 0.7117881,-8.08097 -3.48354 0.8501093,-8.795746 -5.689579 0.4279657,-8.642669 -4.349138 0.5232189,-8.542062 -3.503206 0.7387432,-8.465396 -2.769875 0.8967805,-9.173327 -5.718883 0.5589073,-9.057111 -4.456863 0.6681894,-8.949702 -3.684034 0.843799,-8.848357 -3.025228 0.9827973,-9.580709 -5.979625 0.7208129,-9.575568 -4.992921 0.8739492,-9.555107 -4.355734 1.004868,-9.512727 -3.737885 1.10295,5.910, 6
-2.189067 -8.930534 -0.7680423,-2.827837 -8.696096 -0.4986282,-3.438071 -7.962455 -0.3660642,-3.865238 -7.235059 -0.2201139,-4.26083 -6.838148 -0.05313867,-3.159319 -6.252704 -0.6750824,-3.405381 -5.178367 -0.5467935,-3.508224 -4.54047 -0.4552343,-3.574658 -3.950819 -0.3463832,-2.825073 -5.980091 -0.6436561,-3.02747 -4.73283 -0.4801361,-3.02747 -4.73283 -0.4801361,-3.157384 -3.302112 -0.1787256,-2.48686 -5.950809 -0.5513679,-2.620417 -4.788667 -0.3811276,-2.712839 -4.077777 -0.2306759,-2.786417 -3.456058 -0.1036935,-2.119873 -6.151489 -0.4186156,-2.104401 -5.256756 -0.2604706,-2.11054 -4.698854 -0.1221544,-2.117075 -4.181648 -0.01220435,-9.326663 -8.797092 0.1739112,-8.640326 -8.550892 0.4530144,-8.047242 -7.767274 0.6636289,-7.669477 -6.990154 0.9254594,-7.305682 -6.514645 1.203508,-8.416962 -5.92941 0.3307868,-8.246555 -4.794149 0.4900901,-8.158577 -4.095045 0.6818615,-8.081565 -3.482847 0.8213838,-8.792352 -5.686274 0.4004491,-8.646824 -4.349401 0.4879836,-8.543644 -3.507349 0.6974781,-8.462479 -2.774127 0.8557096,-9.168808 -5.718458 0.5218385,-9.056053 -4.464509 0.6220914,-8.946289 -3.699028 0.7866438,-8.845375 -3.048918 0.9194708,-9.573798 -5.980175 0.6725526,-9.570157 -5.004961 0.8148977,-9.551135 -4.375084 0.9379154,-9.511758 -3.764781 1.033288,6.010, 6
-2.164838 -8.966429 -0.7678392,-2.796736 -8.726803 -0.444218,-3.401014 -8.012539 -0.2885572,-3.821396 -7.274944 -0.1281039,-4.205639 -6.831737 0.05347365,-3.132748 -6.295614 -0.6268958,-3.383772 -5.222764 -0.4880198,-3.485134 -4.587989 -0.3835071,-3.547542 -4.002681 -0.2631704,-2.798041 -6.016111 -0.6263921,-3.00386 -4.774042 -0.4693168,-3.00386 -4.774042 -0.4693168,-3.124947 -3.348009 -0.1739525,-2.460588 -5.989396 -0.5603272,-2.597274 -4.838822 -0.4016525,-2.688261 -4.138103 -0.246776,-2.756087 -3.527612 -0.1205079,-2.0938 -6.193452 -0.4490329,-2.084887 -5.304018 -0.2931192,-2.096617 -4.751211 -0.1494468,-2.1074 -4.243713 -0.03887022,-9.301561 -8.811865 0.1934446,-8.632504 -8.55477 0.4593497,-8.049522 -7.77264 0.6745844,-7.674044 -7.004976 0.9446261,-7.308496 -6.52342 1.233292,-8.413842 -5.928543 0.3536818,-8.244873 -4.790944 0.5149481,-8.161492 -4.091469 0.7076323,-8.091092 -3.480921 0.8485584,-8.788117 -5.692866 0.4331152,-8.64028 -4.360957 0.5277894,-8.540087 -3.522781 0.7413517,-8.464472 -2.791044 0.904168,-9.163539 -5.731591 0.5610774,-9.058823 -4.486696 0.666062,-8.957266 -3.725132 0.8321646,-8.862781 -3.076766 0.9651563,-9.565839 -5.996933 0.7157384,-9.565311 -5.026498 0.8640927,-9.545931 -4.399374 0.9853975,-9.506498 -3.795639 1.075466,6.110, 6
-2.15713 -9.022343 -0.7626225,-2.792729 -8.758865 -0.4586307,-3.390141 -8.037519 -0.3130823,-3.804214 -7.291765 -0.1579623,-4.189461 -6.850208 0.02289921,-3.125261 -6.342842 -0.6504441,-3.371166 -5.277215 -0.5113454,-3.46847 -4.63072 -0.4001563,-3.52494 -4.035565 -0.2779708,-2.792917 -6.069984 -0.6454321,-2.991676 -4.83378 -0.5053445,-2.991676 -4.83378 -0.5053445,-3.104239 -3.400339 -0.2102912,-2.455853 -6.038009 -0.5777596,-2.587605 -4.897057 -0.43862,-2.673258 -4.209726 -0.2931903,-2.732769 -3.600286 -0.1730188,-2.092796 -6.228363 -0.4662704,-2.081413 -5.34099 -0.3315636,-2.092346 -4.787358 -0.1990535,-2.097692 -4.275304 -0.1025422,-9.313293 -8.858004 0.2365963,-8.637959 -8.594482 0.4976321,-8.049286 -7.799779 0.7042983,-7.678831 -7.014545 0.9743147,-7.305322 -6.524894 1.265017,-8.414422 -5.964744 0.3484037,-8.235168 -4.850185 0.5028503,-8.152304 -4.17308 0.6958616,-8.079748 -3.562675 0.8341877,-8.79338 -5.725154 0.4427425,-8.651089 -4.433073 0.5216386,-8.554637 -3.620078 0.7393419,-8.477631 -2.919691 0.8941101,-9.169168 -5.753139 0.5970018,-9.071154 -4.539939 0.7036595,-8.975014 -3.787453 0.8815047,-8.880931 -3.163186 1.022373,-9.576143 -6.002408 0.7740647,-9.559329 -5.011499 0.9424582,-9.527264 -4.376165 1.075016,-9.474876 -3.782159 1.165488,6.210, 6
-2.142433 -9.079758 -0.7330971,-2.76533 -8.803722 -0.4195462,-3.351088 -8.08029 -0.2648649,-3.756441 -7.332222 -0.09350848,-4.144091 -6.867291 0.1107945,-3.106415 -6.374742 -0.6543282,-3.346204 -5.314327 -0.5164573,-3.435447 -4.671541 -0.3939646,-3.485687 -4.080355 -0.2595217,-2.771033 -6.116186 -0.6456809,-2.959008 -4.905065 -0.5157743,-2.959008 -4.905065 -0.5157743,-3.049994 -3.528275 -0.2278274,-2.431991 -6.099347 -0.5680524,-2.551434 -4.988063 -0.4304369,-2.62822 -4.327142 -0.2676278,-2.683482 -3.733294 -0.140204,-2.066753 -6.303791 -0.4439725,-2.053722 -5.444068 -0.3041689,-2.064359 -4.911378 -0.1595917,-2.073453 -4.417364 -0.05403769,-9.345336 -9.065651 -0.6229797,-8.670955 -8.747013 -0.4203635,-8.103471 -7.996222 -0.2573719,-7.720415 -7.219041 -0.04197699,-7.360682 -6.606189 0.1329359,-8.35243 -6.410292 -0.746034,-8.158803 -5.287426 -0.6457452,-8.048624 -4.575521 -0.5267562,-7.96262 -3.916313 -0.4132319,-8.704927 -6.199399 -0.6284401,-8.620076 -4.973054 -0.337601,-8.605381 -5.410802 -0.03035831,-8.660729 -5.922589 0.1417829,-9.057776 -6.140932 -0.4686612,-9.0006 -4.989255 -0.1830595,-8.946109 -5.41994 0.09124446,-8.984843 -6.020043 0.2333405,-9.470544 -6.208881 -0.2951621,-9.419664 -5.180871 -0.01933557,-9.310741 -5.230268 0.1736902,-9.275973 -5.641111 0.2840239,6.310, 6
-2.135735 -9.075344 -0.7825978,-2.765475 -8.783909 -0.4980534,-3.344646 -8.056425 -0.3539053,-3.734386 -7.305364 -0.1825652,-4.113316 -6.831101 0.01884651,-3.093162 -6.375732 -0.7263165,-3.334139 -5.332147 -0.5873108,-3.422897 -4.700231 -0.4710664,-3.472263 -4.10999 -0.3425294,-2.756156 -6.124403 -0.6990485,-2.935948 -4.927177 -0.5651531,-2.935948 -4.927177 -0.5651531,-3.019276 -3.573386 -0.2758223,-2.416621 -6.108259 -0.6032343,-2.532171 -5.008567 -0.4618169,-2.603974 -4.360691 -0.2935977,-2.654997 -3.769736 -0.1612616,-2.051596 -6.306127 -0.4643813,-2.037527 -5.446348 -0.3190159,-2.043755 -4.927061 -0.1711794,-2.050483 -4.438262 -0.0600732,-9.331758 -9.12686 -1.28572,-8.649832 -8.851673 -0.9740298,-8.118301 -8.054602 -0.7739949,-7.802985 -7.267123 -0.5326005,-7.562 -6.593066 -0.3112566,-8.368335 -6.587614 -1.410862,-8.146397 -5.545297 -1.18025,-8.004088 -4.90382 -0.9948063,-7.894087 -4.29615 -0.8717264,-8.716878 -6.449062 -1.303748,-8.556556 -5.313018 -0.7724802,-8.520804 -6.070791 -0.3694884,-8.596172 -6.753524 -0.2463268,-9.075272 -6.42369 -1.131259,-8.957594 -5.349332 -0.617532,-8.87247 -6.067518 -0.2727275,-8.910883 -6.787349 -0.1956694,-9.490765 -6.507972 -0.9459186,-9.436908 -5.579757 -0.5105665,-9.311947 -5.796913 -0.2678616,-9.282052 -6.290306 -0.2070017,6.410, 6
-2.106116 -9.089415 -0.7891347,-2.720974 -8.795967 -0.4891447,-3.286042 -8.06144 -0.3404053,-3.669703 -7.300951 -0.1626516,-4.043056 -6.797698 0.05308157,-3.052605 -6.391031 -0.7481767,-3.290607 -5.356826 -0.6022028,-3.381645 -4.724546 -0.4780031,-3.434467 -4.135673 -0.3479817,-2.718518 -6.138187 -0.7252586,-2.894759 -4.960588 -0.6079808,-2.894759 -4.960588 -0.6079808,-2.989498 -3.623718 -0.3306178,-2.380366 -6.129344 -0.6304127,-2.484482 -5.048858 -0.4995237,-2.559445 -4.408445 -0.3345299,-2.611627 -3.821199 -0.2060094,-2.016807 -6.342691 -0.4903452,-1.995567 -5.499973 -0.3462357,-2.004407 -4.981144 -0.1981468,-2.01177 -4.493074 -0.08998042,-9.263934 -9.134356 -2.021045,-8.675673 -8.879059 -1.571022,-8.185728 -8.133425 -1.348257,-7.971802 -7.319493 -1.124012,-7.982751 -6.672567 -0.9648449,-8.448143 -6.797058 -2.003861,-8.257821 -5.799108 -1.554297,-8.136494 -5.320714 -1.231164,-8.039395 -4.882802 -1.081769,-8.794473 -6.641162 -1.966968,-8.677569 -5.847698 -1.109688,-8.680538 -6.858638 -0.7299426,-8.721429 -7.579963 -0.7659162,-9.157379 -6.60651 -1.816756,-9.07816 -5.8181 -1.041746,-9.067916 -6.735664 -0.8011073,-9.077797 -7.412487 -0.924401,-9.561181 -6.678204 -1.641953,-9.552794 -5.770351 -1.125959,-9.467613 -6.096086 -0.9421571,-9.417618 -6.560949 -0.9972284,6.510, 6
-2.074802 -9.110107 -0.8511825,-2.702979 -8.823067 -0.5606189,-3.278517 -8.070896 -0.4311626,-3.668024 -7.305604 -0.273965,-4.041924 -6.810253 -0.0832383,-3.020355 -6.415798 -0.8514055,-3.259634 -5.36865 -0.7354293,-3.355137 -4.731477 -0.6346258,-3.409574 -4.152407 -0.5236868,-2.68374 -6.17563 -0.8436269,-2.852442 -4.982826 -0.7627308,-2.852442 -4.982826 -0.7627308,-2.932693 -3.640747 -0.5406414,-2.348424 -6.166156 -0.761258,-2.452139 -5.079865 -0.6744418,-2.52814 -4.439981 -0.5426208,-2.577412 -3.860473 -0.4357436,-1.992189 -6.368606 -0.6340688,-1.972769 -5.522862 -0.5350156,-1.986706 -5.014852 -0.4123801,-1.99577 -4.537916 -0.3223812,-9.19451 -9.095547 -2.393059,-8.644494 -8.825588 -1.873124,-8.126084 -8.189072 -1.562112,-7.926983 -7.413183 -1.26565,-8.120897 -6.820617 -1.05601,-8.406353 -6.874623 -2.22557,-8.214001 -5.938537 -1.729745,-8.090538 -5.502487 -1.378771,-7.962843 -5.097476 -1.193488,-8.755364 -6.711612 -2.207109,-8.62643 -6.01354 -1.311796,-8.634304 -6.990668 -0.9571009,-8.674671 -7.737541 -1.005265,-9.137925 -6.688364 -2.057887,-9.044258 -5.977226 -1.275194,-9.036594 -6.868345 -1.023578,-9.049678 -7.571496 -1.120322,-9.559856 -6.768184 -1.881082,-9.551749 -5.907562 -1.384186,-9.450625 -6.243764 -1.195931,-9.389548 -6.754571 -1.237679,6.610, 6
-2.077231 -9.136858 -0.8725171,-2.709258 -8.837749 -0.5898215,-3.277363 -8.089745 -0.4645724,-3.658957 -7.314847 -0.3111371,-4.027826 -6.821651 -0.1253922,-3.017917 -6.450738 -0.8758817,-3.260361 -5.40719 -0.7572547,-3.354852 -4.768531 -0.6538705,-3.409716 -4.178581 -0.538424,-2.679834 -6.207303 -0.8629707,-2.848177 -5.012825 -0.778204,-2.848177 -5.012825 -0.778204,-2.926793 -3.651639 -0.5295246,-2.343116 -6.193252 -0.7765529,-2.444026 -5.10713 -0.6850686,-2.515928 -4.460216 -0.5424752,-2.562929 -3.870574 -0.4246335,-1.988242 -6.391477 -0.6490256,-1.961786 -5.541599 -0.5418504,-1.969819 -5.027179 -0.4156076,-1.975205 -4.539735 -0.3189362,-9.156915 -9.123213 -2.47951,-8.628222 -8.868368 -1.967063,-8.096437 -8.195713 -1.639916,-7.910229 -7.420307 -1.328295,-8.165836 -6.889459 -1.110076,-8.378648 -6.929851 -2.255526,-8.19079 -6.049113 -1.738474,-8.062709 -5.636287 -1.386639,-7.921498 -5.243762 -1.183511,-8.732504 -6.768879 -2.218662,-8.609614 -6.118934 -1.32312,-8.614983 -7.109943 -1.001567,-8.642534 -7.856456 -1.072941,-9.119421 -6.750509 -2.047695,-9.026163 -6.065306 -1.282096,-9.014915 -6.950716 -1.062288,-9.026836 -7.636142 -1.162127,-9.546452 -6.833414 -1.845774,-9.549692 -5.969718 -1.359033,-9.450855 -6.331621 -1.180847,-9.395452 -6.855278 -1.223052,6.710, 6
-2.073325 -9.151913 -0.8336062,-2.700913 -8.864561 -0.5514235,-3.268475 -8.107571 -0.4289564,-3.651327 -7.326095 -0.2771566,-4.025506 -6.832477 -0.08824652,-3.01046 -6.454535 -0.8366058,-3.251835 -5.407289 -0.7169931,-3.349233 -4.768247 -0.6159722,-3.405949 -4.182264 -0.5035088,-2.67558 -6.210931 -0.8202219,-2.841805 -5.017044 -0.7325386,-2.841805 -5.017044 -0.7325386,-2.917476 -3.656543 -0.4943353,-2.341231 -6.201974 -0.7297612,-2.441701 -5.112352 -0.6340111,-2.514801 -4.463003 -0.4964963,-2.560985 -3.872911 -0.3847651,-1.984884 -6.410497 -0.5969411,-1.958947 -5.561487 -0.4883115,-1.969072 -5.044891 -0.3630159,-1.973723 -4.558793 -0.2691895,-9.153255 -9.197466 -2.857775,-8.653336 -9.015703 -2.345842,-8.093292 -8.352438 -2.049956,-7.898643 -7.589316 -1.778872,-8.185998 -7.136516 -1.598438,-8.407057 -7.143059 -2.586297,-8.184044 -6.286606 -2.093521,-8.011325 -5.899318 -1.762142,-7.844417 -5.526348 -1.547764,-8.743708 -6.957094 -2.54829,-8.585423 -6.331324 -1.689499,-8.60319 -7.295641 -1.386055,-8.661693 -8.018238 -1.434098,-9.119087 -6.907062 -2.380802,-9.004013 -6.225296 -1.648396,-9.003144 -7.093015 -1.444884,-9.034708 -7.768363 -1.521608,-9.543913 -6.959384 -2.175258,-9.525193 -6.110878 -1.705603,-9.425994 -6.470203 -1.543094,-9.382091 -6.988039 -1.576084,6.810, 6
-2.063335 -9.141697 -0.8469371,-2.691548 -8.8526 -0.5571649,-3.2687 -8.099674 -0.4328851,-3.656195 -7.32212 -0.2800381,-4.025724 -6.830043 -0.09113359,-3.007052 -6.441309 -0.8371981,-3.2558 -5.382318 -0.7184619,-3.353381 -4.735835 -0.6178745,-3.409218 -4.147148 -0.5072924,-2.67205 -6.205955 -0.8293428,-2.843313 -5.00333 -0.7446634,-2.843313 -5.00333 -0.7446634,-2.912922 -3.649519 -0.5173436,-2.33633 -6.201361 -0.7487601,-2.438548 -5.110998 -0.6610495,-2.508848 -4.467324 -0.527571,-2.554038 -3.88446 -0.421699,-1.979959 -6.411127 -0.6223797,-1.95795 -5.574417 -0.5221294,-1.968623 -5.070978 -0.4013828,-1.973326 -4.595031 -0.3107126,-9.14038 -9.248278 -2.873388,-8.64852 -9.078434 -2.353223,-8.091784 -8.421398 -2.03133,-7.897163 -7.694166 -1.739033,-8.180863 -7.260617 -1.525767,-8.403796 -7.197318 -2.542712,-8.17978 -6.343568 -2.003925,-7.990039 -5.974248 -1.634074,-7.808437 -5.632134 -1.40363,-8.738132 -7.02032 -2.503731,-8.578611 -6.410079 -1.616721,-8.592539 -7.384599 -1.308867,-8.652782 -8.081385 -1.35183,-9.112915 -6.973707 -2.333749,-8.998819 -6.322452 -1.57951,-8.997444 -7.205228 -1.392424,-9.037063 -7.857542 -1.48061,-9.535365 -7.018034 -2.125171,-9.507909 -6.189052 -1.624789,-9.410949 -6.610635 -1.466011,-9.375619 -7.149457 -1.509384,6.910, 6
-2.052475 -9.149473 -0.8442149,-2.68768 -8.862728 -0.5547881,-3.265175 -8.120173 -0.4247143,-3.652342 -7.34693 -0.2680629,-4.021318 -6.847341 -0.07668757,-3.004591 -6.45698 -0.8177028,-3.254537 -5.403105 -0.695565,-3.353262 -4.762411 -0.59486,-3.410583 -4.174624 -0.4837564,-2.670289 -6.215005 -0.8100301,-2.844109 -5.016716 -0.7144778,-2.844109 -5.016716 -0.7144778,-2.919943 -3.664564 -0.4737045,-2.334749 -6.202461 -0.7300359,-2.437543 -5.111558 -0.630938,-2.507565 -4.469734 -0.4884873,-2.55406 -3.880828 -0.3749991,-1.979567 -6.404888 -0.6090935,-1.954293 -5.563006 -0.4973142,-1.960385 -5.055371 -0.3686479,-1.961278 -4.569373 -0.2737734,-9.094544 -9.304966 -3.02402,-8.603917 -9.167089 -2.538435,-8.055953 -8.55735 -2.224035,-7.868113 -7.873585 -1.940042,-8.151388 -7.451791 -1.738818,-8.350434 -7.335724 -2.601025,-8.110085 -6.517751 -2.045447,-7.898701 -6.165973 -1.667049,-7.692733 -5.853446 -1.416744,-8.68265 -7.144683 -2.544365,-8.51646 -6.596166 -1.659301,-8.521832 -7.51406 -1.320556,-8.572901 -8.190636 -1.305057,-9.055529 -7.082953 -2.366724,-8.92544 -6.49452 -1.625001,-8.927488 -7.338754 -1.403696,-8.970468 -7.991248 -1.438832,-9.473028 -7.104923 -2.153543,-9.439342 -6.285217 -1.66222,-9.336661 -6.662982 -1.481237,-9.292471 -7.193101 -1.483846,7.010, 6
-2.062792 -9.148556 -0.8411832,-2.696952 -8.874056 -0.5556538,-3.27514 -8.108803 -0.4380472,-3.659096 -7.328964 -0.2941722,-4.028971 -6.847828 -0.1225558,-3.009073 -6.450458 -0.8249815,-3.255147 -5.397747 -0.7003834,-3.350655 -4.755872 -0.6037091,-3.403412 -4.170785 -0.5000737,-2.672314 -6.211385 -0.8168872,-2.845829 -5.013242 -0.7126885,-2.845829 -5.013242 -0.7126885,-2.918833 -3.655817 -0.4723546,-2.335423 -6.204315 -0.7357886,-2.441453 -5.112207 -0.626286,-2.510767 -4.468187 -0.4844424,-2.554312 -3.874516 -0.3734988,-1.980317 -6.411792 -0.6138875,-1.959945 -5.566547 -0.4967314,-1.967885 -5.058274 -0.3679631,-1.968961 -4.572155 -0.2737957,-9.086435 -9.333427 -3.018368,-8.603462 -9.234741 -2.544206,-8.0481 -8.630291 -2.237133,-7.853976 -7.966643 -1.96015,-8.124205 -7.540774 -1.758675,-8.318575 -7.385486 -2.595398,-8.068692 -6.588832 -2.030588,-7.85809 -6.24537 -1.643432,-7.652276 -5.922905 -1.388017,-8.645535 -7.178039 -2.535063,-8.470575 -6.651197 -1.651711,-8.482326 -7.602573 -1.345388,-8.537568 -8.254145 -1.356143,-9.018304 -7.107479 -2.349729,-8.878214 -6.537038 -1.601986,-8.880886 -7.4119 -1.408377,-8.930853 -8.039589 -1.46505,-9.439824 -7.12305 -2.131819,-9.39538 -6.333843 -1.62768,-9.293694 -6.757419 -1.467228,-9.258165 -7.281858 -1.491806,7.110, 6
-2.070129 -9.137785 -0.8349735,-2.709342 -8.841713 -0.5507237,-3.285091 -8.094284 -0.4215162,-3.672745 -7.320405 -0.2674804,-4.042021 -6.826643 -0.08320463,-3.00982 -6.435563 -0.7967446,-3.257393 -5.387551 -0.6746351,-3.355261 -4.753355 -0.5781428,-3.411354 -4.167776 -0.4690211,-2.671988 -6.197554 -0.7840707,-2.842224 -5.007691 -0.6845306,-2.842224 -5.007691 -0.6845306,-2.918052 -3.654806 -0.4463848,-2.335606 -6.194055 -0.7012727,-2.438226 -5.110614 -0.5992002,-2.511112 -4.469711 -0.4581919,-2.5576 -3.887357 -0.3451582,-1.980124 -6.407824 -0.5758245,-1.952569 -5.572076 -0.4582908,-1.961018 -5.061857 -0.3262388,-1.964639 -4.576797 -0.2273806,-9.035099 -9.328829 -2.992097,-8.560124 -9.269129 -2.469456,-8.00744 -8.66997 -2.124056,-7.809764 -8.036049 -1.823301,-8.062185 -7.615491 -1.592894,-8.252966 -7.398651 -2.452106,-7.999254 -6.624527 -1.832595,-7.782175 -6.287214 -1.409592,-7.561703 -5.975942 -1.136652,-8.582982 -7.195514 -2.398666,-8.417974 -6.706814 -1.46925,-8.431796 -7.683731 -1.170587,-8.478948 -8.321226 -1.196051,-8.963712 -7.128521 -2.217932,-8.824272 -6.595281 -1.433908,-8.826572 -7.4752 -1.262247,-8.871572 -8.078037 -1.336361,-9.389059 -7.140245 -2.000781,-9.3403 -6.382942 -1.474207,-9.237375 -6.829904 -1.334823,-9.201276 -7.341311 -1.376527,7.210, 6
-2.067474 -9.138891 -0.8525561,-2.699148 -8.85136 -0.5730772,-3.274719 -8.100035 -0.4424117,-3.663585 -7.325063 -0.2861719,-4.038027 -6.840884 -0.09261239,-3.006992 -6.447412 -0.8111148,-3.25709 -5.390531 -0.6827464,-3.355692 -4.747259 -0.5797123,-3.413212 -4.153224 -0.4638436,-2.670428 -6.204158 -0.7932613,-2.843179 -5.006897 -0.6822993,-2.843179 -5.006897 -0.6822993,-2.921407 -3.642886 -0.4363697,-2.334624 -6.194131 -0.7068231,-2.43898 -5.102117 -0.5983297,-2.512879 -4.455541 -0.4574608,-2.560497 -3.867738 -0.3435621,-1.978376 -6.399353 -0.5789832,-1.954274 -5.556657 -0.4596259,-1.963299 -5.043118 -0.3316682,-1.96743 -4.551588 -0.2344798,-9.029088 -9.233095 -3.126224,-8.542818 -9.226328 -2.585199,-7.977465 -8.667511 -2.231988,-7.760871 -8.03828 -1.918459,-8.00515 -7.608272 -1.6873,-8.190971 -7.387227 -2.54687,-7.919623 -6.600835 -1.930699,-7.703369 -6.249032 -1.518019,-7.485076 -5.914642 -1.245385,-8.532848 -7.160444 -2.498747,-8.346093 -6.677223 -1.573327,-8.367239 -7.640838 -1.287368,-8.42227 -8.256943 -1.320826,-8.920494 -7.073564 -2.326077,-8.765229 -6.559399 -1.534102,-8.77561 -7.442695 -1.347636,-8.830081 -8.043533 -1.413775,-9.35022 -7.070733 -2.115532,-9.290595 -6.327199 -1.578029,-9.186373 -6.764368 -1.428686,-9.157125 -7.276222 -1.459776,7.310, 6
-2.069859 -9.131432 -0.8736008,-2.702337 -8.845896 -0.608174,-3.278823 -8.095829 -0.4895773,-3.662216 -7.328189 -0.3390677,-4.033657 -6.841737 -0.1550168,-3.013258 -6.437427 -0.8599203,-3.257549 -5.384163 -0.7371475,-3.355894 -4.743106 -0.6429484,-3.411979 -4.15275 -0.5362843,-2.674617 -6.202861 -0.8346267,-2.841427 -5.011241 -0.7327071,-2.841427 -5.011241 -0.7327071,-2.916445 -3.66191 -0.5003295,-2.33569 -6.197858 -0.7392248,-2.436121 -5.110869 -0.6364443,-2.506216 -4.464466 -0.4988693,-2.553329 -3.880563 -0.3881097,-1.977187 -6.406745 -0.6037745,-1.951545 -5.558567 -0.4888326,-1.959969 -5.044757 -0.3585463,-1.96503 -4.55862 -0.2601559,-8.955341 -9.142746 -2.90849,-8.480284 -9.155329 -2.360878,-7.895751 -8.609528 -2.001475,-7.674563 -7.988824 -1.689671,-7.929474 -7.548769 -1.440327,-8.119673 -7.237462 -2.336032,-7.835472 -6.485314 -1.699406,-7.614101 -6.156374 -1.273363,-7.383488 -5.850799 -0.9993235,-8.466642 -6.99752 -2.296007,-8.273538 -6.567262 -1.356925,-8.304778 -7.575194 -1.083224,-8.364135 -8.204325 -1.143873,-8.862952 -6.918209 -2.123056,-8.706295 -6.464033 -1.327357,-8.722907 -7.382051 -1.155516,-8.775561 -7.96536 -1.244024,-9.300554 -6.926849 -1.912521,-9.239687 -6.23386 -1.368623,-9.140151 -6.746335 -1.217466,-9.10897 -7.265762 -1.254263,7.410, 6
-2.071697 -9.126709 -0.8975902,-2.708946 -8.843945 -0.6465829,-3.278974 -8.096416 -0.5293534,-3.659745 -7.321174 -0.3816834,-4.032635 -6.843364 -0.2004126,-3.009945 -6.445144 -0.8824865,-3.25206 -5.389665 -0.7643318,-3.347139 -4.749917 -0.6723989,-3.3985 -4.160247 -0.5701866,-2.671821 -6.204237 -0.8559406,-2.841485 -5.008705 -0.7544062,-2.841485 -5.008705 -0.7544062,-2.914751 -3.646595 -0.5153046,-2.333294 -6.194584 -0.7632318,-2.436781 -5.103721 -0.6637248,-2.50771 -4.459291 -0.5337363,-2.551702 -3.872896 -0.4268809,-1.974819 -6.39941 -0.6324067,-1.949589 -5.552084 -0.5216133,-1.954573 -5.039819 -0.4012591,-1.954108 -4.554801 -0.3106686,-8.920138 -9.123459 -2.431031,-8.453056 -9.132048 -1.88442,-7.846785 -8.575857 -1.520535,-7.626665 -7.951251 -1.205828,-7.925653 -7.529165 -0.9526712,-8.06893 -7.077854 -1.874128,-7.793536 -6.408497 -1.193303,-7.579504 -6.11535 -0.7517283,-7.338695 -5.82245 -0.4829956,-8.432173 -6.829435 -1.833736,-8.234769 -6.505113 -0.8873185,-8.280427 -7.569351 -0.6517684,-8.340844 -8.203468 -0.7618371,-8.844998 -6.784572 -1.651507,-8.677345 -6.43223 -0.8350565,-8.705351 -7.415509 -0.717123,-8.760326 -7.996402 -0.8608986,-9.299811 -6.841859 -1.431003,-9.217843 -6.224159 -0.856752,-9.116614 -6.824725 -0.7265381,-9.084572 -7.367256 -0.7988005,7.510, 6
-2.067856 -9.127106 -0.9011217,-2.696117 -8.834534 -0.62656,-3.263399 -8.087473 -0.499718,-3.647213 -7.314047 -0.3459171,-4.019494 -6.836223 -0.1595793,-3.000462 -6.447183 -0.8576374,-3.247557 -5.396319 -0.7273429,-3.344218 -4.758906 -0.6317172,-3.400406 -4.170484 -0.5221555,-2.663987 -6.205249 -0.8367925,-2.836837 -5.008963 -0.7245784,-2.836837 -5.008963 -0.7245784,-2.917888 -3.643556 -0.483536,-2.327933 -6.197963 -0.7489814,-2.428775 -5.102454 -0.6338186,-2.501738 -4.447512 -0.4924051,-2.552374 -3.856591 -0.383162,-1.97202 -6.408025 -0.6206231,-1.943507 -5.558518 -0.4961338,-1.948621 -5.043684 -0.3654855,-1.952437 -4.559125 -0.2682608,-8.882641 -9.077208 -1.878665,-8.399889 -9.075029 -1.265371,-7.769841 -8.514759 -0.8686036,-7.545773 -7.905455 -0.5283734,-7.841431 -7.505538 -0.2425736,-8.000126 -6.894414 -1.228472,-7.744221 -6.335495 -0.4444722,-7.53218 -6.080797 0.03596973,-7.275508 -5.811882 0.3014274,-8.387262 -6.638186 -1.20635,-8.211057 -6.443031 -0.1914994,-8.271493 -7.557621 0.03500497,-8.323396 -8.200987 -0.09537327,-8.821011 -6.627833 -1.026741,-8.658869 -6.415094 -0.1027135,-8.688931 -7.449077 0.004983068,-8.726619 -8.025866 -0.1612152,-9.293367 -6.744976 -0.8072985,-9.214806 -6.214828 -0.1784812,-9.119129 -6.832686 -0.03134763,-9.073133 -7.338459 -0.1021347,7.610, 6
-2.038355 -9.109573 -0.9430673,-2.67077 -8.819939 -0.6665487,-3.241621 -8.084257 -0.5376715,-3.625491 -7.31421 -0.3857109,-3.996548 -6.836547 -0.2041467,-2.971064 -6.446756 -0.8972225,-3.218037 -5.402165 -0.7786368,-3.316566 -4.765198 -0.6796683,-3.372754 -4.174371 -0.5662879,-2.635204 -6.19992 -0.8864434,-2.810191 -5.014024 -0.7850733,-2.810191 -5.014024 -0.7850733,-2.89334 -3.658453 -0.5334946,-2.298851 -6.187192 -0.8114061,-2.401831 -5.103513 -0.7123411,-2.474949 -4.46561 -0.5685476,-2.525411 -3.888327 -0.4538512,-1.94267 -6.385389 -0.6957959,-1.91358 -5.543125 -0.5790447,-1.913706 -5.037712 -0.4495095,-1.91339 -4.56224 -0.3485657,-8.888519 -9.079813 -1.421992,-8.382214 -9.110092 -0.7989251,-7.719221 -8.540146 -0.3942417,-7.503081 -7.910259 -0.05216062,-7.848719 -7.541738 0.23894,-7.957396 -6.836875 -0.7133308,-7.736921 -6.346129 0.1063083,-7.525474 -6.120171 0.6185999,-7.271064 -5.887441 0.9015858,-8.363225 -6.521335 -0.7048065,-8.206659 -6.474662 0.3140943,-8.27529 -7.60456 0.5280795,-8.336024 -8.247416 0.4288045,-8.812778 -6.498342 -0.5405769,-8.656734 -6.455581 0.3583702,-8.692451 -7.506826 0.4224732,-8.734166 -8.070007 0.2668525,-9.307154 -6.617704 -0.337713,-9.215903 -6.237773 0.2652268,-9.129591 -6.931264 0.3821851,-9.094878 -7.441032 0.3176597,7.710, 6
