TiagoOliveira98/Thesis-Project/Difficulty_1/Dual_Task/Unity_Project/DataLogging/JointData/Logs(1646448940)_a4_Dual.csv
WRIST,THUMB_CMC,THUMB_MCP,THUMB_IP,THUMB_TIP,INDEX_FINGER_MCP,INDEX_FINGER_PIP,INDEX_FINGER_DIP,INDEX_FINGER_TIP,MIDDLE_FINGER_MCP,MIDDLE_FINGER_PIP,MIDDLE_FINGER_DIP,MIDDLE_FINGER_TIP,RING_FINGER_MCP,RING_FINGER_PIP,RING_FINGER_DIP,RING_FINGER_TIP,PINKY_MCP,PINKY_PIP,PINKY_DIP,PINKY_TIP,WRIST2,THUMB_CMC2,THUMB_MCP2,THUMB_IP2,THUMB_TIP2,INDEX_FINGER_MCP2,INDEX_FINGER_PIP2,INDEX_FINGER_DIP2,INDEX_FINGER_TIP2,MIDDLE_FINGER_MCP2,MIDDLE_FINGER_PIP2,MIDDLE_FINGER_DIP2,MIDDLE_FINGER_TIP2,RING_FINGER_MCP2,RING_FINGER_PIP2,RING_FINGER_DIP2,RING_FINGER_TIP2,PINKY_MCP2,PINKY_PIP2,PINKY_DIP2,PINKY_TIP2,Timestamp,Event
-1.984456 -7.997789 0.0002035625,-2.662048 -7.848367 0.2546603,-3.29191 -7.366883 0.3736668,-3.788731 -6.841274 0.4969645,-4.15269 -6.561832 0.6346769,-2.918612 -5.533653 0.0269539,-3.222767 -4.493139 0.1680757,-3.364908 -3.845797 0.3048043,-3.455891 -3.257058 0.4392077,-2.572816 -5.229285 0.07333579,-2.80617 -3.987146 0.1975214,-2.80617 -3.987146 0.1975214,-2.999237 -2.558523 0.5093586,-2.208885 -5.180748 0.1774108,-2.349122 -3.996751 0.327458,-2.449476 -3.255969 0.5074027,-2.531137 -2.649688 0.637555,-1.806064 -5.360975 0.3168796,-1.716454 -4.41934 0.4746003,-1.671772 -3.830498 0.6253749,-1.641627 -3.281608 0.7466967,-8.73315 -8.401102 0.0009312677,-8.040118 -8.144716 0.2054809,-7.404973 -7.439369 0.4069109,-6.934324 -6.834856 0.6633124,-6.514737 -6.518358 0.9773188,-7.856918 -5.454305 0.02551214,-7.666471 -4.27394 0.1380584,-7.581442 -3.536607 0.3036831,-7.503139 -2.910853 0.4420051,-8.257048 -5.225349 0.1383918,-8.093484 -3.863395 0.1924172,-7.981685 -2.996471 0.4001375,-7.888278 -2.260595 0.5889003,-8.656924 -5.287662 0.2865243,-8.540925 -4.016504 0.3516445,-8.432655 -3.231261 0.5015929,-8.319244 -2.574648 0.6231856,-9.072238 -5.592533 0.4712098,-9.124323 -4.600954 0.5941524,-9.122613 -3.958318 0.7144166,-9.088017 -3.360951 0.7996762,0.010, 16 1
-2.00631 -7.977558 -0.1098856,-2.671146 -7.828695 0.1518189,-3.298271 -7.344752 0.2902376,-3.802202 -6.835775 0.4237484,-4.167406 -6.583309 0.5604984,-2.919213 -5.53206 -0.01874207,-3.217113 -4.47377 0.1362894,-3.356625 -3.821165 0.2861683,-3.449573 -3.235755 0.4395213,-2.576867 -5.239998 0.02857117,-2.805287 -3.984832 0.1892096,-2.805287 -3.984832 0.1892096,-2.998188 -2.535267 0.5514752,-2.212892 -5.198157 0.1295713,-2.355594 -4.012976 0.3097088,-2.458588 -3.264306 0.4874921,-2.548279 -2.65162 0.6273799,-1.814077 -5.383042 0.2657914,-1.720321 -4.444038 0.4389967,-1.667493 -3.841692 0.5847769,-1.632355 -3.268789 0.7057292,-8.814303 -8.555092 0.4746288,-8.106241 -8.206549 0.6994477,-7.473564 -7.492399 0.9086527,-6.99826 -6.85709 1.165287,-6.545787 -6.529457 1.502929,-7.882668 -5.490188 0.5309944,-7.658798 -4.279344 0.7021418,-7.561512 -3.580094 0.9094682,-7.476428 -2.955032 1.042228,-8.279881 -5.25293 0.6463779,-8.117657 -3.818032 0.7468433,-8.01705 -2.951128 0.9863641,-7.928303 -2.224121 1.16537,-8.668927 -5.317285 0.7989246,-8.565816 -3.978853 0.9315916,-8.471675 -3.174995 1.127875,-8.362752 -2.491644 1.27014,-9.07126 -5.618722 0.9945741,-9.133638 -4.617551 1.186911,-9.13211 -3.954125 1.330135,-9.082986 -3.337142 1.40195,0.110, 16 1
-1.988651 -7.982223 -0.03090566,-2.65888 -7.838495 0.2416704,-3.268095 -7.369313 0.3841586,-3.739394 -6.825095 0.5189117,-4.120808 -6.561678 0.6574109,-2.905871 -5.525953 0.06100733,-3.20697 -4.484191 0.2045836,-3.352727 -3.855424 0.3463617,-3.461329 -3.273366 0.4922677,-2.549102 -5.219157 0.1003343,-2.779107 -3.979969 0.2659502,-2.779107 -3.979969 0.2659502,-2.980357 -2.538291 0.6341977,-2.181494 -5.179698 0.1920843,-2.330707 -4.002685 0.367332,-2.438185 -3.270586 0.5529934,-2.53007 -2.654178 0.7030198,-1.776412 -5.366298 0.3184013,-1.703238 -4.427063 0.4900624,-1.664639 -3.832954 0.6557833,-1.641353 -3.267704 0.8026995,-8.786576 -8.520323 0.4237466,-8.0861 -8.196472 0.7120438,-7.446086 -7.484317 0.9587701,-6.967497 -6.860059 1.250881,-6.520672 -6.551801 1.579798,-7.843954 -5.4825 0.6192217,-7.6444 -4.323091 0.796657,-7.55662 -3.585311 1.006624,-7.478252 -2.947912 1.158169,-8.246122 -5.240943 0.6994789,-8.090031 -3.871432 0.8108109,-7.990999 -3.007296 1.047388,-7.909877 -2.270438 1.228856,-8.646641 -5.286806 0.8151038,-8.548587 -4.017475 0.9339684,-8.45177 -3.257563 1.100608,-8.348944 -2.619577 1.212718,-9.055636 -5.562919 0.9753639,-9.118756 -4.60436 1.128977,-9.1166 -3.970759 1.252762,-9.081997 -3.366483 1.327207,0.210, 16 1
-2.016635 -7.965825 -0.1833463,-2.67959 -7.809155 0.07576692,-3.283364 -7.340168 0.215957,-3.751154 -6.812654 0.3544251,-4.120081 -6.529451 0.4961783,-2.89306 -5.529331 -0.08051658,-3.199016 -4.482456 0.07628852,-3.343267 -3.837037 0.2298351,-3.44005 -3.233692 0.3822913,-2.539015 -5.240804 -0.03114927,-2.766411 -4.001037 0.1382817,-2.766411 -4.001037 0.1382817,-2.954084 -2.538534 0.5197054,-2.173193 -5.20543 0.0729363,-2.316815 -4.030157 0.2450004,-2.421276 -3.2844 0.4294241,-2.511928 -2.657899 0.5822869,-1.770971 -5.389217 0.2058224,-1.698032 -4.451193 0.3699873,-1.656441 -3.854353 0.5250776,-1.632885 -3.292602 0.6650251,-8.753124 -8.490158 0.2466475,-8.073626 -8.175505 0.5238574,-7.445796 -7.478014 0.7730345,-6.975505 -6.842054 1.072088,-6.538978 -6.512379 1.410548,-7.840688 -5.501915 0.4383793,-7.644415 -4.312439 0.6244183,-7.551531 -3.569617 0.8328394,-7.467054 -2.927623 0.9845274,-8.241498 -5.259134 0.5402012,-8.08022 -3.853617 0.6685973,-7.969893 -2.984403 0.9096935,-7.880763 -2.246763 1.089947,-8.64382 -5.304397 0.6771058,-8.533384 -4.007307 0.8200481,-8.425924 -3.230739 1.005212,-8.312148 -2.573297 1.132104,-9.056125 -5.582464 0.854715,-9.113228 -4.600482 1.033936,-9.103449 -3.956598 1.176839,-9.061266 -3.337019 1.261377,0.310, 16 1
-2.020147 -7.962093 -0.1472758,-2.673148 -7.813282 0.1283087,-3.272779 -7.353792 0.2829392,-3.743147 -6.830723 0.4322633,-4.110159 -6.547287 0.583131,-2.877484 -5.514489 -0.01634857,-3.183498 -4.469715 0.1544113,-3.329042 -3.828997 0.3210811,-3.427694 -3.228705 0.4805301,-2.528847 -5.225329 0.02705732,-2.758369 -3.986964 0.2084467,-2.758369 -3.986964 0.2084467,-2.946394 -2.52164 0.6013467,-2.164105 -5.197252 0.1257115,-2.305221 -4.024189 0.3112609,-2.406852 -3.279514 0.5089797,-2.497707 -2.650335 0.6706633,-1.761268 -5.393606 0.2532109,-1.682663 -4.46228 0.4287788,-1.635523 -3.861661 0.5938314,-1.608706 -3.283341 0.7438068,-8.762324 -8.451551 0.2033963,-8.067401 -8.144064 0.4517391,-7.434555 -7.451793 0.6814102,-6.963512 -6.823325 0.9659253,-6.530643 -6.511621 1.284263,-7.839457 -5.480075 0.3364795,-7.647237 -4.308364 0.4976929,-7.558813 -3.582255 0.6951239,-7.48208 -2.960138 0.8422694,-8.239845 -5.22973 0.4340478,-8.073363 -3.835124 0.5366734,-7.967905 -2.966725 0.7613298,-7.884554 -2.230062 0.9381317,-8.642188 -5.262573 0.5672584,-8.524575 -3.963731 0.6828901,-8.421344 -3.173828 0.8383003,-8.313257 -2.512024 0.9457722,-9.056949 -5.530563 0.7392302,-9.11395 -4.538994 0.8808358,-9.105906 -3.885751 0.9974844,-9.066822 -3.268163 1.066039,0.410, 16 1
-2.000792 -7.985244 -0.1355464,-2.656872 -7.818843 0.1337512,-3.263041 -7.350898 0.281744,-3.741712 -6.831896 0.4185047,-4.115029 -6.558183 0.562775,-2.873128 -5.535345 -0.001580387,-3.17459 -4.484012 0.1497983,-3.32133 -3.833801 0.3071046,-3.425771 -3.233282 0.4645867,-2.524834 -5.247864 0.03767405,-2.746738 -4.015683 0.2088279,-2.746738 -4.015683 0.2088279,-2.937246 -2.556268 0.6033674,-2.159724 -5.21603 0.1339695,-2.30131 -4.039313 0.3125139,-2.401998 -3.282062 0.5134763,-2.497624 -2.648305 0.6800767,-1.758537 -5.406039 0.2539786,-1.67799 -4.465926 0.4284128,-1.627804 -3.861827 0.5916116,-1.59804 -3.292613 0.7424733,-8.746509 -8.452438 0.2055557,-8.063365 -8.138832 0.4932536,-7.440127 -7.449964 0.7512373,-6.975063 -6.829406 1.058414,-6.536626 -6.516458 1.408305,-7.844066 -5.467734 0.4227534,-7.656917 -4.289663 0.6091592,-7.571814 -3.560494 0.8179264,-7.497148 -2.928585 0.9677529,-8.247978 -5.233263 0.5197854,-8.087348 -3.840832 0.6467844,-7.983764 -2.969697 0.8846559,-7.90402 -2.228093 1.071343,-8.649714 -5.287267 0.6513238,-8.541481 -4.004179 0.7932923,-8.441102 -3.218614 0.9726516,-8.338191 -2.559688 1.099497,-9.06356 -5.574584 0.8246748,-9.114044 -4.584779 0.9954177,-9.103677 -3.930351 1.132547,-9.064026 -3.311567 1.219338,0.510, 16 1
-2.004128 -7.966597 -0.0924826,-2.660551 -7.824459 0.187343,-3.271059 -7.35991 0.3292739,-3.746603 -6.819334 0.4670332,-4.114279 -6.521711 0.6125507,-2.888152 -5.511543 -0.0008634999,-3.193958 -4.466686 0.1512287,-3.335877 -3.822264 0.3043554,-3.430901 -3.224707 0.4587618,-2.538937 -5.2164 0.03857233,-2.760317 -3.97857 0.1904042,-2.760317 -3.97857 0.1904042,-2.937621 -2.52249 0.5651867,-2.175433 -5.182298 0.1360293,-2.31346 -4.011854 0.3030329,-2.41266 -3.267017 0.4949464,-2.503483 -2.63792 0.6515015,-1.772368 -5.371995 0.265741,-1.694139 -4.450297 0.4240867,-1.644846 -3.860593 0.5811458,-1.615084 -3.297756 0.7242845,-8.773683 -8.431843 0.09172918,-8.077981 -8.145264 0.3634238,-7.442608 -7.460063 0.5968017,-6.970413 -6.831756 0.8801386,-6.538004 -6.521723 1.198869,-7.854609 -5.487257 0.2411097,-7.668276 -4.315728 0.4005533,-7.586504 -3.58496 0.598019,-7.512051 -2.958614 0.7428508,-8.256605 -5.241462 0.3214985,-8.091575 -3.847337 0.4149327,-7.98792 -2.981697 0.6344305,-7.907543 -2.251285 0.8075438,-8.658726 -5.278077 0.437931,-8.544069 -3.986576 0.5409488,-8.439061 -3.206262 0.6923912,-8.330944 -2.559812 0.7951776,-9.072749 -5.54357 0.5961597,-9.123361 -4.567153 0.7256747,-9.112326 -3.926086 0.8376034,-9.07122 -3.322752 0.9056032,0.610, 16 1
-1.994657 -7.978172 -0.05550851,-2.651073 -7.843762 0.2384976,-3.271322 -7.359151 0.3852022,-3.749109 -6.81226 0.5234219,-4.11661 -6.522695 0.6631924,-2.897839 -5.524365 0.07339227,-3.201989 -4.471741 0.2328051,-3.3478 -3.815602 0.3926451,-3.451103 -3.209657 0.5505461,-2.544894 -5.221436 0.09870884,-2.766737 -3.978819 0.2614753,-2.766737 -3.978819 0.2614753,-2.955621 -2.508498 0.6410604,-2.17891 -5.182295 0.1844795,-2.321823 -4.017176 0.3561732,-2.422944 -3.277467 0.5443451,-2.517752 -2.651581 0.6995052,-1.772876 -5.366756 0.3015148,-1.7004 -4.443292 0.4642636,-1.650975 -3.855062 0.6213948,-1.622668 -3.293766 0.76398,-8.774047 -8.464844 0.1365769,-8.087084 -8.16255 0.4244644,-7.46098 -7.457002 0.6649744,-6.996776 -6.828285 0.9524564,-6.557717 -6.509572 1.280189,-7.876963 -5.49802 0.3176674,-7.690511 -4.328104 0.4918266,-7.600698 -3.599286 0.6943899,-7.518773 -2.966642 0.8480982,-8.27808 -5.261047 0.4041901,-8.126891 -3.879731 0.5107661,-8.025158 -3.012811 0.7382039,-7.944747 -2.26537 0.9253631,-8.678691 -5.312278 0.5287755,-8.574469 -4.032169 0.6465545,-8.473294 -3.251781 0.8202227,-8.369005 -2.596231 0.9475555,-9.091284 -5.591745 0.6961685,-9.154009 -4.620553 0.8465831,-9.149801 -3.971894 0.9803707,-9.115742 -3.353795 1.066762,0.710, 16 1
-2.004001 -7.955648 -0.1193954,-2.666271 -7.816937 0.1820335,-3.285093 -7.342947 0.3397389,-3.757348 -6.804439 0.4853089,-4.12501 -6.519077 0.6335472,-2.904747 -5.517607 0.02859384,-3.208839 -4.474264 0.1991173,-3.354216 -3.833632 0.3592447,-3.458841 -3.23797 0.5148893,-2.548715 -5.217809 0.05722462,-2.774096 -3.981416 0.2330629,-2.774096 -3.981416 0.2330629,-2.963595 -2.515893 0.6123829,-2.181489 -5.179671 0.1451853,-2.325575 -4.017252 0.3271942,-2.425529 -3.274324 0.5122665,-2.517642 -2.645536 0.6651485,-1.776886 -5.365172 0.2655274,-1.708493 -4.439464 0.4280361,-1.666528 -3.850298 0.5826395,-1.643795 -3.289965 0.7242729,-8.779023 -8.444387 0.1388886,-8.093475 -8.165426 0.4468194,-7.467764 -7.462291 0.6876883,-7.004616 -6.832633 0.9725936,-6.575797 -6.508687 1.286024,-7.886559 -5.482093 0.3261874,-7.697459 -4.308848 0.5028723,-7.611931 -3.577498 0.7067632,-7.532978 -2.947381 0.8585789,-8.290607 -5.238578 0.4043608,-8.135653 -3.848614 0.5091556,-8.034026 -2.983922 0.7372645,-7.953144 -2.257545 0.9191654,-8.690726 -5.283956 0.5248275,-8.586054 -3.995206 0.6457974,-8.485439 -3.214694 0.8170545,-8.37765 -2.56851 0.9371046,-9.100402 -5.561038 0.6877813,-9.163393 -4.594415 0.8404886,-9.160151 -3.948513 0.9681014,-9.124205 -3.341808 1.046576,0.810, 16 1
-2.019682 -7.974288 -0.1022339,-2.686194 -7.844085 0.17851,-3.302319 -7.355541 0.3110393,-3.776457 -6.803392 0.4343185,-4.139612 -6.524587 0.5602366,-2.921431 -5.532487 -0.009426683,-3.22975 -4.486602 0.1313205,-3.378965 -3.849412 0.2721386,-3.490194 -3.262004 0.4134105,-2.567208 -5.228911 0.01663317,-2.793966 -3.991104 0.1721737,-2.793966 -3.991104 0.1721737,-2.987053 -2.540222 0.5414902,-2.2048 -5.185579 0.1031747,-2.35078 -4.022953 0.2701775,-2.456434 -3.283885 0.4523959,-2.553082 -2.661039 0.6012546,-1.805969 -5.367662 0.2199298,-1.741345 -4.444518 0.3737482,-1.700368 -3.850235 0.5284391,-1.676347 -3.284292 0.6673915,-8.812011 -8.448338 0.1467182,-8.118832 -8.158028 0.4632201,-7.489224 -7.468707 0.7189822,-7.019895 -6.834985 1.018575,-6.579295 -6.490844 1.358024,-7.898345 -5.487667 0.3591969,-7.707583 -4.322096 0.553987,-7.616952 -3.592515 0.7674444,-7.537013 -2.955862 0.9250277,-8.303113 -5.245949 0.4411985,-8.143874 -3.867793 0.5681477,-8.041413 -3.001586 0.8139077,-7.966215 -2.261192 1.013881,-8.706985 -5.299469 0.5661958,-8.601538 -4.028706 0.7053958,-8.499214 -3.244148 0.8938515,-8.391993 -2.587893 1.031667,-9.125167 -5.586257 0.7359283,-9.180603 -4.61697 0.910948,-9.166199 -3.965236 1.05704,-9.115969 -3.35183 1.156825,0.910, 16 1
-2.016563 -8.008135 -0.126457,-2.676305 -7.885371 0.1685915,-3.288607 -7.391927 0.3049486,-3.754456 -6.840505 0.4304221,-4.123528 -6.557443 0.5662422,-2.94151 -5.585105 -0.01336148,-3.249678 -4.551439 0.1416741,-3.395732 -3.91341 0.2911106,-3.501766 -3.321026 0.4381142,-2.588055 -5.275449 0.008189961,-2.821357 -4.0457 0.1541915,-2.821357 -4.0457 0.1541915,-3.016788 -2.588719 0.5253676,-2.222959 -5.231239 0.09402272,-2.374665 -4.06814 0.2494302,-2.481891 -3.328364 0.4352896,-2.580551 -2.706918 0.5925707,-1.820969 -5.413049 0.2105153,-1.7687 -4.488306 0.3598719,-1.737299 -3.892379 0.5206798,-1.724901 -3.326459 0.6685451,-8.802563 -8.443558 0.1245858,-8.117008 -8.156601 0.4033793,-7.496487 -7.451215 0.6476818,-7.037986 -6.810834 0.9386464,-6.606178 -6.488621 1.272245,-7.899769 -5.488658 0.3199632,-7.710517 -4.335073 0.5063741,-7.622429 -3.614028 0.7166131,-7.547301 -2.977935 0.8147475,-8.300997 -5.242927 0.3775842,-8.143391 -3.865425 0.4777651,-8.042711 -3.00058 0.7052661,-7.968521 -2.269113 0.8919312,-8.702682 -5.295112 0.5129784,-8.598241 -4.025351 0.6290995,-8.502066 -3.249533 0.7988119,-8.403997 -2.603388 0.922229,-9.120205 -5.580916 0.6895996,-9.170717 -4.599988 0.8502375,-9.159584 -3.949417 0.9833847,-9.116583 -3.33695 1.0694,1.010, 16 1
-2.014476 -8.032911 -0.235357,-2.682157 -7.890665 0.06947133,-3.282763 -7.413043 0.2214874,-3.740502 -6.843761 0.3606594,-4.115772 -6.535421 0.5170246,-2.92939 -5.635292 -0.07614289,-3.254637 -4.589101 0.08398807,-3.406336 -3.944209 0.2319677,-3.513941 -3.34445 0.3776131,-2.576596 -5.33225 -0.06265858,-2.828598 -4.099029 0.1083217,-2.828598 -4.099029 0.1083217,-3.029861 -2.648708 0.4837235,-2.217022 -5.286947 0.01459616,-2.382398 -4.123601 0.1816345,-2.496681 -3.393182 0.3733673,-2.596241 -2.770721 0.5340418,-1.821971 -5.458092 0.1177213,-1.790672 -4.530903 0.2823436,-1.772526 -3.943675 0.4536571,-1.766789 -3.386944 0.6074011,-8.82199 -8.465769 0.1024093,-8.121013 -8.176689 0.4024379,-7.498588 -7.473232 0.6499928,-7.03723 -6.817922 0.9436663,-6.604567 -6.466203 1.27782,-7.907238 -5.514938 0.2974768,-7.716477 -4.353239 0.4860903,-7.626626 -3.622339 0.69573,-7.550651 -2.989675 0.8479667,-8.314294 -5.274406 0.3784432,-8.157236 -3.88447 0.494128,-8.052699 -3.015851 0.7253013,-7.977385 -2.276781 0.9124126,-8.717087 -5.325262 0.5012577,-8.61332 -4.039249 0.6297599,-8.514001 -3.254405 0.8083099,-8.413633 -2.598127 0.9362515,-9.134478 -5.608291 0.6660959,-9.188202 -4.623115 0.8321655,-9.1759 -3.961632 0.9727018,-9.132586 -3.338886 1.065825,1.110, 16 1
-2.007308 -8.070187 -0.2922913,-2.673973 -7.942434 0.003505141,-3.27766 -7.446586 0.1502217,-3.735502 -6.867866 0.2818898,-4.11672 -6.572129 0.4318423,-2.945155 -5.695489 -0.1518607,-3.262417 -4.641181 0.005794287,-3.407887 -3.997543 0.1474754,-3.507982 -3.393077 0.2892667,-2.595824 -5.390853 -0.1363543,-2.841341 -4.159626 0.03029531,-2.841341 -4.159626 0.03029531,-3.023235 -2.706459 0.3908039,-2.237192 -5.337714 -0.05765969,-2.398341 -4.178754 0.1030705,-2.507693 -3.444322 0.2854047,-2.598878 -2.816593 0.4378493,-1.844895 -5.499916 0.05047825,-1.816053 -4.581748 0.2038153,-1.804502 -4.003283 0.3678227,-1.802992 -3.454178 0.5126264,-8.8093 -8.474533 0.07665236,-8.117586 -8.181124 0.364817,-7.500202 -7.471166 0.6066303,-7.047076 -6.810932 0.8971483,-6.619528 -6.447065 1.227859,-7.911186 -5.523672 0.2672783,-7.722705 -4.341852 0.4598006,-7.630829 -3.611786 0.6690322,-7.554693 -2.979915 0.8135011,-8.312815 -5.289413 0.3582235,-8.166907 -3.897167 0.4777592,-8.064959 -3.033651 0.7107738,-7.988675 -2.300987 0.8921261,-8.707755 -5.35261 0.4897477,-8.617396 -4.066837 0.6276115,-8.520811 -3.280979 0.8161898,-8.420146 -2.621158 0.9476259,-9.114362 -5.647238 0.6609368,-9.179959 -4.670623 0.8451869,-9.172716 -4.012618 0.9953157,-9.132399 -3.39009 1.085177,1.210, 16 1
-2.019747 -8.098719 -0.2809747,-2.690752 -7.967449 0.001305401,-3.295257 -7.449751 0.1413564,-3.755359 -6.866489 0.2679828,-4.141344 -6.578918 0.4124717,-2.954566 -5.719461 -0.1544477,-3.267609 -4.673791 0.005511224,-3.416348 -4.034053 0.1469759,-3.522057 -3.434741 0.2864957,-2.603337 -5.414577 -0.1317559,-2.845421 -4.189695 0.03725973,-2.845421 -4.189695 0.03725973,-3.043627 -2.734765 0.4005799,-2.242965 -5.362476 -0.04699826,-2.404641 -4.20823 0.1248401,-2.52201 -3.468958 0.3058949,-2.620157 -2.844459 0.4553301,-1.84957 -5.530508 0.06429145,-1.817468 -4.613767 0.2206126,-1.804401 -4.031069 0.378764,-1.80123 -3.483323 0.5212603,-8.810147 -8.484865 0.09535736,-8.116561 -8.186066 0.4219284,-7.500453 -7.484271 0.6831014,-7.043402 -6.833583 0.9847829,-6.614501 -6.482235 1.324949,-7.907457 -5.533952 0.3390629,-7.712817 -4.364655 0.543158,-7.621928 -3.635661 0.7585395,-7.547587 -3.004186 0.9082814,-8.313973 -5.29751 0.4116017,-8.160779 -3.916719 0.5450414,-8.059645 -3.057708 0.7845849,-7.985329 -2.330816 0.9709252,-8.711946 -5.362692 0.5237329,-8.616428 -4.085364 0.6738362,-8.518915 -3.305965 0.8727794,-8.418665 -2.651411 1.009651,-9.119956 -5.663976 0.6795455,-9.18023 -4.699712 0.8671942,-9.170434 -4.052915 1.021751,-9.126549 -3.435833 1.12231,1.310, 16 1
-2.02963 -8.09111 -0.3054432,-2.689951 -7.966602 0.01388472,-3.295618 -7.464279 0.1800978,-3.76022 -6.88944 0.3294025,-4.152909 -6.59286 0.4990987,-2.972206 -5.722714 -0.1288127,-3.285664 -4.667432 0.03413564,-3.434898 -4.022445 0.1842104,-3.543363 -3.419685 0.3335024,-2.622339 -5.417897 -0.1277789,-2.861614 -4.200718 0.03787369,-2.861614 -4.200718 0.03787369,-3.058893 -2.748365 0.4015041,-2.26362 -5.362075 -0.06214476,-2.423668 -4.22503 0.09915274,-2.537886 -3.492749 0.2834725,-2.636514 -2.864205 0.4406137,-1.87318 -5.524064 0.03253275,-1.844093 -4.616872 0.1824656,-1.830083 -4.040863 0.3446658,-1.826854 -3.489218 0.4930841,-8.783957 -8.529934 0.1496162,-8.101999 -8.220156 0.4468838,-7.493845 -7.488964 0.6980444,-7.054202 -6.827206 0.9948374,-6.623277 -6.466394 1.330643,-7.895598 -5.553219 0.3805759,-7.706327 -4.381444 0.5819187,-7.616938 -3.651149 0.7954185,-7.542609 -3.015583 0.9532143,-8.296107 -5.326704 0.4779091,-8.149657 -3.948045 0.6213604,-8.052013 -3.090006 0.8748944,-7.977933 -2.355652 1.068028,-8.690605 -5.392267 0.6167116,-8.605919 -4.109944 0.778112,-8.510243 -3.331364 0.9923589,-8.406174 -2.665392 1.143938,-9.097673 -5.686342 0.7932986,-9.169033 -4.710811 0.9951644,-9.162002 -4.057327 1.158856,-9.118629 -3.426681 1.262431,1.410, 16 1
-2.057164 -8.108797 -0.3446729,-2.70984 -7.975983 -0.0192095,-3.308029 -7.477937 0.1556671,-3.763752 -6.898592 0.3138877,-4.148003 -6.600765 0.4882059,-2.991879 -5.752054 -0.1378114,-3.306846 -4.703325 0.03831914,-3.45522 -4.060312 0.1953015,-3.558926 -3.454979 0.3482286,-2.646712 -5.448585 -0.13726,-2.893387 -4.228811 0.04644001,-2.893387 -4.228811 0.04644001,-3.078856 -2.784791 0.4225944,-2.293672 -5.391792 -0.07411745,-2.456326 -4.254703 0.1034285,-2.567158 -3.529356 0.2910327,-2.659844 -2.900444 0.4461004,-1.909135 -5.546178 0.01837522,-1.884943 -4.646705 0.1770477,-1.87015 -4.084507 0.3362627,-1.861873 -3.542606 0.4793522,-8.791038 -8.524906 0.1248272,-8.110246 -8.231674 0.4196476,-7.505398 -7.492292 0.6591072,-7.070917 -6.823984 0.9462223,-6.646001 -6.471372 1.265963,-7.908472 -5.556663 0.3391699,-7.720665 -4.395197 0.5399243,-7.62902 -3.676416 0.7549486,-7.554464 -3.044158 0.9056702,-8.308658 -5.326355 0.4360102,-8.167958 -3.943105 0.5690057,-8.072025 -3.086174 0.8146372,-7.999689 -2.353871 0.9951901,-8.700387 -5.390804 0.5733141,-8.617701 -4.101287 0.7300174,-8.524684 -3.319822 0.935589,-8.424299 -2.652662 1.075845,-9.100208 -5.68736 0.7508107,-9.170161 -4.714351 0.9461257,-9.162093 -4.058477 1.105666,-9.119631 -3.426729 1.203042,1.510, 16 1
-2.066549 -8.150503 -0.3136109,-2.719754 -8.002384 -0.01555452,-3.314853 -7.482977 0.1396269,-3.763973 -6.897461 0.2837456,-4.144573 -6.602883 0.4421219,-3.003821 -5.777406 -0.1484516,-3.316566 -4.743468 0.02632466,-3.466906 -4.108467 0.1795147,-3.574295 -3.510326 0.3271394,-2.661846 -5.480487 -0.1328093,-2.906623 -4.274374 0.05349737,-2.906623 -4.274374 0.05349737,-3.09503 -2.835708 0.443818,-2.309246 -5.429451 -0.05409363,-2.473183 -4.296237 0.1241088,-2.585283 -3.577668 0.3153751,-2.678933 -2.951941 0.4716144,-1.922952 -5.590147 0.05154026,-1.90609 -4.682921 0.2140136,-1.894979 -4.114421 0.377353,-1.891864 -3.565507 0.5195844,-8.793725 -8.525579 0.1028385,-8.1254 -8.208748 0.4015406,-7.525208 -7.474344 0.646678,-7.089672 -6.804079 0.9380587,-6.667772 -6.446766 1.264113,-7.925882 -5.556638 0.3223658,-7.744789 -4.389389 0.5161634,-7.658297 -3.659973 0.7255987,-7.585101 -3.02579 0.877317,-8.325362 -5.331254 0.4133256,-8.186829 -3.943927 0.5448917,-8.088162 -3.081252 0.7893789,-8.013577 -2.345977 0.9738336,-8.717605 -5.39738 0.544251,-8.635197 -4.112672 0.6915186,-8.539889 -3.334594 0.8950784,-8.437986 -2.673873 1.037276,-9.120299 -5.692814 0.7168747,-9.190568 -4.725147 0.9045472,-9.184275 -4.075632 1.066237,-9.144201 -3.450161 1.166323,1.610, 16 1
-2.103248 -8.175657 -0.3338263,-2.747314 -8.014513 -0.04467964,-3.327751 -7.50661 0.1155237,-3.764439 -6.908497 0.2780671,-4.133536 -6.580671 0.4586886,-3.04397 -5.806018 -0.2163785,-3.356485 -4.799759 -0.05106503,-3.497068 -4.194597 0.09889373,-3.593596 -3.6121 0.2384334,-2.712859 -5.512168 -0.1982958,-2.955859 -4.322834 -0.03236693,-2.955859 -4.322834 -0.03236693,-3.133984 -2.92019 0.3340808,-2.369979 -5.467558 -0.1140845,-2.532387 -4.349092 0.04529145,-2.649483 -3.656424 0.2334368,-2.747 -3.04593 0.3844651,-1.99172 -5.633392 3.665686E-05,-1.982658 -4.753355 0.1520022,-1.989028 -4.201217 0.3141141,-2.001312 -3.670551 0.4441719,-8.819385 -8.550503 0.06753564,-8.143438 -8.247671 0.3731514,-7.543994 -7.513729 0.6258242,-7.11106 -6.835937 0.9215317,-6.68816 -6.45536 1.258118,-7.94715 -5.590232 0.3110928,-7.763018 -4.4288 0.5135828,-7.673938 -3.707245 0.7248877,-7.602567 -3.070101 0.8805177,-8.349491 -5.369284 0.4039944,-8.208869 -3.985136 0.5427295,-8.111372 -3.122589 0.7853811,-8.044374 -2.386299 0.9725732,-8.74446 -5.450212 0.535883,-8.660071 -4.167989 0.6909287,-8.55958 -3.381155 0.8990449,-8.459689 -2.715015 1.048265,-9.150264 -5.76527 0.7117872,-9.213547 -4.793306 0.9077341,-9.198595 -4.137084 1.07502,-9.151111 -3.507011 1.185092,1.710, 16 1
-2.137792 -8.19029 -0.3880612,-2.773516 -8.028658 -0.1128666,-3.344974 -7.510823 0.02322856,-3.764736 -6.900012 0.1625205,-4.1246 -6.565094 0.3153222,-3.074206 -5.831282 -0.2972098,-3.389151 -4.832912 -0.1440771,-3.535698 -4.22705 -0.004522562,-3.63711 -3.648723 0.1299596,-2.747769 -5.541511 -0.2807431,-2.990729 -4.372577 -0.1334517,-2.990729 -4.372577 -0.1334517,-3.172546 -2.982661 0.2054206,-2.410612 -5.490802 -0.1976719,-2.574712 -4.392143 -0.05597872,-2.692099 -3.7059 0.116348,-2.786279 -3.106311 0.2549885,-2.034862 -5.639309 -0.08345765,-2.033269 -4.758448 0.04691124,-2.040906 -4.208282 0.1964855,-2.051203 -3.682846 0.3189953,-8.828766 -8.597126 0.04811536,-8.166856 -8.268862 0.315174,-7.574776 -7.525199 0.5453827,-7.142201 -6.858341 0.8277198,-6.722592 -6.495615 1.147554,-7.97951 -5.622484 0.2168825,-7.798387 -4.458202 0.4000229,-7.709579 -3.738025 0.6034602,-7.637598 -3.109676 0.7537704,-8.371904 -5.413774 0.3234323,-8.238784 -4.036811 0.4479516,-8.144856 -3.183882 0.688028,-8.080137 -2.453886 0.8683469,-8.759384 -5.495432 0.4691896,-8.678375 -4.222399 0.6097569,-8.582987 -3.452863 0.8060176,-8.487699 -2.799012 0.9442471,-9.157643 -5.806793 0.6548225,-9.221369 -4.846141 0.8410349,-9.209376 -4.202636 1.002554,-9.168103 -3.580001 1.106617,1.810, 16 1
-2.146042 -8.198891 -0.4380713,-2.78043 -8.025362 -0.1555219,-3.350889 -7.502325 -0.01404557,-3.761256 -6.883873 0.1289459,-4.112625 -6.535311 0.2851084,-3.083474 -5.856082 -0.324865,-3.39533 -4.864 -0.1666341,-3.53231 -4.262872 -0.02681619,-3.624174 -3.69144 0.1032506,-2.759011 -5.566167 -0.3145984,-3.002391 -4.399799 -0.1677556,-3.002391 -4.399799 -0.1677556,-3.174301 -3.013727 0.1701031,-2.422858 -5.5119 -0.2380485,-2.586012 -4.415777 -0.09654054,-2.698337 -3.732891 0.07644314,-2.788541 -3.136965 0.2149017,-2.046582 -5.657068 -0.1309103,-2.04571 -4.777862 0.0001678467,-2.053244 -4.231367 0.1526787,-2.06593 -3.713546 0.2726595,-8.8731 -8.639221 0.007926203,-8.20786 -8.333937 0.2656826,-7.610305 -7.557264 0.4764973,-7.188015 -6.859289 0.7366458,-6.775938 -6.494256 1.036184,-8.008321 -5.692749 0.1776768,-7.833224 -4.536693 0.3511061,-7.744903 -3.823611 0.5439481,-7.672329 -3.188953 0.6916997,-8.403316 -5.469917 0.2889052,-8.267346 -4.101495 0.4017771,-8.171642 -3.245828 0.6407804,-8.101291 -2.500155 0.8266569,-8.793905 -5.535397 0.4388601,-8.712018 -4.270273 0.5817483,-8.619551 -3.489456 0.7841887,-8.522305 -2.821911 0.9307786,-9.197587 -5.829227 0.6230281,-9.262876 -4.864325 0.8152961,-9.256425 -4.210919 0.9846092,-9.220919 -3.580383 1.097159,1.910, 16 1
-2.166959 -8.239519 -0.4519053,-2.803828 -8.055326 -0.1725257,-3.365904 -7.53827 -0.03058544,-3.76461 -6.922759 0.1161959,-4.104119 -6.549278 0.274457,-3.110518 -5.899757 -0.3367254,-3.418355 -4.907804 -0.1804186,-3.551569 -4.298132 -0.03330281,-3.638882 -3.722096 0.09835839,-2.786762 -5.61226 -0.3334694,-3.018631 -4.442514 -0.1879455,-3.018631 -4.442514 -0.1879455,-3.178488 -3.077252 0.1542866,-2.454417 -5.550242 -0.2658689,-2.610677 -4.463222 -0.1347798,-2.719311 -3.80026 0.02687576,-2.806782 -3.22274 0.1532672,-2.087931 -5.675483 -0.1712177,-2.085526 -4.808504 -0.04739574,-2.092763 -4.273452 0.09132439,-2.102344 -3.766075 0.1937684,-8.925034 -8.64888 -0.06641377,-8.270483 -8.319529 0.216287,-7.678985 -7.570987 0.4613218,-7.248561 -6.896071 0.752458,-6.836467 -6.498794 1.09048,-8.105238 -5.715469 0.1872441,-7.930521 -4.5673 0.3851414,-7.843174 -3.854983 0.5882531,-7.768 -3.215765 0.7468331,-8.496996 -5.504882 0.3078422,-8.353649 -4.152935 0.4606484,-8.258295 -3.300018 0.717448,-8.187243 -2.560812 0.9203874,-8.888273 -5.586498 0.4667023,-8.805222 -4.340851 0.6411357,-8.712762 -3.553826 0.8717043,-8.608286 -2.878835 1.038301,-9.297893 -5.900634 0.6595884,-9.372643 -4.930696 0.8889852,-9.37255 -4.279453 1.073323,-9.330586 -3.656392 1.196523,2.010, 16 1
-2.198985 -8.246056 -0.4968727,-2.818026 -8.05262 -0.1935768,-3.37855 -7.531299 -0.03962836,-3.776695 -6.914468 0.1146019,-4.116849 -6.551692 0.2774018,-3.134436 -5.914947 -0.3220123,-3.4426 -4.930089 -0.1474034,-3.571677 -4.32293 0.003470838,-3.653801 -3.742401 0.1383123,-2.810925 -5.633216 -0.3236853,-3.046635 -4.478224 -0.156116,-3.046635 -4.478224 -0.156116,-3.206538 -3.114664 0.2011719,-2.474705 -5.58233 -0.2625701,-2.635584 -4.502931 -0.1117131,-2.742203 -3.837387 0.06250256,-2.8269 -3.258623 0.1999511,-2.101302 -5.720035 -0.1741491,-2.106959 -4.856298 -0.0273402,-2.118224 -4.318037 0.1293185,-2.131593 -3.805946 0.243381,-8.973743 -8.657406 -0.08143426,-8.316577 -8.347485 0.1901125,-7.727834 -7.583282 0.428131,-7.309045 -6.896656 0.7116848,-6.900013 -6.503702 1.042414,-8.15269 -5.727794 0.158385,-7.977353 -4.594013 0.3560672,-7.892959 -3.884346 0.5539966,-7.819814 -3.250009 0.7051618,-8.549007 -5.51592 0.280634,-8.415714 -4.168458 0.4261307,-8.324587 -3.317378 0.6734755,-8.25229 -2.584283 0.8708733,-8.941253 -5.597332 0.4415603,-8.865625 -4.350922 0.615339,-8.77529 -3.570848 0.8393986,-8.668617 -2.901792 1.001689,-9.348644 -5.911706 0.6359175,-9.423586 -4.9468 0.8605438,-9.423987 -4.29735 1.035431,-9.380815 -3.6756 1.152366,2.110, 16 1
-2.249754 -8.267639 -0.6716506,-2.867812 -8.077637 -0.3821884,-3.410051 -7.553993 -0.2411028,-3.787079 -6.953932 -0.09514022,-4.125135 -6.591269 0.05819499,-3.180457 -5.979593 -0.4992855,-3.4832 -5.008438 -0.326344,-3.610823 -4.405172 -0.1875959,-3.687059 -3.833307 -0.06446642,-2.864791 -5.706798 -0.5009639,-3.101805 -4.557596 -0.3412115,-3.101805 -4.557596 -0.3412115,-3.252224 -3.190271 0.003923833,-2.53778 -5.649023 -0.4411682,-2.69874 -4.575922 -0.3028057,-2.801099 -3.911525 -0.1437082,-2.881993 -3.325794 -0.011536,-2.174997 -5.771642 -0.3538035,-2.181784 -4.914812 -0.2234745,-2.19014 -4.381123 -0.08217835,-2.196953 -3.869329 0.02303386,-9.07416 -8.702394 -0.1249166,-8.420055 -8.374594 0.1867359,-7.834632 -7.616751 0.4245869,-7.412116 -6.921829 0.7060603,-7.000061 -6.540224 1.01525,-8.271276 -5.770987 0.139917,-8.092154 -4.624362 0.3505981,-8.005407 -3.919677 0.5614026,-7.938758 -3.284944 0.715397,-8.670797 -5.570138 0.2326663,-8.539468 -4.210591 0.3899465,-8.453754 -3.362591 0.6478662,-8.395486 -2.622667 0.8512857,-9.059912 -5.656423 0.3639823,-8.986563 -4.401056 0.5461068,-8.906754 -3.625283 0.7639644,-8.821568 -2.953341 0.9234186,-9.460902 -5.976011 0.5315517,-9.53667 -5.025388 0.7509775,-9.540586 -4.385557 0.9160032,-9.507097 -3.764366 1.030343,2.210, 16 1
-2.265326 -8.272169 -0.6542919,-2.863636 -8.100321 -0.3504209,-3.403047 -7.580303 -0.2008109,-3.786714 -6.972927 -0.05301929,-4.129777 -6.613462 0.1113328,-3.177833 -5.988382 -0.4680354,-3.486683 -5.020549 -0.3022262,-3.62079 -4.420263 -0.1601516,-3.707294 -3.85098 -0.03043157,-2.864542 -5.702249 -0.4873907,-3.098684 -4.56623 -0.3335314,-3.098684 -4.56623 -0.3335314,-3.25157 -3.225641 -0.0004427433,-2.542037 -5.643971 -0.4468913,-2.699276 -4.591235 -0.3120944,-2.802961 -3.936391 -0.1408054,-2.883004 -3.363945 -0.00429529,-2.187625 -5.778456 -0.3768776,-2.193629 -4.947586 -0.2435014,-2.203028 -4.428035 -0.09210896,-2.212427 -3.931083 0.02339232,-9.11723 -8.694027 -0.2148951,-8.458469 -8.371632 0.07999712,-7.870845 -7.624021 0.3060851,-7.447796 -6.932601 0.5756381,-7.041179 -6.552348 0.869954,-8.300438 -5.787366 0.0155161,-8.120496 -4.639232 0.2097043,-8.034369 -3.936317 0.4104328,-7.967748 -3.310846 0.5585938,-8.695732 -5.585968 0.1031605,-8.56284 -4.228923 0.2478749,-8.481493 -3.379981 0.4974946,-8.42336 -2.648964 0.7005305,-9.081837 -5.6644 0.2305083,-9.006058 -4.408445 0.3957702,-8.924121 -3.63062 0.59883,-8.835112 -2.965473 0.7461857,-9.479524 -5.971318 0.3907291,-9.554515 -5.011901 0.590668,-9.559469 -4.366657 0.7452004,-9.527662 -3.744626 0.8517793,2.310, 16 1
-2.274063 -8.284082 -0.7267641,-2.873313 -8.096214 -0.413316,-3.403923 -7.586174 -0.262408,-3.776228 -6.980126 -0.1162161,-4.111194 -6.609573 0.03950572,-3.182135 -6.014005 -0.5321268,-3.487293 -5.051373 -0.3708324,-3.616521 -4.455074 -0.2287122,-3.698229 -3.891581 -0.09697986,-2.870188 -5.734763 -0.5594022,-3.103606 -4.607858 -0.4114137,-3.103606 -4.607858 -0.4114137,-3.256021 -3.274475 -0.0672465,-2.549196 -5.678664 -0.5255368,-2.708579 -4.632375 -0.3999738,-2.810061 -3.990512 -0.2332124,-2.887538 -3.426961 -0.09716743,-2.1954 -5.806907 -0.4616853,-2.205043 -4.978442 -0.3369752,-2.216475 -4.461371 -0.1892671,-2.228231 -3.968524 -0.07665354,-9.166147 -8.701794 -0.1832798,-8.505719 -8.389103 0.1120659,-7.919064 -7.630368 0.3493749,-7.502992 -6.928979 0.63282,-7.102792 -6.524596 0.942656,-8.358367 -5.785116 0.0392593,-8.193259 -4.635587 0.2364666,-8.109861 -3.930471 0.4466705,-8.039154 -3.307281 0.5995091,-8.754558 -5.583545 0.1375092,-8.634918 -4.224465 0.2803499,-8.549972 -3.375245 0.5341892,-8.484181 -2.650224 0.7391638,-9.140786 -5.661989 0.2764076,-9.02796 -4.38355 0.4504721,-8.943503 -3.603975 0.6539259,-8.8541 -2.941172 0.7978773,-9.519971 -5.955621 0.4428692,-9.589094 -4.978544 0.6473675,-9.592794 -4.331682 0.7975661,-9.564524 -3.719422 0.9038373,2.410, 16 1
-2.272 -8.313456 -0.7232143,-2.855344 -8.120338 -0.3517855,-3.380991 -7.622099 -0.1634227,-3.751133 -7.015323 0.01432568,-4.0856 -6.619224 0.2087213,-3.189704 -6.053564 -0.4608378,-3.495586 -5.095344 -0.2750618,-3.620628 -4.497238 -0.1131626,-3.697746 -3.922889 0.03904533,-2.879292 -5.77017 -0.4983785,-3.109139 -4.645896 -0.3295338,-3.109139 -4.645896 -0.3295338,-3.253532 -3.325455 0.0497762,-2.557703 -5.715394 -0.469821,-2.715574 -4.6742 -0.3245043,-2.816845 -4.027795 -0.130654,-2.894828 -3.449257 0.03181428,-2.199022 -5.848129 -0.4108967,-2.213978 -5.020086 -0.2622449,-2.225308 -4.497642 -0.09345281,-2.234374 -3.994665 0.03399974,-9.206421 -8.722336 -0.1617945,-8.541874 -8.423763 0.1161447,-7.949044 -7.643077 0.3310723,-7.532886 -6.92736 0.6028625,-7.129778 -6.538219 0.9020694,-8.37288 -5.7999 -0.003392696,-8.213547 -4.643829 0.1629178,-8.140517 -3.93209 0.3573447,-8.080071 -3.311405 0.502816,-8.775187 -5.594509 0.0938006,-8.657583 -4.240949 0.2007291,-8.577723 -3.388374 0.4340476,-8.519821 -2.663285 0.6288158,-9.169888 -5.666489 0.2319107,-9.091408 -4.399857 0.3687918,-9.008185 -3.618839 0.5552188,-8.922315 -2.959323 0.6923372,-9.582879 -5.968437 0.4041267,-9.640902 -4.980938 0.5844772,-9.640232 -4.330055 0.720233,-9.611546 -3.712153 0.8175496,2.510, 16 1
-2.262315 -8.364773 -0.8581497,-2.851486 -8.164768 -0.5452172,-3.372616 -7.643476 -0.4033819,-3.721285 -7.016733 -0.2632944,-4.033186 -6.589208 -0.1111705,-3.181181 -6.127395 -0.6801894,-3.484294 -5.165251 -0.5134292,-3.618877 -4.565006 -0.375445,-3.702848 -4.005171 -0.2500224,-2.875033 -5.857481 -0.7005436,-3.097439 -4.732034 -0.557757,-3.097439 -4.732034 -0.557757,-3.236862 -3.416463 -0.2196659,-2.559483 -5.810126 -0.6533093,-2.708011 -4.772315 -0.5199286,-2.806525 -4.115448 -0.3381544,-2.881865 -3.544002 -0.1799726,-2.210592 -5.94536 -0.5819354,-2.226741 -5.116069 -0.4442259,-2.248703 -4.607773 -0.2857531,-2.272506 -4.134816 -0.1673737,-9.2431 -8.804304 -0.1425218,-8.574444 -8.486931 0.1418185,-7.984531 -7.711568 0.3517129,-7.578403 -6.979629 0.6190788,-7.179041 -6.575233 0.91063,-8.403766 -5.873928 -0.001533598,-8.247433 -4.710617 0.1562401,-8.169552 -3.994683 0.351144,-8.108759 -3.36882 0.4994349,-8.802224 -5.669609 0.07803532,-8.682516 -4.327812 0.1810341,-8.600054 -3.474237 0.4184974,-8.541689 -2.743633 0.6132531,-9.192129 -5.731665 0.198989,-9.111432 -4.480339 0.3257789,-9.029328 -3.710063 0.4986725,-8.948513 -3.063442 0.6254411,-9.602238 -6.015813 0.353467,-9.642808 -5.029447 0.5280899,-9.631031 -4.382547 0.6565174,-9.598322 -3.767808 0.7438202,2.610, 16 1
-2.253084 -8.383085 -0.8670765,-2.842911 -8.171701 -0.547289,-3.362032 -7.665779 -0.3957023,-3.702677 -7.064437 -0.2429215,-4.010101 -6.632661 -0.07478863,-3.17143 -6.137612 -0.6810988,-3.476615 -5.185721 -0.5139596,-3.609938 -4.5851 -0.369576,-3.689623 -4.024486 -0.2375003,-2.863317 -5.878376 -0.7006168,-3.090273 -4.761957 -0.569725,-3.090273 -4.761957 -0.569725,-3.222031 -3.448085 -0.2353454,-2.547472 -5.833907 -0.6550529,-2.699009 -4.808277 -0.5320169,-2.794132 -4.157152 -0.3569014,-2.863889 -3.58752 -0.2055146,-2.196278 -5.96272 -0.5806733,-2.219168 -5.143598 -0.4553303,-2.239094 -4.636581 -0.3071745,-2.25565 -4.16254 -0.1968406,-9.2672 -8.845909 -0.1207635,-8.593875 -8.530773 0.1441509,-7.998115 -7.753873 0.3471303,-7.590471 -7.006384 0.6145039,-7.19527 -6.57347 0.905162,-8.428837 -5.909202 -0.03059495,-8.271021 -4.759513 0.1091665,-8.193415 -4.054328 0.2963691,-8.131846 -3.437574 0.4445241,-8.824033 -5.702222 0.0517094,-8.69981 -4.370938 0.1271876,-8.615635 -3.53511 0.3499646,-8.555809 -2.818403 0.5349545,-9.211322 -5.761011 0.1784219,-9.130507 -4.515716 0.2807714,-9.047764 -3.759096 0.441273,-8.965306 -3.120943 0.5652711,-9.617718 -6.043622 0.3388232,-9.655621 -5.051477 0.4936274,-9.644033 -4.406433 0.611782,-9.610037 -3.795471 0.6946653,2.710, 16 1
-2.245107 -8.434832 -0.8609809,-2.838544 -8.226208 -0.5378098,-3.35354 -7.719188 -0.3907464,-3.685001 -7.095405 -0.243483,-3.990665 -6.653606 -0.08304685,-3.170618 -6.197467 -0.6838169,-3.472114 -5.255958 -0.5179611,-3.60429 -4.659839 -0.37345,-3.686071 -4.100699 -0.24018,-2.860112 -5.928497 -0.7102551,-3.077519 -4.829557 -0.5790027,-3.077519 -4.829557 -0.5790027,-3.210098 -3.53037 -0.253812,-2.542943 -5.87935 -0.6697119,-2.682848 -4.873889 -0.5540698,-2.774154 -4.239419 -0.3841963,-2.838614 -3.684741 -0.2372752,-2.195074 -6.004775 -0.5997275,-2.215378 -5.198148 -0.4791929,-2.239764 -4.702302 -0.3325372,-2.259671 -4.239088 -0.2219263,-9.276079 -8.904404 -0.07618545,-8.606548 -8.568014 0.1751444,-8.016464 -7.788672 0.3881523,-7.6122 -7.046445 0.6656099,-7.202907 -6.600038 0.9660554,-8.442653 -5.950515 0.01491657,-8.291768 -4.800796 0.1615632,-8.214735 -4.09189 0.3481181,-8.149044 -3.466793 0.4888556,-8.845741 -5.746795 0.1099426,-8.724969 -4.449009 0.1948857,-8.638415 -3.626544 0.417995,-8.570239 -2.928407 0.5884613,-9.239215 -5.800561 0.2476112,-9.166908 -4.575319 0.36077,-9.086863 -3.832192 0.5333312,-8.99755 -3.205873 0.6551345,-9.648169 -6.067905 0.4176054,-9.678836 -5.070629 0.5787738,-9.65578 -4.426078 0.6988648,-9.605639 -3.807269 0.7762738,2.810, 16 1
-2.230721 -8.463131 -0.8649531,-2.825963 -8.257952 -0.5714722,-3.346125 -7.730194 -0.4428419,-3.67911 -7.099113 -0.3064195,-3.989456 -6.64738 -0.1515452,-3.164557 -6.223234 -0.7161191,-3.462124 -5.281382 -0.5544617,-3.596704 -4.681955 -0.4143564,-3.679858 -4.119327 -0.2846282,-2.855875 -5.959718 -0.7273977,-3.07007 -4.872468 -0.604739,-3.07007 -4.872468 -0.604739,-3.20455 -3.577277 -0.2913398,-2.535816 -5.912456 -0.6745085,-2.673936 -4.918932 -0.5627067,-2.763588 -4.288148 -0.3981858,-2.823416 -3.735513 -0.2562647,-2.184249 -6.039201 -0.592877,-2.207563 -5.242089 -0.4747867,-2.2342 -4.748279 -0.3331363,-2.255774 -4.287496 -0.2283137,-9.305181 -8.912781 -0.07690099,-8.619028 -8.575953 0.1532066,-8.029502 -7.792325 0.3496361,-7.616507 -7.048852 0.6139937,-7.200077 -6.589412 0.9103618,-8.456832 -5.951131 -0.06679833,-8.302616 -4.827495 0.06000416,-8.223506 -4.131183 0.2380982,-8.159599 -3.514177 0.3780868,-8.85665 -5.754097 0.02575948,-8.737986 -4.499384 0.07042834,-8.654821 -3.710311 0.2816984,-8.5884 -3.049474 0.4489549,-9.247562 -5.812337 0.1689204,-9.181477 -4.614225 0.2523366,-9.107153 -3.903207 0.4158745,-9.025554 -3.314085 0.5358453,-9.652282 -6.08064 0.3433061,-9.68306 -5.111906 0.4840508,-9.656625 -4.477052 0.5994555,-9.600518 -3.872503 0.6700724,2.910, 16 1
-2.208187 -8.502522 -0.7691611,-2.793617 -8.299671 -0.4484216,-3.314623 -7.764307 -0.3270297,-3.638257 -7.118501 -0.1928201,-3.933841 -6.641096 -0.04650688,-3.148198 -6.220747 -0.7079324,-3.44649 -5.312261 -0.5772721,-3.585321 -4.724824 -0.4399297,-3.679396 -4.174888 -0.3087361,-2.835117 -5.967689 -0.7428557,-3.036928 -4.933769 -0.683009,-3.036928 -4.933769 -0.683009,-3.166035 -3.741643 -0.4235817,-2.513547 -5.935932 -0.705049,-2.636846 -4.996082 -0.644884,-2.726321 -4.418863 -0.4836401,-2.789958 -3.922889 -0.3540763,-2.163467 -6.071239 -0.6269431,-2.18189 -5.331707 -0.5400775,-2.219373 -4.882028 -0.4053007,-2.255635 -4.468359 -0.3047872,-9.318711 -8.979326 -0.2056499,-8.640151 -8.720295 0.1128576,-8.07901 -7.88968 0.2942835,-7.661642 -7.121969 0.5306132,-7.240992 -6.613637 0.7537207,-8.480363 -6.033798 -0.3114715,-8.301101 -4.880074 -0.2541048,-8.217624 -4.155796 -0.09256247,-8.14313 -3.507771 0.05569351,-8.891113 -5.853209 -0.2160473,-8.821643 -4.611236 0.1006916,-8.781201 -4.3964 0.5736627,-8.755889 -4.525266 0.8775498,-9.259837 -5.924478 -0.07754031,-9.249442 -4.710935 0.2264355,-9.20092 -4.467105 0.6568031,-9.151538 -4.553936 0.9162874,-9.628391 -6.207115 0.09716728,-9.647124 -5.235276 0.3489285,-9.595557 -4.798172 0.605722,-9.516029 -4.599226 0.8046675,3.010, 16 1
-2.210633 -8.498707 -0.8121849,-2.789763 -8.296097 -0.5219226,-3.311111 -7.74217 -0.4187877,-3.625795 -7.098598 -0.289302,-3.92148 -6.6166 -0.1438453,-3.142456 -6.203384 -0.8059658,-3.43736 -5.298715 -0.6904478,-3.580773 -4.73216 -0.5604054,-3.684546 -4.194149 -0.436328,-2.828024 -5.974031 -0.8212425,-3.023005 -4.976388 -0.7736521,-3.023005 -4.976388 -0.7736521,-3.15168 -3.863384 -0.5432744,-2.506147 -5.957391 -0.763928,-2.621468 -5.057202 -0.7026691,-2.708186 -4.507623 -0.5411412,-2.77462 -4.035497 -0.4181233,-2.155848 -6.107082 -0.6644686,-2.172054 -5.404053 -0.5756307,-2.211467 -4.980402 -0.4364364,-2.249108 -4.590488 -0.3396221,-9.369476 -9.030149 -0.7711381,-8.652676 -8.707638 -0.4523161,-8.105791 -7.916034 -0.2271804,-7.710829 -7.129386 0.0520938,-7.342769 -6.52968 0.2999462,-8.446508 -6.215458 -0.7800533,-8.289403 -5.055803 -0.6116828,-8.187295 -4.300561 -0.4446189,-8.114913 -3.587706 -0.2968662,-8.81735 -6.089435 -0.67186,-8.749653 -4.842092 -0.2028658,-8.705577 -5.391712 0.1908187,-8.723373 -5.935876 0.353597,-9.186078 -6.117975 -0.5080663,-9.150091 -4.924417 -0.04590923,-9.064883 -5.475537 0.3367465,-9.068245 -6.12852 0.4676548,-9.600582 -6.28919 -0.3271948,-9.571403 -5.303477 0.05300468,-9.437662 -5.407236 0.3060137,-9.371282 -5.823648 0.4269235,3.110, 16 1
-2.196725 -8.459717 -0.9154168,-2.762749 -8.320307 -0.5530566,-3.281057 -7.768186 -0.4388056,-3.591591 -7.107004 -0.3047917,-3.889156 -6.596136 -0.1523488,-3.137894 -6.206014 -0.9338577,-3.427417 -5.31433 -0.8502885,-3.570726 -4.769472 -0.7296158,-3.676788 -4.241838 -0.6129789,-2.823718 -5.969162 -0.9985947,-3.005701 -5.040901 -0.9919162,-3.005701 -5.040901 -0.9919162,-3.10985 -4.045737 -0.7992911,-2.50009 -5.94749 -0.9755814,-2.597956 -5.106683 -0.9446344,-2.668458 -4.614988 -0.7698284,-2.712521 -4.237195 -0.6398617,-2.149171 -6.081874 -0.9021208,-2.170333 -5.444818 -0.8302351,-2.206729 -5.083459 -0.6842917,-2.227948 -4.786044 -0.5797075,-9.35359 -9.123917 -1.473863,-8.676003 -8.853735 -1.0566,-8.155244 -8.007879 -0.8698373,-7.85726 -7.195695 -0.6505663,-7.579452 -6.50867 -0.4808546,-8.474816 -6.456665 -1.565643,-8.279849 -5.308465 -1.217512,-8.144809 -4.667226 -1.002353,-8.037666 -4.044946 -0.922195,-8.841006 -6.378427 -1.48652,-8.708803 -5.38055 -0.7285919,-8.675512 -6.341829 -0.3190002,-8.708916 -7.084547 -0.2887279,-9.215095 -6.426998 -1.308235,-9.127388 -5.601511 -0.5365083,-9.047256 -6.536497 -0.1995127,-9.039922 -7.279668 -0.2569193,-9.642579 -6.611257 -1.108578,-9.59748 -5.744947 -0.5229223,-9.455057 -6.169092 -0.2641959,-9.383459 -6.719548 -0.2659961,3.210, 16 1
-2.180144 -8.452839 -0.9438508,-2.769799 -8.302237 -0.5926091,-3.286148 -7.719024 -0.5042284,-3.582786 -7.051733 -0.396496,-3.880836 -6.552198 -0.2681439,-3.130806 -6.192028 -1.011656,-3.421738 -5.31117 -0.9572442,-3.561071 -4.777509 -0.8495302,-3.661339 -4.254932 -0.7298433,-2.803029 -5.971136 -1.063878,-2.967474 -5.076746 -1.060785,-2.967474 -5.076746 -1.060785,-3.036825 -4.222497 -0.8015847,-2.470628 -5.962783 -1.030009,-2.550026 -5.141929 -0.9848551,-2.592885 -4.70036 -0.7574052,-2.610885 -4.449504 -0.5871757,-2.113123 -6.105306 -0.9482352,-2.133033 -5.472782 -0.8468315,-2.159385 -5.158428 -0.667993,-2.169894 -4.969573 -0.5295243,-9.359552 -9.131994 -2.043567,-8.716856 -8.841463 -1.632259,-8.190413 -8.056381 -1.435576,-7.935356 -7.258004 -1.224717,-7.835568 -6.557189 -1.084833,-8.525355 -6.646183 -2.07782,-8.294399 -5.53391 -1.68649,-8.149051 -4.938625 -1.405696,-8.026739 -4.377836 -1.265683,-8.892218 -6.543923 -2.003429,-8.713397 -5.654602 -1.226905,-8.698586 -6.675462 -0.852245,-8.746104 -7.480123 -0.8310128,-9.265312 -6.570379 -1.824467,-9.129146 -5.85679 -1.060542,-9.088974 -6.855611 -0.7800623,-9.103478 -7.617368 -0.863409,-9.686249 -6.728502 -1.624072,-9.593773 -5.928079 -1.061686,-9.471192 -6.438997 -0.8473178,-9.421566 -7.005704 -0.8546445,3.310, 16 1
-2.180338 -8.470304 -0.9355507,-2.766289 -8.310953 -0.5952843,-3.283432 -7.717874 -0.5058376,-3.579962 -7.04076 -0.3900191,-3.879835 -6.531728 -0.2537176,-3.121325 -6.201501 -1.005075,-3.407932 -5.310927 -0.9305883,-3.544354 -4.769144 -0.8132599,-3.644653 -4.246757 -0.6880318,-2.792752 -5.982732 -1.037361,-2.949153 -5.079407 -1.007384,-2.949153 -5.079407 -1.007384,-3.01572 -4.268333 -0.7248791,-2.461209 -5.981421 -0.985446,-2.530906 -5.143373 -0.9089709,-2.570696 -4.709503 -0.6637975,-2.584324 -4.513753 -0.4885657,-2.104218 -6.130178 -0.8885686,-2.120325 -5.484139 -0.7645356,-2.152928 -5.177561 -0.5802903,-2.172168 -5.026132 -0.4372965,-9.340719 -9.101229 -2.178206,-8.722031 -8.845097 -1.720409,-8.182755 -8.096264 -1.515234,-7.939606 -7.281584 -1.309827,-7.927542 -6.591801 -1.188556,-8.509458 -6.686161 -2.204209,-8.293024 -5.588066 -1.720646,-8.160039 -5.039009 -1.363811,-8.045873 -4.521816 -1.193025,-8.873555 -6.551915 -2.174544,-8.724832 -5.73767 -1.309528,-8.730631 -6.806827 -0.9497812,-8.779505 -7.601411 -0.9972206,-9.253004 -6.557471 -2.022563,-9.152912 -5.899013 -1.219795,-9.13588 -6.930692 -0.9859136,-9.145837 -7.668355 -1.136096,-9.670193 -6.69413 -1.845257,-9.609661 -5.91924 -1.260216,-9.507456 -6.484781 -1.054054,-9.457675 -7.074831 -1.104188,3.410, 16 1
-2.168399 -8.471523 -0.8533829,-2.761246 -8.299191 -0.4567406,-3.277948 -7.720962 -0.3438887,-3.579542 -7.052055 -0.2120519,-3.877991 -6.516647 -0.06360883,-3.125525 -6.180351 -0.9149614,-3.406496 -5.294255 -0.8516607,-3.542835 -4.74921 -0.7284129,-3.642315 -4.233232 -0.5928687,-2.790112 -5.963065 -0.9777841,-2.947276 -5.064298 -0.9566181,-2.947276 -5.064298 -0.9566181,-3.005683 -4.272035 -0.6484106,-2.455553 -5.961212 -0.9530261,-2.529579 -5.131343 -0.8883448,-2.565323 -4.701 -0.6262358,-2.574418 -4.519995 -0.4376363,-2.09658 -6.105245 -0.8770217,-2.118189 -5.469976 -0.7621297,-2.151725 -5.170665 -0.5650389,-2.168943 -5.044136 -0.4150164,-9.328695 -9.155527 -2.364115,-8.719248 -8.915617 -1.893823,-8.147224 -8.216789 -1.648758,-7.913185 -7.40857 -1.414205,-8.008459 -6.744272 -1.261841,-8.48662 -6.81379 -2.346296,-8.266324 -5.790292 -1.837147,-8.12072 -5.292742 -1.427416,-7.982235 -4.83373 -1.19706,-8.851401 -6.662717 -2.313373,-8.678546 -5.891948 -1.409678,-8.684141 -6.983217 -1.062213,-8.743221 -7.806259 -1.12834,-9.243074 -6.655269 -2.1466,-9.109202 -5.998855 -1.332337,-9.099226 -7.03477 -1.103951,-9.125598 -7.771234 -1.247638,-9.676708 -6.765518 -1.955051,-9.601087 -5.959833 -1.382007,-9.497231 -6.519836 -1.190879,-9.463011 -7.105797 -1.248579,3.510, 16 1
-2.194168 -8.483398 -0.8441498,-2.783 -8.299412 -0.4971524,-3.296037 -7.692484 -0.41639,-3.594471 -7.01053 -0.3073406,-3.891975 -6.505717 -0.1833839,-3.124413 -6.172758 -0.9446748,-3.410925 -5.276708 -0.891001,-3.547828 -4.732358 -0.7817308,-3.648607 -4.210102 -0.6561489,-2.78973 -5.966979 -0.9889593,-2.948143 -5.063621 -0.9748571,-2.948143 -5.063621 -0.9748571,-3.00702 -4.266574 -0.6910956,-2.456132 -5.979307 -0.9491379,-2.526697 -5.143663 -0.8904912,-2.565023 -4.718325 -0.6453102,-2.576446 -4.527954 -0.468616,-2.100512 -6.14182 -0.8636976,-2.11782 -5.501205 -0.7542847,-2.156154 -5.199331 -0.5686967,-2.179633 -5.054066 -0.4261027,-9.30736 -9.163715 -2.488955,-8.707145 -8.916861 -1.990697,-8.129436 -8.244642 -1.70143,-7.898052 -7.470264 -1.429572,-8.033043 -6.829877 -1.229494,-8.479507 -6.861639 -2.354848,-8.257721 -5.855236 -1.797381,-8.097701 -5.393394 -1.355729,-7.938109 -4.98446 -1.104511,-8.85261 -6.707704 -2.328928,-8.669538 -5.980028 -1.389177,-8.66936 -7.086879 -1.062584,-8.728882 -7.912349 -1.135463,-9.252319 -6.707633 -2.162573,-9.108229 -6.07803 -1.327598,-9.092294 -7.109634 -1.113311,-9.120489 -7.844512 -1.252659,-9.692721 -6.821828 -1.970744,-9.621387 -6.015041 -1.384802,-9.505078 -6.585198 -1.199351,-9.462518 -7.185335 -1.250899,3.610, 16 1
-2.188725 -8.469545 -0.875102,-2.788157 -8.288681 -0.4940799,-3.296182 -7.708667 -0.3737767,-3.586787 -7.052412 -0.2342443,-3.884014 -6.527013 -0.07045496,-3.137474 -6.176914 -0.8941045,-3.415562 -5.285701 -0.7850345,-3.552544 -4.736748 -0.6227336,-3.656046 -4.204191 -0.4592515,-2.795587 -5.961339 -0.9298884,-2.950163 -5.057455 -0.8443818,-2.950163 -5.057455 -0.8443818,-3.013836 -4.258888 -0.4574487,-2.45735 -5.968547 -0.8785256,-2.528018 -5.138151 -0.7610414,-2.570067 -4.703128 -0.4683354,-2.58329 -4.527606 -0.2550554,-2.096579 -6.129579 -0.7833305,-2.113727 -5.479015 -0.6247762,-2.154825 -5.182453 -0.4073229,-2.181453 -5.063673 -0.2373068,-9.304688 -9.268375 -2.62289,-8.723669 -9.032314 -2.126063,-8.142413 -8.337147 -1.830053,-7.908826 -7.563486 -1.542184,-8.067575 -6.962741 -1.328662,-8.503672 -7.009323 -2.431592,-8.26664 -6.026564 -1.864149,-8.07751 -5.608577 -1.442265,-7.887857 -5.258296 -1.195118,-8.875649 -6.852449 -2.390911,-8.672519 -6.187154 -1.442385,-8.675392 -7.267183 -1.144189,-8.738201 -8.062788 -1.235503,-9.273385 -6.848751 -2.209303,-9.117026 -6.240625 -1.365002,-9.102766 -7.22997 -1.16585,-9.133606 -7.934085 -1.303918,-9.711231 -6.956226 -2.004306,-9.649789 -6.108543 -1.432645,-9.524409 -6.632459 -1.260226,-9.472931 -7.211803 -1.323706,3.710, 16 1
-2.190683 -8.49826 -0.8957463,-2.783364 -8.305906 -0.5415791,-3.288881 -7.718067 -0.440882,-3.57991 -7.060853 -0.3129936,-3.872411 -6.543463 -0.163681,-3.115295 -6.199755 -0.9540552,-3.395506 -5.304826 -0.8638155,-3.532 -4.750638 -0.7216405,-3.634374 -4.214956 -0.5775578,-2.778677 -5.992549 -0.9831648,-2.938222 -5.084812 -0.9292969,-2.938222 -5.084812 -0.9292969,-3.009869 -4.253093 -0.5856853,-2.443845 -6.000957 -0.9272717,-2.511927 -5.165159 -0.8343948,-2.553821 -4.725227 -0.560691,-2.570162 -4.533781 -0.3625039,-2.087066 -6.158352 -0.8280852,-2.106175 -5.500871 -0.6943539,-2.151821 -5.194158 -0.4937363,-2.184723 -5.058973 -0.3409517,-9.245312 -9.375332 -2.42398,-8.692022 -9.156092 -1.984694,-8.098544 -8.468632 -1.70621,-7.86786 -7.755189 -1.42695,-8.047142 -7.240552 -1.198698,-8.46942 -7.097223 -2.069379,-8.222456 -6.263792 -1.437431,-8.015358 -5.934788 -1.000459,-7.784045 -5.678781 -0.7400969,-8.856027 -6.919403 -2.006007,-8.624059 -6.472241 -1.065264,-8.651447 -7.534757 -0.8094521,-8.727078 -8.293964 -0.9017103,-9.266973 -6.933551 -1.800424,-9.08166 -6.531217 -0.9688412,-9.094468 -7.510972 -0.8373339,-9.144728 -8.179512 -0.9836392,-9.714355 -7.065034 -1.575296,-9.627747 -6.353586 -0.9955237,-9.496405 -6.920738 -0.8380605,-9.435966 -7.495529 -0.8925853,3.810, 16 1
-2.191325 -8.509949 -0.7965713,-2.778106 -8.33304 -0.4229654,-3.287426 -7.726449 -0.3198581,-3.574326 -7.051903 -0.1935633,-3.872776 -6.534462 -0.04406458,-3.120211 -6.190013 -0.8529238,-3.396444 -5.304796 -0.7807039,-3.528824 -4.755883 -0.6509048,-3.62743 -4.227535 -0.5178285,-2.782609 -5.976793 -0.9068389,-2.938671 -5.085382 -0.8893079,-2.938671 -5.085382 -0.8893079,-3.009812 -4.230506 -0.6048896,-2.447486 -5.980632 -0.8716394,-2.517406 -5.157178 -0.8148239,-2.558962 -4.71965 -0.5717711,-2.574611 -4.504264 -0.3933169,-2.091822 -6.135681 -0.7885515,-2.109884 -5.498443 -0.6788609,-2.144699 -5.203798 -0.4919149,-2.163366 -5.071674 -0.3500062,-9.211557 -9.424639 -2.479939,-8.674723 -9.229101 -2.000206,-8.084911 -8.533945 -1.689472,-7.852222 -7.83822 -1.383623,-8.021667 -7.331699 -1.129361,-8.459178 -7.182603 -2.005293,-8.233341 -6.354648 -1.309704,-8.029857 -6.022148 -0.8486013,-7.799175 -5.760965 -0.5825347,-8.833159 -7.005566 -1.948287,-8.613143 -6.519744 -0.9629536,-8.614377 -7.570199 -0.6958481,-8.664827 -8.30949 -0.7827829,-9.238707 -7.018694 -1.751023,-9.067076 -6.567733 -0.884967,-9.059743 -7.543758 -0.746864,-9.095652 -8.211857 -0.8886184,-9.677563 -7.150915 -1.527621,-9.624344 -6.389659 -0.9113799,-9.480333 -6.929039 -0.7492906,-9.40633 -7.51299 -0.8045071,3.910, 16 1
-2.175698 -8.502563 -0.8493232,-2.776878 -8.308987 -0.4695324,-3.282495 -7.724695 -0.3728726,-3.577712 -7.061493 -0.2556219,-3.871819 -6.524259 -0.1204854,-3.103592 -6.198976 -0.9427519,-3.380282 -5.29561 -0.8967251,-3.516429 -4.73684 -0.7808167,-3.614239 -4.211053 -0.6575982,-2.771165 -5.988764 -1.012722,-2.93065 -5.076611 -1.030335,-2.93065 -5.076611 -1.030335,-3.009239 -4.201093 -0.7802224,-2.438875 -5.989555 -0.9896354,-2.513577 -5.157691 -0.9620544,-2.560261 -4.716079 -0.7372363,-2.577785 -4.50164 -0.5652523,-2.085344 -6.135684 -0.9178478,-2.100973 -5.500207 -0.8349122,-2.134383 -5.204668 -0.6583065,-2.151995 -5.075547 -0.5237088,-9.173482 -9.434341 -2.57021,-8.624999 -9.247789 -2.084177,-8.045321 -8.622234 -1.731989,-7.798739 -7.990053 -1.374582,-7.912686 -7.482996 -1.048341,-8.393438 -7.237361 -2.037682,-8.156116 -6.477781 -1.283006,-7.94432 -6.183801 -0.81081,-7.711613 -5.941135 -0.5458404,-8.764855 -7.066671 -1.956542,-8.533455 -6.55511 -0.9386358,-8.520018 -7.598586 -0.6598819,-8.567386 -8.295132 -0.7321523,-9.180489 -7.082923 -1.727335,-8.99353 -6.62697 -0.8083807,-8.978216 -7.622505 -0.646288,-9.032078 -8.305918 -0.7756872,-9.63731 -7.223947 -1.474994,-9.577158 -6.482198 -0.8036499,-9.417526 -7.00247 -0.6086735,-9.345858 -7.595565 -0.6392915,4.010, 16 1
-2.191481 -8.529972 -0.8077686,-2.776911 -8.339998 -0.4472784,-3.282784 -7.74684 -0.3416619,-3.572309 -7.081164 -0.2094905,-3.866372 -6.566275 -0.05468512,-3.105516 -6.200155 -0.8687215,-3.38166 -5.310722 -0.7939164,-3.51985 -4.762241 -0.6623512,-3.626369 -4.230431 -0.5241972,-2.771655 -5.997087 -0.9073516,-2.926218 -5.10131 -0.8756746,-2.926218 -5.10131 -0.8756746,-3.006805 -4.222459 -0.5707843,-2.438463 -6.017541 -0.8593132,-2.502682 -5.194236 -0.7857746,-2.551315 -4.755079 -0.5419327,-2.574407 -4.53292 -0.3594879,-2.08583 -6.196809 -0.7652156,-2.095459 -5.556694 -0.6411673,-2.136416 -5.253802 -0.4551581,-2.164949 -5.107147 -0.3103641,-9.140133 -9.469191 -2.189298,-8.60508 -9.320463 -1.670156,-8.009973 -8.657198 -1.291605,-7.758977 -8.014505 -0.9191048,-7.921458 -7.529483 -0.5883254,-8.362812 -7.205407 -1.522495,-8.134324 -6.516454 -0.7378528,-7.925161 -6.214948 -0.2561849,-7.679079 -5.994964 0.03162348,-8.748966 -7.019306 -1.45037,-8.511421 -6.645122 -0.4243312,-8.505206 -7.683815 -0.1546921,-8.549522 -8.401726 -0.2190822,-9.172599 -7.068222 -1.236889,-8.968684 -6.726573 -0.3103397,-8.962059 -7.704467 -0.1669799,-9.009087 -8.374043 -0.288401,-9.630155 -7.244103 -0.9978502,-9.549397 -6.554319 -0.3168812,-9.397469 -7.054521 -0.1442102,-9.320708 -7.607158 -0.1711823,4.110, 16 1
-2.177204 -8.525145 -0.8409359,-2.778079 -8.339912 -0.4553536,-3.284675 -7.756118 -0.3488102,-3.575842 -7.092191 -0.2224916,-3.876554 -6.564457 -0.07846606,-3.117303 -6.221162 -0.9088666,-3.388209 -5.327441 -0.8529298,-3.524945 -4.767154 -0.7319869,-3.629242 -4.240083 -0.6040696,-2.779 -6.008588 -0.9740086,-2.930634 -5.103385 -0.9845973,-2.930634 -5.103385 -0.9845973,-3.007971 -4.212005 -0.7253191,-2.442645 -6.013271 -0.9480821,-2.509108 -5.193334 -0.9153925,-2.554231 -4.75217 -0.6845509,-2.574295 -4.536066 -0.509091,-2.087668 -6.162126 -0.8733537,-2.096786 -5.533651 -0.7856557,-2.13034 -5.231277 -0.6111493,-2.149995 -5.095657 -0.4760256,-9.125049 -9.536694 -1.260811,-8.579171 -9.424961 -0.7250168,-7.935495 -8.801657 -0.2960989,-7.68683 -8.16564 0.1082721,-7.881563 -7.646366 0.4901401,-8.315413 -7.057189 -0.5021943,-8.101555 -6.583948 0.2971871,-7.900266 -6.371307 0.7851785,-7.63325 -6.203178 1.084584,-8.719982 -6.835077 -0.4349881,-8.458703 -6.678617 0.5435036,-8.45747 -7.791837 0.7766851,-8.493471 -8.529783 0.7358559,-9.163884 -6.923021 -0.2316527,-8.915544 -6.833916 0.6711069,-8.920897 -7.908349 0.7567767,-8.973175 -8.585691 0.6179695,-9.641111 -7.160749 0.0031569,-9.502053 -6.713894 0.6780763,-9.375072 -7.37895 0.7947091,-9.331745 -7.961779 0.7341814,4.210, 16 1
-2.204911 -8.526722 -0.8445562,-2.793157 -8.345537 -0.4952542,-3.295884 -7.75305 -0.4061239,-3.580997 -7.08719 -0.2937083,-3.87027 -6.585886 -0.1620223,-3.112763 -6.214502 -0.9239064,-3.382918 -5.329668 -0.8515028,-3.516558 -4.781444 -0.7183346,-3.621803 -4.250167 -0.5844588,-2.77703 -6.003772 -0.9665487,-2.924207 -5.106058 -0.953023,-2.924207 -5.106058 -0.953023,-3.008881 -4.224321 -0.6640587,-2.443241 -6.01586 -0.9240654,-2.504761 -5.192338 -0.8663173,-2.552617 -4.748264 -0.6292105,-2.577969 -4.518279 -0.4509936,-2.089801 -6.181328 -0.8351571,-2.100081 -5.541492 -0.7204184,-2.133621 -5.249711 -0.5346503,-2.155192 -5.117687 -0.3936935,-9.162682 -9.654518 -0.8001089,-8.591324 -9.529869 -0.2479757,-7.904472 -8.927925 0.2058686,-7.628279 -8.272104 0.6340359,-7.873453 -7.787268 1.031291,-8.288185 -7.087476 0.0788821,-8.081881 -6.696249 0.9584224,-7.88291 -6.516989 1.492341,-7.619158 -6.400951 1.816141,-8.715061 -6.856203 0.1389428,-8.455013 -6.833943 1.158237,-8.478505 -7.993883 1.345023,-8.517445 -8.741636 1.269076,-9.171344 -6.957574 0.340718,-8.913496 -6.984993 1.264206,-8.937335 -8.083241 1.299158,-8.98943 -8.752064 1.130558,-9.662597 -7.22282 0.5777735,-9.51593 -6.837778 1.265535,-9.386289 -7.525894 1.392449,-9.329058 -8.088137 1.345604,4.310, 16 1
-2.195433 -8.520149 -0.8788247,-2.799825 -8.348358 -0.5196329,-3.306931 -7.744269 -0.4312513,-3.58831 -7.071899 -0.3236986,-3.885152 -6.570576 -0.1992774,-3.124911 -6.220096 -0.949715,-3.392292 -5.332336 -0.8837977,-3.52269 -4.773801 -0.7527655,-3.622494 -4.241552 -0.6183953,-2.783537 -6.010772 -0.9974976,-2.932414 -5.11475 -0.9867898,-2.932414 -5.11475 -0.9867898,-3.007267 -4.226919 -0.7018916,-2.445416 -6.016939 -0.9584537,-2.513635 -5.205506 -0.9031121,-2.561093 -4.756255 -0.6627433,-2.585457 -4.523012 -0.4822173,-2.088119 -6.17354 -0.8707958,-2.10412 -5.542454 -0.7617429,-2.142016 -5.24574 -0.5725843,-2.165961 -5.106898 -0.4275713,-9.145193 -9.705164 -0.6166464,-8.57226 -9.567644 -0.02951151,-7.906052 -8.965683 0.4606608,-7.637156 -8.326427 0.9098228,-7.895804 -7.88767 1.3289,-8.271967 -7.105705 0.3255309,-8.083302 -6.73533 1.268112,-7.893233 -6.572876 1.833963,-7.641666 -6.458606 2.156707,-8.712111 -6.865407 0.3715813,-8.477945 -6.896244 1.439937,-8.504916 -8.087561 1.626799,-8.542712 -8.822117 1.532347,-9.184525 -6.970644 0.5615342,-8.944616 -7.033786 1.502209,-8.963427 -8.145073 1.515641,-9.010562 -8.78204 1.325128,-9.68943 -7.246168 0.7892694,-9.552789 -6.887186 1.466632,-9.423892 -7.594072 1.58246,-9.362271 -8.135918 1.527443,4.410, 16 1
-2.201671 -8.534496 -0.863867,-2.800958 -8.354294 -0.5067313,-3.310799 -7.764886 -0.4128032,-3.600288 -7.099449 -0.2931629,-3.898675 -6.602558 -0.1596829,-3.134796 -6.230562 -0.9179203,-3.410483 -5.338851 -0.8414985,-3.542575 -4.785603 -0.7169561,-3.640149 -4.259145 -0.5892536,-2.796171 -6.021409 -0.9636206,-2.948547 -5.111293 -0.9420155,-2.948547 -5.111293 -0.9420155,-3.022299 -4.22663 -0.6742841,-2.458182 -6.034662 -0.9212329,-2.526356 -5.208021 -0.8563885,-2.570797 -4.770791 -0.6220033,-2.59065 -4.558913 -0.4500516,-2.099196 -6.199575 -0.832445,-2.110269 -5.567441 -0.7154449,-2.146398 -5.271968 -0.5319371,-2.1714 -5.140484 -0.3927148,-9.230209 -9.725208 0.04373294,-8.616247 -9.667484 0.708935,-7.903169 -9.11751 1.31506,-7.621768 -8.458576 1.85391,-7.96055 -8.007668 2.369513,-8.313221 -7.015501 1.183031,-8.160182 -6.711555 2.248032,-7.987623 -6.645518 2.879792,-7.757917 -6.654737 3.201159,-8.781508 -6.748971 1.205944,-8.549846 -6.98027 2.353102,-8.569891 -8.213158 2.506366,-8.618397 -8.905994 2.399547,-9.276119 -6.891226 1.371549,-9.026779 -7.174407 2.343092,-9.037428 -8.322933 2.272395,-9.086933 -8.894339 2.035525,-9.807454 -7.209903 1.586304,-9.64502 -7.015482 2.252438,-9.506244 -7.816816 2.320252,-9.45038 -8.33145 2.237655,4.510, 16 1
-2.180799 -8.567835 -0.8024803,-2.769705 -8.39216 -0.4204866,-3.291595 -7.788755 -0.3166437,-3.596294 -7.108373 -0.1946763,-3.898725 -6.593401 -0.05318075,-3.116397 -6.258235 -0.8324875,-3.39159 -5.36411 -0.7597256,-3.528986 -4.809074 -0.6419673,-3.635372 -4.27103 -0.5137178,-2.781981 -6.037967 -0.894165,-2.934791 -5.134035 -0.8797487,-2.934791 -5.134035 -0.8797487,-3.027214 -4.237883 -0.6205698,-2.446766 -6.044864 -0.8652263,-2.514411 -5.215904 -0.8065524,-2.56145 -4.776603 -0.5797542,-2.582174 -4.564464 -0.4039781,-2.088225 -6.207947 -0.7888346,-2.100918 -5.569824 -0.6701071,-2.135874 -5.279489 -0.4829281,-2.156289 -5.161711 -0.337344,-9.23575 -9.818056 0.4851247,-8.615099 -9.733488 1.191872,-7.903606 -9.140203 1.809642,-7.621236 -8.513374 2.349019,-8.014481 -8.141865 2.839475,-8.356281 -6.967197 1.727275,-8.203269 -6.689374 2.785298,-8.021341 -6.646385 3.40669,-7.785394 -6.712204 3.742055,-8.8335 -6.734293 1.737306,-8.600663 -7.086215 2.865957,-8.604395 -8.310936 2.982754,-8.645593 -9.004581 2.86371,-9.327055 -6.95809 1.900756,-9.085271 -7.295551 2.86121,-9.068305 -8.382641 2.778091,-9.089349 -8.934792 2.563095,-9.85875 -7.377084 2.1218,-9.743815 -7.127792 2.789463,-9.586048 -7.796899 2.880631,-9.497368 -8.262987 2.851013,4.610, 16 1
-2.186205 -8.593403 -0.7380924,-2.782569 -8.400843 -0.3789217,-3.29385 -7.79556 -0.2833252,-3.58917 -7.116903 -0.162078,-3.890021 -6.599375 -0.01971483,-3.113916 -6.253656 -0.8137451,-3.391036 -5.365459 -0.7510964,-3.52505 -4.811321 -0.6313225,-3.624939 -4.278046 -0.5038765,-2.776845 -6.043523 -0.8615117,-2.93014 -5.138893 -0.8652592,-2.93014 -5.138893 -0.8652592,-3.015123 -4.249221 -0.6181491,-2.44063 -6.060264 -0.8204462,-2.505782 -5.230395 -0.7802322,-2.555653 -4.790393 -0.5578278,-2.580842 -4.570804 -0.3883289,-2.082921 -6.233451 -0.7308388,-2.097079 -5.595191 -0.6298124,-2.141002 -5.294767 -0.4554592,-2.174362 -5.159225 -0.32186,-9.273628 -9.93095 0.9557605,-8.648882 -9.781696 1.626335,-7.916755 -9.179647 2.238361,-7.629218 -8.533787 2.765426,-8.050953 -8.152121 3.268191,-8.402925 -6.987279 2.157782,-8.258442 -6.736825 3.178201,-8.09278 -6.685693 3.794026,-7.873064 -6.736614 4.128922,-8.885773 -6.682553 2.162622,-8.655805 -7.23405 3.229911,-8.689084 -8.46204 3.346432,-8.754349 -9.115004 3.276699,-9.384291 -6.863571 2.304889,-9.142704 -7.388933 3.156904,-9.153857 -8.491617 3.041797,-9.194813 -9.020401 2.850787,-9.925287 -7.237362 2.510172,-9.772574 -7.173805 3.084492,-9.625337 -7.958503 3.133153,-9.553851 -8.439272 3.10659,4.710, 16 
-2.173473 -8.609026 -0.7790348,-2.768915 -8.416761 -0.4045897,-3.285811 -7.81694 -0.3083712,-3.588489 -7.131301 -0.1872459,-3.887966 -6.598472 -0.04906428,-3.107418 -6.283876 -0.8462459,-3.387112 -5.373796 -0.7857131,-3.521962 -4.811685 -0.6777657,-3.62124 -4.280847 -0.5613117,-2.773646 -6.073645 -0.9074024,-2.927943 -5.144359 -0.9172159,-2.927943 -5.144359 -0.9172159,-3.013499 -4.251855 -0.6965137,-2.43899 -6.082969 -0.8776277,-2.506039 -5.23892 -0.8373214,-2.552068 -4.792129 -0.6233758,-2.572771 -4.576961 -0.4636239,-2.081756 -6.238468 -0.7999868,-2.091759 -5.590295 -0.70004,-2.126578 -5.285242 -0.5308037,-2.14939 -5.150117 -0.4044862,-9.304406 -9.857952 0.7117855,-8.663419 -9.743406 1.459005,-7.956797 -9.117052 2.112544,-7.69472 -8.492971 2.667102,-8.121821 -8.182581 3.196937,-8.454693 -7.04179 2.136032,-8.379963 -6.751934 3.260068,-8.245302 -6.699855 3.913009,-8.071678 -6.752326 4.232982,-8.954397 -6.766057 2.124436,-8.794169 -7.246362 3.279974,-8.793565 -8.442739 3.429723,-8.824756 -9.056274 3.379913,-9.457659 -6.959689 2.245107,-9.27705 -7.417821 3.183387,-9.252516 -8.490534 3.098867,-9.259679 -8.992813 2.921044,-9.983327 -7.349626 2.429977,-9.901291 -7.200767 3.022863,-9.755139 -7.928314 3.088847,-9.662348 -8.380486 3.069791,4.810, 16 
-2.178705 -8.612688 -0.6713926,-2.779364 -8.405012 -0.2687503,-3.292593 -7.81353 -0.1642468,-3.587861 -7.141693 -0.04003298,-3.887328 -6.609317 0.09778625,-3.112415 -6.252676 -0.7319621,-3.388662 -5.36149 -0.687012,-3.525826 -4.810407 -0.5807643,-3.626902 -4.290267 -0.463981,-2.773055 -6.045263 -0.8173867,-2.926979 -5.140024 -0.8478677,-2.926979 -5.140024 -0.8478677,-3.007669 -4.24629 -0.6286436,-2.436248 -6.060018 -0.8102655,-2.506674 -5.240718 -0.7939888,-2.552407 -4.803461 -0.5797841,-2.572284 -4.579975 -0.414088,-2.080261 -6.225202 -0.7510051,-2.097947 -5.604408 -0.669733,-2.134453 -5.306074 -0.4977728,-2.15785 -5.166305 -0.367633,-9.35827 -9.868748 0.7932227,-8.694019 -9.740154 1.539896,-7.985893 -9.123285 2.187943,-7.720071 -8.497637 2.738198,-8.141962 -8.163301 3.282153,-8.514263 -7.037338 2.201829,-8.420021 -6.768746 3.292747,-8.291123 -6.723968 3.929888,-8.122603 -6.809181 4.225104,-9.011781 -6.73882 2.179282,-8.845334 -7.246459 3.308275,-8.840963 -8.409977 3.50187,-8.859365 -9.056158 3.490976,-9.509654 -6.909476 2.284307,-9.326479 -7.370229 3.210959,-9.292023 -8.413383 3.205055,-9.280534 -8.96648 3.089228,-10.0239 -7.285677 2.445201,-9.954529 -7.149166 3.06525,-9.817949 -7.838639 3.185245,-9.719114 -8.305292 3.202033,4.910, 16 
-2.175653 -8.641031 -0.5986891,-2.773074 -8.433033 -0.2258447,-3.296937 -7.826005 -0.1312422,-3.60252 -7.142835 -0.005486488,-3.892044 -6.604658 0.1428996,-3.111071 -6.259446 -0.7162557,-3.382634 -5.370903 -0.6832935,-3.522371 -4.821647 -0.5933465,-3.626736 -4.308742 -0.4954665,-2.777864 -6.057258 -0.7926902,-2.926772 -5.150046 -0.8565392,-2.926772 -5.150046 -0.8565392,-3.017172 -4.236663 -0.7099108,-2.444637 -6.075601 -0.7748584,-2.505204 -5.251371 -0.7881535,-2.556206 -4.809325 -0.6174304,-2.586213 -4.568892 -0.4864504,-2.093738 -6.250249 -0.7033429,-2.097558 -5.626655 -0.6468378,-2.130253 -5.317304 -0.5040615,-2.15415 -5.16151 -0.3980753,-9.370219 -9.912651 0.7040253,-8.708698 -9.739801 1.455863,-8.016376 -9.100477 2.090966,-7.775146 -8.452538 2.64826,-8.179029 -8.130276 3.188903,-8.54094 -7.047943 2.070736,-8.462995 -6.802969 3.189157,-8.345993 -6.782669 3.8263,-8.184935 -6.877481 4.111658,-9.035418 -6.798478 2.065121,-8.887518 -7.232047 3.259638,-8.869527 -8.421713 3.465053,-8.863268 -9.087269 3.423514,-9.528 -6.988815 2.197261,-9.365558 -7.354929 3.190611,-9.329444 -8.439453 3.191839,-9.306669 -9.022964 3.045107,-10.03982 -7.374391 2.380785,-10.0023 -7.123992 3.031741,-9.867445 -7.735836 3.167736,-9.762702 -8.163193 3.16593,5.010, 16 
-2.184004 -8.62908 -0.6210248,-2.781949 -8.418362 -0.2750517,-3.306506 -7.811868 -0.1950465,-3.614597 -7.120414 -0.08170468,-3.910212 -6.594398 0.05028367,-3.11742 -6.254636 -0.7494039,-3.39216 -5.359681 -0.7283543,-3.527735 -4.816125 -0.6493988,-3.626823 -4.303512 -0.560168,-2.786484 -6.052557 -0.8228043,-2.940089 -5.140549 -0.8957819,-2.940089 -5.140549 -0.8957819,-3.027687 -4.237745 -0.7585987,-2.454091 -6.066652 -0.8053002,-2.517069 -5.240419 -0.8283804,-2.562147 -4.804901 -0.670209,-2.587299 -4.552105 -0.5490599,-2.103476 -6.237949 -0.7353067,-2.108845 -5.620668 -0.6854292,-2.138818 -5.327549 -0.5507409,-2.160558 -5.176501 -0.4542853,-9.307518 -9.928371 0.9671572,-8.67089 -9.726934 1.755512,-8.009 -9.100521 2.43651,-7.783109 -8.468102 3.031066,-8.223861 -8.151167 3.595423,-8.51368 -6.998567 2.373965,-8.461284 -6.796707 3.523147,-8.367255 -6.785454 4.188385,-8.224392 -6.865415 4.495444,-9.012529 -6.7339 2.342031,-8.894496 -7.232391 3.538036,-8.872551 -8.430668 3.744912,-8.852767 -9.072908 3.704232,-9.509898 -6.91222 2.444933,-9.369788 -7.324632 3.399056,-9.32892 -8.411278 3.36882,-9.298451 -8.974922 3.200291,-10.02384 -7.300443 2.608345,-9.986762 -7.114387 3.216905,-9.838271 -7.820026 3.314892,-9.726917 -8.303919 3.285072,5.110, 16 
-2.196634 -8.64254 -0.5851951,-2.778028 -8.433882 -0.2282894,-3.299326 -7.825751 -0.1237924,-3.608932 -7.137708 0.01221204,-3.901381 -6.588748 0.1716703,-3.115164 -6.257733 -0.67093,-3.398256 -5.365181 -0.615233,-3.535291 -4.818365 -0.5153589,-3.634395 -4.292606 -0.4035847,-2.782713 -6.047369 -0.7209803,-2.941258 -5.138406 -0.7351018,-2.941258 -5.138406 -0.7351018,-3.022752 -4.24578 -0.5290837,-2.448279 -6.066181 -0.683175,-2.514898 -5.227218 -0.6527801,-2.563797 -4.793357 -0.4464654,-2.585677 -4.5797 -0.2971306,-2.091676 -6.244803 -0.5965604,-2.104242 -5.600736 -0.5043432,-2.140715 -5.298887 -0.3400375,-2.164101 -5.163618 -0.2198945,-9.309034 -9.922287 0.6062076,-8.675825 -9.740692 1.299703,-7.997563 -9.095209 1.909214,-7.775833 -8.447168 2.460473,-8.184525 -8.163502 2.968624,-8.522154 -7.019582 1.876938,-8.431686 -6.74811 2.978873,-8.291599 -6.741883 3.579074,-8.107838 -6.836912 3.846298,-9.009977 -6.798694 1.881385,-8.821353 -7.207447 3.050792,-8.798384 -8.39962 3.237628,-8.811563 -9.031599 3.172172,-9.492365 -6.995569 2.019132,-9.290076 -7.325578 2.986251,-9.249428 -8.400311 2.948873,-9.247036 -8.963476 2.759451,-10.01071 -7.376987 2.214265,-9.935685 -7.115848 2.849694,-9.758364 -7.777902 2.962268,-9.654202 -8.270046 2.924927,5.210, 16 
-2.179934 -8.611933 -0.6665241,-2.790339 -8.399857 -0.3125425,-3.306358 -7.811571 -0.2254674,-3.606602 -7.135774 -0.1081603,-3.900623 -6.581318 0.02404988,-3.110312 -6.254249 -0.7905942,-3.384411 -5.35147 -0.7634764,-3.52376 -4.797674 -0.67445,-3.624353 -4.273259 -0.5744368,-2.777222 -6.046297 -0.8516997,-2.930512 -5.121922 -0.9032162,-2.930512 -5.121922 -0.9032162,-3.014795 -4.21037 -0.7194129,-2.443667 -6.054262 -0.8230838,-2.509711 -5.216182 -0.8204456,-2.558333 -4.772487 -0.6242815,-2.581247 -4.543954 -0.4713256,-2.089601 -6.210736 -0.7438291,-2.102365 -5.57009 -0.672184,-2.13861 -5.263516 -0.5087217,-2.161923 -5.12549 -0.3913466,-9.250354 -9.929516 1.147256,-8.603747 -9.685415 1.771361,-7.923658 -9.070906 2.380865,-7.699594 -8.365156 2.949083,-8.123029 -7.994918 3.491788,-8.386239 -6.900774 2.303449,-8.295769 -6.66978 3.268023,-8.183724 -6.640959 3.822403,-7.998552 -6.672435 4.093086,-8.866701 -6.612639 2.328742,-8.669847 -7.159837 3.339563,-8.662754 -8.294386 3.569007,-8.663412 -8.925941 3.575637,-9.344264 -6.756492 2.464989,-9.123712 -7.237314 3.25526,-9.11867 -8.287096 3.262266,-9.125993 -8.855162 3.1557,-9.870979 -7.093637 2.66513,-9.738417 -7.023443 3.209481,-9.584064 -7.733921 3.315431,-9.504713 -8.246494 3.287499,5.310, 16 
-2.191723 -8.623938 -0.6202015,-2.779565 -8.424301 -0.2527541,-3.299731 -7.803921 -0.1508918,-3.605506 -7.116363 -0.02075726,-3.90768 -6.593215 0.1333806,-3.110589 -6.247938 -0.6892079,-3.384333 -5.35062 -0.6370139,-3.519726 -4.800015 -0.5335962,-3.622099 -4.269745 -0.4201122,-2.778618 -6.038919 -0.7497478,-2.933158 -5.124347 -0.7645579,-2.933158 -5.124347 -0.7645579,-3.022472 -4.200763 -0.5529128,-2.445312 -6.053501 -0.7192963,-2.511226 -5.223239 -0.6849077,-2.561 -4.784448 -0.4821978,-2.585136 -4.544949 -0.3268063,-2.092521 -6.223578 -0.6400319,-2.10284 -5.591041 -0.5431408,-2.137394 -5.293909 -0.3756866,-2.158885 -5.15076 -0.2507076,-9.1419 -9.840153 -0.4021342,-8.536709 -9.562328 0.1789654,-7.87153 -8.901802 0.7108485,-7.644688 -8.210915 1.241188,-8.019629 -7.854026 1.737681,-8.35305 -7.049514 0.476855,-8.261333 -6.54747 1.426628,-8.09775 -6.537041 2.011465,-7.891151 -6.665869 2.288349,-8.806433 -6.907591 0.5421807,-8.599438 -6.924184 1.605319,-8.558168 -8.053146 1.880341,-8.563564 -8.739964 1.851247,-9.264968 -7.06908 0.7418694,-9.038941 -7.035009 1.651961,-9.002736 -8.108593 1.726969,-9.01973 -8.769991 1.585643,-9.766107 -7.390546 0.9950972,-9.670074 -6.879745 1.636763,-9.494492 -7.471694 1.783358,-9.403523 -8.005962 1.739124,5.410,Left Hand Closed 16 
-2.203026 -8.614529 -0.6569843,-2.785379 -8.419334 -0.3278162,-3.302607 -7.797411 -0.2327894,-3.601891 -7.108722 -0.1012821,-3.899477 -6.581244 0.05193156,-3.107617 -6.23538 -0.7339805,-3.378788 -5.337699 -0.6666382,-3.513653 -4.788461 -0.5511472,-3.61412 -4.237442 -0.4283994,-2.772918 -6.035173 -0.7576532,-2.926383 -5.119771 -0.7384169,-2.926383 -5.119771 -0.7384169,-3.017286 -4.202744 -0.5053864,-2.436331 -6.059101 -0.6936634,-2.499065 -5.218681 -0.6284007,-2.552789 -4.773538 -0.4111524,-2.58148 -4.524897 -0.2548243,-2.078814 -6.240804 -0.5843268,-2.095407 -5.587414 -0.4669789,-2.140963 -5.278297 -0.2963356,-2.172723 -5.120817 -0.1781273,-9.112068 -9.837246 -1.402112,-8.519703 -9.535791 -0.8761755,-7.882795 -8.83098 -0.4327863,-7.653989 -8.126469 0.03961396,-7.986506 -7.750497 0.457252,-8.359199 -7.201738 -0.7991962,-8.270976 -6.486909 0.1336843,-8.078478 -6.498069 0.7097113,-7.871609 -6.667539 0.9649246,-8.778865 -7.133893 -0.6980261,-8.582878 -6.760429 0.4355356,-8.550199 -7.90546 0.7300451,-8.576757 -8.59215 0.6349003,-9.220982 -7.265907 -0.4476296,-9.021008 -6.873626 0.5422896,-8.971642 -7.969318 0.6499305,-8.994629 -8.663397 0.4509397,-9.707556 -7.532835 -0.1530064,-9.648841 -6.749733 0.5427623,-9.463239 -7.238954 0.7082903,-9.371507 -7.761598 0.6329858,5.510,Left Hand Closed 16 
-2.187346 -8.590687 -0.6552458,-2.775263 -8.373074 -0.273109,-3.287866 -7.772371 -0.1630428,-3.590374 -7.096981 -0.0268935,-3.884642 -6.549865 0.1298492,-3.097281 -6.217512 -0.7324159,-3.369743 -5.322217 -0.682303,-3.503649 -4.774808 -0.5733812,-3.600266 -4.246402 -0.4610812,-2.76504 -6.014408 -0.7953441,-2.920781 -5.103176 -0.8180025,-2.920781 -5.103176 -0.8180025,-2.997099 -4.18244 -0.6116589,-2.43302 -6.032173 -0.765066,-2.499876 -5.198761 -0.7386373,-2.54823 -4.745709 -0.5282333,-2.569343 -4.490326 -0.3693797,-2.079477 -6.206443 -0.683131,-2.092403 -5.570217 -0.5919073,-2.124914 -5.262235 -0.4202243,-2.141443 -5.107336 -0.2942641,-9.047963 -9.63867 -2.174458,-8.489455 -9.375813 -1.656087,-7.901123 -8.661709 -1.247679,-7.694488 -7.960382 -0.8329763,-7.998505 -7.556566 -0.469648,-8.341417 -7.269916 -1.531454,-8.233804 -6.457807 -0.6889758,-8.051104 -6.407094 -0.1480241,-7.867966 -6.557769 0.1196144,-8.738495 -7.167448 -1.453512,-8.542751 -6.589298 -0.3699503,-8.501661 -7.656791 -0.07335067,-8.532989 -8.393856 -0.1398971,-9.173963 -7.23127 -1.238305,-8.98572 -6.672042 -0.3148276,-8.937366 -7.700491 -0.1858925,-8.975275 -8.424295 -0.3425169,-9.655987 -7.409918 -0.991542,-9.589763 -6.580659 -0.3279414,-9.401697 -7.069839 -0.1510735,-9.319473 -7.647754 -0.2005261,5.610, 16 
-2.176441 -8.590425 -0.6560602,-2.76134 -8.398218 -0.2896414,-3.278075 -7.782171 -0.1858177,-3.582466 -7.094799 -0.05561489,-3.879079 -6.567478 0.09457552,-3.08482 -6.215858 -0.7192811,-3.356722 -5.318925 -0.6633635,-3.487573 -4.770105 -0.5587719,-3.582267 -4.239892 -0.4499013,-2.753273 -6.013355 -0.7795541,-2.910584 -5.099806 -0.7982546,-2.910584 -5.099806 -0.7982546,-3.002808 -4.175176 -0.6095399,-2.420542 -6.037342 -0.7491493,-2.48126 -5.201438 -0.7228577,-2.535469 -4.750581 -0.5317187,-2.566557 -4.487791 -0.3873751,-2.068191 -6.225173 -0.668427,-2.076004 -5.584284 -0.5821434,-2.113298 -5.270426 -0.4243135,-2.14045 -5.10173 -0.3090003,-9.13238 -9.444668 -2.671843,-8.551682 -9.286352 -2.209126,-7.962347 -8.591185 -1.880553,-7.706968 -7.913812 -1.52082,-7.891407 -7.379261 -1.19418,-8.35524 -7.18749 -2.432722,-8.171644 -6.282001 -1.708825,-7.949264 -6.028118 -1.134573,-7.740014 -5.960842 -0.7994018,-8.711243 -7.055044 -2.328085,-8.512813 -6.08983 -1.332808,-8.390935 -7.052557 -0.867654,-8.40122 -7.857189 -0.7901487,-9.128088 -7.09136 -2.087879,-8.951144 -6.238464 -1.224027,-8.836443 -7.198081 -0.9751023,-8.869313 -7.980352 -1.06788,-9.586402 -7.245304 -1.834286,-9.529008 -6.399643 -1.200732,-9.342166 -6.87306 -1.039861,-9.276657 -7.489404 -1.10433,5.710, 16 
-2.168265 -8.592833 -0.6489815,-2.770301 -8.372992 -0.261822,-3.281619 -7.777034 -0.1529714,-3.581265 -7.102272 -0.0184775,-3.877682 -6.558412 0.1341379,-3.082277 -6.213497 -0.7243831,-3.349862 -5.319434 -0.6698981,-3.485212 -4.770682 -0.553243,-3.583885 -4.245122 -0.4335758,-2.747787 -6.015412 -0.7942003,-2.900578 -5.10229 -0.8098617,-2.900578 -5.10229 -0.8098617,-2.985348 -4.186428 -0.5821046,-2.415924 -6.035497 -0.7699539,-2.481215 -5.201378 -0.7418249,-2.534892 -4.75136 -0.5312916,-2.562918 -4.498884 -0.3716548,-2.066151 -6.210855 -0.695333,-2.070672 -5.569141 -0.6059831,-2.105472 -5.256522 -0.4365565,-2.126114 -5.100248 -0.3160701,-9.129081 -9.367237 -2.825247,-8.554572 -9.297991 -2.405793,-7.981308 -8.561441 -2.106174,-7.729009 -7.852447 -1.780233,-7.866933 -7.250755 -1.497149,-8.369259 -7.164972 -2.589982,-8.172234 -6.14155 -1.992792,-7.926083 -5.776391 -1.484663,-7.709993 -5.640348 -1.157722,-8.724353 -7.021272 -2.470616,-8.543641 -5.847942 -1.625888,-8.396579 -6.649207 -1.197306,-8.404294 -7.474385 -1.089928,-9.134756 -7.053548 -2.238838,-8.986736 -5.984401 -1.483821,-8.840058 -6.781639 -1.186703,-8.85484 -7.58394 -1.175164,-9.582019 -7.186204 -2.002707,-9.539242 -6.251747 -1.39265,-9.356569 -6.635791 -1.174582,-9.288924 -7.265565 -1.133595,5.810, 16 
-2.187504 -8.595043 -0.6482863,-2.782904 -8.384321 -0.2601519,-3.293133 -7.784624 -0.144762,-3.588332 -7.110883 -0.006891072,-3.88748 -6.574678 0.1522525,-3.103629 -6.220294 -0.7031869,-3.365549 -5.331806 -0.6352088,-3.496553 -4.777088 -0.5030134,-3.593966 -4.247114 -0.3726428,-2.766458 -6.015882 -0.7660546,-2.917743 -5.107641 -0.764155,-2.917743 -5.107641 -0.764155,-3.009827 -4.16665 -0.5042535,-2.42969 -6.032441 -0.734541,-2.497906 -5.20765 -0.6925353,-2.553092 -4.756711 -0.4607915,-2.583261 -4.515031 -0.2869011,-2.074467 -6.205478 -0.6542292,-2.087175 -5.56604 -0.55383,-2.127402 -5.257847 -0.3734688,-2.155904 -5.111499 -0.2401726,-9.190154 -9.325497 -1.441765,-8.54208 -9.21352 -1.085994,-7.959134 -8.463186 -0.9280331,-7.70253 -7.691739 -0.7755523,-7.822854 -7.076639 -0.7197997,-8.380427 -6.687624 -1.662113,-8.200727 -5.725385 -1.430952,-8.038431 -5.082971 -1.06753,-7.888894 -4.695528 -0.7630808,-8.778616 -6.558708 -1.604404,-8.69914 -5.322895 -1.172341,-8.571315 -5.529068 -0.6528173,-8.524881 -6.09527 -0.3629942,-9.169819 -6.641991 -1.47001,-9.129194 -5.510614 -1.076968,-9.013261 -5.928348 -0.6899922,-8.977651 -6.614219 -0.5197399,-9.58456 -6.877584 -1.308834,-9.559459 -6.018789 -0.9255526,-9.450412 -6.19489 -0.6496067,-9.39549 -6.701627 -0.50644,5.910, 16 
-2.184873 -8.590128 -0.7027667,-2.787144 -8.375341 -0.3023907,-3.294184 -7.78417 -0.1873564,-3.590503 -7.107299 -0.05424917,-3.890853 -6.566693 0.09834003,-3.09873 -6.229667 -0.745966,-3.365307 -5.330423 -0.6855755,-3.500267 -4.771372 -0.5560187,-3.600495 -4.238973 -0.4246355,-2.76354 -6.026969 -0.822068,-2.921221 -5.109373 -0.8319027,-2.921221 -5.109373 -0.8319027,-3.024515 -4.155204 -0.5801338,-2.42947 -6.041557 -0.805916,-2.501588 -5.21336 -0.7723902,-2.560264 -4.753337 -0.5510399,-2.59562 -4.487085 -0.3817862,-2.076977 -6.208948 -0.7390309,-2.092811 -5.569572 -0.6442537,-2.131338 -5.253973 -0.4713716,-2.156719 -5.090985 -0.3450527,-9.25081 -9.282145 -1.175088,-8.569212 -9.172525 -0.8770487,-7.977998 -8.409401 -0.7505075,-7.70691 -7.634849 -0.6215929,-7.801333 -7.054128 -0.5871952,-8.409808 -6.589818 -1.436831,-8.190687 -5.559579 -1.238191,-8.044629 -4.836502 -0.9015868,-7.930562 -4.369983 -0.620644,-8.80473 -6.445009 -1.364109,-8.716616 -5.163749 -0.9937061,-8.602231 -5.165157 -0.4573846,-8.56731 -5.682639 -0.131399,-9.179984 -6.506902 -1.220776,-9.136633 -5.325515 -0.8867428,-9.032769 -5.449882 -0.4620008,-8.996305 -6.022033 -0.2419268,-9.576381 -6.743122 -1.044201,-9.580519 -5.81739 -0.6517415,-9.463123 -5.824021 -0.311222,-9.371414 -6.281404 -0.1006314,6.010, 16 
-2.200937 -8.581314 -0.6703132,-2.804843 -8.378542 -0.3149097,-3.313738 -7.768749 -0.2111108,-3.6081 -7.087067 -0.07763433,-3.909834 -6.55444 0.07208622,-3.108275 -6.217891 -0.7200332,-3.376831 -5.333045 -0.6344188,-3.510645 -4.779401 -0.4974368,-3.612758 -4.244342 -0.3654967,-2.774489 -6.006208 -0.7576994,-2.936178 -5.087935 -0.7314582,-2.936178 -5.087935 -0.7314582,-3.04969 -4.115627 -0.4647403,-2.440792 -6.020046 -0.7074498,-2.515429 -5.184279 -0.6415132,-2.580614 -4.719463 -0.4097728,-2.625082 -4.443208 -0.2380649,-2.086883 -6.192762 -0.6106489,-2.106626 -5.535392 -0.4911639,-2.151993 -5.212173 -0.31202,-2.186032 -5.0415 -0.1861903,-9.189282 -9.335443 -0.6369626,-8.528133 -9.161636 -0.2956809,-7.942664 -8.420834 -0.1062932,-7.678701 -7.652835 0.08847272,-7.774323 -7.022006 0.1737988,-8.402051 -6.465637 -0.8060136,-8.198202 -5.377784 -0.5926341,-8.053742 -4.643688 -0.2698548,-7.943062 -4.18362 0.01734698,-8.809139 -6.328432 -0.7160761,-8.746257 -4.949967 -0.3227942,-8.601242 -4.882263 0.2343755,-8.550168 -5.409078 0.5843807,-9.199768 -6.443323 -0.5618654,-9.19419 -5.182792 -0.1918706,-9.078246 -5.187618 0.2417043,-9.024107 -5.719638 0.4833893,-9.605637 -6.774942 -0.3682125,-9.668952 -5.746339 0.043787,-9.562688 -5.551004 0.3727956,-9.454942 -5.899934 0.5831569,6.110, 16 
-2.227843 -8.550659 -0.867655,-2.83441 -8.368582 -0.5779991,-3.337271 -7.779207 -0.5018787,-3.630628 -7.098217 -0.3956944,-3.930889 -6.604051 -0.2757196,-3.130339 -6.251846 -0.9185315,-3.403866 -5.339115 -0.830679,-3.539083 -4.770311 -0.7081007,-3.640467 -4.230127 -0.5828884,-2.79959 -6.032715 -0.9463975,-2.966654 -5.06188 -0.9318187,-2.966654 -5.06188 -0.9318187,-3.076628 -3.996239 -0.7230814,-2.470299 -6.01971 -0.8970314,-2.560528 -5.130998 -0.8682083,-2.642705 -4.605506 -0.7091031,-2.701042 -4.174607 -0.5864229,-2.123542 -6.165454 -0.8030965,-2.1382 -5.477456 -0.7481624,-2.187172 -5.065285 -0.6176742,-2.230583 -4.692416 -0.5235953,-9.182734 -9.409077 0.14803,-8.506215 -9.158329 0.395852,-7.923194 -8.346186 0.5454077,-7.681902 -7.54874 0.7572055,-7.738354 -6.875581 0.91388,-8.3744 -6.319427 -0.01898204,-8.201375 -5.188768 0.1691376,-8.094518 -4.495658 0.4734378,-7.959338 -3.989854 0.7229049,-8.811932 -6.174083 0.1223259,-8.743706 -4.986587 0.3712661,-8.623891 -4.39268 0.8355393,-8.469276 -4.210577 1.177836,-9.217542 -6.31594 0.3204154,-9.219018 -5.22744 0.5476411,-9.134004 -4.740142 0.9364917,-8.982588 -4.581504 1.227011,-9.615362 -6.703462 0.5614837,-9.6631 -5.772229 0.849872,-9.58893 -5.323264 1.169857,-9.413666 -5.137043 1.421037,6.210, 16 
-2.221241 -8.550972 -0.8515087,-2.816776 -8.392216 -0.5312635,-3.326964 -7.801998 -0.4337266,-3.625678 -7.11948 -0.3130707,-3.925356 -6.610848 -0.1763192,-3.135843 -6.257398 -0.8615007,-3.405481 -5.353614 -0.7550272,-3.538164 -4.780641 -0.6158017,-3.637157 -4.229432 -0.4705833,-2.805262 -6.03018 -0.8912898,-2.975778 -5.061323 -0.8478893,-2.975778 -5.061323 -0.8478893,-3.094836 -3.981102 -0.5988218,-2.473224 -6.012186 -0.8418074,-2.56635 -5.119279 -0.7867777,-2.647892 -4.58026 -0.6104596,-2.706616 -4.129482 -0.4733334,-2.11996 -6.158918 -0.7486923,-2.13581 -5.455984 -0.6711528,-2.179503 -5.030771 -0.5311655,-2.215441 -4.646527 -0.4285741,-9.153561 -9.392818 0.007235525,-8.487909 -9.153185 0.2286991,-7.924896 -8.372702 0.3697312,-7.672624 -7.590839 0.5805244,-7.688785 -6.898304 0.7375039,-8.416636 -6.32438 -0.1379442,-8.251724 -5.169949 0.03297951,-8.147266 -4.475158 0.2832023,-8.020542 -3.932018 0.4848627,-8.83604 -6.192449 0.01533405,-8.73797 -4.982643 0.2051555,-8.607546 -4.3333 0.5974498,-8.459349 -3.970223 0.878135,-9.239964 -6.341253 0.2328125,-9.208578 -5.227489 0.4204937,-9.104418 -4.617186 0.7653124,-8.939226 -4.228426 1.037177,-9.636509 -6.733346 0.483408,-9.698647 -5.825246 0.7466939,-9.637149 -5.284963 1.04442,-9.471397 -4.889782 1.275647,6.310, 16 
-2.204994 -8.558231 -0.7882607,-2.807614 -8.397202 -0.4981604,-3.328595 -7.787515 -0.4247722,-3.628714 -7.086545 -0.3228436,-3.927961 -6.597001 -0.2073532,-3.122509 -6.247785 -0.824659,-3.393023 -5.34103 -0.7401352,-3.529693 -4.775743 -0.6342078,-3.629423 -4.239513 -0.5256474,-2.79612 -6.021284 -0.8610702,-2.96716 -5.046224 -0.8538111,-2.96716 -5.046224 -0.8538111,-3.08582 -3.958419 -0.6871794,-2.46818 -6.001792 -0.8215964,-2.562721 -5.107591 -0.8074264,-2.642817 -4.580684 -0.6791326,-2.698102 -4.127617 -0.5816258,-2.120749 -6.148813 -0.7370301,-2.133997 -5.452413 -0.6978083,-2.173442 -5.038063 -0.5881308,-2.204297 -4.652313 -0.5088907,-9.160534 -9.369669 -0.05495377,-8.477571 -9.10766 0.1681475,-7.924907 -8.341122 0.3043596,-7.672317 -7.566032 0.5025165,-7.675275 -6.872246 0.6420288,-8.426422 -6.327581 -0.1845681,-8.260345 -5.172863 -0.02266174,-8.148256 -4.471582 0.2068649,-8.016356 -3.904779 0.3934224,-8.840185 -6.187402 -0.04180336,-8.736302 -4.96574 0.11324,-8.603593 -4.272762 0.472477,-8.454246 -3.820837 0.7404599,-9.242654 -6.337652 0.1669016,-9.200889 -5.192392 0.3293338,-9.095614 -4.532217 0.6548852,-8.929542 -4.067878 0.9218023,-9.644745 -6.733232 0.4103855,-9.712359 -5.822841 0.657568,-9.649058 -5.252222 0.9397142,-9.478966 -4.801794 1.157379,6.410, 16 
-2.218099 -8.558918 -0.8137865,-2.814775 -8.383703 -0.4996842,-3.326336 -7.792997 -0.4052698,-3.625896 -7.112936 -0.2870114,-3.920728 -6.619438 -0.1510537,-3.1276 -6.250553 -0.8218067,-3.40176 -5.341398 -0.7251194,-3.538162 -4.770414 -0.603981,-3.637701 -4.232706 -0.4787112,-2.79655 -6.025991 -0.8631429,-2.969924 -5.046615 -0.8407169,-2.969924 -5.046615 -0.8407169,-3.079891 -3.954408 -0.6394292,-2.46656 -6.012702 -0.8281502,-2.559568 -5.114607 -0.7999805,-2.6391 -4.580202 -0.6563418,-2.695589 -4.12322 -0.5477714,-2.117344 -6.163153 -0.7471147,-2.125153 -5.4631 -0.6951168,-2.161816 -5.04025 -0.577485,-2.190505 -4.6443 -0.4924502,-9.175411 -9.322037 -0.1943452,-8.480222 -9.069952 0.02418417,-7.923029 -8.313459 0.1714857,-7.669103 -7.531103 0.3809602,-7.663593 -6.833441 0.5361326,-8.431167 -6.32199 -0.3314207,-8.271399 -5.143652 -0.1816503,-8.159382 -4.415933 0.03919022,-8.03991 -3.81406 0.2181076,-8.847114 -6.180595 -0.1949661,-8.727713 -4.934743 -0.08419266,-8.590088 -4.196174 0.2265331,-8.452305 -3.659002 0.4700223,-9.255728 -6.322277 0.005982175,-9.189466 -5.157686 0.1233657,-9.079037 -4.462101 0.4025721,-8.919127 -3.947631 0.6401851,-9.664705 -6.696581 0.2444999,-9.732158 -5.772964 0.4379597,-9.673461 -5.179494 0.6765168,-9.515063 -4.697989 0.8615085,6.510, 16 
-2.212302 -8.563498 -0.7957917,-2.797993 -8.385029 -0.4574716,-3.307596 -7.811491 -0.3423146,-3.611526 -7.141483 -0.2049487,-3.907732 -6.62346 -0.04748052,-3.12409 -6.256864 -0.7794358,-3.399903 -5.352735 -0.6634876,-3.534872 -4.782844 -0.5214275,-3.634336 -4.242989 -0.3812292,-2.796683 -6.026266 -0.8183825,-2.971705 -5.057868 -0.77543,-2.971705 -5.057868 -0.77543,-3.085304 -3.970975 -0.5342671,-2.467419 -6.010526 -0.7787868,-2.560507 -5.115144 -0.7279909,-2.641422 -4.580165 -0.556997,-2.698704 -4.136539 -0.4313196,-2.116064 -6.161455 -0.6921579,-2.127802 -5.46026 -0.6204847,-2.16748 -5.032768 -0.4870316,-2.196616 -4.644664 -0.390454,-9.179611 -9.303411 -0.1824041,-8.489445 -9.057816 0.09515861,-7.931862 -8.297794 0.2722306,-7.677657 -7.507462 0.4978631,-7.664875 -6.799093 0.6674061,-8.428879 -6.309729 -0.203386,-8.266497 -5.127548 -0.03966056,-8.161289 -4.392574 0.1670558,-8.054747 -3.774308 0.3371854,-8.849647 -6.160148 -0.08781513,-8.72441 -4.910718 0.04197356,-8.59153 -4.153036 0.3520814,-8.463866 -3.591155 0.5940092,-9.264225 -6.301969 0.09101322,-9.195696 -5.130888 0.2350576,-9.092397 -4.414965 0.527307,-8.945407 -3.879154 0.7731296,-9.679612 -6.68431 0.3102884,-9.741922 -5.755762 0.5311386,-9.69323 -5.147039 0.7830763,-9.55356 -4.631464 0.9811559,6.610, 16 
-2.212767 -8.528605 -0.8085508,-2.8141 -8.367123 -0.5240967,-3.327831 -7.785484 -0.4539258,-3.631536 -7.105337 -0.351962,-3.930498 -6.614883 -0.2327219,-3.127141 -6.226943 -0.8877623,-3.4026 -5.327104 -0.8172832,-3.538591 -4.76304 -0.7091724,-3.638346 -4.232007 -0.5908889,-2.798913 -5.997778 -0.9180425,-2.967495 -5.027919 -0.9273037,-2.967495 -5.027919 -0.9273037,-3.078691 -3.945459 -0.742249,-2.469324 -5.977664 -0.8731547,-2.554434 -5.090292 -0.8729613,-2.629656 -4.563694 -0.7315952,-2.680296 -4.116899 -0.6243606,-2.119916 -6.120914 -0.781998,-2.126722 -5.432283 -0.7467867,-2.16647 -5.018526 -0.6332459,-2.196121 -4.639167 -0.551567,-9.168673 -9.258093 -0.1878926,-8.486155 -9.003252 0.08124635,-7.927064 -8.242832 0.2580279,-7.672836 -7.45239 0.4886863,-7.669149 -6.739971 0.6631833,-8.425773 -6.257606 -0.2363587,-8.264395 -5.070802 -0.07396599,-8.158601 -4.329525 0.1346894,-8.055464 -3.705834 0.3036662,-8.840745 -6.115636 -0.1133794,-8.711761 -4.862586 0.01617219,-8.577268 -4.100198 0.3293033,-8.44998 -3.532447 0.5748017,-9.255545 -6.256757 0.07492304,-9.179073 -5.082637 0.2225799,-9.074897 -4.364736 0.5194212,-8.926754 -3.82707 0.7718285,-9.675759 -6.633852 0.3014901,-9.740204 -5.702415 0.5279367,-9.692228 -5.097457 0.7849624,-9.550799 -4.593186 0.9864533,6.710, 16 
-2.203716 -8.52623 -0.8342854,-2.807627 -8.366505 -0.5068743,-3.32581 -7.776842 -0.4101794,-3.626552 -7.094888 -0.2931767,-3.931284 -6.597643 -0.1573703,-3.12921 -6.235717 -0.8438976,-3.402728 -5.32723 -0.7513555,-3.538315 -4.752841 -0.6321993,-3.638279 -4.220401 -0.5084603,-2.79847 -6.003304 -0.8943423,-2.972806 -5.031873 -0.8848962,-2.972806 -5.031873 -0.8848962,-3.08796 -3.941574 -0.6981455,-2.467233 -5.981821 -0.866363,-2.56293 -5.097636 -0.8514812,-2.645151 -4.564546 -0.7108727,-2.704534 -4.117713 -0.6017298,-2.116972 -6.122528 -0.7892479,-2.129833 -5.431684 -0.7462046,-2.1706 -5.011703 -0.6281305,-2.202459 -4.627227 -0.5418939,-9.180861 -9.229034 -0.1714771,-8.485422 -8.976402 0.1020173,-7.925023 -8.222578 0.2838652,-7.674617 -7.430377 0.5181321,-7.673239 -6.724323 0.6974099,-8.430443 -6.227216 -0.2195692,-8.272066 -5.041227 -0.05925915,-8.171213 -4.308748 0.1491038,-8.069776 -3.701433 0.3185777,-8.852485 -6.081804 -0.1009363,-8.726583 -4.828088 0.01989831,-8.594975 -4.075206 0.3233609,-8.469675 -3.51525 0.5622815,-9.268834 -6.227006 0.08562779,-9.192372 -5.055357 0.2229404,-9.087129 -4.345609 0.5195906,-8.939319 -3.812657 0.7697063,-9.685863 -6.611949 0.3107119,-9.754101 -5.67978 0.5245518,-9.706878 -5.074157 0.7800794,-9.564009 -4.563352 0.9825227,6.810, 16 
-2.230955 -8.515406 -0.8545829,-2.823014 -8.348843 -0.5229598,-3.332342 -7.771539 -0.4232098,-3.632745 -7.090679 -0.3014874,-3.934553 -6.597028 -0.1585197,-3.142016 -6.223205 -0.8610074,-3.416721 -5.314929 -0.7666901,-3.547238 -4.742588 -0.6347035,-3.6411 -4.197662 -0.4937919,-2.80995 -5.994537 -0.9048364,-2.97677 -5.018717 -0.8859112,-2.97677 -5.018717 -0.8859112,-3.077454 -3.929693 -0.6506348,-2.477662 -5.981506 -0.8696516,-2.561779 -5.089284 -0.8404477,-2.63403 -4.560918 -0.670057,-2.682551 -4.120918 -0.5413145,-2.125907 -6.132486 -0.7886429,-2.134129 -5.436908 -0.7262064,-2.171942 -5.021174 -0.5889391,-2.200765 -4.646366 -0.4921527,-9.182659 -9.207001 -0.1599659,-8.493315 -8.930168 0.1267906,-7.925474 -8.179926 0.3206401,-7.669856 -7.391346 0.5611322,-7.681589 -6.681106 0.7496338,-8.439414 -6.196467 -0.1976126,-8.282228 -4.998116 -0.02823851,-8.181044 -4.248693 0.2001459,-8.07723 -3.627802 0.3898774,-8.86322 -6.05562 -0.08662689,-8.73195 -4.81359 0.04298763,-8.599014 -4.060325 0.3653694,-8.46855 -3.508195 0.6240883,-9.283703 -6.198886 0.0889447,-9.20791 -5.028066 0.2265317,-9.107088 -4.319183 0.5264643,-8.959332 -3.7951 0.7808501,-9.708986 -6.576604 0.3071833,-9.77733 -5.643787 0.5150043,-9.731525 -5.037538 0.7652171,-9.587273 -4.530111 0.9701656,6.910, 16 
-2.219945 -8.549658 -0.8240088,-2.805039 -8.383026 -0.49986,-3.312298 -7.797491 -0.3951443,-3.614319 -7.117184 -0.2656978,-3.917088 -6.609293 -0.1146328,-3.124571 -6.249273 -0.8348097,-3.401587 -5.344047 -0.7324126,-3.539066 -4.773594 -0.6072388,-3.639071 -4.235524 -0.4791473,-2.800177 -6.020124 -0.8736635,-2.972391 -5.053131 -0.8470837,-2.972391 -5.053131 -0.8470837,-3.086505 -3.956897 -0.6367899,-2.471712 -6.007568 -0.8343901,-2.559906 -5.117355 -0.7993924,-2.640271 -4.582426 -0.6394197,-2.69668 -4.132104 -0.5181841,-2.120004 -6.162674 -0.7479428,-2.130587 -5.46743 -0.6826701,-2.168756 -5.038448 -0.5495595,-2.198624 -4.642965 -0.4507826,-9.179704 -9.199524 -0.130335,-8.496573 -8.931185 0.1290701,-7.928986 -8.15383 0.3054317,-7.67376 -7.355426 0.5375675,-7.694068 -6.650411 0.7133216,-8.450036 -6.161018 -0.2110459,-8.292202 -4.96469 -0.0616025,-8.190855 -4.222492 0.1594611,-8.080987 -3.608938 0.3426751,-8.874688 -6.037777 -0.08110855,-8.764544 -4.809909 0.03927454,-8.638021 -4.089438 0.3571542,-8.508611 -3.58583 0.6042789,-9.290877 -6.196115 0.111957,-9.229883 -5.034059 0.2399236,-9.131836 -4.337198 0.5307676,-8.984685 -3.822446 0.7783941,-9.709214 -6.590453 0.3464119,-9.782162 -5.668151 0.5386715,-9.735174 -5.074977 0.787552,-9.606242 -4.556121 0.9804631,7.010, 16 
-2.201714 -8.561274 -0.7797145,-2.793267 -8.40864 -0.4759823,-3.310278 -7.805816 -0.3919376,-3.616262 -7.112182 -0.2795078,-3.915735 -6.611053 -0.1452018,-3.121447 -6.256849 -0.8204525,-3.393817 -5.353458 -0.7379897,-3.529489 -4.781084 -0.6233939,-3.628931 -4.24412 -0.502233,-2.795728 -6.022735 -0.8607175,-2.966356 -5.047274 -0.8614089,-2.966356 -5.047274 -0.8614089,-3.077662 -3.955734 -0.6870523,-2.467674 -6.003437 -0.8234945,-2.558197 -5.111752 -0.8140336,-2.636903 -4.583005 -0.682934,-2.692569 -4.138454 -0.5814946,-2.118046 -6.154705 -0.7405864,-2.122373 -5.465397 -0.6954862,-2.160216 -5.054573 -0.5796977,-2.190566 -4.685823 -0.5007672,-9.186437 -9.18675 -0.1076639,-8.499802 -8.941553 0.1745164,-7.930447 -8.162457 0.3639829,-7.677603 -7.364779 0.6037745,-7.696815 -6.660883 0.7836208,-8.444238 -6.146414 -0.1741277,-8.283156 -4.953094 -0.02781602,-8.182804 -4.20816 0.1959657,-8.07638 -3.592512 0.3821391,-8.873867 -6.019224 -0.05773425,-8.761996 -4.802877 0.05899832,-8.63632 -4.090499 0.3826138,-8.507086 -3.600265 0.6359221,-9.294298 -6.18115 0.1245643,-9.235444 -5.03146 0.2501077,-9.145001 -4.345414 0.5452181,-9.004168 -3.842668 0.7984446,-9.715094 -6.581367 0.3525387,-9.782101 -5.665646 0.5476058,-9.74458 -5.066789 0.7908984,-9.608261 -4.559684 0.9908437,7.110, 16 
-2.195107 -8.560835 -0.7575562,-2.784507 -8.387175 -0.4075406,-3.299023 -7.811962 -0.2970852,-3.602602 -7.131568 -0.1711394,-3.896272 -6.61638 -0.02842486,-3.116464 -6.245777 -0.7546292,-3.386663 -5.344906 -0.6697288,-3.522157 -4.779079 -0.5537747,-3.621964 -4.251911 -0.4353552,-2.788481 -6.015153 -0.8218699,-2.958193 -5.049518 -0.8245817,-2.958193 -5.049518 -0.8245817,-3.064829 -3.97102 -0.6462283,-2.458965 -6.003461 -0.8111755,-2.546246 -5.119753 -0.806802,-2.623848 -4.595781 -0.6660589,-2.679441 -4.158329 -0.5614783,-2.108543 -6.160457 -0.7493244,-2.116057 -5.479648 -0.7114763,-2.153827 -5.063674 -0.5912038,-2.182499 -4.683765 -0.5048696,-9.175377 -9.184574 -0.04481372,-8.494514 -8.941864 0.2463498,-7.924991 -8.176281 0.4405522,-7.672088 -7.378818 0.6826423,-7.698411 -6.663114 0.8648585,-8.433304 -6.133867 -0.1129532,-8.269217 -4.941801 0.03617775,-8.17289 -4.201761 0.2666142,-8.065919 -3.58879 0.4588011,-8.866709 -5.998584 0.004323799,-8.759873 -4.796245 0.1369181,-8.638248 -4.116708 0.4803813,-8.508663 -3.683111 0.7419711,-9.288791 -6.156414 0.1870317,-9.235292 -5.016386 0.3255686,-9.147352 -4.348919 0.6447836,-9.00395 -3.87222 0.9099865,-9.712641 -6.562081 0.4173265,-9.785677 -5.653306 0.6230647,-9.753185 -5.058948 0.8813773,-9.621983 -4.557785 1.091943,7.210, 16 
-2.199589 -8.557596 -0.7841775,-2.784554 -8.388184 -0.4365297,-3.297607 -7.803186 -0.3187996,-3.601809 -7.128163 -0.1829519,-3.899575 -6.628631 -0.02886522,-3.109544 -6.24138 -0.7622692,-3.383069 -5.333562 -0.6654226,-3.519567 -4.766672 -0.544893,-3.619803 -4.235858 -0.4239975,-2.781539 -6.016616 -0.8251042,-2.951258 -5.039304 -0.8082956,-2.951258 -5.039304 -0.8082956,-3.057109 -3.967166 -0.6182296,-2.454106 -6.006488 -0.8084121,-2.543453 -5.118017 -0.7866156,-2.621181 -4.598094 -0.6410369,-2.678277 -4.155428 -0.5321989,-2.107887 -6.162961 -0.7434263,-2.113363 -5.477628 -0.6945665,-2.148624 -5.072299 -0.5741839,-2.17731 -4.699669 -0.4865023,-9.168039 -9.177475 0.01831698,-8.492138 -8.948442 0.2942784,-7.922139 -8.173092 0.4792208,-7.663597 -7.385572 0.7159598,-7.690407 -6.669402 0.892305,-8.421726 -6.11359 -0.07324957,-8.243007 -4.937045 0.09756286,-8.14768 -4.213052 0.3799751,-8.038069 -3.636421 0.6107646,-8.85812 -5.973401 0.05925816,-8.767322 -4.768347 0.2263234,-8.647865 -4.143508 0.6236217,-8.522846 -3.826862 0.9177263,-9.282467 -6.127971 0.256737,-9.245069 -4.993513 0.4326635,-9.15261 -4.361841 0.7868168,-9.005747 -3.950037 1.067354,-9.709331 -6.529608 0.4936979,-9.782068 -5.621491 0.7359899,-9.741329 -5.037852 1.015945,-9.598817 -4.572782 1.239664,7.310, 16 
-2.198937 -8.58267 -0.7747509,-2.788534 -8.408075 -0.4443007,-3.298443 -7.818067 -0.335719,-3.593702 -7.13121 -0.2036308,-3.889176 -6.610326 -0.05340523,-3.10964 -6.264162 -0.7781842,-3.379879 -5.359891 -0.6746169,-3.5142 -4.789926 -0.5459653,-3.615063 -4.253044 -0.4222328,-2.779132 -6.038627 -0.8219171,-2.945212 -5.068184 -0.8015948,-2.945212 -5.068184 -0.8015948,-3.057076 -3.99188 -0.6091856,-2.4489 -6.028824 -0.7852118,-2.532581 -5.138628 -0.7565171,-2.611563 -4.60835 -0.6080745,-2.669698 -4.170099 -0.4959596,-2.099395 -6.184982 -0.7014522,-2.103136 -5.497453 -0.6469904,-2.144086 -5.081368 -0.5236707,-2.178617 -4.706178 -0.4336843,-9.157417 -9.221699 0.1289664,-8.491641 -8.970953 0.4263407,-7.916284 -8.187746 0.6280508,-7.65349 -7.40507 0.8766688,-7.688053 -6.672451 1.079866,-8.415018 -6.10883 0.04312526,-8.24825 -4.925739 0.2269932,-8.161741 -4.206085 0.5346546,-8.053249 -3.663424 0.7781091,-8.85785 -5.984894 0.1649506,-8.790061 -4.749901 0.3599424,-8.680305 -4.178812 0.7840278,-8.564483 -3.954233 1.092194,-9.281072 -6.154198 0.3476581,-9.258994 -5.013215 0.5336702,-9.17345 -4.44403 0.8921716,-9.032227 -4.119199 1.168035,-9.70526 -6.558527 0.5747837,-9.775969 -5.628006 0.8138915,-9.740973 -5.057432 1.09294,-9.603276 -4.625912 1.313796,7.410, 16 
-2.193001 -8.5734 -0.7750995,-2.783574 -8.414089 -0.4478259,-3.299133 -7.817787 -0.349087,-3.597281 -7.125991 -0.2273915,-3.889696 -6.617287 -0.0865677,-3.111516 -6.256809 -0.7843556,-3.382172 -5.352335 -0.6923462,-3.513085 -4.783754 -0.5776647,-3.606164 -4.252143 -0.4629702,-2.781717 -6.031618 -0.8330908,-2.94819 -5.061254 -0.8266415,-2.94819 -5.061254 -0.8266415,-3.051293 -3.991004 -0.6524823,-2.452179 -6.019739 -0.8036283,-2.539253 -5.135536 -0.7872044,-2.616127 -4.612831 -0.6508002,-2.669824 -4.179344 -0.547479,-2.101296 -6.175235 -0.7246011,-2.107028 -5.492591 -0.6776919,-2.143506 -5.087835 -0.560074,-2.172285 -4.722633 -0.4756581,-9.195035 -9.220858 0.2005275,-8.508473 -8.993979 0.495751,-7.915681 -8.200657 0.6820341,-7.643568 -7.410974 0.9115208,-7.6861 -6.684726 1.089847,-8.425793 -6.097193 0.07211705,-8.244848 -4.926692 0.2360404,-8.153676 -4.211564 0.5492059,-8.042626 -3.678445 0.8021456,-8.874632 -5.96529 0.189447,-8.805939 -4.737986 0.3623308,-8.703792 -4.179086 0.7935911,-8.596828 -3.985935 1.118637,-9.300195 -6.133209 0.3703321,-9.275083 -5.005961 0.5349565,-9.191809 -4.446229 0.8908541,-9.056764 -4.152763 1.168383,-9.724975 -6.540621 0.5975129,-9.786324 -5.616277 0.8175468,-9.753031 -5.041225 1.087744,-9.618662 -4.616669 1.309394,7.510, 16 
-2.201988 -8.564781 -0.7929402,-2.788727 -8.392908 -0.4893576,-3.300986 -7.796892 -0.4008702,-3.600326 -7.10399 -0.2834675,-3.896811 -6.603911 -0.1457878,-3.103784 -6.247755 -0.8395009,-3.374485 -5.347658 -0.7617633,-3.505371 -4.788385 -0.6579286,-3.60022 -4.261777 -0.5509439,-2.77744 -6.026283 -0.886236,-2.944196 -5.058112 -0.8962321,-2.944196 -5.058112 -0.8962321,-3.049074 -3.991687 -0.728014,-2.449128 -6.018169 -0.8571516,-2.534391 -5.134904 -0.8585646,-2.611468 -4.622064 -0.7268685,-2.665598 -4.187015 -0.6253864,-2.099139 -6.176759 -0.780284,-2.102885 -5.493217 -0.7459574,-2.139169 -5.092204 -0.6318065,-2.168227 -4.721443 -0.5500754,-9.21983 -9.210468 0.2881183,-8.531006 -9.004534 0.6021785,-7.928367 -8.206142 0.7919015,-7.64909 -7.399759 1.024833,-7.697292 -6.657156 1.206268,-8.432834 -6.073986 0.1735608,-8.254288 -4.904175 0.3393074,-8.164669 -4.186252 0.6557553,-8.054815 -3.675018 0.9269023,-8.886138 -5.931056 0.2843078,-8.824811 -4.685836 0.491613,-8.714537 -4.158485 0.9420499,-8.60052 -4.033697 1.278301,-9.313546 -6.097167 0.4626726,-9.302073 -4.953012 0.6696628,-9.212351 -4.417434 1.057324,-9.067531 -4.184443 1.353449,-9.736555 -6.508128 0.6884524,-9.808404 -5.587281 0.9478667,-9.779438 -5.02551 1.252937,-9.643071 -4.640333 1.503061,7.610, 16 
