TiagoOliveira98/Thesis-Project/Difficulty_1/Dual_Task/Unity_Project/DataLogging/JointData/Logs(1646437362)_a1_Dual.csv
WRIST,THUMB_CMC,THUMB_MCP,THUMB_IP,THUMB_TIP,INDEX_FINGER_MCP,INDEX_FINGER_PIP,INDEX_FINGER_DIP,INDEX_FINGER_TIP,MIDDLE_FINGER_MCP,MIDDLE_FINGER_PIP,MIDDLE_FINGER_DIP,MIDDLE_FINGER_TIP,RING_FINGER_MCP,RING_FINGER_PIP,RING_FINGER_DIP,RING_FINGER_TIP,PINKY_MCP,PINKY_PIP,PINKY_DIP,PINKY_TIP,WRIST2,THUMB_CMC2,THUMB_MCP2,THUMB_IP2,THUMB_TIP2,INDEX_FINGER_MCP2,INDEX_FINGER_PIP2,INDEX_FINGER_DIP2,INDEX_FINGER_TIP2,MIDDLE_FINGER_MCP2,MIDDLE_FINGER_PIP2,MIDDLE_FINGER_DIP2,MIDDLE_FINGER_TIP2,RING_FINGER_MCP2,RING_FINGER_PIP2,RING_FINGER_DIP2,RING_FINGER_TIP2,PINKY_MCP2,PINKY_PIP2,PINKY_DIP2,PINKY_TIP2,Timestamp,Event
-2.417366 -7.900913 -0.03544417,-3.088661 -7.64644 0.239149,-3.732651 -6.775278 0.3717993,-4.18795 -6.010257 0.5125939,-4.623333 -5.717184 0.6688233,-3.347756 -4.93204 0.1407791,-3.598432 -3.752573 0.3483931,-3.693361 -3.013216 0.496277,-3.747362 -2.314826 0.6520512,-2.968006 -4.658098 0.2115932,-3.137012 -3.274248 0.4795471,-3.137012 -3.274248 0.4795471,-3.211649 -1.598995 0.9165185,-2.582602 -4.675342 0.3354196,-2.665627 -3.377161 0.5948725,-2.710951 -2.561995 0.7892152,-2.740807 -1.815853 0.9507472,-2.174225 -4.960746 0.5007615,-2.069084 -4.006233 0.7427343,-1.998001 -3.400273 0.9102694,-1.930435 -2.793525 1.049119,-9.425755 -7.978366 0.02353936,-8.642253 -7.646904 0.3374271,-7.955364 -6.796299 0.5846675,-7.496613 -5.956977 0.8867708,-7.069762 -5.469743 1.213183,-8.385656 -4.673141 0.21646,-8.172156 -3.358467 0.40738,-8.060954 -2.541243 0.6347363,-7.968122 -1.835132 0.8053235,-8.817126 -4.393315 0.2944377,-8.628525 -2.851257 0.4121747,-8.497639 -1.883142 0.6643394,-8.395074 -1.0531 0.8538623,-9.251838 -4.425951 0.4124677,-9.114493 -2.996206 0.5181495,-8.983145 -2.132432 0.6952481,-8.85341 -1.410579 0.8394144,-9.709336 -4.712448 0.5752351,-9.742458 -3.611916 0.7215357,-9.717972 -2.897311 0.8498678,-9.655193 -2.226129 0.9356904,0.010, 14
-2.418081 -7.901167 -0.05235446,-3.083696 -7.639384 0.2285985,-3.727453 -6.773823 0.3680198,-4.19125 -6.01402 0.5107631,-4.625866 -5.719432 0.6687093,-3.34087 -4.930824 0.1329197,-3.594721 -3.746199 0.3432815,-3.691347 -3.006375 0.4897014,-3.743076 -2.31532 0.6422666,-2.96332 -4.663074 0.203812,-3.137737 -3.271839 0.4696478,-3.137737 -3.271839 0.4696478,-3.212423 -1.606574 0.9062123,-2.579219 -4.685922 0.3265011,-2.664782 -3.384574 0.5870093,-2.712101 -2.568253 0.7875249,-2.742857 -1.825803 0.95031,-2.173721 -4.977777 0.4912992,-2.066974 -4.026322 0.7336408,-1.998504 -3.42205 0.9029905,-1.933821 -2.822623 1.041713,-9.432524 -7.989285 0.0922156,-8.655695 -7.654231 0.4525278,-7.9652 -6.815643 0.7182622,-7.498372 -5.973077 1.026644,-7.067605 -5.483897 1.34987,-8.389692 -4.672151 0.3361393,-8.181967 -3.360138 0.5233447,-8.069886 -2.551454 0.7431294,-7.975046 -1.850733 0.910205,-8.819697 -4.387094 0.3896423,-8.63501 -2.858082 0.5147065,-8.508816 -1.8976 0.7671399,-8.407447 -1.05857 0.9661627,-9.254475 -4.422208 0.4871088,-9.115743 -3.00192 0.6006512,-8.987043 -2.132184 0.7861117,-8.856758 -1.392537 0.9430667,-9.715508 -4.712144 0.6301751,-9.750257 -3.631137 0.7877109,-9.724621 -2.924328 0.9330392,-9.658909 -2.258358 1.035662,0.110, 14
-2.404287 -7.923109 -0.001960863,-3.065996 -7.669425 0.2930146,-3.710133 -6.795836 0.4240842,-4.172163 -6.028497 0.5591815,-4.606733 -5.736022 0.7117085,-3.340485 -4.949066 0.1431809,-3.592737 -3.771985 0.3452943,-3.690805 -3.031816 0.4964706,-3.749672 -2.333641 0.6556049,-2.966037 -4.669115 0.1963524,-3.141991 -3.295068 0.4325397,-3.141991 -3.295068 0.4325397,-3.232988 -1.630909 0.8605201,-2.58344 -4.68073 0.3080854,-2.671512 -3.387624 0.5462835,-2.720337 -2.582309 0.7406901,-2.758168 -1.841532 0.8984845,-2.178987 -4.963178 0.4650476,-2.069799 -4.019857 0.6916965,-1.997374 -3.430212 0.8531805,-1.932301 -2.835664 0.9845102,-9.439054 -8.006262 0.09081651,-8.665749 -7.668548 0.4259515,-7.978687 -6.821557 0.6880611,-7.513831 -5.984642 1.002427,-7.076701 -5.486017 1.339815,-8.4033 -4.683801 0.3367629,-8.189484 -3.366982 0.5322634,-8.075272 -2.559188 0.7565286,-7.980371 -1.856611 0.9273597,-8.831383 -4.406515 0.4216123,-8.642493 -2.871679 0.5586773,-8.512151 -1.909102 0.8163787,-8.409328 -1.074286 1.011011,-9.263498 -4.450517 0.5496674,-9.125993 -3.026453 0.6853685,-8.99398 -2.151876 0.8846926,-8.862043 -1.416912 1.048295,-9.720089 -4.750207 0.7204755,-9.758467 -3.656526 0.9024263,-9.729403 -2.941967 1.058239,-9.65945 -2.279432 1.163326,0.210, 14
-2.409748 -7.923717 -0.02907588,-3.078065 -7.658108 0.2479914,-3.719505 -6.792161 0.3794747,-4.177889 -6.027435 0.5164822,-4.609787 -5.742864 0.6701548,-3.340492 -4.948125 0.1369763,-3.597363 -3.772484 0.3454665,-3.693556 -3.032224 0.494257,-3.748034 -2.336475 0.6435925,-2.964899 -4.678355 0.1980302,-3.137103 -3.299113 0.4521632,-3.137103 -3.299113 0.4521632,-3.216387 -1.63934 0.8797843,-2.583868 -4.688196 0.3120791,-2.668178 -3.39669 0.5597124,-2.714997 -2.594307 0.7443917,-2.744927 -1.858966 0.8970014,-2.180439 -4.960081 0.4692739,-2.072372 -4.011259 0.6954982,-2.000363 -3.420468 0.8506117,-1.930942 -2.828109 0.975368,-9.458044 -8.004301 0.03790281,-8.681838 -7.654785 0.3684588,-7.995585 -6.830345 0.63047,-7.529976 -5.998084 0.9447953,-7.090933 -5.500148 1.280712,-8.412464 -4.700756 0.2505149,-8.194243 -3.397281 0.4437713,-8.076165 -2.58873 0.6708271,-7.978276 -1.885112 0.8409817,-8.836047 -4.41938 0.334216,-8.645111 -2.880386 0.4600201,-8.515238 -1.914981 0.7212991,-8.411481 -1.083506 0.9137972,-9.263623 -4.45981 0.4616711,-9.125051 -3.025652 0.5927071,-8.990992 -2.154134 0.7959932,-8.854789 -1.424082 0.9571431,-9.716367 -4.751211 0.6327104,-9.755862 -3.657215 0.8127967,-9.727181 -2.942264 0.974327,-9.656785 -2.275766 1.078564,0.310, 14
-2.440706 -7.927873 -0.06319276,-3.109766 -7.666244 0.228357,-3.749826 -6.811157 0.3730843,-4.208664 -6.062326 0.5234158,-4.63455 -5.770481 0.6912076,-3.366509 -4.95732 0.1196558,-3.619462 -3.778789 0.3400941,-3.715729 -3.03981 0.4934201,-3.768232 -2.343946 0.6436344,-2.991954 -4.693168 0.1830386,-3.163294 -3.319354 0.4463028,-3.163294 -3.319354 0.4463028,-3.243391 -1.668553 0.8673246,-2.610571 -4.71548 0.303845,-2.69188 -3.429346 0.5645517,-2.739241 -2.621033 0.7545431,-2.770691 -1.880183 0.9086719,-2.206995 -5.004697 0.4675063,-2.097604 -4.064523 0.710712,-2.025488 -3.474081 0.8753167,-1.956351 -2.883403 1.003793,-9.458486 -8.019175 0.05905194,-8.685762 -7.683824 0.3942975,-7.996407 -6.850616 0.6551846,-7.53081 -6.012071 0.9654411,-7.099703 -5.51235 1.292597,-8.412756 -4.707225 0.2898714,-8.202318 -3.380858 0.4843294,-8.08507 -2.565914 0.7026563,-7.985789 -1.862229 0.8663865,-8.837016 -4.429037 0.3676231,-8.647155 -2.895267 0.5003249,-8.517848 -1.927982 0.7566652,-8.414833 -1.093139 0.9504496,-9.268055 -4.476079 0.489109,-9.129598 -3.045849 0.624259,-8.996772 -2.169989 0.819775,-8.862867 -1.434202 0.9740707,-9.724204 -4.776782 0.6536432,-9.761372 -3.691432 0.8269169,-9.733932 -2.975261 0.9807624,-9.666203 -2.302454 1.083781,0.410, 14
-2.447053 -7.934978 -0.07710903,-3.109917 -7.671375 0.219276,-3.74848 -6.820961 0.3640248,-4.201978 -6.060625 0.5092522,-4.62763 -5.76716 0.672603,-3.374048 -4.977458 0.1293888,-3.627195 -3.794075 0.3428349,-3.721663 -3.057922 0.4910408,-3.774405 -2.365797 0.6438199,-2.998937 -4.705453 0.1822205,-3.1746 -3.327616 0.4372365,-3.1746 -3.327616 0.4372365,-3.260209 -1.672407 0.8651692,-2.618412 -4.717961 0.289131,-2.704319 -3.429185 0.5367658,-2.755765 -2.623303 0.7250358,-2.790896 -1.883337 0.8817728,-2.215812 -4.996551 0.4407039,-2.112295 -4.054325 0.6741065,-2.044472 -3.462591 0.8376971,-1.979709 -2.866536 0.9718779,-9.454103 -8.034212 0.08062401,-8.673908 -7.694628 0.3909827,-7.986468 -6.847421 0.6350885,-7.525631 -6.000871 0.9333231,-7.091052 -5.500114 1.253303,-8.409048 -4.711362 0.2670785,-8.201349 -3.401534 0.4478752,-8.083789 -2.591089 0.6683043,-7.982003 -1.888585 0.8358502,-8.834055 -4.434595 0.3525676,-8.651487 -2.904348 0.461812,-8.522403 -1.936826 0.7145306,-8.419193 -1.104137 0.9058025,-9.262836 -4.481546 0.482317,-9.128099 -3.060608 0.596668,-8.995247 -2.18911 0.7920709,-8.863504 -1.459533 0.9486369,-9.715896 -4.782193 0.6537249,-9.74872 -3.692737 0.8192695,-9.718399 -2.974283 0.9740663,-9.651559 -2.303352 1.078864,0.510, 14
-2.454176 -7.9321 -0.1408954,-3.119774 -7.664832 0.1408399,-3.756529 -6.812229 0.2812262,-4.209064 -6.055997 0.4255164,-4.631981 -5.751892 0.5867214,-3.386892 -4.992666 0.03930703,-3.639221 -3.814661 0.2470014,-3.737256 -3.084538 0.3938775,-3.794033 -2.396424 0.5445397,-3.016657 -4.721521 0.09982045,-3.190746 -3.350145 0.3559281,-3.190746 -3.350145 0.3559281,-3.276834 -1.690533 0.7913169,-2.639055 -4.731534 0.2142711,-2.727695 -3.447553 0.462288,-2.777993 -2.636867 0.6534663,-2.811879 -1.897864 0.8126092,-2.238759 -5.00576 0.3702508,-2.138852 -4.060625 0.6057326,-2.073381 -3.462755 0.7680966,-2.010346 -2.870042 0.8998744,-9.459106 -8.045801 0.005679809,-8.693815 -7.693605 0.3412779,-8.011733 -6.847866 0.6099713,-7.548421 -6.010349 0.9275184,-7.11414 -5.503093 1.268575,-8.445267 -4.743911 0.2829052,-8.228351 -3.416082 0.4939746,-8.112303 -2.600258 0.7216985,-8.013031 -1.886656 0.8934084,-8.869835 -4.470966 0.3695793,-8.680256 -2.927915 0.5225422,-8.549243 -1.952539 0.7876355,-8.443609 -1.10506 0.9892172,-9.299651 -4.518514 0.4986626,-9.160777 -3.08434 0.6566044,-9.026364 -2.196895 0.8716385,-8.892994 -1.446452 1.04204,-9.753836 -4.821068 0.6681951,-9.786623 -3.709388 0.8664654,-9.760662 -2.981359 1.03829,-9.699487 -2.296358 1.155766,0.610, 14
-2.488338 -7.987789 -0.1112732,-3.146708 -7.719055 0.1936612,-3.775639 -6.860744 0.3457308,-4.227495 -6.114391 0.5025173,-4.650264 -5.815202 0.681403,-3.412983 -5.025756 0.09170404,-3.672421 -3.844693 0.3091027,-3.772161 -3.107099 0.459348,-3.823975 -2.414041 0.6067044,-3.042658 -4.76817 0.1421863,-3.220198 -3.394643 0.3969063,-3.220198 -3.394643 0.3969063,-3.300391 -1.737286 0.8176265,-2.666706 -4.785425 0.2529877,-2.754658 -3.497047 0.491813,-2.813165 -2.690129 0.6793879,-2.849675 -1.954481 0.8319163,-2.270199 -5.06291 0.4068522,-2.174911 -4.108114 0.6348225,-2.116228 -3.50527 0.7984283,-2.057945 -2.907066 0.9269277,-9.476811 -8.056746 0.02433468,-8.707928 -7.71087 0.3865243,-8.026247 -6.901912 0.6628145,-7.564835 -6.07191 0.9847357,-7.139187 -5.562454 1.320581,-8.457828 -4.74575 0.2647777,-8.252439 -3.417798 0.4701985,-8.139056 -2.599405 0.7011188,-8.043655 -1.886609 0.8756111,-8.883793 -4.472497 0.3402604,-8.701442 -2.93539 0.4841278,-8.577304 -1.963927 0.7510283,-8.479395 -1.122954 0.9604995,-9.313198 -4.522136 0.4620138,-9.175386 -3.091557 0.6012753,-9.045219 -2.20655 0.8073168,-8.914774 -1.458791 0.9729581,-9.769977 -4.826652 0.6298965,-9.805587 -3.734281 0.8114075,-9.778659 -3.008655 0.9747434,-9.713837 -2.318634 1.087042,0.710, 14
-2.501844 -8.012314 -0.1342657,-3.164555 -7.740512 0.1654606,-3.792183 -6.883646 0.3190571,-4.238371 -6.140359 0.4788533,-4.663031 -5.844594 0.6590461,-3.437086 -5.054593 0.05549687,-3.693458 -3.876379 0.2667142,-3.793988 -3.148395 0.4131579,-3.850763 -2.456669 0.5567049,-3.065763 -4.800195 0.1076712,-3.245415 -3.436065 0.3651088,-3.245415 -3.436065 0.3651088,-3.336272 -1.793016 0.7922711,-2.689265 -4.820081 0.22203,-2.785258 -3.542411 0.4690549,-2.849895 -2.738957 0.663905,-2.895277 -2.000043 0.820908,-2.292883 -5.095585 0.3772148,-2.210319 -4.143816 0.6126152,-2.16041 -3.545747 0.7804449,-2.115673 -2.94895 0.9132196,-9.461712 -8.077665 0.02137357,-8.69842 -7.745901 0.3496153,-8.02494 -6.902867 0.6087966,-7.569993 -6.059345 0.9147678,-7.139239 -5.55055 1.238984,-8.466227 -4.761896 0.2580929,-8.257996 -3.435962 0.4588999,-8.140841 -2.627988 0.6824526,-8.043283 -1.917981 0.85265,-8.890262 -4.491838 0.3491359,-8.712747 -2.947777 0.4882765,-8.583832 -1.982049 0.7509087,-8.482004 -1.141502 0.9552907,-9.317466 -4.552184 0.484081,-9.190708 -3.117435 0.6321197,-9.057408 -2.236139 0.8510315,-8.925601 -1.482901 1.025791,-9.766323 -4.870794 0.6599587,-9.816033 -3.767602 0.8588552,-9.792458 -3.040639 1.040411,-9.730083 -2.350471 1.161704,0.810, 14
-2.518283 -8.000471 -0.2266601,-3.189154 -7.735919 0.08434889,-3.819042 -6.889378 0.2310529,-4.258462 -6.143394 0.377759,-4.670489 -5.842233 0.5385914,-3.466639 -5.086681 -0.01096839,-3.734612 -3.926139 0.198874,-3.839251 -3.204291 0.340836,-3.897078 -2.515956 0.4821247,-3.102874 -4.819314 0.01983356,-3.287951 -3.463285 0.2740047,-3.287951 -3.463285 0.2740047,-3.381618 -1.832019 0.6798466,-2.73455 -4.825748 0.1103314,-2.831905 -3.558935 0.3551443,-2.896957 -2.768678 0.5358226,-2.9419 -2.054348 0.6836858,-2.344618 -5.090169 0.2439899,-2.270366 -4.147504 0.4724544,-2.229483 -3.552142 0.6397868,-2.190501 -2.969554 0.7710343,-9.478722 -8.100903 0.05714647,-8.71439 -7.750464 0.4278096,-8.036214 -6.92177 0.7075287,-7.578672 -6.078478 1.029294,-7.151447 -5.563987 1.365482,-8.479801 -4.772136 0.3163907,-8.277346 -3.450273 0.530475,-8.168273 -2.635784 0.7610124,-8.077683 -1.921538 0.936192,-8.908612 -4.504922 0.3897925,-8.734482 -2.960001 0.5335991,-8.612813 -1.990827 0.7931072,-8.518057 -1.150813 0.9982123,-9.338982 -4.561075 0.5102924,-9.210926 -3.119869 0.6554883,-9.083014 -2.238138 0.8559221,-8.957544 -1.493189 1.016921,-9.794457 -4.871453 0.6774617,-9.829946 -3.769399 0.861042,-9.802891 -3.049909 1.01681,-9.741257 -2.368515 1.123857,0.910, 14
-2.529308 -8.01939 -0.2655804,-3.18947 -7.749733 0.0219216,-3.805089 -6.912255 0.1745297,-4.233743 -6.158376 0.3390841,-4.649884 -5.809345 0.5269523,-3.477718 -5.114337 -0.07690971,-3.744173 -3.963525 0.1368475,-3.847782 -3.247775 0.2861872,-3.904645 -2.561624 0.4333681,-3.117119 -4.849678 -0.02554089,-3.303695 -3.499754 0.2388247,-3.303695 -3.499754 0.2388247,-3.390913 -1.876485 0.6750217,-2.74949 -4.860847 0.08728614,-2.848726 -3.591376 0.3358893,-2.916619 -2.802779 0.5334823,-2.958369 -2.092211 0.6952393,-2.359545 -5.13237 0.2365614,-2.285708 -4.178637 0.4705148,-2.248615 -3.574273 0.6484394,-2.209675 -2.989497 0.7845877,-9.489026 -8.110998 0.05725296,-8.725247 -7.757978 0.4200275,-8.048292 -6.929892 0.693285,-7.592087 -6.082912 1.00969,-7.161811 -5.566447 1.338605,-8.488919 -4.788578 0.3409003,-8.275999 -3.463663 0.5560716,-8.165234 -2.654302 0.7852065,-8.076118 -1.942366 0.9584721,-8.915648 -4.518035 0.4163116,-8.736855 -2.971267 0.5679925,-8.617869 -2.005067 0.8348341,-8.526455 -1.159688 1.043528,-9.342508 -4.572469 0.5358574,-9.213207 -3.135106 0.6901266,-9.088296 -2.253666 0.9063914,-8.966997 -1.496851 1.082166,-9.792518 -4.885181 0.6996025,-9.831771 -3.79191 0.8906214,-9.809711 -3.077007 1.064055,-9.753052 -2.389247 1.184852,1.010, 14
-2.484643 -8.047327 -0.2915072,-3.140746 -7.768203 -0.003041476,-3.770113 -6.912303 0.1291617,-4.198624 -6.125791 0.2866329,-4.630204 -5.722993 0.4849956,-3.48547 -5.140764 -0.2115887,-3.761344 -4.00917 -0.02160347,-3.868748 -3.29994 0.1212419,-3.918496 -2.629917 0.2558012,-3.131513 -4.889751 -0.1738784,-3.310272 -3.586879 0.02785507,-3.310272 -3.586879 0.02785507,-3.360186 -2.053582 0.3699257,-2.77142 -4.899253 -0.07083364,-2.869448 -3.701103 0.1172726,-2.933473 -2.970557 0.2912291,-2.96076 -2.303303 0.431757,-2.386714 -5.155206 0.07823578,-2.346893 -4.25468 0.2570594,-2.339987 -3.695756 0.4154615,-2.319716 -3.166365 0.5340561,-9.508714 -8.17977 0.06050643,-8.752761 -7.781188 0.4108435,-8.088682 -6.913904 0.6743619,-7.643838 -6.04309 0.9879556,-7.212652 -5.521284 1.32221,-8.553567 -4.832941 0.3197111,-8.352653 -3.511858 0.5276099,-8.249165 -2.712087 0.7577977,-8.164376 -2.003002 0.9391404,-8.989187 -4.575273 0.3944678,-8.820818 -3.022556 0.5430067,-8.701204 -2.054732 0.8120229,-8.608905 -1.203423 1.025161,-9.419807 -4.636058 0.5147879,-9.300591 -3.188389 0.6673185,-9.182235 -2.299381 0.8744087,-9.065657 -1.534325 1.041609,-9.870581 -4.956276 0.6722214,-9.910594 -3.828762 0.8706515,-9.886865 -3.100635 1.039057,-9.831044 -2.409323 1.153758,1.110, 14
-2.502433 -8.026682 -0.3446407,-3.141811 -7.74976 -0.06010467,-3.758193 -6.88969 0.06176531,-4.148049 -6.09741 0.2381861,-4.568672 -5.641332 0.4627492,-3.515888 -5.110254 -0.3891014,-3.801315 -4.025211 -0.2225017,-3.908592 -3.359781 -0.06472284,-3.968068 -2.696088 0.08703265,-3.164309 -4.885498 -0.3407878,-3.327024 -3.680862 -0.1788084,-3.327024 -3.680862 -0.1788084,-3.347176 -2.336544 0.1658524,-2.81124 -4.914583 -0.2171257,-2.893796 -3.824461 -0.04711586,-2.937205 -3.175571 0.1707426,-2.956545 -2.555819 0.3362812,-2.433732 -5.17768 -0.04579452,-2.400881 -4.376843 0.1368966,-2.399805 -3.883914 0.3179707,-2.390975 -3.400872 0.4500766,-9.600372 -8.317316 0.08683208,-8.843536 -7.870984 0.4361415,-8.176093 -6.967861 0.6878006,-7.737328 -6.08291 0.9982931,-7.300145 -5.487588 1.362782,-8.645757 -4.920965 0.2500747,-8.445719 -3.612055 0.4304406,-8.359337 -2.884639 0.626983,-8.292601 -2.206867 0.7811251,-9.117353 -4.69341 0.3368233,-8.949852 -3.335104 0.4706849,-8.858118 -2.5724 0.7298217,-8.791369 -1.952138 0.9062585,-9.555069 -4.750246 0.4804826,-9.448969 -3.423988 0.6114929,-9.360403 -2.660627 0.8301789,-9.268375 -2.041157 1.007627,-10.00466 -5.054586 0.6623319,-9.984733 -3.986957 0.8626218,-9.927129 -3.312324 1.058463,-9.829306 -2.70281 1.208015,1.210, 14
-2.567283 -7.8822 -1.033001,-3.197836 -7.692127 -0.6572968,-3.779253 -6.837646 -0.4692482,-4.191442 -6.013778 -0.2708803,-4.59719 -5.526065 -0.06438237,-3.610455 -5.133197 -1.077212,-3.862511 -4.028905 -0.9189627,-3.955424 -3.330254 -0.732801,-4.01087 -2.666217 -0.5475528,-3.214221 -4.939026 -1.056198,-3.268563 -3.594402 -0.6235758,-3.268563 -3.594402 -0.6235758,-3.141079 -4.208349 -0.1381301,-2.832611 -4.946334 -0.9703263,-2.822637 -3.711487 -0.6015254,-2.830942 -4.013214 -0.2770054,-2.824489 -4.611714 -0.1979896,-2.444961 -5.150129 -0.830529,-2.399245 -4.178916 -0.545661,-2.440788 -4.273845 -0.3141527,-2.454607 -4.743173 -0.2314451,-9.602447 -8.344852 -0.9050018,-8.843555 -7.85334 -0.5921291,-8.252888 -6.906734 -0.3340198,-7.856471 -6.028333 -0.04584342,-7.419089 -5.367395 0.2372155,-8.668477 -5.079401 -0.7356317,-8.552742 -3.745343 -0.5376375,-8.463146 -2.904742 -0.3462253,-8.394228 -2.174661 -0.1788782,-9.11122 -5.012305 -0.6122558,-9.087965 -3.538075 -0.117523,-9.009459 -4.01472 0.2877688,-8.987898 -4.640426 0.4623103,-9.543134 -5.15372 -0.4534939,-9.548398 -3.842094 -0.005131423,-9.423079 -4.393981 0.3103408,-9.382314 -5.101314 0.4171475,-10.01748 -5.466845 -0.2842183,-10.06134 -4.375652 0.1650226,-9.917285 -4.562204 0.4298848,-9.830708 -5.059741 0.5305912,1.310, 14
-2.633614 -7.97678 -1.467449,-3.261921 -7.651338 -1.076394,-3.780911 -6.827518 -0.8832726,-4.156511 -6.024255 -0.6680239,-4.54537 -5.467745 -0.4315703,-3.652256 -5.324984 -1.358977,-3.9123 -4.203285 -1.120544,-4.007693 -3.457015 -0.8555974,-4.064197 -2.737947 -0.6382196,-3.263806 -5.161027 -1.315632,-3.285448 -3.906464 -0.7119038,-3.285448 -3.906464 -0.7119038,-3.147735 -5.255865 -0.1818931,-2.894186 -5.196245 -1.206918,-2.851004 -4.151352 -0.6706713,-2.846529 -4.881105 -0.387681,-2.863304 -5.610548 -0.3773227,-2.523196 -5.409638 -1.076223,-2.474073 -4.595124 -0.6700106,-2.542048 -4.96166 -0.4713464,-2.599513 -5.499948 -0.4440531,-9.629807 -8.253252 -1.430985,-8.911441 -7.93383 -0.9071642,-8.347066 -6.963769 -0.6243068,-7.99677 -6.026618 -0.3278152,-7.618618 -5.286126 -0.07746816,-8.703872 -5.100742 -1.334689,-8.577512 -3.803724 -0.9367251,-8.474462 -3.068782 -0.706844,-8.422055 -2.350343 -0.6033734,-9.126214 -5.065569 -1.271555,-9.051494 -3.992245 -0.4437311,-9.023409 -5.144057 -0.07835221,-9.068005 -5.936676 -0.121304,-9.559891 -5.203107 -1.108059,-9.520291 -4.328808 -0.319878,-9.419229 -5.423221 -0.02280474,-9.419838 -6.170722 -0.1160583,-10.04153 -5.503517 -0.9099834,-9.99682 -4.610166 -0.2781658,-9.848544 -5.227025 -0.01668596,-9.788177 -5.84094 -0.03770912,1.410, 14
-2.640668 -8.01923 -1.459011,-3.266162 -7.654382 -1.024815,-3.776587 -6.772243 -0.8319873,-4.154919 -5.960397 -0.6051262,-4.535986 -5.396085 -0.3368142,-3.654299 -5.333126 -1.354958,-3.897465 -4.203689 -1.086406,-3.992453 -3.466632 -0.8111162,-4.037439 -2.769513 -0.5828287,-3.256933 -5.197338 -1.318225,-3.24612 -4.035887 -0.6700936,-3.24612 -4.035887 -0.6700936,-3.123373 -5.51666 -0.07619882,-2.886238 -5.238053 -1.214884,-2.826765 -4.276568 -0.6411908,-2.837328 -5.118663 -0.3425633,-2.865076 -5.879995 -0.3447193,-2.519942 -5.448846 -1.078302,-2.472153 -4.664874 -0.6472065,-2.54827 -5.128231 -0.4680912,-2.614801 -5.710928 -0.4796683,-9.610566 -8.328079 -1.61322,-8.913939 -7.988704 -1.107866,-8.366508 -6.974219 -0.8572336,-8.030049 -6.038387 -0.5925485,-7.670598 -5.290676 -0.3747621,-8.740233 -5.215235 -1.575163,-8.609864 -3.891569 -1.211134,-8.496861 -3.160226 -0.9926024,-8.422909 -2.445426 -0.8905892,-9.159266 -5.183399 -1.497431,-9.055169 -4.085721 -0.6944261,-9.007566 -5.237029 -0.3249658,-9.045091 -6.050691 -0.3469386,-9.582987 -5.313468 -1.316813,-9.512447 -4.41668 -0.4977889,-9.403437 -5.531479 -0.1818372,-9.402349 -6.308071 -0.2723398,-10.0582 -5.598798 -1.103467,-10.00697 -4.651502 -0.4574,-9.845278 -5.25119 -0.2000253,-9.77815 -5.874952 -0.206785,1.510, 14
-2.571685 -8.068317 -1.524118,-3.192506 -7.66749 -1.084783,-3.70295 -6.796089 -0.8771527,-4.067767 -5.994197 -0.6281101,-4.436686 -5.373184 -0.3466787,-3.642128 -5.406287 -1.360294,-3.853003 -4.253088 -1.069008,-3.920515 -3.512073 -0.7836228,-3.93599 -2.82265 -0.5270749,-3.239124 -5.280231 -1.334129,-3.225855 -4.158191 -0.6673028,-3.225855 -4.158191 -0.6673028,-3.106625 -5.765993 -0.1364975,-2.858413 -5.332536 -1.235767,-2.789866 -4.443019 -0.6525411,-2.798853 -5.346008 -0.3898387,-2.840215 -6.098978 -0.3900013,-2.489735 -5.552949 -1.10773,-2.428129 -4.861442 -0.671345,-2.498641 -5.41287 -0.5084718,-2.580572 -5.980226 -0.5264024,-9.625389 -8.399719 -1.852584,-8.944873 -8.094406 -1.445105,-8.3641 -7.086276 -1.199506,-8.008378 -6.146492 -0.9135618,-7.632992 -5.420599 -0.6828336,-8.738673 -5.363018 -1.807544,-8.595062 -4.074172 -1.425644,-8.47842 -3.351535 -1.205418,-8.390771 -2.643005 -1.09836,-9.15788 -5.329338 -1.679926,-8.981871 -4.445699 -0.8391815,-8.983282 -5.688432 -0.575826,-9.076744 -6.428382 -0.699181,-9.587737 -5.456916 -1.442704,-9.449192 -4.735827 -0.5971984,-9.391396 -5.934303 -0.4218724,-9.457724 -6.623163 -0.6023047,-10.07614 -5.728319 -1.1806,-9.964417 -4.872293 -0.5585419,-9.817234 -5.591775 -0.3915511,-9.804658 -6.188011 -0.4617835,1.610, 14
-2.562622 -8.072023 -1.497062,-3.187603 -7.653663 -1.076459,-3.691343 -6.784524 -0.8778194,-4.046356 -6.006507 -0.6226799,-4.413697 -5.406173 -0.3421645,-3.625023 -5.388626 -1.300078,-3.818161 -4.244817 -0.9705287,-3.873976 -3.530534 -0.6823128,-3.882328 -2.864538 -0.4280127,-3.228873 -5.278362 -1.27048,-3.209501 -4.243869 -0.5726517,-3.209501 -4.243869 -0.5726517,-3.121611 -5.86667 -0.1052545,-2.846877 -5.344267 -1.166318,-2.784309 -4.543367 -0.5614749,-2.817393 -5.451498 -0.3411429,-2.869659 -6.192406 -0.3635316,-2.473264 -5.57455 -1.033845,-2.41959 -4.923398 -0.5876088,-2.505067 -5.484329 -0.4369711,-2.592804 -6.037878 -0.4596877,-9.596247 -8.400248 -1.935759,-8.927397 -8.100021 -1.542272,-8.337848 -7.118759 -1.299737,-7.983663 -6.195879 -1.013922,-7.613704 -5.501991 -0.786575,-8.707797 -5.401138 -1.889747,-8.552748 -4.1627 -1.489119,-8.434778 -3.46798 -1.264628,-8.334203 -2.774919 -1.152006,-9.131575 -5.353493 -1.764081,-8.939753 -4.63033 -0.9295598,-8.970161 -5.908632 -0.7115574,-9.07843 -6.579349 -0.8576657,-9.565132 -5.465492 -1.524486,-9.411158 -4.895288 -0.692588,-9.38451 -6.129848 -0.570748,-9.470632 -6.750045 -0.7728969,-10.05995 -5.725694 -1.257113,-9.933331 -4.950361 -0.6557592,-9.797172 -5.701437 -0.518317,-9.800599 -6.248825 -0.597912,1.710, 14
-2.539373 -8.10811 -1.571528,-3.158092 -7.693171 -1.139937,-3.664927 -6.81729 -0.9355388,-4.026538 -6.03866 -0.6811528,-4.395994 -5.452175 -0.3969049,-3.587059 -5.439115 -1.31184,-3.779314 -4.297018 -0.9505544,-3.831137 -3.581138 -0.6462446,-3.834543 -2.914099 -0.3742343,-3.189069 -5.337432 -1.290793,-3.15407 -4.353591 -0.5936745,-3.15407 -4.353591 -0.5936745,-3.073621 -5.955329 -0.1270392,-2.805575 -5.411606 -1.191986,-2.724475 -4.677305 -0.5755021,-2.759569 -5.573377 -0.3691651,-2.82755 -6.29746 -0.3949484,-2.430598 -5.644922 -1.066419,-2.355781 -5.012681 -0.6083125,-2.431795 -5.577093 -0.4636704,-2.525885 -6.119133 -0.4846114,-9.573185 -8.536869 -2.194891,-8.877557 -8.237835 -1.847436,-8.26855 -7.313955 -1.617116,-7.945799 -6.451961 -1.332548,-7.630908 -5.765049 -1.090417,-8.628458 -5.684572 -2.070309,-8.43062 -4.499241 -1.580555,-8.28585 -3.832758 -1.275829,-8.148539 -3.175382 -1.129947,-9.060577 -5.5802 -1.927242,-8.788535 -5.068693 -1.037099,-8.83113 -6.291237 -0.826189,-8.953773 -6.906026 -0.9939493,-9.511953 -5.671687 -1.66538,-9.28916 -5.249898 -0.8256377,-9.275341 -6.395963 -0.7531135,-9.361728 -6.945371 -0.9650791,-10.02665 -5.89248 -1.378696,-9.860464 -5.239486 -0.7785039,-9.713812 -5.975374 -0.6763102,-9.706292 -6.505249 -0.761781,1.810, 14
-2.528697 -8.128977 -1.529847,-3.139391 -7.726594 -1.084699,-3.64749 -6.836648 -0.8808112,-4.010497 -6.047634 -0.6272234,-4.387473 -5.467638 -0.3461688,-3.572216 -5.450201 -1.282489,-3.760633 -4.307279 -0.9329113,-3.807827 -3.585819 -0.6454422,-3.808197 -2.909461 -0.3834375,-3.169993 -5.3427 -1.262973,-3.141635 -4.349651 -0.5637444,-3.141635 -4.349651 -0.5637444,-3.065372 -5.955766 -0.09706783,-2.787061 -5.412096 -1.16472,-2.707072 -4.692897 -0.5400084,-2.743078 -5.601745 -0.3278778,-2.813142 -6.335649 -0.3573216,-2.413927 -5.643618 -1.038416,-2.338016 -5.023073 -0.5770364,-2.413326 -5.597721 -0.4344618,-2.508785 -6.143957 -0.4641241,-9.572487 -8.61488 -2.376957,-8.878314 -8.304998 -2.071309,-8.275296 -7.448551 -1.881009,-7.99194 -6.623521 -1.635614,-7.754913 -5.925443 -1.436658,-8.616875 -5.833049 -2.361001,-8.360659 -4.721088 -1.891796,-8.168948 -4.09637 -1.573451,-7.97588 -3.474303 -1.408265,-9.040133 -5.706678 -2.221391,-8.72108 -5.237174 -1.403335,-8.787989 -6.430105 -1.192765,-8.930111 -7.035619 -1.3406,-9.483263 -5.771944 -1.955719,-9.211241 -5.400331 -1.191388,-9.237629 -6.519799 -1.134415,-9.347891 -7.058689 -1.327959,-9.989038 -5.958713 -1.666645,-9.757759 -5.391086 -1.120585,-9.648383 -6.126367 -1.021632,-9.679235 -6.647254 -1.093434,1.910, 14
-2.531347 -8.10948 -1.573732,-3.143826 -7.699146 -1.164825,-3.654602 -6.810073 -0.9743335,-4.024747 -6.032953 -0.7273692,-4.400906 -5.47667 -0.4536431,-3.570029 -5.430744 -1.334572,-3.762326 -4.28267 -0.9746149,-3.810055 -3.566707 -0.6797335,-3.803161 -2.902499 -0.4191772,-3.171772 -5.335771 -1.308712,-3.126539 -4.37655 -0.6232501,-3.126539 -4.37655 -0.6232501,-3.04809 -5.994009 -0.1913781,-2.78464 -5.415023 -1.207743,-2.698881 -4.712059 -0.6119245,-2.738214 -5.625341 -0.4314636,-2.810444 -6.328187 -0.4728657,-2.408858 -5.653393 -1.080011,-2.330043 -5.033067 -0.6369346,-2.40579 -5.626943 -0.5078492,-2.500737 -6.16547 -0.5415161,-9.503391 -8.536938 -3.506888,-8.88674 -8.364939 -3.080806,-8.246976 -7.704534 -2.78035,-7.95973 -6.980247 -2.461237,-7.975585 -6.326643 -2.232129,-8.560834 -6.133897 -3.224949,-8.206778 -5.063127 -2.67984,-7.96373 -4.439155 -2.326627,-7.727836 -3.840292 -2.110268,-8.980516 -5.979673 -3.126143,-8.653496 -5.510188 -2.235153,-8.755821 -6.633673 -2.109628,-8.91186 -7.235861 -2.310136,-9.425879 -6.004764 -2.889952,-9.142588 -5.622149 -2.100224,-9.201901 -6.663726 -2.059436,-9.316389 -7.180877 -2.272627,-9.926373 -6.154645 -2.625196,-9.709383 -5.585535 -2.122182,-9.611488 -6.255707 -2.054004,-9.629052 -6.726943 -2.135698,2.010, 14
-2.537817 -8.127905 -1.518564,-3.163889 -7.721679 -1.114317,-3.674406 -6.820349 -0.9263691,-4.042743 -6.039979 -0.6835311,-4.417528 -5.495079 -0.411808,-3.575329 -5.436954 -1.267289,-3.763761 -4.298062 -0.8991371,-3.812761 -3.577949 -0.5937318,-3.807932 -2.911541 -0.327059,-3.177431 -5.338777 -1.242555,-3.126453 -4.378599 -0.5628026,-3.126453 -4.378599 -0.5628026,-3.055967 -5.99288 -0.1321959,-2.792106 -5.419467 -1.139829,-2.700039 -4.716135 -0.5407261,-2.742244 -5.628744 -0.3599197,-2.815298 -6.337169 -0.3984447,-2.420479 -5.667739 -1.011641,-2.338442 -5.049718 -0.5746638,-2.413825 -5.639515 -0.4480873,-2.506401 -6.170894 -0.4808905,-9.465115 -8.620604 -3.517347,-8.866101 -8.434109 -3.136365,-8.212068 -7.790533 -2.788291,-7.90544 -7.030138 -2.42674,-8.014074 -6.29532 -2.11405,-8.528877 -6.262689 -3.202324,-8.187803 -5.284778 -2.736303,-7.89449 -4.602041 -2.410371,-7.615883 -3.984313 -2.185537,-8.925432 -6.079784 -3.075501,-8.589603 -5.633653 -2.244005,-8.664329 -6.650302 -1.997088,-8.825488 -7.278597 -2.052218,-9.359955 -6.096399 -2.849005,-9.054988 -5.784641 -2.123762,-9.129621 -6.760709 -2.069376,-9.263819 -7.314849 -2.250843,-9.851027 -6.210321 -2.595663,-9.57956 -5.706756 -2.108679,-9.503111 -6.347099 -2.092936,-9.541614 -6.842643 -2.199956,2.110, 14
-2.535495 -8.139616 -1.526134,-3.156371 -7.714112 -1.131953,-3.672114 -6.821596 -0.9527304,-4.05364 -6.05615 -0.7118774,-4.44229 -5.52182 -0.4494132,-3.589003 -5.460528 -1.299695,-3.779831 -4.299463 -0.9511045,-3.829077 -3.576982 -0.6689218,-3.823111 -2.901338 -0.4127705,-3.190104 -5.354415 -1.269257,-3.150675 -4.407601 -0.5900186,-3.150675 -4.407601 -0.5900186,-3.083735 -6.059257 -0.1907436,-2.798229 -5.413291 -1.16818,-2.727212 -4.694732 -0.5816212,-2.7771 -5.625408 -0.4151796,-2.848817 -6.344269 -0.4624003,-2.418024 -5.634803 -1.039034,-2.357695 -5.014182 -0.6090387,-2.434999 -5.621917 -0.4884006,-2.525734 -6.17631 -0.5293931,-9.428796 -8.678741 -1.814109,-8.849275 -8.620499 -1.384163,-8.095525 -7.990962 -0.9334845,-7.746254 -7.330072 -0.4834101,-8.042141 -6.753889 -0.1638154,-8.40345 -5.960029 -1.397411,-7.946042 -5.358486 -0.6143951,-7.620854 -5.034774 -0.1508739,-7.273206 -4.655466 0.1394254,-8.857533 -5.661231 -1.255998,-8.378103 -6.052797 -0.3171343,-8.575727 -7.18226 -0.3656441,-8.806218 -7.341045 -0.6817838,-9.308767 -5.714334 -0.924949,-8.877441 -6.162292 -0.1578403,-9.031085 -7.19828 -0.3471181,-9.222183 -7.292753 -0.6326516,-9.793135 -5.917367 -0.5333302,-9.432842 -6.121516 -0.1432481,-9.416447 -6.927612 -0.2321265,-9.524171 -7.047561 -0.3647032,2.210, 14
-2.532429 -8.119434 -1.579111,-3.157461 -7.710443 -1.187833,-3.672664 -6.818639 -1.012346,-4.054117 -6.048578 -0.7773029,-4.439329 -5.527364 -0.5287887,-3.586212 -5.451984 -1.326675,-3.779632 -4.281847 -0.9415054,-3.82643 -3.572629 -0.6457106,-3.819366 -2.908907 -0.3958313,-3.189677 -5.352952 -1.296589,-3.13514 -4.413368 -0.5950222,-3.13514 -4.413368 -0.5950222,-3.06423 -6.073259 -0.1940482,-2.797138 -5.422578 -1.193645,-2.717254 -4.717961 -0.5867961,-2.761343 -5.653905 -0.4296887,-2.833037 -6.347177 -0.4873209,-2.417793 -5.653051 -1.065021,-2.342605 -5.033411 -0.6206799,-2.416842 -5.645708 -0.4967999,-2.509607 -6.188356 -0.5377589,-9.475822 -8.681559 -1.518475,-8.8381 -8.659477 -1.151938,-8.046541 -8.070156 -0.704163,-7.687949 -7.443058 -0.2442943,-7.994089 -6.896223 0.09517467,-8.315693 -5.973502 -1.045194,-7.852455 -5.426475 -0.2764468,-7.535645 -5.129982 0.1802136,-7.193143 -4.794441 0.4642857,-8.778069 -5.617074 -0.8861805,-8.326223 -6.22365 0.0045259,-8.562817 -7.304038 0.01424909,-8.798489 -7.441199 -0.2140552,-9.238402 -5.66841 -0.5603102,-8.843052 -6.295108 0.1304779,-9.013491 -7.274229 -0.005435824,-9.188705 -7.374231 -0.216621,-9.733161 -5.885864 -0.1796824,-9.395666 -6.267057 0.189882,-9.38406 -7.062328 0.1572767,-9.478151 -7.184817 0.081236,2.310, 14
-2.556342 -8.141626 -1.437611,-3.169025 -7.720492 -1.042533,-3.685335 -6.816997 -0.8612293,-4.062361 -6.052672 -0.6146301,-4.443275 -5.530708 -0.3488553,-3.591209 -5.414714 -1.190058,-3.776353 -4.267535 -0.7963195,-3.819513 -3.557358 -0.4827059,-3.807472 -2.897066 -0.2189723,-3.191121 -5.32839 -1.153898,-3.13636 -4.406839 -0.4340343,-3.13636 -4.406839 -0.4340343,-3.074677 -6.082827 -0.02063215,-2.798747 -5.411336 -1.041222,-2.70872 -4.731195 -0.4234302,-2.759919 -5.667236 -0.2695558,-2.838735 -6.37456 -0.3333032,-2.419819 -5.657121 -0.9036331,-2.331182 -5.048175 -0.4558998,-2.409213 -5.667213 -0.342925,-2.509048 -6.214239 -0.3965781,-9.378305 -8.650873 -1.453509,-8.747891 -8.683233 -1.069986,-7.937398 -8.157822 -0.6010381,-7.546928 -7.551486 -0.1334118,-7.828738 -6.98431 0.2450473,-8.16487 -5.976797 -0.9255966,-7.686773 -5.449028 -0.1575973,-7.34525 -5.155782 0.3106049,-6.975576 -4.865715 0.5912242,-8.620355 -5.590441 -0.77796,-8.155878 -6.195322 0.08656919,-8.392911 -7.267259 0.08285713,-8.618611 -7.413113 -0.1574864,-9.079938 -5.615673 -0.4677627,-8.674412 -6.268903 0.2018753,-8.856094 -7.250169 0.04338169,-9.028055 -7.370102 -0.1818126,-9.571211 -5.819091 -0.1029265,-9.228334 -6.257691 0.2565031,-9.231005 -7.046209 0.2063094,-9.322552 -7.156229 0.1153519,2.410, 14
-2.515077 -8.160002 -1.413108,-3.129732 -7.751272 -1.00111,-3.65265 -6.846684 -0.8084994,-4.037569 -6.081279 -0.5552445,-4.426301 -5.548013 -0.2759814,-3.561813 -5.433795 -1.148401,-3.748812 -4.273349 -0.7673941,-3.793038 -3.550545 -0.4660386,-3.780569 -2.885269 -0.1998386,-3.159613 -5.342762 -1.119488,-3.104452 -4.426838 -0.4074953,-3.104452 -4.426838 -0.4074953,-3.040855 -6.085194 0.0260278,-2.7645 -5.417381 -1.016212,-2.680832 -4.756886 -0.4005491,-2.728799 -5.692918 -0.2337204,-2.804828 -6.406591 -0.2863469,-2.380087 -5.650688 -0.882826,-2.301714 -5.053627 -0.4242088,-2.374845 -5.673234 -0.3007523,-2.470896 -6.22218 -0.3466405,-9.272112 -8.664415 -0.9733461,-8.647856 -8.746624 -0.5745499,-7.824121 -8.214045 -0.09103274,-7.412335 -7.614072 0.3806462,-7.696775 -7.047237 0.7292899,-8.045857 -5.893985 -0.4210114,-7.525169 -5.484369 0.3922,-7.169946 -5.225959 0.8480498,-6.790273 -4.912773 1.129964,-8.512559 -5.464967 -0.2751106,-8.000736 -6.268014 0.6139426,-8.256318 -7.361333 0.5124376,-8.504489 -7.371971 0.2218657,-8.972659 -5.50545 0.04850185,-8.527442 -6.36622 0.7260153,-8.717884 -7.349235 0.4994403,-8.905591 -7.305198 0.24298,-9.448404 -5.741348 0.440382,-9.077522 -6.36399 0.7764466,-9.095092 -7.16105 0.6691134,-9.210869 -7.143524 0.5627724,2.510, 14
-2.502128 -8.199478 -1.423515,-3.106577 -7.788806 -1.034184,-3.623438 -6.859867 -0.8533831,-4.003888 -6.079718 -0.6136036,-4.403269 -5.560983 -0.3560777,-3.541201 -5.469511 -1.164969,-3.721935 -4.303722 -0.7588982,-3.766003 -3.572718 -0.4375977,-3.755981 -2.892471 -0.1563665,-3.142452 -5.38565 -1.117806,-3.091722 -4.425698 -0.379313,-3.091722 -4.425698 -0.379313,-3.034641 -6.088869 0.05257714,-2.750163 -5.468117 -0.9952421,-2.66164 -4.76388 -0.3519635,-2.717229 -5.698642 -0.2100414,-2.80399 -6.412676 -0.2820894,-2.370785 -5.712249 -0.8470542,-2.292615 -5.106822 -0.3782758,-2.375997 -5.723073 -0.2720525,-2.480987 -6.265909 -0.3287725,-9.24186 -8.688931 -0.9000102,-8.611959 -8.790184 -0.5218494,-7.778206 -8.241959 -0.04545569,-7.367939 -7.65299 0.4208077,-7.680258 -7.113834 0.7505831,-8.015734 -5.879743 -0.3855386,-7.481929 -5.51391 0.4462816,-7.119855 -5.270288 0.88481,-6.736645 -4.946451 1.149029,-8.492164 -5.460376 -0.2243082,-7.958785 -6.308849 0.6904621,-8.222434 -7.411041 0.5282553,-8.475113 -7.374286 0.1867268,-8.952177 -5.526723 0.1239156,-8.487047 -6.413027 0.8299339,-8.677717 -7.398338 0.5593119,-8.870983 -7.315276 0.2716644,-9.425317 -5.787122 0.5451622,-9.031641 -6.421894 0.8846812,-9.054461 -7.230924 0.7547596,-9.18395 -7.196439 0.6335067,2.610, 14
-2.449413 -8.176378 -1.457433,-3.072779 -7.788182 -1.033852,-3.596369 -6.883092 -0.8316923,-3.983678 -6.113673 -0.5688295,-4.397684 -5.585945 -0.2833924,-3.516071 -5.466367 -1.163267,-3.699725 -4.289295 -0.7691709,-3.737206 -3.569257 -0.4713176,-3.717229 -2.898502 -0.2179953,-3.113567 -5.378986 -1.143078,-3.053389 -4.462026 -0.4282746,-3.053389 -4.462026 -0.4282746,-2.995532 -6.106541 -0.005671263,-2.715787 -5.458269 -1.049317,-2.627389 -4.797794 -0.4212095,-2.678231 -5.741403 -0.2644305,-2.764435 -6.435869 -0.3224102,-2.331767 -5.692993 -0.926738,-2.257994 -5.095068 -0.4631398,-2.335774 -5.725017 -0.3398696,-2.438832 -6.264741 -0.3837912,-9.261299 -8.704891 -0.6270744,-8.609293 -8.827145 -0.2189288,-7.769243 -8.281185 0.3015739,-7.348825 -7.687351 0.7842339,-7.66778 -7.197971 1.146415,-7.977518 -5.872585 0.009143472,-7.456239 -5.545684 0.8624282,-7.100134 -5.274404 1.294226,-6.719351 -4.903745 1.543878,-8.45676 -5.431116 0.1546946,-7.957644 -6.320938 1.083675,-8.210783 -7.407213 0.892103,-8.441731 -7.327165 0.5346957,-8.925081 -5.492412 0.4817388,-8.497989 -6.44315 1.174275,-8.678743 -7.399507 0.8821311,-8.858664 -7.286405 0.5896596,-9.403932 -5.752121 0.8842381,-9.042042 -6.531014 1.207775,-9.074738 -7.31574 1.086359,-9.202894 -7.237085 0.9679527,2.710, 14
-2.453156 -8.214027 -1.399459,-3.067263 -7.814783 -0.9956698,-3.585886 -6.889276 -0.8067719,-3.970373 -6.119288 -0.554177,-4.384014 -5.606265 -0.2939625,-3.507969 -5.472515 -1.128956,-3.682877 -4.303473 -0.7224758,-3.718457 -3.577625 -0.4116648,-3.697128 -2.900398 -0.1481854,-3.104681 -5.396039 -1.090338,-3.04095 -4.473556 -0.3628086,-3.04095 -4.473556 -0.3628086,-2.99056 -6.141382 0.03489769,-2.707946 -5.49128 -0.9779632,-2.609124 -4.819602 -0.3368038,-2.662117 -5.770538 -0.203107,-2.752277 -6.464636 -0.2827374,-2.326438 -5.750648 -0.8374412,-2.243628 -5.135854 -0.3772076,-2.325608 -5.759783 -0.2660246,-2.431001 -6.291431 -0.3205848,-9.258658 -8.723259 -0.6885731,-8.614276 -8.808201 -0.2700418,-7.771852 -8.233196 0.2440292,-7.354052 -7.632122 0.7048461,-7.704363 -7.177554 1.051905,-8.028216 -5.861206 -0.05319077,-7.520406 -5.534118 0.8067133,-7.15977 -5.289562 1.248168,-6.777239 -4.968956 1.510178,-8.513288 -5.452102 0.08517176,-8.004826 -6.344199 1.020439,-8.258161 -7.426757 0.8016865,-8.498266 -7.366459 0.4412823,-8.97956 -5.537025 0.4118451,-8.54537 -6.461389 1.111466,-8.72005 -7.405982 0.7911149,-8.90452 -7.310323 0.4953227,-9.453945 -5.820133 0.8171299,-9.085561 -6.526235 1.127759,-9.10554 -7.301063 0.9735881,-9.229467 -7.263443 0.8540368,2.810, 14
-2.456079 -8.260323 -1.355224,-3.071622 -7.846437 -0.9455739,-3.588719 -6.923404 -0.7483632,-3.972256 -6.148862 -0.4900301,-4.392401 -5.633979 -0.2113609,-3.494507 -5.501359 -1.08664,-3.673944 -4.333751 -0.6977215,-3.714898 -3.609251 -0.3973384,-3.700272 -2.936105 -0.1373576,-3.092365 -5.425113 -1.052491,-3.037016 -4.49863 -0.3361681,-3.037016 -4.49863 -0.3361681,-2.976353 -6.146711 0.08964384,-2.698656 -5.515695 -0.9435669,-2.606355 -4.84702 -0.3054297,-2.658455 -5.784994 -0.1489199,-2.744094 -6.492019 -0.2104108,-2.316794 -5.763395 -0.809016,-2.238427 -5.159132 -0.3376648,-2.322022 -5.772523 -0.2169652,-2.427101 -6.30963 -0.2620391,-9.384515 -8.672997 -0.8028003,-8.728577 -8.774195 -0.3592349,-7.859941 -8.228045 0.1728072,-7.445477 -7.635181 0.6391785,-7.81265 -7.21249 1.024404,-8.114898 -5.914111 -0.05392087,-7.669258 -5.527364 0.827319,-7.347411 -5.268181 1.2996,-7.00631 -4.968134 1.559959,-8.596736 -5.473191 0.07537872,-8.219568 -6.342762 1.038875,-8.424239 -7.442547 0.888574,-8.621298 -7.512564 0.5839465,-9.080586 -5.563245 0.3664683,-8.772149 -6.472143 1.08875,-8.893915 -7.405426 0.79944,-9.033468 -7.399415 0.5234954,-9.580241 -5.847993 0.7346495,-9.31172 -6.526633 1.078779,-9.288794 -7.306242 0.9454427,-9.362561 -7.352421 0.8397368,2.910, 14
-2.469987 -8.245714 -1.274097,-3.08935 -7.854909 -0.8570781,-3.612692 -6.93263 -0.6512918,-3.995758 -6.157859 -0.3810939,-4.398899 -5.63539 -0.08811998,-3.506834 -5.465034 -0.9685686,-3.682968 -4.308866 -0.5402287,-3.723604 -3.599985 -0.2093881,-3.708796 -2.944999 0.05936146,-3.105274 -5.390371 -0.936204,-3.036681 -4.500584 -0.1882042,-3.036681 -4.500584 -0.1882042,-2.997109 -6.179886 0.2394191,-2.712545 -5.492736 -0.8228436,-2.6089 -4.847322 -0.1703966,-2.676231 -5.800613 -0.015733,-2.766591 -6.493448 -0.08112693,-2.336428 -5.760599 -0.684893,-2.249228 -5.190765 -0.2071172,-2.339909 -5.819986 -0.07948697,-2.449548 -6.350343 -0.1269536,-9.41241 -8.719862 -0.7460667,-8.767459 -8.80401 -0.2214488,-7.906255 -8.230492 0.3278812,-7.50942 -7.632881 0.7895738,-7.900635 -7.2283 1.192087,-8.200011 -5.957629 0.1155739,-7.767289 -5.520378 1.015311,-7.45833 -5.255546 1.523902,-7.144695 -4.985521 1.804291,-8.689259 -5.512903 0.2200574,-8.345119 -6.368525 1.214301,-8.509035 -7.471208 1.135502,-8.695434 -7.703273 0.877172,-9.196836 -5.617351 0.4819494,-8.912437 -6.505706 1.240203,-8.988668 -7.422903 1.002407,-9.104811 -7.54669 0.7465537,-9.717384 -5.928972 0.8188547,-9.473761 -6.550341 1.234226,-9.396648 -7.319116 1.126482,-9.423559 -7.487064 1.032927,3.010, 14
-2.490382 -8.272121 -1.289844,-3.106686 -7.885797 -0.8801863,-3.633827 -6.953813 -0.6810357,-4.018411 -6.172559 -0.4213474,-4.420799 -5.646288 -0.1409265,-3.527968 -5.499604 -1.00157,-3.712508 -4.336536 -0.6017036,-3.757542 -3.616898 -0.2896938,-3.748833 -2.953905 -0.02824056,-3.125959 -5.419963 -0.9648064,-3.069534 -4.508218 -0.2411205,-3.069534 -4.508218 -0.2411205,-3.017799 -6.166785 0.1729954,-2.73318 -5.514671 -0.8490885,-2.639245 -4.868022 -0.2040948,-2.692791 -5.802293 -0.04795718,-2.776989 -6.501102 -0.1100528,-2.352312 -5.769406 -0.708076,-2.268835 -5.179958 -0.2361885,-2.352915 -5.791296 -0.1142677,-2.457981 -6.328573 -0.1605065,-9.61954 -8.799507 -0.1281812,-8.903014 -8.805767 0.3254136,-8.035074 -8.247185 0.9158214,-7.639871 -7.657854 1.432851,-8.059984 -7.334582 1.905378,-8.367418 -5.85844 0.6714522,-7.954064 -5.534532 1.568818,-7.642553 -5.329016 2.046176,-7.312038 -5.080732 2.312615,-8.882658 -5.396356 0.7977228,-8.462626 -6.498746 1.710071,-8.64257 -7.576175 1.538235,-8.864997 -7.628322 1.262462,-9.387664 -5.526788 1.082516,-9.017591 -6.674928 1.743674,-9.135669 -7.561445 1.459226,-9.299755 -7.513041 1.232099,-9.90547 -5.862833 1.453822,-9.595992 -6.690224 1.748941,-9.554126 -7.415601 1.641988,-9.631723 -7.417325 1.574238,3.110, 14
-2.482985 -8.28768 -1.252773,-3.10275 -7.890216 -0.8373703,-3.634094 -6.957288 -0.6361795,-4.021143 -6.184812 -0.375553,-4.426176 -5.680591 -0.08706796,-3.52864 -5.509019 -0.9664147,-3.714403 -4.352838 -0.561589,-3.761583 -3.631032 -0.2457541,-3.753971 -2.966704 0.02706933,-3.123798 -5.425563 -0.9296775,-3.07544 -4.515167 -0.1900494,-3.07544 -4.515167 -0.1900494,-3.010291 -6.177969 0.2467608,-2.729953 -5.517868 -0.8126367,-2.642903 -4.881271 -0.1523836,-2.693975 -5.812679 0.01460993,-2.773889 -6.531074 -0.04524577,-2.347123 -5.771753 -0.6703435,-2.268932 -5.188642 -0.1807479,-2.350097 -5.804058 -0.05609655,-2.451218 -6.355461 -0.1022251,-9.643086 -8.93519 0.1201438,-8.903637 -8.885695 0.636833,-8.062505 -8.331068 1.28641,-7.706229 -7.754785 1.854581,-8.142911 -7.403697 2.382339,-8.429342 -5.963508 1.101155,-8.04893 -5.636221 2.07914,-7.756569 -5.43403 2.629708,-7.442768 -5.192163 2.964869,-8.96776 -5.496457 1.223612,-8.575774 -6.530414 2.243859,-8.714482 -7.652551 2.1752,-8.909609 -7.765071 1.970126,-9.485523 -5.616766 1.486797,-9.151211 -6.71511 2.228544,-9.233618 -7.603372 1.97598,-9.37908 -7.560922 1.762162,-10.01667 -5.939701 1.838498,-9.742085 -6.784985 2.215847,-9.666572 -7.515106 2.141572,-9.709991 -7.505352 2.085088,3.210, 14
-2.464822 -8.333132 -1.279523,-3.090893 -7.921356 -0.8909736,-3.624567 -6.978096 -0.7244943,-4.015291 -6.192612 -0.4988084,-4.424369 -5.702211 -0.2597703,-3.525297 -5.571552 -1.041558,-3.700636 -4.40027 -0.6667489,-3.750132 -3.671774 -0.366053,-3.747583 -2.998277 -0.09997523,-3.126169 -5.477579 -1.015075,-3.068375 -4.545583 -0.3298658,-3.068375 -4.545583 -0.3298658,-3.001832 -6.228837 0.0621624,-2.729735 -5.556729 -0.9118462,-2.641312 -4.867418 -0.2947652,-2.68887 -5.80295 -0.1515392,-2.7693 -6.515572 -0.2196773,-2.347929 -5.797513 -0.7833087,-2.267194 -5.201416 -0.3329669,-2.346589 -5.818573 -0.2262152,-2.448651 -6.363124 -0.2817125,-9.679047 -8.970528 0.4408125,-8.927831 -8.906422 0.9870893,-8.07548 -8.350647 1.652622,-7.73278 -7.777597 2.221285,-8.197924 -7.465387 2.753569,-8.448817 -5.959149 1.58351,-8.089156 -5.667347 2.585972,-7.808913 -5.492044 3.142232,-7.51014 -5.268177 3.493186,-9.004704 -5.481338 1.686296,-8.634449 -6.602636 2.726627,-8.754892 -7.735204 2.666905,-8.938756 -7.858709 2.486948,-9.536066 -5.607786 1.909982,-9.230995 -6.769905 2.666968,-9.288804 -7.654943 2.389955,-9.421871 -7.618858 2.175911,-10.07573 -5.958585 2.23148,-9.834217 -6.833986 2.623871,-9.739624 -7.560108 2.546816,-9.760966 -7.55553 2.486543,3.310, 14
-2.483572 -8.33032 -1.31921,-3.091824 -7.934528 -0.9153684,-3.620785 -7.000526 -0.7283759,-4.015083 -6.222247 -0.4844092,-4.429871 -5.730639 -0.2216117,-3.528818 -5.574876 -1.02797,-3.709385 -4.405893 -0.6228035,-3.753946 -3.681425 -0.3099022,-3.745822 -3.012287 -0.04002094,-3.124676 -5.487847 -0.9962798,-3.065022 -4.558216 -0.2738165,-3.065022 -4.558216 -0.2738165,-2.994727 -6.232198 0.1490718,-2.728161 -5.574453 -0.889341,-2.632187 -4.921028 -0.2424214,-2.680647 -5.859414 -0.09569383,-2.766554 -6.572061 -0.1668497,-2.344505 -5.820587 -0.7565247,-2.256331 -5.227943 -0.2793013,-2.335067 -5.851055 -0.1640096,-2.440429 -6.40109 -0.2143097,-9.69232 -9.035582 1.032162,-8.918256 -8.860914 1.638116,-8.065199 -8.303558 2.374432,-7.735189 -7.726571 2.995738,-8.250102 -7.456724 3.58337,-8.504129 -5.891936 2.387019,-8.153296 -5.703124 3.468977,-7.876948 -5.609117 4.054395,-7.580661 -5.447878 4.416439,-9.086843 -5.421447 2.46489,-8.667341 -6.702526 3.545834,-8.758389 -7.822472 3.470687,-8.930027 -7.895635 3.292779,-9.628399 -5.58572 2.65529,-9.274836 -6.892387 3.40539,-9.297873 -7.772279 3.094196,-9.421 -7.699272 2.859223,-10.15801 -5.998874 2.960886,-9.875841 -7.014055 3.36818,-9.74897 -7.722154 3.28193,-9.763863 -7.686824 3.226389,3.410, 14
-2.473152 -8.324675 -1.321755,-3.090839 -7.933704 -0.9294155,-3.620283 -6.993309 -0.7513237,-4.01102 -6.216098 -0.5148358,-4.418859 -5.722269 -0.2631876,-3.517248 -5.563452 -1.039184,-3.697445 -4.402886 -0.6337721,-3.745708 -3.683449 -0.3174356,-3.73961 -3.017989 -0.04660141,-3.115225 -5.482548 -1.004247,-3.056633 -4.567348 -0.2851149,-3.056633 -4.567348 -0.2851149,-2.996393 -6.242763 0.1356786,-2.718884 -5.577161 -0.8951505,-2.63098 -4.913313 -0.2530439,-2.688294 -5.855812 -0.1083039,-2.773867 -6.560567 -0.1733259,-2.339352 -5.83275 -0.7598923,-2.266132 -5.26124 -0.2835276,-2.354479 -5.886194 -0.1660568,-2.462088 -6.424555 -0.215183,-9.794021 -9.071556 0.8773711,-8.978191 -8.915449 1.483588,-8.100945 -8.357946 2.210911,-7.765635 -7.800294 2.831586,-8.279809 -7.607803 3.39261,-8.519475 -5.993248 2.249096,-8.160161 -5.830303 3.341275,-7.908489 -5.690547 3.897797,-7.638929 -5.429094 4.221732,-9.100667 -5.54076 2.356729,-8.676161 -6.715482 3.486048,-8.802086 -7.882244 3.421581,-8.989199 -7.992573 3.246297,-9.640288 -5.69658 2.584936,-9.282701 -6.841224 3.419871,-9.325736 -7.740345 3.109939,-9.450852 -7.71993 2.864037,-10.19145 -6.097812 2.909557,-9.919745 -6.934046 3.380259,-9.802406 -7.669759 3.331779,-9.811867 -7.710187 3.279199,3.510, 14
-2.482263 -8.36661 -1.288596,-3.094933 -7.952466 -0.9099681,-3.616745 -7.005229 -0.7320673,-4.005205 -6.232107 -0.4896612,-4.411139 -5.741122 -0.2325343,-3.509452 -5.581954 -1.030376,-3.694 -4.419272 -0.6184601,-3.741821 -3.701257 -0.304988,-3.731745 -3.037627 -0.04101336,-3.109062 -5.510202 -0.9814938,-3.046957 -4.610386 -0.2466409,-3.046957 -4.610386 -0.2466409,-2.990239 -6.304489 0.1526089,-2.715846 -5.615268 -0.8581849,-2.622589 -4.948355 -0.214725,-2.680017 -5.894062 -0.07533789,-2.763475 -6.598106 -0.1495308,-2.338255 -5.885209 -0.709956,-2.25774 -5.299914 -0.2438077,-2.343936 -5.919595 -0.1283255,-2.446494 -6.455812 -0.180959,-9.754043 -9.161455 0.6064047,-8.965152 -8.9063 1.230568,-8.130439 -8.319473 1.919596,-7.837059 -7.779691 2.515872,-8.358377 -7.615039 3.063012,-8.562212 -6.050411 1.942293,-8.251404 -5.817789 3.033847,-8.01678 -5.675903 3.670259,-7.748814 -5.523303 4.076378,-9.146905 -5.693138 2.069446,-8.810315 -6.5751 3.329166,-8.879139 -7.744751 3.501667,-8.98183 -8.146563 3.472536,-9.710703 -5.868448 2.30601,-9.464485 -6.60753 3.289317,-9.446207 -7.47817 3.145243,-9.470335 -7.719141 2.946028,-10.2871 -6.301153 2.611546,-10.10347 -6.776584 3.308655,-9.952124 -7.504934 3.407324,-9.870526 -7.784524 3.413796,3.610, 14
-2.4761 -8.416971 -1.233728,-3.088629 -8.000044 -0.848192,-3.61447 -7.050022 -0.6628539,-4.006258 -6.261894 -0.4231621,-4.42083 -5.766849 -0.1579373,-3.506176 -5.625158 -0.9741313,-3.68935 -4.474054 -0.5744881,-3.741955 -3.747569 -0.2504883,-3.740408 -3.072801 0.03084481,-3.106176 -5.545036 -0.9276445,-3.052796 -4.606307 -0.2070113,-3.052796 -4.606307 -0.2070113,-2.987316 -6.273147 0.2190719,-2.714166 -5.641057 -0.8046265,-2.622358 -4.971717 -0.1654749,-2.675059 -5.909898 -0.02049959,-2.758115 -6.62015 -0.0890162,-2.334796 -5.901349 -0.6562692,-2.260252 -5.311412 -0.1856422,-2.345901 -5.931348 -0.07632351,-2.44879 -6.474956 -0.1291091,-9.778268 -9.173792 0.7915471,-8.989984 -8.92889 1.446344,-8.166922 -8.321907 2.170055,-7.894679 -7.796613 2.781606,-8.448256 -7.710025 3.341117,-8.653105 -6.03613 2.255012,-8.366884 -5.814096 3.373291,-8.133314 -5.696278 3.999246,-7.874548 -5.5755 4.396654,-9.248852 -5.676646 2.351784,-8.905447 -6.632025 3.594665,-8.948163 -7.807804 3.713536,-9.049147 -8.230494 3.661792,-9.81275 -5.874984 2.561363,-9.549814 -6.68715 3.513238,-9.523326 -7.578101 3.323558,-9.558147 -7.855648 3.107979,-10.3859 -6.343044 2.84695,-10.1981 -6.805333 3.499201,-10.03715 -7.526475 3.560442,-9.960487 -7.838029 3.567454,3.710, 14
-2.47098 -8.408562 -1.258436,-3.085037 -7.994958 -0.8621529,-3.616714 -7.052057 -0.6718101,-4.009845 -6.274866 -0.4241511,-4.427686 -5.786064 -0.1515753,-3.513115 -5.635887 -0.9732193,-3.69558 -4.473301 -0.5783471,-3.744787 -3.751977 -0.2677727,-3.740003 -3.08784 0.004466653,-3.110615 -5.547782 -0.9359317,-3.054852 -4.610881 -0.217265,-3.054852 -4.610881 -0.217265,-2.979743 -6.284204 0.2133195,-2.716871 -5.637049 -0.8207918,-2.627117 -4.978952 -0.1876143,-2.671703 -5.911518 -0.03121936,-2.749666 -6.626497 -0.09350741,-2.335476 -5.889413 -0.6814054,-2.251587 -5.306401 -0.2119298,-2.326855 -5.924179 -0.09809721,-2.42523 -6.474119 -0.1482418,-9.85245 -9.191595 0.8871336,-9.067896 -8.968086 1.548742,-8.213482 -8.367064 2.27224,-7.938183 -7.804643 2.866378,-8.513031 -7.690992 3.397774,-8.703112 -6.055788 2.328279,-8.445457 -5.807212 3.422092,-8.227227 -5.704303 4.013301,-7.99779 -5.601245 4.386473,-9.295091 -5.643764 2.390145,-8.943241 -6.742845 3.571084,-9.009633 -7.931604 3.605431,-9.153719 -8.305386 3.507355,-9.850055 -5.816677 2.573497,-9.568856 -6.78018 3.440566,-9.55897 -7.68313 3.187577,-9.624042 -7.910676 2.963906,-10.41655 -6.249842 2.850063,-10.20494 -6.854271 3.387357,-10.05998 -7.591417 3.389336,-10.01483 -7.843428 3.376726,3.810, 14
-2.464267 -8.434219 -1.298853,-3.069779 -8.030773 -0.8992662,-3.601438 -7.082672 -0.708971,-3.999308 -6.294226 -0.4672078,-4.422823 -5.807802 -0.212092,-3.495814 -5.669652 -0.9940906,-3.685555 -4.505031 -0.5824988,-3.732068 -3.771018 -0.2612092,-3.723055 -3.091699 0.02158773,-3.091678 -5.585932 -0.9484823,-3.039528 -4.628387 -0.2180353,-3.039528 -4.628387 -0.2180353,-2.966024 -6.260213 0.2218561,-2.697244 -5.685068 -0.8288243,-2.596919 -5.022909 -0.1634325,-2.642062 -5.954933 -0.004787803,-2.731592 -6.679165 -0.06574178,-2.313535 -5.949755 -0.6845104,-2.227022 -5.362203 -0.1921579,-2.309704 -5.978084 -0.07010102,-2.418699 -6.52588 -0.1098176,-9.914658 -9.195042 1.04359,-9.129126 -8.976816 1.667629,-8.297931 -8.355206 2.364048,-8.025867 -7.758484 2.950321,-8.587618 -7.588887 3.48095,-8.767895 -6.018426 2.42567,-8.477801 -5.780115 3.499479,-8.253849 -5.606403 4.096489,-8.016357 -5.40056 4.469563,-9.352714 -5.578945 2.498006,-8.981352 -6.730571 3.5998,-9.064026 -7.92471 3.609737,-9.219124 -8.199879 3.494164,-9.890704 -5.738719 2.685598,-9.594094 -6.854217 3.477487,-9.603684 -7.798972 3.21828,-9.695909 -7.93241 3.007486,-10.43348 -6.164039 2.967429,-10.21835 -6.944668 3.423976,-10.07629 -7.699867 3.38473,-10.04466 -7.836654 3.346825,3.910, 14
-2.451397 -8.454773 -1.260875,-3.053 -8.047506 -0.845544,-3.587674 -7.10164 -0.6326944,-3.984641 -6.32409 -0.3744321,-4.397661 -5.833929 -0.1037242,-3.473202 -5.674119 -0.8961185,-3.656248 -4.506076 -0.4711282,-3.700779 -3.775696 -0.143024,-3.692959 -3.105896 0.1438365,-3.063753 -5.59959 -0.8535015,-3.004751 -4.67324 -0.1141407,-3.004751 -4.67324 -0.1141407,-2.944048 -6.302314 0.3335111,-2.664265 -5.71153 -0.7398456,-2.556459 -5.095552 -0.06378067,-2.605382 -6.019941 0.0925858,-2.700953 -6.729902 0.03087759,-2.278336 -5.987323 -0.6006028,-2.183459 -5.42171 -0.09664154,-2.263965 -6.040241 0.0234344,-2.377384 -6.582114 -0.01759028,-9.902507 -9.169159 0.722792,-9.107078 -8.911997 1.301392,-8.317058 -8.294205 1.972148,-8.068019 -7.702157 2.571843,-8.59948 -7.518791 3.101015,-8.761647 -6.015117 2.046267,-8.455118 -5.77421 3.128801,-8.234463 -5.592119 3.73286,-7.99876 -5.338719 4.106777,-9.336112 -5.640822 2.145329,-8.944272 -6.602726 3.279353,-9.034838 -7.721401 3.330118,-9.195434 -7.926195 3.217572,-9.850698 -5.826694 2.35072,-9.551099 -6.78236 3.1937,-9.565063 -7.66098 2.946407,-9.666171 -7.728685 2.710144,-10.37275 -6.276817 2.645799,-10.16136 -6.948268 3.163719,-10.01222 -7.639657 3.152756,-9.978724 -7.752326 3.083574,4.010, 14
-2.389177 -8.594872 -1.176792,-2.99029 -8.175238 -0.7209463,-3.522585 -7.206584 -0.4916679,-3.909925 -6.410091 -0.2320528,-4.320022 -5.909457 0.04233754,-3.397686 -5.786314 -0.7522169,-3.569035 -4.598482 -0.3204861,-3.61717 -3.859481 0.01822758,-3.616854 -3.187263 0.3179107,-2.985994 -5.718362 -0.7244211,-2.916446 -4.794939 0.03137815,-2.916446 -4.794939 0.03137815,-2.88415 -6.453222 0.4670547,-2.582071 -5.841568 -0.6250899,-2.471286 -5.189543 0.06191909,-2.531137 -6.131246 0.2119079,-2.639252 -6.834527 0.1436033,-2.194243 -6.131303 -0.4975937,-2.0917 -5.562017 0.01340914,-2.1773 -6.197664 0.1295625,-2.298709 -6.730352 0.08078504,-9.855209 -9.050632 -0.01826638,-9.131046 -8.923134 0.4791331,-8.327089 -8.261044 1.058028,-8.062991 -7.575012 1.550859,-8.575912 -7.281721 1.98746,-8.761622 -6.074456 1.051736,-8.442223 -5.735048 1.961868,-8.197263 -5.493152 2.472777,-7.922178 -5.18939 2.776746,-9.289136 -5.648077 1.126896,-8.896772 -6.663023 2.068287,-9.016449 -7.717521 2.049001,-9.195352 -7.839055 1.900309,-9.774633 -5.78827 1.319426,-9.444675 -6.848434 1.966706,-9.50834 -7.725728 1.732137,-9.638775 -7.749558 1.548656,-10.26748 -6.142936 1.607248,-10.01321 -6.93575 1.946464,-9.927352 -7.644907 1.887684,-9.961677 -7.698183 1.830659,4.110, 14
-2.365961 -8.760679 -1.170974,-2.955954 -8.351942 -0.7330562,-3.456561 -7.437583 -0.4781071,-3.777888 -6.64155 -0.1759083,-4.154587 -6.041816 0.1778723,-3.442966 -5.990366 -0.8135192,-3.677433 -4.894374 -0.3850932,-3.74136 -4.190048 -0.04335213,-3.741446 -3.56182 0.2428566,-3.022122 -5.88961 -0.756254,-2.994754 -5.068354 0.001313567,-2.994754 -5.068354 0.001313567,-2.926096 -6.772107 0.4286716,-2.610438 -6.000515 -0.6265703,-2.529231 -5.403669 0.05632436,-2.56072 -6.340725 0.2410104,-2.614129 -7.040174 0.1993666,-2.211495 -6.277873 -0.4776307,-2.127312 -5.704828 0.05409193,-2.209796 -6.335926 0.1973687,-2.315422 -6.866819 0.1668853,-9.819502 -8.954029 -1.053747,-9.177794 -8.779793 -0.4900518,-8.422202 -8.093298 0.06839287,-8.202925 -7.406391 0.5312911,-8.708246 -7.140267 0.9189159,-8.847566 -6.173357 -0.0751707,-8.571306 -5.724611 0.8508099,-8.34169 -5.420919 1.360158,-8.077746 -5.031943 1.627798,-9.351743 -5.817043 -0.01133621,-9.011868 -6.496591 1.001586,-9.123631 -7.5858 1.024581,-9.291345 -7.792145 0.8566341,-9.828362 -5.914342 0.1862156,-9.529186 -6.628595 0.9325057,-9.582701 -7.578815 0.718199,-9.707282 -7.72266 0.4859881,-10.32754 -6.200243 0.472129,-10.09428 -6.614952 0.8760712,-10.00019 -7.364318 0.8195699,-10.0273 -7.544722 0.7274081,4.210, 14
-2.357778 -8.822931 -1.297104,-2.934804 -8.467247 -0.8441709,-3.414765 -7.596683 -0.5858555,-3.672318 -6.77659 -0.2929541,-4.012413 -6.105819 0.03103936,-3.45032 -6.12855 -0.8933681,-3.714613 -5.077906 -0.4503303,-3.802514 -4.405315 -0.1012439,-3.825487 -3.795467 0.1951646,-3.029669 -5.997854 -0.8502144,-3.029213 -5.1914 -0.04707706,-3.029213 -5.1914 -0.04707706,-2.934169 -6.989364 0.2792758,-2.615605 -6.091533 -0.7327057,-2.555223 -5.507655 -0.004264355,-2.583718 -6.523012 0.1099057,-2.628223 -7.182209 0.01315105,-2.222516 -6.355913 -0.6026906,-2.147467 -5.824005 -0.04959846,-2.234326 -6.51482 0.05391288,-2.342673 -7.013218 -0.008768797,-9.895196 -8.893175 -1.456266,-9.260807 -8.769415 -0.9261926,-8.497211 -8.057415 -0.4121753,-8.271029 -7.329813 0.02566969,-8.763865 -7.030757 0.3739891,-8.89371 -6.193965 -0.6219946,-8.620687 -5.614397 0.244171,-8.406992 -5.259967 0.7405375,-8.167316 -4.854428 1.005935,-9.382714 -5.846363 -0.5367557,-9.068789 -6.387342 0.4535035,-9.177984 -7.465122 0.5403117,-9.335013 -7.75541 0.4002039,-9.857233 -5.927312 -0.3092837,-9.579353 -6.516811 0.4308618,-9.636895 -7.47788 0.2930826,-9.751628 -7.716779 0.08726728,-10.35734 -6.204633 -0.007247806,-10.14175 -6.490688 0.4168402,-10.04637 -7.242869 0.4075018,-10.06264 -7.50156 0.3268273,4.310, 14
-2.308225 -8.97629 -1.496425,-2.849387 -8.691868 -0.8842297,-3.33489 -7.935051 -0.5235482,-3.535927 -7.129938 -0.1758878,-3.802252 -6.407287 0.2360032,-3.405226 -6.453294 -0.7498065,-3.690717 -5.46257 -0.2489492,-3.792465 -4.820859 0.1439314,-3.847057 -4.278554 0.4627904,-2.974486 -6.270536 -0.764398,-2.988478 -5.536563 0.06047213,-2.988478 -5.536563 0.06047213,-2.843805 -7.298017 0.4624084,-2.558112 -6.321287 -0.7204891,-2.504923 -5.927077 0.1008425,-2.468385 -6.914627 0.2938128,-2.481044 -7.600721 0.2543401,-2.157546 -6.525867 -0.6595365,-2.081236 -6.051853 -0.001354575,-2.118608 -6.771723 0.1409799,-2.20416 -7.291709 0.1100065,-9.921099 -8.837919 -2.400711,-9.345923 -8.790775 -1.887955,-8.609769 -8.042936 -1.42707,-8.372172 -7.306434 -1.019107,-8.836367 -7.041002 -0.7201078,-8.989448 -6.269117 -1.78015,-8.740779 -5.542116 -0.9580027,-8.505193 -5.11539 -0.498286,-8.245405 -4.648551 -0.2464886,-9.455534 -6.013338 -1.673259,-9.158825 -6.238162 -0.6521513,-9.2524 -7.361124 -0.6229266,-9.401843 -7.698665 -0.8828759,-9.927202 -6.123034 -1.405011,-9.653911 -6.374849 -0.5837104,-9.69553 -7.405371 -0.7361523,-9.801918 -7.699455 -1.03748,-10.43104 -6.385394 -1.069425,-10.22619 -6.294302 -0.590938,-10.1113 -7.060657 -0.6423061,-10.11389 -7.412248 -0.7932662,4.410, 14
-2.296984 -9.017204 -1.523899,-2.811772 -8.758816 -0.9028036,-3.295899 -7.986059 -0.5681058,-3.482227 -7.185901 -0.2395251,-3.742464 -6.511888 0.156656,-3.400929 -6.568095 -0.6970296,-3.669605 -5.662937 -0.06422246,-3.7507 -5.086429 0.4277183,-3.781038 -4.609836 0.7938868,-2.975509 -6.341659 -0.7259181,-2.953405 -5.79332 0.1365972,-2.953405 -5.79332 0.1365972,-2.773465 -7.617666 0.5263244,-2.546931 -6.369949 -0.6923657,-2.48318 -6.111694 0.1348583,-2.431187 -7.113403 0.2674749,-2.4429 -7.772644 0.2041619,-2.137695 -6.558725 -0.6305965,-2.052693 -6.23577 0.05093908,-2.079262 -6.998939 0.1697841,-2.16728 -7.491857 0.1312935,-9.921816 -8.845541 -2.765396,-9.357067 -8.781052 -2.279936,-8.628418 -8.012571 -1.846304,-8.401045 -7.256593 -1.455707,-8.868788 -7.018565 -1.187519,-9.055444 -6.302728 -2.248325,-8.789132 -5.531879 -1.465337,-8.546986 -5.095361 -1.037624,-8.283843 -4.625773 -0.8050867,-9.5064 -6.098295 -2.133339,-9.18695 -6.176349 -1.109007,-9.281014 -7.315485 -1.114274,-9.436883 -7.724803 -1.423616,-9.965642 -6.224147 -1.850167,-9.661697 -6.325332 -1.003863,-9.707527 -7.382345 -1.183259,-9.827459 -7.741487 -1.522591,-10.46379 -6.490079 -1.509738,-10.23227 -6.259132 -1.009269,-10.11768 -7.036536 -1.073621,-10.13636 -7.451236 -1.242971,4.510,Left Hand Closed 14
-2.257698 -9.098383 -0.5163593,-2.782197 -8.990913 0.1159699,-3.292834 -8.303473 0.5808793,-3.510818 -7.582027 1.033892,-3.811195 -6.918546 1.578144,-3.428392 -6.723491 0.5901829,-3.618563 -6.195329 1.407562,-3.70388 -5.812986 1.9938,-3.740076 -5.522036 2.387748,-3.018427 -6.225303 0.5603645,-2.87293 -6.553974 1.409887,-2.87293 -6.553974 1.409887,-2.702525 -8.277609 1.545199,-2.537048 -6.182296 0.6052958,-2.398025 -6.663532 1.382583,-2.343069 -7.707103 1.298991,-2.390354 -8.194206 1.18789,-2.099228 -6.372785 0.7088436,-1.968838 -6.656553 1.278805,-2.00702 -7.501338 1.242973,-2.132777 -7.879162 1.187403,-10.00145 -8.85206 -2.832496,-9.421373 -8.750286 -2.378016,-8.697577 -7.912967 -2.012165,-8.496468 -7.077791 -1.661674,-8.948334 -6.841571 -1.427013,-9.149549 -6.264567 -2.457058,-8.890807 -5.417257 -1.752024,-8.653766 -4.936928 -1.357127,-8.404976 -4.451213 -1.143931,-9.59543 -6.094021 -2.343701,-9.280905 -5.999065 -1.353536,-9.360139 -7.155255 -1.306135,-9.510942 -7.680604 -1.605121,-10.05199 -6.230445 -2.067159,-9.751912 -6.179386 -1.237089,-9.796035 -7.259017 -1.349682,-9.924316 -7.725837 -1.683438,-10.55026 -6.507442 -1.742291,-10.32153 -6.148118 -1.248776,-10.20393 -6.891086 -1.2737,-10.22576 -7.344051 -1.444213,4.610,Left Hand Closed 14
-2.234996 -9.068333 -0.3984611,-2.783054 -9.041279 0.2953111,-3.309529 -8.41997 0.8166295,-3.522179 -7.721382 1.280118,-3.790481 -7.033309 1.825172,-3.429221 -6.778796 0.8413719,-3.613231 -6.443799 1.67791,-3.727815 -6.085598 2.252912,-3.797386 -5.779319 2.632068,-3.014174 -6.204973 0.7850854,-2.920236 -6.752861 1.624911,-2.920236 -6.752861 1.624911,-2.710633 -8.420919 1.697837,-2.523211 -6.124521 0.8091698,-2.426134 -6.831783 1.550242,-2.374622 -7.842431 1.412415,-2.392044 -8.299923 1.274282,-2.075989 -6.299749 0.8978696,-1.981715 -6.77 1.425084,-2.033426 -7.624612 1.337462,-2.152129 -7.979555 1.258286,-10.05555 -8.872942 -2.893247,-9.458546 -8.76115 -2.451965,-8.721581 -7.916571 -2.108779,-8.525142 -7.041917 -1.785488,-8.996054 -6.795183 -1.5906,-9.189054 -6.308459 -2.551852,-8.928357 -5.420722 -1.870544,-8.698008 -4.90364 -1.486632,-8.464938 -4.384214 -1.280751,-9.635918 -6.128089 -2.443472,-9.322714 -5.999603 -1.48529,-9.411739 -7.147035 -1.458631,-9.573692 -7.685261 -1.773049,-10.09145 -6.247134 -2.170883,-9.796969 -6.141004 -1.364775,-9.842367 -7.214489 -1.483332,-9.970112 -7.688147 -1.821982,-10.59103 -6.507625 -1.852452,-10.37988 -6.086607 -1.38305,-10.26338 -6.822663 -1.411158,-10.28164 -7.285846 -1.58058,4.710,Left Hand Closed 14
-2.287468 -8.893978 -0.8698184,-2.851203 -8.869255 -0.1240875,-3.336046 -8.373718 0.4555516,-3.498735 -7.816093 0.9160879,-3.687831 -7.170359 1.463025,-3.433102 -6.802344 0.6728491,-3.567034 -6.708784 1.465938,-3.717779 -6.349029 1.945178,-3.858641 -5.910234 2.29413,-2.985575 -6.27989 0.5601534,-2.903948 -6.879154 1.310572,-2.903948 -6.879154 1.310572,-2.72497 -8.423096 1.220115,-2.468372 -6.182567 0.5386013,-2.394822 -6.86177 1.249706,-2.385094 -7.888764 0.9615339,-2.408767 -8.35965 0.7402368,-1.997895 -6.35481 0.5723698,-1.982929 -6.7607 1.06348,-2.074028 -7.612581 0.8539532,-2.177457 -7.989524 0.6702287,-10.0957 -8.875565 -2.699124,-9.50429 -8.742811 -2.236652,-8.778848 -7.863269 -1.870757,-8.597268 -6.988809 -1.52387,-9.055113 -6.735652 -1.299059,-9.254898 -6.236059 -2.310627,-8.998664 -5.363518 -1.619448,-8.773443 -4.861598 -1.237522,-8.541935 -4.345584 -1.026631,-9.705145 -6.078416 -2.197974,-9.378742 -5.939645 -1.203333,-9.450086 -7.111352 -1.145902,-9.605655 -7.670336 -1.44675,-10.1628 -6.212945 -1.921927,-9.854997 -6.131802 -1.091957,-9.891591 -7.241516 -1.199396,-10.02467 -7.744232 -1.532249,-10.66853 -6.48307 -1.598255,-10.43836 -6.074942 -1.090932,-10.31365 -6.838637 -1.106322,-10.33781 -7.326324 -1.271827,4.810,Left Hand Closed 14
-2.305175 -8.748472 -1.599753,-2.920069 -8.651037 -0.8773086,-3.380953 -8.214502 -0.2383683,-3.51844 -7.689001 0.2210354,-3.67417 -7.024581 0.6976802,-3.409646 -7.140913 0.4172554,-3.536928 -6.831874 1.265235,-3.716514 -6.351276 1.698554,-3.897282 -5.84363 2.036994,-2.920208 -6.698852 0.2852043,-2.898245 -6.820825 0.9467714,-2.898245 -6.820825 0.9467714,-2.750179 -8.138325 0.5068688,-2.385963 -6.550948 0.219967,-2.372961 -6.707435 0.8893189,-2.406258 -7.654345 0.3405874,-2.446935 -8.129705 0.004106998,-1.915555 -6.59802 0.2139186,-1.970985 -6.531425 0.6947081,-2.091947 -7.279285 0.3708801,-2.173477 -7.694916 0.1490017,-10.15028 -8.893213 -2.687331,-9.54668 -8.724508 -2.229903,-8.828073 -7.839767 -1.857981,-8.657843 -6.973588 -1.498527,-9.113571 -6.743847 -1.249628,-9.303442 -6.238491 -2.309216,-9.06031 -5.344663 -1.607239,-8.844807 -4.822376 -1.205384,-8.625311 -4.280985 -0.9949211,-9.75646 -6.09148 -2.195163,-9.455912 -5.950626 -1.182074,-9.532739 -7.137178 -1.125814,-9.681752 -7.683652 -1.440163,-10.2183 -6.228503 -1.918402,-9.933603 -6.128139 -1.069555,-9.973491 -7.241344 -1.168579,-10.09668 -7.733092 -1.504308,-10.72469 -6.492143 -1.592753,-10.52548 -6.060705 -1.096346,-10.40964 -6.811803 -1.109375,-10.43408 -7.281293 -1.272369,4.910,Left Hand Closed 14
-2.338604 -8.750925 -1.673451,-2.902639 -8.707329 -0.87013,-3.354074 -8.252327 -0.2077354,-3.514046 -7.692042 0.2533913,-3.744617 -7.087912 0.727748,-3.430735 -7.287429 0.4451934,-3.52635 -6.924095 1.266484,-3.685886 -6.365414 1.683151,-3.847081 -5.743824 2.029805,-2.950991 -6.803333 0.2872964,-2.864021 -6.869082 0.9927162,-2.864021 -6.869082 0.9927162,-2.763049 -7.997582 0.6504964,-2.4147 -6.608236 0.1873778,-2.326579 -6.704617 0.8492285,-2.376338 -7.608712 0.2987832,-2.435698 -8.023294 -0.03452623,-1.935422 -6.63017 0.1640431,-1.938396 -6.559185 0.6454586,-2.057023 -7.294792 0.3427304,-2.1421 -7.678892 0.1454538,-10.1711 -8.899199 -2.350854,-9.5644 -8.749533 -1.877943,-8.851295 -7.86796 -1.487144,-8.672059 -6.991164 -1.118462,-9.123142 -6.736388 -0.8703185,-9.298794 -6.176593 -1.978583,-9.075068 -5.360485 -1.255926,-8.871175 -4.85707 -0.8381717,-8.653412 -4.298362 -0.6136938,-9.760408 -5.999952 -1.866691,-9.468092 -5.992414 -0.858979,-9.54318 -7.180524 -0.7991579,-9.680573 -7.632316 -1.10218,-10.22786 -6.130383 -1.583741,-9.939686 -6.144318 -0.7345308,-9.983251 -7.267082 -0.8385205,-10.10242 -7.689315 -1.164928,-10.74327 -6.402402 -1.243764,-10.53221 -6.096857 -0.7562419,-10.42085 -6.875461 -0.7757822,-10.44811 -7.311996 -0.9409232,5.010,Left Hand Closed 14
-2.320708 -8.696281 -2.106944,-2.855853 -8.703722 -1.220097,-3.225664 -8.348381 -0.4580457,-3.364824 -7.783401 0.06435323,-3.54865 -7.18846 0.5057735,-3.39782 -7.631349 0.180047,-3.384907 -7.066786 0.8853543,-3.536137 -6.52417 1.119571,-3.693127 -5.965732 1.378745,-2.977078 -7.158399 0.02155614,-2.93152 -6.725446 0.9450781,-2.93152 -6.725446 0.9450781,-3.225297 -6.887826 1.141613,-2.51142 -6.814991 -0.1241021,-2.336613 -6.576028 0.5553319,-2.387047 -7.472177 -0.07084799,-2.464447 -7.977777 -0.4906448,-2.028327 -6.711354 -0.1784123,-1.929706 -6.704017 0.400933,-2.053364 -7.444854 0.1540697,-2.17556 -7.89388 -0.04407477,-10.21772 -8.884722 -2.607427,-9.605261 -8.736147 -2.159602,-8.878006 -7.863494 -1.792534,-8.69654 -6.997396 -1.436691,-9.151878 -6.74294 -1.188106,-9.322475 -6.230511 -2.260105,-9.091306 -5.359767 -1.562538,-8.886755 -4.834781 -1.144841,-8.678155 -4.29247 -0.9159216,-9.777958 -6.062368 -2.138654,-9.496897 -5.972334 -1.14156,-9.559679 -7.130328 -1.039984,-9.694429 -7.657297 -1.314976,-10.24306 -6.187255 -1.856394,-9.976355 -6.1546 -1.023607,-10.0121 -7.25464 -1.094455,-10.12447 -7.743658 -1.399269,-10.75871 -6.44355 -1.524942,-10.56444 -6.082103 -1.020412,-10.44752 -6.855302 -1.016359,-10.46609 -7.342935 -1.169182,5.110,Left Hand Closed 14
-2.269122 -8.580772 -2.567312,-2.847246 -8.720039 -1.675805,-3.247537 -8.388029 -0.9053408,-3.405149 -7.826966 -0.3602464,-3.565895 -7.243497 0.164902,-3.45649 -7.636223 -0.4388859,-3.514637 -7.177967 0.3541105,-3.65777 -6.658977 0.6491103,-3.817179 -6.07514 0.9195232,-3.022553 -7.148155 -0.5645635,-3.045135 -6.770864 0.4663026,-3.045135 -6.770864 0.4663026,-3.458425 -6.524454 0.8942838,-2.524874 -6.811994 -0.6544286,-2.407345 -6.649886 0.1696377,-2.470027 -7.533689 -0.3501174,-2.571823 -7.99933 -0.8054082,-1.991604 -6.762864 -0.682722,-1.908991 -6.913788 -0.01351023,-2.037195 -7.659835 -0.2344794,-2.194436 -8.053623 -0.4524667,-10.20312 -8.940922 -2.64159,-9.595078 -8.757217 -2.182604,-8.879593 -7.899789 -1.793183,-8.684814 -7.051226 -1.415737,-9.125922 -6.797024 -1.153733,-9.317092 -6.280292 -2.243346,-9.08304 -5.389493 -1.517839,-8.868574 -4.871152 -1.09727,-8.653189 -4.335536 -0.8721815,-9.773957 -6.135182 -2.125768,-9.490024 -5.989852 -1.100184,-9.541814 -7.143364 -0.9959197,-9.673682 -7.651953 -1.276701,-10.24022 -6.269014 -1.844566,-9.97672 -6.176043 -0.99581,-9.997496 -7.265347 -1.077103,-10.10651 -7.735642 -1.397156,-10.7574 -6.540204 -1.518978,-10.57791 -6.104692 -1.014038,-10.44771 -6.853199 -1.018168,-10.45691 -7.331245 -1.180823,5.210,Left Hand Closed 14
-2.285006 -8.570871 -2.799797,-2.79462 -8.798214 -1.866937,-3.159858 -8.508137 -1.100371,-3.271973 -7.887734 -0.5940874,-3.419975 -7.25768 -0.08564973,-3.511747 -7.826417 -0.7462099,-3.484854 -7.316357 0.05537009,-3.608147 -6.855514 0.3715522,-3.799665 -6.326297 0.6480179,-3.178112 -7.219022 -0.8845017,-3.174505 -6.883697 0.19015,-3.174505 -6.883697 0.19015,-3.655354 -6.165462 0.9733846,-2.76024 -6.71449 -1.003595,-2.506651 -6.704612 -0.1397607,-2.469865 -7.694179 -0.5665994,-2.568966 -8.199005 -0.9847951,-2.257002 -6.570411 -1.065237,-2.025307 -6.892147 -0.4183302,-2.064981 -7.740657 -0.6646678,-2.227132 -8.189667 -0.9430183,-10.18625 -8.91646 -2.212783,-9.574723 -8.723679 -1.745288,-8.862785 -7.850596 -1.352499,-8.686829 -6.999486 -0.9751693,-9.140501 -6.74607 -0.7028731,-9.310121 -6.150239 -1.826518,-9.082156 -5.374749 -1.093576,-8.876268 -4.88406 -0.6425159,-8.659334 -4.361236 -0.390736,-9.775864 -5.980803 -1.705103,-9.48485 -5.998985 -0.6994889,-9.538902 -7.154781 -0.5746931,-9.665922 -7.634429 -0.8211578,-10.24688 -6.124682 -1.422301,-9.96514 -6.191741 -0.5932859,-9.990368 -7.287895 -0.6838506,-10.09759 -7.737779 -0.9871424,-10.76328 -6.413828 -1.081499,-10.55052 -6.14219 -0.578478,-10.42441 -6.926229 -0.5869449,-10.44009 -7.394472 -0.7404214,5.310,Left Hand Closed 14
-2.406302 -8.449587 -4.146613,-2.913358 -8.807724 -3.247567,-3.313289 -8.459324 -2.65637,-3.538122 -7.838293 -2.304879,-3.784019 -7.304215 -1.97888,-3.418055 -7.973133 -2.235698,-3.54352 -7.257759 -1.514894,-3.765061 -6.660486 -1.225115,-4.005804 -6.091754 -0.9547558,-3.06407 -7.45893 -2.386765,-3.081892 -6.776832 -1.452581,-3.081892 -6.776832 -1.452581,-3.529022 -6.376071 -0.9442675,-2.65879 -7.033283 -2.488154,-2.512467 -6.674783 -1.666861,-2.459368 -7.604267 -1.949145,-2.49802 -8.275599 -2.296072,-2.212096 -6.886569 -2.524699,-2.059896 -6.861495 -1.809919,-2.059395 -7.597137 -1.91134,-2.144865 -8.140429 -2.088593,-10.15976 -8.913452 -2.382683,-9.557306 -8.734432 -1.913282,-8.85311 -7.84165 -1.520554,-8.675506 -6.977246 -1.145747,-9.129881 -6.734214 -0.8939899,-9.288442 -6.182905 -1.993768,-9.066172 -5.343116 -1.237917,-8.856432 -4.846065 -0.8071699,-8.641913 -4.283731 -0.5820477,-9.75512 -6.027363 -1.871235,-9.465732 -5.969862 -0.8454137,-9.521389 -7.154845 -0.7817066,-9.655717 -7.584674 -1.092252,-10.23012 -6.168396 -1.578025,-9.950258 -6.144635 -0.7183791,-9.973013 -7.277454 -0.8373652,-10.08727 -7.69812 -1.178137,-10.75634 -6.454826 -1.231147,-10.5571 -6.111495 -0.7311285,-10.42292 -6.910047 -0.7600436,-10.43681 -7.365003 -0.9461604,5.410,Left Hand Closed 14
-2.536239 -8.327072 -3.753726,-2.95747 -8.641254 -2.781119,-3.392353 -8.331085 -2.115135,-3.605772 -7.730939 -1.706537,-3.817656 -7.223998 -1.337153,-3.476914 -7.950878 -1.572967,-3.595148 -7.2751 -0.737361,-3.80245 -6.591323 -0.3494132,-4.046944 -5.890508 -0.01708221,-3.085192 -7.443664 -1.774136,-3.005511 -6.763013 -0.7913666,-3.005511 -6.763013 -0.7913666,-3.250002 -6.612186 -0.4385905,-2.636576 -7.041467 -1.919855,-2.459369 -6.59585 -1.109815,-2.431816 -7.433592 -1.496294,-2.514601 -8.007902 -1.88991,-2.164532 -6.894577 -1.997312,-1.997902 -6.850446 -1.298444,-2.034968 -7.533943 -1.457234,-2.154659 -8.009399 -1.643683,-10.18408 -8.901365 -2.382646,-9.564148 -8.725765 -1.9141,-8.853762 -7.852515 -1.528665,-8.670532 -6.985174 -1.15822,-9.123741 -6.731433 -0.9122573,-9.288109 -6.189585 -1.998848,-9.066783 -5.348966 -1.258535,-8.85879 -4.844601 -0.8337266,-8.642688 -4.277624 -0.6089268,-9.748555 -6.017462 -1.884368,-9.451066 -6.017416 -0.8646511,-9.519454 -7.183759 -0.781068,-9.660987 -7.608026 -1.077923,-10.21609 -6.141921 -1.599264,-9.930016 -6.171867 -0.7501432,-9.968361 -7.283138 -0.8485473,-10.08484 -7.704559 -1.177174,-10.73857 -6.410945 -1.258048,-10.53626 -6.101779 -0.7633871,-10.40858 -6.878776 -0.7737188,-10.41985 -7.328719 -0.946355,5.510,Left Hand Closed 14
-2.53942 -8.31074 -4.040153,-3.07505 -8.643017 -3.092818,-3.482691 -8.246042 -2.481645,-3.700584 -7.601009 -2.117163,-3.937386 -7.162288 -1.760477,-3.523527 -7.603271 -2.155354,-3.655855 -6.919809 -1.40487,-3.879063 -6.347032 -1.019933,-4.130597 -5.786146 -0.6854832,-3.128012 -7.135269 -2.333319,-3.062878 -6.499877 -1.428967,-3.062878 -6.499877 -1.428967,-3.273773 -6.649934 -0.915931,-2.696037 -6.824468 -2.453222,-2.514332 -6.5593 -1.615153,-2.452822 -7.531636 -1.764703,-2.494441 -8.228506 -2.042472,-2.243255 -6.794831 -2.509893,-2.04761 -6.839113 -1.779861,-2.036493 -7.611145 -1.856125,-2.111486 -8.163836 -2.028038,-10.19232 -8.920605 -2.285142,-9.583286 -8.739616 -1.829977,-8.869203 -7.86598 -1.440416,-8.683474 -6.99447 -1.068091,-9.136333 -6.742511 -0.8133248,-9.313978 -6.181685 -1.916301,-9.077536 -5.354806 -1.201195,-8.867423 -4.841766 -0.7828465,-8.648542 -4.279381 -0.5490669,-9.772476 -6.004291 -1.796246,-9.476036 -6.015029 -0.7856178,-9.548189 -7.188417 -0.713986,-9.690488 -7.643896 -1.014066,-10.23861 -6.133113 -1.508353,-9.956233 -6.162399 -0.673,-9.995869 -7.268978 -0.7887008,-10.11417 -7.700992 -1.123158,-10.75372 -6.403173 -1.164426,-10.54647 -6.107374 -0.6778286,-10.43581 -6.886747 -0.7062595,-10.46646 -7.33641 -0.8792607,5.610,Left Hand Closed 14
-2.387716 -8.937504 0.6252215,-3.061115 -8.892689 1.25966,-3.619831 -8.211433 1.8085,-3.873384 -7.56793 2.327084,-4.14724 -6.965187 2.955724,-3.680479 -6.480033 2.025328,-3.974245 -5.944837 2.881327,-4.172329 -5.640865 3.426182,-4.294931 -5.495677 3.79529,-3.212708 -5.857664 2.037954,-3.09789 -6.799986 2.882452,-3.09789 -6.799986 2.882452,-2.876426 -8.562372 2.888391,-2.678767 -5.803165 2.110299,-2.579277 -6.855876 2.75201,-2.528837 -7.852619 2.558721,-2.522759 -8.330173 2.455578,-2.211915 -5.965335 2.269266,-2.120074 -6.666538 2.702037,-2.170401 -7.559845 2.606629,-2.269942 -7.974761 2.545746,-10.22183 -8.975124 -2.459544,-9.601881 -8.808516 -2.002537,-8.892422 -7.933838 -1.620644,-8.705361 -7.060943 -1.252154,-9.139495 -6.782373 -0.9910941,-9.309573 -6.275114 -2.134743,-9.08549 -5.390493 -1.449919,-8.880229 -4.856601 -1.034064,-8.663483 -4.30795 -0.79585,-9.768085 -6.108594 -2.009733,-9.488623 -5.996872 -1.005802,-9.548633 -7.163239 -0.8846033,-9.6837 -7.65933 -1.147052,-10.23933 -6.229881 -1.72382,-9.968184 -6.17497 -0.8831912,-9.99439 -7.288496 -0.9518435,-10.10657 -7.752374 -1.254757,-10.76447 -6.488243 -1.386013,-10.55716 -6.128215 -0.8751807,-10.43799 -6.912416 -0.877292,-10.46388 -7.385305 -1.03236,5.710, 14
-2.432673 -8.723808 0.09722841,-3.08268 -8.676292 0.692279,-3.668459 -8.141348 1.323556,-3.898798 -7.529306 1.853545,-4.120823 -6.852479 2.397318,-3.716311 -6.589015 1.947801,-3.90303 -6.275339 2.875474,-4.093355 -5.892845 3.377154,-4.224422 -5.559843 3.661885,-3.211914 -6.036987 1.915363,-3.074497 -6.676237 2.70371,-3.074497 -6.676237 2.70371,-2.984279 -8.151249 2.265121,-2.638157 -5.997278 1.928781,-2.521678 -6.687791 2.608257,-2.584742 -7.652112 2.103882,-2.641624 -8.030268 1.758837,-2.149615 -6.172946 2.018832,-2.098964 -6.391801 2.463832,-2.24066 -7.157399 2.155313,-2.375767 -7.531695 1.910111,-10.17724 -8.984119 -2.353159,-9.568813 -8.798193 -1.899986,-8.866345 -7.925443 -1.510237,-8.699715 -7.059059 -1.142676,-9.156281 -6.805048 -0.8831019,-9.311548 -6.244655 -1.986071,-9.084404 -5.403463 -1.276877,-8.884892 -4.891765 -0.834024,-8.682722 -4.35621 -0.5813699,-9.774623 -6.086578 -1.856367,-9.514703 -5.987909 -0.8559622,-9.571454 -7.167546 -0.7556506,-9.701899 -7.695618 -1.009289,-10.25217 -6.231824 -1.567921,-10.00723 -6.168699 -0.7244009,-10.02397 -7.279649 -0.8165576,-10.12458 -7.757854 -1.129534,-10.78152 -6.527503 -1.227711,-10.61077 -6.155842 -0.7117672,-10.48571 -6.937871 -0.7187371,-10.49743 -7.420518 -0.8710939,5.810,Left Hand Closed 14
-2.55322 -8.454102 -1.567832,-3.132549 -8.531019 -0.5847438,-3.534273 -8.14395 0.2277495,-3.68766 -7.500284 0.7793974,-3.903766 -6.882613 1.249733,-3.718586 -7.516984 0.9760662,-3.71294 -6.872375 1.777372,-3.893961 -6.258026 2.018785,-4.082735 -5.664922 2.26539,-3.260181 -7.017103 0.8026706,-3.231956 -6.428197 1.824712,-3.231956 -6.428197 1.824712,-3.548172 -6.530991 1.913987,-2.744566 -6.655303 0.6512071,-2.578651 -6.225395 1.453692,-2.650212 -7.048461 0.7802807,-2.748908 -7.547122 0.2944758,-2.199863 -6.531116 0.5845166,-2.114442 -6.366969 1.294709,-2.257032 -7.074955 1.072486,-2.388541 -7.531726 0.894086,-10.21844 -8.989269 -2.163614,-9.607784 -8.833147 -1.68909,-8.899568 -7.949215 -1.282613,-8.726821 -7.081841 -0.8986518,-9.182385 -6.829951 -0.6154438,-9.340334 -6.228629 -1.724391,-9.119084 -5.422225 -0.9817833,-8.922593 -4.907897 -0.5384654,-8.713237 -4.358964 -0.2958821,-9.809509 -6.047554 -1.608412,-9.532038 -6.085773 -0.588743,-9.592375 -7.257257 -0.4882092,-9.720957 -7.734251 -0.7485536,-10.28671 -6.18931 -1.331358,-10.0192 -6.253038 -0.4836763,-10.04627 -7.361207 -0.5644906,-10.1499 -7.808288 -0.8722667,-10.81141 -6.480485 -1.002166,-10.62212 -6.169425 -0.4832219,-10.49649 -6.951903 -0.4808716,-10.50297 -7.421392 -0.6379614,5.910,Left Hand Closed 14
-2.537244 -8.356401 -1.847931,-3.122229 -8.403084 -0.8691146,-3.522861 -8.017733 -0.02389145,-3.689606 -7.401258 0.5637047,-3.883612 -6.854702 1.100031,-3.70648 -7.634565 0.7241397,-3.760666 -7.013297 1.682977,-3.935368 -6.245487 2.102249,-4.16193 -5.3922 2.470446,-3.249906 -7.175635 0.5664697,-3.270842 -6.62644 1.755958,-3.270842 -6.62644 1.755958,-3.698704 -6.101364 2.161667,-2.733346 -6.803611 0.4299893,-2.589524 -6.328479 1.294846,-2.628105 -7.038097 0.5843544,-2.753471 -7.455865 0.03379524,-2.174383 -6.70439 0.3638959,-2.050548 -6.530916 1.066324,-2.169022 -7.150709 0.7550128,-2.327876 -7.542142 0.4875898,-10.22825 -9.024858 -2.499519,-9.626815 -8.867428 -2.014158,-8.923935 -8.005381 -1.589611,-8.744165 -7.161114 -1.1959,-9.204665 -6.906815 -0.9272252,-9.363888 -6.342308 -2.054698,-9.136327 -5.45889 -1.297496,-8.933885 -4.941776 -0.8684301,-8.723039 -4.38344 -0.641207,-9.830219 -6.181624 -1.937365,-9.564857 -6.111915 -0.8761026,-9.630306 -7.300251 -0.8101778,-9.763489 -7.753099 -1.108986,-10.30424 -6.318727 -1.658439,-10.0545 -6.274429 -0.7759967,-10.07273 -7.391812 -0.8882945,-10.17323 -7.811204 -1.2222,-10.82158 -6.593566 -1.328363,-10.64948 -6.229613 -0.813102,-10.52806 -7.018013 -0.8308319,-10.53986 -7.470483 -0.9949605,6.010,Left Hand Closed 14
-2.518554 -8.238026 -2.502699,-3.084937 -8.50952 -1.452737,-3.492889 -8.190441 -0.6794901,-3.599098 -7.532382 -0.1518092,-3.732079 -6.870908 0.3608272,-3.776464 -7.239854 -0.422713,-3.836057 -6.876298 0.4563956,-3.931664 -6.309911 0.8593941,-4.077318 -5.599363 1.179842,-3.31798 -6.666439 -0.6006163,-3.274368 -6.405942 0.5079801,-3.274368 -6.405942 0.5079801,-3.604509 -6.165197 1.15676,-2.781853 -6.285962 -0.7115865,-2.535599 -6.341691 0.2276962,-2.556772 -7.389888 -0.1439271,-2.677541 -7.949319 -0.5608165,-2.204423 -6.27112 -0.7537339,-2.004899 -6.621694 -0.01482534,-2.099358 -7.490013 -0.2088811,-2.262093 -7.956775 -0.4416325,-10.21967 -9.065754 -2.077911,-9.612025 -8.900526 -1.588493,-8.912204 -7.994791 -1.156339,-8.743151 -7.143571 -0.7433271,-9.201917 -6.901726 -0.4410329,-9.340286 -6.272638 -1.613799,-9.136833 -5.481119 -0.806276,-8.947642 -4.965629 -0.3431391,-8.74522 -4.366323 -0.1010815,-9.82134 -6.103431 -1.491743,-9.542066 -6.165653 -0.4326313,-9.605215 -7.360287 -0.3840671,-9.737271 -7.729558 -0.7021055,-10.30552 -6.260215 -1.199904,-10.03444 -6.356735 -0.3291904,-10.06262 -7.489519 -0.476704,-10.17173 -7.839103 -0.8300842,-10.83166 -6.563866 -0.8454907,-10.63903 -6.295543 -0.3422379,-10.51819 -7.103723 -0.3889557,-10.53719 -7.514467 -0.580554,6.110,Left Hand Closed 14
-2.497545 -8.554188 -0.8531971,-3.107992 -8.598747 0.1224943,-3.548635 -8.128689 0.8855871,-3.652768 -7.463462 1.415853,-3.790015 -6.756504 1.91436,-3.774395 -6.804554 1.196404,-3.835535 -6.553327 2.0516,-3.942754 -5.988061 2.439198,-4.055971 -5.252274 2.78896,-3.279932 -6.264509 1.028023,-3.123194 -6.323808 1.955027,-3.123194 -6.323808 1.955027,-3.158054 -7.122868 2.08115,-2.709309 -6.044807 0.9283634,-2.484457 -6.303127 1.779783,-2.531857 -7.332847 1.278798,-2.633105 -7.853263 0.8536468,-2.14956 -6.174476 0.9215816,-2.034536 -6.461818 1.599427,-2.160369 -7.305616 1.324505,-2.295043 -7.72915 1.077377,-10.2281 -9.062428 -2.168032,-9.617361 -8.886745 -1.693885,-8.907397 -7.981426 -1.278008,-8.74131 -7.116729 -0.8821317,-9.214787 -6.875486 -0.5929397,-9.357394 -6.302213 -1.722618,-9.135489 -5.480249 -0.9585224,-8.935739 -4.947792 -0.5053874,-8.728879 -4.370179 -0.2521087,-9.826463 -6.12404 -1.597246,-9.53919 -6.146652 -0.5551699,-9.602656 -7.313859 -0.4729317,-9.74212 -7.750553 -0.7611237,-10.3024 -6.264476 -1.309774,-10.02451 -6.330719 -0.4608378,-10.05421 -7.446688 -0.5778822,-10.16708 -7.860874 -0.9067869,-10.82504 -6.550619 -0.9640974,-10.6205 -6.275264 -0.4614729,-10.50181 -7.078966 -0.4886075,-10.52409 -7.526503 -0.6630079,6.210,Left Hand Closed 14
-2.52986 -8.418915 -1.296621,-3.1576 -8.428576 -0.3587374,-3.530749 -7.972807 0.4405228,-3.608641 -7.282927 1.012137,-3.749002 -6.616237 1.524201,-3.731268 -7.109758 1.115769,-3.807295 -6.543444 1.965928,-3.935009 -5.855276 2.286238,-4.034574 -5.170832 2.56632,-3.246103 -6.657367 0.9434464,-3.013 -6.27775 1.791242,-3.013 -6.27775 1.791242,-3.015083 -7.086604 1.587005,-2.682601 -6.430805 0.8077853,-2.412367 -6.157741 1.546991,-2.469564 -7.017995 0.9223168,-2.605113 -7.522289 0.4982491,-2.155059 -6.459144 0.7606962,-2.008698 -6.322853 1.398545,-2.137135 -7.03989 1.156458,-2.290387 -7.515743 0.9772997,-10.21149 -9.076382 -1.971989,-9.609753 -8.914734 -1.49956,-8.906926 -8.008774 -1.072821,-8.728171 -7.148839 -0.6663111,-9.190844 -6.885137 -0.3633056,-9.347964 -6.263725 -1.533917,-9.125996 -5.469389 -0.7556734,-8.930871 -4.956941 -0.2985171,-8.721474 -4.386665 -0.04873538,-9.821625 -6.077177 -1.410163,-9.526667 -6.151932 -0.3797858,-9.587341 -7.344806 -0.3191875,-9.722901 -7.758031 -0.6193159,-10.30159 -6.22999 -1.118925,-10.01803 -6.340305 -0.2795027,-10.04457 -7.466072 -0.4237008,-10.1538 -7.859134 -0.7640759,-10.8266 -6.539693 -0.7683778,-10.61833 -6.309795 -0.2736582,-10.49182 -7.122484 -0.3270249,-10.509 -7.563312 -0.5160023,6.310,Left Hand Closed 14
-2.396713 -8.42905 -1.380349,-3.005693 -8.481678 -0.3999211,-3.449279 -8.05567 0.3538979,-3.58918 -7.328495 0.8630692,-3.75989 -6.649909 1.333717,-3.704756 -7.078575 0.7349926,-3.726797 -6.658954 1.562676,-3.842257 -5.949121 1.90496,-4.018111 -5.092819 2.266693,-3.277145 -6.440609 0.5597186,-3.18844 -6.262254 1.569998,-3.18844 -6.262254 1.569998,-3.395206 -6.404317 1.869381,-2.761359 -6.017486 0.445136,-2.507586 -6.129402 1.247627,-2.488415 -7.114711 0.6636237,-2.569555 -7.657371 0.1616163,-2.197721 -5.975127 0.409515,-2.037107 -6.23624 1.059129,-2.11189 -7.055514 0.749154,-2.239984 -7.484452 0.4777428,-10.24472 -9.085773 -2.102436,-9.628418 -8.924322 -1.598781,-8.91799 -8.023916 -1.150829,-8.742472 -7.175256 -0.7318606,-9.227978 -6.963865 -0.4490401,-9.356582 -6.311481 -1.639511,-9.133673 -5.503991 -0.8162328,-8.935214 -4.999601 -0.3761702,-8.730056 -4.393878 -0.153273,-9.832264 -6.132545 -1.516525,-9.538038 -6.231324 -0.4120625,-9.612197 -7.428751 -0.3848089,-9.75773 -7.728025 -0.7338654,-10.31211 -6.271427 -1.219965,-10.0401 -6.384174 -0.3218205,-10.0617 -7.515087 -0.4987676,-10.17422 -7.815563 -0.8816679,-10.83456 -6.560607 -0.8578706,-10.64255 -6.354506 -0.3601741,-10.51714 -7.172166 -0.4181488,-10.54252 -7.541452 -0.6238304,6.410, 14
-2.476471 -8.404448 -2.093612,-3.061882 -8.35574 -1.222718,-3.462421 -7.79523 -0.5005409,-3.62294 -7.127925 -0.005219102,-3.904589 -6.651458 0.4454988,-3.549501 -7.236654 0.2253402,-3.644665 -6.465625 1.109172,-3.786249 -5.658632 1.456333,-3.935768 -4.872613 1.762799,-3.074532 -6.851854 0.04621637,-2.916878 -6.143871 0.8394407,-2.916878 -6.143871 0.8394407,-2.853035 -6.94779 0.5363108,-2.540127 -6.615253 -0.08767831,-2.340757 -5.983976 0.6260375,-2.358381 -6.760257 -0.0158149,-2.452166 -7.285489 -0.483143,-2.036651 -6.606826 -0.1499465,-1.955946 -6.160449 0.4662613,-2.054515 -6.771162 0.1725236,-2.173872 -7.22336 -0.03489506,-10.21742 -9.116055 -2.039694,-9.621101 -8.941889 -1.534699,-8.926511 -8.038305 -1.080873,-8.752671 -7.202485 -0.6525818,-9.20695 -6.949989 -0.3442963,-9.376286 -6.307487 -1.560541,-9.160168 -5.519136 -0.7601012,-8.964953 -5.017805 -0.3010761,-8.746874 -4.445302 -0.05168092,-9.850166 -6.142239 -1.434855,-9.572115 -6.208772 -0.3549746,-9.629656 -7.398094 -0.3010205,-9.749916 -7.806345 -0.6049349,-10.33061 -6.310167 -1.136354,-10.06318 -6.379988 -0.2420988,-10.07133 -7.491527 -0.3860611,-10.1614 -7.881147 -0.7360168,-10.85578 -6.638925 -0.7798332,-10.67973 -6.343157 -0.2515984,-10.53535 -7.123544 -0.2920276,-10.52468 -7.566072 -0.4674048,6.510,Left Hand Closed 14
-2.375699 -8.319813 -1.334957,-2.917093 -8.47007 -0.3920579,-3.361336 -7.937131 0.1505152,-3.514183 -7.223007 0.5469807,-3.778068 -6.559816 1.066296,-3.431851 -6.300869 0.1486377,-3.56959 -5.990337 0.8684119,-3.630718 -5.50847 1.290166,-3.672705 -4.963706 1.639301,-3.024475 -5.77091 -0.04949558,-2.850929 -6.178175 0.742479,-2.850929 -6.178175 0.742479,-2.587382 -7.86342 0.8411647,-2.54374 -5.636487 -0.1434481,-2.389045 -6.172508 0.6477146,-2.320795 -7.234919 0.5613616,-2.32168 -7.869393 0.4032744,-2.09678 -5.784495 -0.1772156,-2.007096 -6.111644 0.4175795,-2.046995 -6.98612 0.3328389,-2.143058 -7.471944 0.1901643,-10.24911 -9.135746 -1.968367,-9.647975 -8.960068 -1.446466,-8.943274 -8.064606 -0.9906788,-8.775043 -7.23895 -0.5638853,-9.256251 -7.0123 -0.2532881,-9.381384 -6.33563 -1.454055,-9.159986 -5.571436 -0.6299589,-8.970235 -5.070924 -0.1645695,-8.767052 -4.487482 0.075001,-9.858754 -6.147772 -1.344995,-9.579595 -6.288381 -0.2581493,-9.645962 -7.474355 -0.2002054,-9.778571 -7.848335 -0.5039297,-10.33929 -6.303846 -1.063902,-10.07522 -6.462587 -0.1827109,-10.0961 -7.575339 -0.3284684,-10.19598 -7.932625 -0.6703539,-10.86093 -6.613311 -0.7185714,-10.67453 -6.405864 -0.2041558,-10.54753 -7.20891 -0.2311939,-10.55547 -7.624133 -0.4046738,6.610, 14
-2.249313 -8.411863 -1.908835,-2.780457 -8.606709 -0.9303354,-3.185607 -8.027117 -0.4024223,-3.329612 -7.330511 -0.01327467,-3.63147 -6.694049 0.4603276,-3.248293 -6.483562 -0.4826308,-3.392984 -6.06277 0.3001487,-3.461563 -5.558229 0.7692611,-3.510466 -5.009449 1.122869,-2.83771 -6.002653 -0.6896898,-2.670631 -6.286365 0.2038791,-2.670631 -6.286365 0.2038791,-2.404276 -7.945954 0.2396896,-2.376949 -5.888094 -0.8039017,-2.240308 -6.329664 0.0656054,-2.166142 -7.395854 -0.0002664328,-2.177855 -8.028631 -0.1846892,-1.959279 -6.015218 -0.8389572,-1.878802 -6.320251 -0.1604005,-1.926064 -7.196022 -0.1962515,-2.026208 -7.696571 -0.3164122,-10.23834 -9.139114 -2.019411,-9.64618 -8.95476 -1.512268,-8.948047 -8.054996 -1.074702,-8.767703 -7.2275 -0.6595758,-9.227472 -7.003346 -0.3591158,-9.394641 -6.323036 -1.523202,-9.178691 -5.538768 -0.7054796,-8.985956 -5.041041 -0.2292308,-8.776896 -4.490551 0.02865219,-9.873516 -6.161369 -1.403493,-9.591276 -6.206635 -0.3289412,-9.640265 -7.396291 -0.2441469,-9.768465 -7.832992 -0.5266999,-10.35661 -6.333587 -1.113276,-10.08682 -6.412357 -0.2287568,-10.10382 -7.53577 -0.3431053,-10.20917 -7.942906 -0.6716481,-10.87881 -6.666054 -0.7663473,-10.69058 -6.4056 -0.2325001,-10.56106 -7.202013 -0.2518755,-10.56931 -7.641849 -0.4212584,6.710,Left Hand Closed 14
-2.231505 -8.534008 -1.678003,-2.765138 -8.666578 -0.7030944,-3.158974 -8.071257 -0.1726451,-3.275915 -7.397218 0.2153531,-3.564146 -6.76287 0.6842346,-3.183867 -6.504142 -0.2250286,-3.30727 -6.147066 0.5399191,-3.369543 -5.653522 1.003186,-3.409416 -5.090112 1.358871,-2.762052 -6.051157 -0.4292041,-2.597706 -6.416893 0.478195,-2.597706 -6.416893 0.478195,-2.350832 -8.102438 0.4815526,-2.299998 -5.981798 -0.5394441,-2.169158 -6.461342 0.3242533,-2.119514 -7.531259 0.2194797,-2.137072 -8.155464 0.005887508,-1.885764 -6.158059 -0.572937,-1.807111 -6.452049 0.09622014,-1.867051 -7.315557 0.03161955,-1.969779 -7.793687 -0.1008373,-10.24324 -9.143152 -2.263373,-9.654429 -8.948156 -1.77042,-8.947454 -8.069244 -1.343365,-8.762748 -7.232769 -0.9352801,-9.23297 -7.004869 -0.6434339,-9.404675 -6.391845 -1.763039,-9.180361 -5.537305 -0.9921724,-8.978762 -5.024436 -0.5478464,-8.761868 -4.499169 -0.3076324,-9.874164 -6.238616 -1.643222,-9.602135 -6.210895 -0.5754945,-9.655821 -7.368907 -0.4694215,-9.783474 -7.875671 -0.7345089,-10.34959 -6.39533 -1.362115,-10.09278 -6.39454 -0.4829397,-10.11048 -7.490387 -0.5663886,-10.20725 -7.957959 -0.87875,-10.86873 -6.694562 -1.031461,-10.69671 -6.33991 -0.4897466,-10.5653 -7.108176 -0.4754814,-10.56072 -7.586574 -0.6247196,6.810,Left Hand Closed 14
-2.173431 -8.758955 -2.006203,-2.690631 -8.933666 -0.9751619,-3.06074 -8.320934 -0.4262508,-3.151371 -7.629707 -0.05575907,-3.430681 -7.012828 0.3638964,-3.055896 -6.847158 -0.411186,-3.122082 -6.459106 0.4209373,-3.161759 -5.969947 0.900528,-3.171211 -5.38825 1.249039,-2.620392 -6.410129 -0.6768137,-2.428504 -6.747661 0.2106934,-2.428504 -6.747661 0.2106934,-2.308199 -8.323738 0.02205801,-2.151865 -6.367261 -0.838069,-1.985134 -6.783762 0.03012395,-1.997267 -7.809108 -0.185639,-2.051627 -8.324766 -0.4817579,-1.741035 -6.557223 -0.9220535,-1.629867 -6.776906 -0.281662,-1.713355 -7.594427 -0.3900268,-1.819897 -8.022261 -0.5599725,-10.23049 -9.179287 -2.042522,-9.635732 -8.969072 -1.558899,-8.928718 -8.064089 -1.124125,-8.741402 -7.220169 -0.7042087,-9.211369 -6.995112 -0.3951063,-9.384027 -6.373868 -1.566646,-9.153318 -5.560398 -0.7798499,-8.948592 -5.052801 -0.3230518,-8.734061 -4.512304 -0.07348657,-9.856462 -6.207403 -1.436911,-9.571334 -6.233307 -0.374203,-9.630141 -7.394268 -0.2853097,-9.767476 -7.850042 -0.5667065,-10.33561 -6.36808 -1.140063,-10.06384 -6.420778 -0.2729108,-10.0842 -7.523583 -0.3932521,-10.19059 -7.95305 -0.724288,-10.85582 -6.688755 -0.7906651,-10.66206 -6.398154 -0.2651997,-10.53684 -7.188713 -0.2828989,-10.54837 -7.646002 -0.4534849,6.910,Left Hand Closed 14
-2.109152 -8.847042 -1.945759,-2.595375 -9.063971 -0.9649351,-2.977369 -8.467585 -0.4103047,-3.092118 -7.753204 -0.03900611,-3.378153 -7.1674 0.3895565,-2.978482 -7.018449 -0.2393974,-3.022594 -6.635518 0.5742627,-3.057705 -6.141048 1.060659,-3.073343 -5.575283 1.427264,-2.5535 -6.551732 -0.4920832,-2.359029 -6.860258 0.3273255,-2.359029 -6.860258 0.3273255,-2.267063 -8.345474 0.1604139,-2.094606 -6.491586 -0.6560675,-1.922039 -6.854427 0.1588107,-1.938157 -7.816371 -0.104233,-1.995103 -8.284615 -0.3920109,-1.678344 -6.649452 -0.7506758,-1.58215 -6.779077 -0.1432492,-1.675453 -7.54014 -0.2747145,-1.784842 -7.925966 -0.4456258,-10.20187 -9.181339 -1.878201,-9.606853 -8.965195 -1.400012,-8.902883 -8.05678 -0.9941184,-8.711631 -7.205175 -0.604153,-9.195733 -6.981208 -0.3236582,-9.367832 -6.333192 -1.435014,-9.13392 -5.539941 -0.6600657,-8.932469 -5.027668 -0.1979572,-8.717787 -4.483291 0.0497421,-9.843948 -6.150087 -1.320237,-9.541018 -6.249816 -0.307261,-9.599838 -7.407022 -0.2225353,-9.735559 -7.875469 -0.500145,-10.31758 -6.309398 -1.034808,-10.03263 -6.430393 -0.1963627,-10.05731 -7.524078 -0.300463,-10.15724 -7.96742 -0.6169648,-10.83253 -6.632164 -0.6949991,-10.63104 -6.394601 -0.1686101,-10.49637 -7.184474 -0.1729091,-10.49331 -7.66143 -0.3472502,7.010, 14
-2.024216 -9.080261 -1.813007,-2.526298 -9.214989 -0.84022,-2.888518 -8.646608 -0.2731928,-2.984796 -7.997137 0.1298481,-3.24432 -7.415946 0.61227,-2.882036 -7.175463 -0.1108282,-2.926699 -6.860315 0.7179071,-2.936324 -6.41134 1.226871,-2.911765 -5.91151 1.596211,-2.441363 -6.735414 -0.3581117,-2.235427 -7.106895 0.4513646,-2.235427 -7.106895 0.4513646,-2.170068 -8.632801 0.3122331,-1.970719 -6.724743 -0.5111331,-1.778348 -7.137218 0.2974826,-1.81682 -8.100527 0.06133616,-1.889619 -8.57559 -0.2112122,-1.563352 -6.92489 -0.5955864,-1.422637 -7.109964 0.02583182,-1.520018 -7.879728 -0.06648135,-1.644941 -8.263115 -0.2074701,-10.16717 -9.159346 -2.168258,-9.570841 -8.944452 -1.68141,-8.870367 -8.077196 -1.249293,-8.665572 -7.255987 -0.8331965,-9.123336 -7.00157 -0.5304321,-9.317883 -6.384674 -1.650883,-9.090796 -5.53944 -0.8925966,-8.883611 -5.028082 -0.4581329,-8.660975 -4.500364 -0.2209727,-9.794481 -6.23036 -1.533521,-9.50528 -6.21215 -0.5049289,-9.559781 -7.357448 -0.412083,-9.694625 -7.838256 -0.6749297,-10.27106 -6.391599 -1.251783,-9.999159 -6.401392 -0.4093875,-10.02048 -7.484761 -0.4972006,-10.12755 -7.929033 -0.7996538,-10.78997 -6.705901 -0.9214493,-10.60766 -6.36075 -0.4081686,-10.47444 -7.120157 -0.4029444,-10.47536 -7.574886 -0.5536457,7.110,Left Hand Closed 14
-1.890103 -9.204788 -1.9958,-2.412682 -9.31596 -1.086743,-2.796944 -8.802624 -0.4631807,-2.891766 -8.204958 -0.01094258,-3.125009 -7.646255 0.504216,-2.787445 -7.494855 -0.1016526,-2.842515 -7.107862 0.7352967,-2.827803 -6.614538 1.222,-2.746115 -6.145942 1.579218,-2.313527 -7.072804 -0.3299044,-2.113151 -7.310752 0.4240367,-2.113151 -7.310752 0.4240367,-2.093626 -8.726654 0.1758645,-1.810234 -7.047845 -0.4773439,-1.629406 -7.309831 0.2713206,-1.707826 -8.210655 -0.0839932,-1.792681 -8.645548 -0.3951848,-1.385466 -7.195584 -0.5586494,-1.288284 -7.280571 0.01965189,-1.419585 -7.995237 -0.1427956,-1.539591 -8.33744 -0.3034664,-10.1568 -9.161772 -2.091253,-9.552443 -8.9415 -1.603634,-8.849142 -8.062405 -1.197749,-8.657513 -7.222041 -0.8155204,-9.12156 -6.978267 -0.5515087,-9.299091 -6.372748 -1.618146,-9.072311 -5.535038 -0.8544983,-8.860218 -5.03459 -0.4111279,-8.636182 -4.49151 -0.1815389,-9.772231 -6.199846 -1.514136,-9.484895 -6.229009 -0.4911765,-9.556108 -7.391778 -0.4112087,-9.696048 -7.82802 -0.6915252,-10.24554 -6.344881 -1.241427,-9.974816 -6.399993 -0.3894402,-10.01016 -7.499173 -0.5038902,-10.12002 -7.920206 -0.8352687,-10.76471 -6.643085 -0.9130025,-10.57523 -6.335177 -0.3953433,-10.44892 -7.104026 -0.4022416,-10.45231 -7.558511 -0.570987,7.210,Left Hand Closed 14
-1.829935 -9.321825 -2.217164,-2.351532 -9.408167 -1.284194,-2.734362 -8.905643 -0.6116503,-2.817747 -8.272402 -0.1350514,-3.009389 -7.692927 0.3765577,-2.747906 -7.848484 -0.1098102,-2.78248 -7.301557 0.7420081,-2.746219 -6.749235 1.221149,-2.654176 -6.301693 1.578798,-2.27325 -7.461314 -0.3465093,-2.076104 -7.297554 0.4040755,-2.076104 -7.297554 0.4040755,-2.074806 -8.475075 0.2426802,-1.769736 -7.404668 -0.529179,-1.54927 -7.345401 0.2279011,-1.610023 -8.105135 -0.1615933,-1.719923 -8.547558 -0.4767257,-1.341013 -7.504375 -0.6303368,-1.193371 -7.322452 -0.01413929,-1.302956 -7.957075 -0.1432415,-1.434446 -8.343784 -0.2710689,-10.16992 -9.146818 -2.139553,-9.572916 -8.941677 -1.647485,-8.855757 -8.04175 -1.238154,-8.675529 -7.186153 -0.8536319,-9.143148 -6.940135 -0.5824486,-9.325161 -6.368633 -1.670785,-9.091789 -5.5424 -0.9166147,-8.879023 -5.027072 -0.4764456,-8.654922 -4.491195 -0.2385359,-9.793289 -6.199401 -1.555611,-9.499643 -6.209254 -0.5062189,-9.568204 -7.37091 -0.4085981,-9.70895 -7.868612 -0.6823541,-10.26532 -6.342433 -1.277185,-9.989511 -6.388292 -0.4280322,-10.01696 -7.487279 -0.5320076,-10.12316 -7.946876 -0.8550742,-10.7809 -6.632111 -0.9447988,-10.58294 -6.332528 -0.4251293,-10.45897 -7.115019 -0.4324535,-10.46899 -7.584976 -0.5939991,7.310,Left Hand Closed 14
-1.938205 -8.383932 -3.030097,-2.421841 -8.514492 -2.170445,-2.633121 -8.398693 -1.444489,-2.714218 -7.948394 -1.004234,-2.860986 -7.616778 -0.6466126,-2.247309 -9.57268 -0.5810394,-2.226007 -8.588772 0.1203763,-2.364224 -7.681522 0.2925241,-2.396275 -7.161705 0.4327271,-1.720154 -9.427427 -0.8319244,-1.656741 -7.820674 -0.4244292,-1.656741 -7.820674 -0.4244292,-2.147214 -7.60593 -1.275539,-1.303947 -9.09481 -1.076438,-1.262485 -7.404409 -0.7041278,-1.604738 -7.168151 -1.306798,-1.83188 -7.476629 -1.593302,-1.031416 -8.691658 -1.19805,-0.9384327 -7.445646 -0.8904135,-1.233377 -7.36462 -1.050253,-1.483959 -7.664163 -1.059915,-10.21235 -9.162483 -2.118797,-9.609333 -8.960365 -1.651624,-8.896065 -8.054188 -1.2699,-8.713592 -7.193098 -0.9153099,-9.187269 -6.961161 -0.6776778,-9.373496 -6.366998 -1.712342,-9.140449 -5.567098 -0.9709827,-8.929804 -5.050498 -0.5190289,-8.705842 -4.514966 -0.2593148,-9.836782 -6.198041 -1.592411,-9.548569 -6.215438 -0.5779588,-9.62157 -7.37154 -0.4949261,-9.765088 -7.873781 -0.7603291,-10.30449 -6.342779 -1.303512,-10.03025 -6.38201 -0.462997,-10.06259 -7.468037 -0.5831622,-10.17199 -7.92661 -0.9090182,-10.81851 -6.637961 -0.9574407,-10.61833 -6.347588 -0.4374444,-10.50242 -7.116329 -0.4492189,-10.51797 -7.584763 -0.6016659,7.410,Left Hand Closed 14
-1.442963 -10.04339 -0.01378433,-2.07638 -9.905737 0.8911881,-2.487042 -9.338919 1.607494,-2.648589 -8.648035 2.288463,-2.823421 -8.01968 3.041681,-2.33582 -7.646589 1.703469,-2.297153 -7.097049 2.669356,-2.309359 -7.038279 3.177422,-2.328881 -7.17495 3.402472,-1.846939 -7.156929 1.544293,-1.501331 -7.912022 2.467717,-1.501331 -7.912022 2.467717,-1.862412 -9.188498 2.545931,-1.40167 -7.164271 1.471598,-1.095749 -8.000326 2.264041,-1.250382 -8.902042 2.161576,-1.484191 -9.152863 1.969901,-1.058003 -7.389287 1.491022,-0.7893991 -7.768991 1.913932,-0.9484682 -8.522141 1.89793,-1.197846 -8.792345 1.786424,-10.23079 -9.17012 -2.33615,-9.627463 -8.973761 -1.868,-8.917688 -8.077341 -1.449812,-8.742966 -7.228765 -1.04774,-9.208608 -7.027963 -0.756114,-9.370913 -6.44301 -1.854312,-9.143047 -5.572299 -1.094447,-8.937311 -5.05422 -0.6655791,-8.727952 -4.512208 -0.4395487,-9.838889 -6.288225 -1.724335,-9.562972 -6.20581 -0.664166,-9.616861 -7.365013 -0.5656164,-9.75354 -7.867143 -0.8422648,-10.31444 -6.437907 -1.437008,-10.05283 -6.39643 -0.5611928,-10.06826 -7.49986 -0.6658565,-10.17757 -7.967165 -0.9989244,-10.83633 -6.728294 -1.101981,-10.65464 -6.341391 -0.5602359,-10.52577 -7.113641 -0.5621313,-10.53627 -7.592014 -0.7278892,7.510,Left Hand Closed 14
-1.376421 -9.507393 -3.878602,-1.984903 -9.459471 -3.103575,-2.373332 -9.029501 -2.377519,-2.445644 -8.449121 -1.854598,-2.501165 -7.877418 -1.418266,-2.23704 -8.929577 -1.692219,-2.245445 -7.992284 -0.8990941,-2.199156 -7.274688 -0.5077474,-2.055517 -6.832446 -0.2223535,-1.691837 -8.712984 -1.850928,-1.368377 -7.903909 -1.278004,-1.368377 -7.903909 -1.278004,-1.679667 -8.678591 -1.742591,-1.175159 -8.596521 -1.967715,-0.910203 -7.779315 -1.48198,-1.131202 -8.110554 -1.97487,-1.351943 -8.410702 -2.243083,-0.7660851 -8.494154 -1.989093,-0.5392332 -7.735403 -1.637052,-0.772193 -8.007036 -1.834014,-1.023422 -8.30335 -1.957054,-10.25536 -9.146797 -1.946814,-9.644502 -8.972307 -1.436469,-8.939617 -8.073435 -0.9874461,-8.769456 -7.241447 -0.5730039,-9.236365 -7.026733 -0.2656654,-9.382931 -6.354251 -1.375287,-9.172983 -5.587463 -0.5342919,-8.976735 -5.089725 -0.05270147,-8.768982 -4.505403 0.1944454,-9.869171 -6.165531 -1.261505,-9.588029 -6.294729 -0.1784985,-9.64957 -7.477132 -0.1147306,-9.780003 -7.840164 -0.4089677,-10.35625 -6.326686 -0.9821057,-10.08718 -6.481896 -0.09621739,-10.10711 -7.591804 -0.2455537,-10.20754 -7.935938 -0.590372,-10.88211 -6.641994 -0.6383823,-10.69669 -6.412763 -0.1157565,-10.57233 -7.205107 -0.1515832,-10.58162 -7.610178 -0.3320155,7.610, 14
-1.572186 -8.615463 -3.326835,-2.091889 -8.779207 -2.355944,-2.367538 -8.737352 -1.592568,-2.434921 -8.243042 -1.097682,-2.418628 -7.709199 -0.7607822,-1.929524 -9.764748 -0.9176745,-1.877934 -9.292854 -0.1152351,-1.962026 -8.524469 0.1612599,-1.961426 -7.915332 0.3729587,-1.402454 -9.5298 -1.159621,-1.350988 -8.457081 -0.3777955,-1.350988 -8.457081 -0.3777955,-1.913413 -7.777853 -0.4628077,-0.9872122 -9.091604 -1.397352,-0.9080315 -7.835296 -0.8493774,-1.243471 -7.651025 -1.307215,-1.526114 -7.830897 -1.579296,-0.715764 -8.59804 -1.51923,-0.6035113 -7.590797 -1.121441,-0.9042311 -7.555215 -1.261584,-1.187138 -7.804468 -1.363154,-10.24339 -9.132633 -2.143042,-9.644207 -8.968307 -1.64648,-8.942061 -8.072023 -1.213672,-8.768012 -7.227973 -0.803751,-9.236342 -6.986443 -0.5034748,-9.374852 -6.381694 -1.641174,-9.16133 -5.561586 -0.8421056,-8.967938 -5.050636 -0.391467,-8.764378 -4.475385 -0.1616591,-9.850206 -6.195753 -1.522844,-9.573941 -6.25203 -0.4651103,-9.631991 -7.433762 -0.3884122,-9.759739 -7.838163 -0.6837103,-10.33154 -6.342594 -1.239752,-10.06676 -6.434873 -0.365779,-10.09073 -7.559862 -0.4814553,-10.19057 -7.945076 -0.8124073,-10.85948 -6.635989 -0.8996693,-10.66988 -6.354632 -0.3783385,-10.5401 -7.162311 -0.3969077,-10.54161 -7.606662 -0.5728837,7.710,Left Hand Closed 14
