TiagoOliveira98/Thesis-Project/Difficulty_1/Dual_Task/Unity_Project/DataLogging/JointData/Logs(1647321769)_Tiago_Dual.csv
WRIST,THUMB_CMC,THUMB_MCP,THUMB_IP,THUMB_TIP,INDEX_FINGER_MCP,INDEX_FINGER_PIP,INDEX_FINGER_DIP,INDEX_FINGER_TIP,MIDDLE_FINGER_MCP,MIDDLE_FINGER_PIP,MIDDLE_FINGER_DIP,MIDDLE_FINGER_TIP,RING_FINGER_MCP,RING_FINGER_PIP,RING_FINGER_DIP,RING_FINGER_TIP,PINKY_MCP,PINKY_PIP,PINKY_DIP,PINKY_TIP,WRIST2,THUMB_CMC2,THUMB_MCP2,THUMB_IP2,THUMB_TIP2,INDEX_FINGER_MCP2,INDEX_FINGER_PIP2,INDEX_FINGER_DIP2,INDEX_FINGER_TIP2,MIDDLE_FINGER_MCP2,MIDDLE_FINGER_PIP2,MIDDLE_FINGER_DIP2,MIDDLE_FINGER_TIP2,RING_FINGER_MCP2,RING_FINGER_PIP2,RING_FINGER_DIP2,RING_FINGER_TIP2,PINKY_MCP2,PINKY_PIP2,PINKY_DIP2,PINKY_TIP2,Timestamp,Event
-2.825162 -8.177845 0.0004270575,-3.471782 -7.833969 0.09329619,-3.976083 -7.123935 0.1262597,-4.307325 -6.440565 0.2085273,-4.584979 -6.035514 0.3174701,-3.53343 -5.675997 -0.2397842,-3.742155 -4.691602 -0.1801656,-3.862915 -4.121367 -0.1227934,-3.962432 -3.604442 -0.07669039,-3.224707 -5.480135 -0.1401191,-3.349174 -4.337927 -0.1033157,-3.349174 -4.337927 -0.1033157,-3.49828 -2.978287 0.09574436,-2.912764 -5.49212 0.02846148,-2.960593 -4.38829 0.09570415,-3.020265 -3.681036 0.2188117,-3.092842 -3.120927 0.3153614,-2.587013 -5.711977 0.2256298,-2.508162 -4.867265 0.2909185,-2.492255 -4.324611 0.3844423,-2.500443 -3.853079 0.4605907,-8.047503 -8.166193 0.0004817169,-7.504223 -7.764865 0.2430649,-7.012437 -7.032156 0.4179084,-6.647346 -6.402196 0.6230026,-6.268718 -6.150831 0.8715714,-7.421136 -5.541051 0.1965243,-7.292309 -4.483604 0.317725,-7.250284 -3.843227 0.47479,-7.220496 -3.299341 0.600802,-7.761217 -5.40941 0.248784,-7.677211 -4.219007 0.3605277,-7.630126 -3.440609 0.564621,-7.595134 -2.781106 0.7491818,-8.090901 -5.51752 0.3211995,-8.057461 -4.432749 0.4418433,-8.025985 -3.720918 0.5937315,-7.985651 -3.132895 0.7149624,-8.429276 -5.828308 0.4269295,-8.520406 -5.039811 0.5760454,-8.563347 -4.532014 0.6877106,-8.58181 -4.055391 0.7740941,0.010,41  0
-2.797995 -8.167915 -0.007626298,-3.444672 -7.851211 0.1150587,-3.95927 -7.145725 0.1610575,-4.292629 -6.453104 0.2538502,-4.577658 -6.036687 0.3753948,-3.535675 -5.677087 -0.2318944,-3.744099 -4.697122 -0.1670467,-3.860613 -4.129676 -0.1009718,-3.956973 -3.610386 -0.04850673,-3.224239 -5.476366 -0.143293,-3.354531 -4.334072 -0.09734386,-3.354531 -4.334072 -0.09734386,-3.499791 -2.985538 0.1166484,-2.908518 -5.484113 0.01640186,-2.960471 -4.389456 0.09477928,-3.016508 -3.692163 0.2186207,-3.084249 -3.134148 0.3143169,-2.577256 -5.697978 0.2099965,-2.501049 -4.860965 0.288003,-2.483395 -4.328788 0.389104,-2.488121 -3.859191 0.4698485,-8.057137 -8.152945 -0.02043845,-7.508492 -7.764937 0.2301791,-7.012158 -7.021189 0.3980221,-6.651719 -6.387569 0.5921642,-6.279715 -6.140441 0.8259614,-7.420005 -5.534854 0.1756342,-7.289393 -4.478154 0.2985306,-7.246846 -3.840086 0.4539768,-7.220202 -3.29953 0.5788687,-7.761431 -5.402624 0.2213672,-7.674623 -4.214975 0.3282807,-7.629219 -3.442138 0.5336393,-7.596777 -2.781674 0.719375,-8.091074 -5.510892 0.2891908,-8.057775 -4.428142 0.4098218,-8.028078 -3.727647 0.5669692,-7.990172 -3.145852 0.6953857,-8.429161 -5.820558 0.3903571,-8.52446 -5.037555 0.5412851,-8.572513 -4.532632 0.6582796,-8.594488 -4.05079 0.751924,0.110,41  0
-2.79523 -8.168591 -0.04669422,-3.446674 -7.848398 0.0692809,-3.96015 -7.151981 0.1163577,-4.293116 -6.461311 0.2136409,-4.584016 -6.040613 0.3426646,-3.528893 -5.684572 -0.2783228,-3.741614 -4.699188 -0.2092619,-3.859068 -4.127401 -0.1395884,-3.952703 -3.604305 -0.08821566,-3.218588 -5.487981 -0.1837259,-3.349934 -4.340087 -0.1367921,-3.349934 -4.340087 -0.1367921,-3.495611 -2.974049 0.08241543,-2.903957 -5.497381 -0.01793514,-2.955093 -4.39295 0.05992971,-3.018029 -3.68595 0.1899416,-3.08975 -3.119636 0.2894549,-2.573105 -5.710567 0.1798524,-2.504181 -4.86366 0.2601286,-2.497699 -4.32147 0.3644999,-2.511654 -3.841065 0.4499275,-8.044157 -8.141695 -0.0009285109,-7.494902 -7.751852 0.247474,-6.998214 -7.003006 0.4184366,-6.632578 -6.357662 0.6150926,-6.256958 -6.08406 0.8503968,-7.419773 -5.510785 0.2034213,-7.294108 -4.461311 0.3283576,-7.253803 -3.829589 0.4865927,-7.225392 -3.292223 0.6118643,-7.761673 -5.384648 0.2443332,-7.680679 -4.204759 0.3529784,-7.637098 -3.437734 0.5541634,-7.604219 -2.78357 0.7405937,-8.091427 -5.499775 0.3068994,-8.059546 -4.424823 0.4277435,-8.032903 -3.723403 0.5767944,-7.994834 -3.140844 0.7005121,-8.427175 -5.816142 0.3998052,-8.520469 -5.036277 0.5442844,-8.567374 -4.533514 0.6533086,-8.587976 -4.057485 0.7396098,0.210,41  0
-2.798452 -8.176994 -0.1349585,-3.448877 -7.83339 -0.0005341619,-3.956653 -7.157439 0.0666832,-4.295463 -6.467176 0.1724815,-4.581284 -6.036392 0.3063771,-3.526139 -5.716881 -0.2882749,-3.738658 -4.729673 -0.1882191,-3.846845 -4.154466 -0.08642561,-3.933058 -3.610203 -0.00202474,-3.21505 -5.518486 -0.2112071,-3.35162 -4.376613 -0.1301996,-3.35162 -4.376613 -0.1301996,-3.468016 -3.019849 0.1368347,-2.898776 -5.524143 -0.0644954,-2.949687 -4.414893 0.02474843,-3.00414 -3.725987 0.1730178,-3.068943 -3.153756 0.2864824,-2.566601 -5.731973 0.1109872,-2.493668 -4.888776 0.1926192,-2.481824 -4.369947 0.2988825,-2.485082 -3.90146 0.3836304,-8.045675 -8.162573 -0.01685112,-7.497499 -7.787856 0.1960872,-7.016646 -7.053231 0.3417553,-6.669463 -6.398121 0.5130752,-6.313087 -6.136472 0.7237592,-7.430565 -5.537819 0.112247,-7.294154 -4.490592 0.215343,-7.249067 -3.850562 0.3562573,-7.217932 -3.307859 0.4733188,-7.773981 -5.403698 0.1586716,-7.693447 -4.217191 0.25277,-7.643697 -3.447799 0.4444121,-7.601901 -2.787481 0.6193053,-8.104434 -5.514905 0.2279718,-8.071409 -4.43128 0.3278126,-8.039889 -3.741199 0.4643051,-7.997056 -3.161092 0.5795342,-8.440437 -5.825244 0.3249571,-8.541739 -5.053981 0.4544616,-8.588157 -4.556076 0.5736186,-8.609891 -4.07925 0.666616,0.310,41  0
-2.77989 -8.191031 -0.1743402,-3.424597 -7.876163 -0.02114229,-3.942232 -7.187414 0.04374388,-4.279264 -6.495087 0.1436559,-4.561852 -6.059602 0.2713375,-3.495802 -5.742865 -0.3136877,-3.710258 -4.758201 -0.2260211,-3.837322 -4.173268 -0.1329524,-3.946318 -3.632555 -0.05352542,-3.184336 -5.541763 -0.2420271,-3.319214 -4.405537 -0.1698366,-3.319214 -4.405537 -0.1698366,-3.474939 -3.03178 0.08756635,-2.869758 -5.544551 -0.1005677,-2.926412 -4.448472 -0.01532465,-2.993371 -3.742964 0.1247404,-3.067651 -3.171979 0.2358197,-2.539966 -5.744845 0.07120979,-2.474107 -4.892461 0.1557323,-2.466226 -4.355131 0.2598513,-2.47543 -3.885971 0.349658,-8.036335 -8.183281 0.05023242,-7.495202 -7.800945 0.2984591,-7.018846 -7.041427 0.4505705,-6.669053 -6.378164 0.6325043,-6.296659 -6.100564 0.85216,-7.431872 -5.534399 0.1719559,-7.309711 -4.485099 0.2681078,-7.268117 -3.842909 0.4041264,-7.240291 -3.303283 0.5127113,-7.769069 -5.403522 0.2066445,-7.698092 -4.224445 0.2817135,-7.655127 -3.457359 0.461162,-7.621699 -2.803554 0.6216384,-8.092731 -5.50839 0.2692567,-8.077438 -4.434899 0.3575094,-8.053163 -3.754362 0.4841398,-8.019542 -3.192252 0.5870166,-8.422218 -5.809818 0.3672636,-8.538582 -5.032966 0.4909124,-8.590199 -4.534376 0.5960696,-8.615111 -4.064157 0.6716505,0.410,41  0
-2.769498 -8.179466 -0.2713152,-3.406832 -7.850983 -0.1410062,-3.920292 -7.18276 -0.07597376,-4.258842 -6.520341 0.02732861,-4.535408 -6.092334 0.1584477,-3.473569 -5.751468 -0.4333927,-3.682825 -4.773106 -0.3525665,-3.810019 -4.193264 -0.2618665,-3.917204 -3.658736 -0.1863105,-3.163971 -5.556801 -0.3433134,-3.295404 -4.434337 -0.2705564,-3.295404 -4.434337 -0.2705564,-3.453744 -3.06276 -0.008221567,-2.851081 -5.560974 -0.1876417,-2.90962 -4.478536 -0.1032798,-2.981037 -3.771847 0.03381985,-3.058007 -3.213356 0.1433987,-2.52287 -5.756441 -0.004029363,-2.449846 -4.900201 0.08083105,-2.441084 -4.34945 0.1837265,-2.450695 -3.87478 0.2761704,-8.049665 -8.224661 0.09798978,-7.512589 -7.832548 0.3291028,-7.035222 -7.071657 0.4885871,-6.689028 -6.408221 0.6820956,-6.325934 -6.117727 0.9148803,-7.456658 -5.554429 0.2469198,-7.339765 -4.499026 0.3538232,-7.299942 -3.86077 0.493584,-7.272468 -3.314976 0.6110168,-7.79451 -5.433014 0.3006479,-7.728779 -4.247596 0.3945395,-7.68208 -3.478516 0.5802301,-7.644578 -2.816768 0.7486494,-8.118344 -5.547538 0.3799139,-8.103764 -4.468345 0.4822553,-8.073483 -3.783226 0.6145223,-8.034671 -3.207125 0.7246546,-8.447587 -5.859481 0.4910741,-8.553706 -5.074862 0.6265225,-8.598124 -4.568857 0.7373202,-8.616826 -4.087031 0.8160483,0.510,41  0
-2.765131 -8.168568 -0.3223978,-3.410384 -7.843071 -0.1955774,-3.920524 -7.169788 -0.1398614,-4.253229 -6.498132 -0.04321903,-4.53213 -6.06739 0.07879508,-3.461697 -5.745355 -0.517003,-3.667542 -4.76469 -0.4537888,-3.791947 -4.184599 -0.3733013,-3.897211 -3.661958 -0.304458,-3.147785 -5.56014 -0.4304629,-3.26801 -4.425529 -0.3816816,-3.26801 -4.425529 -0.3816816,-3.410041 -3.0445 -0.1373729,-2.833148 -5.572887 -0.280867,-2.877332 -4.476982 -0.2140162,-2.944332 -3.76436 -0.08198546,-3.020702 -3.201776 0.02111089,-2.505896 -5.778083 -0.09969713,-2.431861 -4.919536 -0.03089038,-2.426846 -4.366821 0.07143712,-2.442334 -3.884881 0.1581307,-8.067586 -8.227442 0.09752535,-7.529047 -7.835693 0.3469768,-7.049894 -7.080026 0.5111693,-6.700782 -6.415013 0.7033162,-6.336232 -6.132492 0.9301872,-7.46962 -5.558236 0.264117,-7.343139 -4.504018 0.3725512,-7.299135 -3.86236 0.5096684,-7.271258 -3.32237 0.6256242,-7.807669 -5.436748 0.3056403,-7.734134 -4.248383 0.3955747,-7.689411 -3.474334 0.5755277,-7.656676 -2.815189 0.7399238,-8.13311 -5.553484 0.3711055,-8.111093 -4.473743 0.46955,-8.081725 -3.790958 0.5926991,-8.047055 -3.221662 0.6938764,-8.464764 -5.867406 0.4724618,-8.568439 -5.085422 0.6044872,-8.61675 -4.584696 0.708424,-8.640357 -4.101692 0.7851446,0.610,41  0
-2.754143 -8.169161 -0.4227357,-3.392358 -7.85271 -0.2502467,-3.902492 -7.181329 -0.1675269,-4.228752 -6.482175 -0.05761841,-4.522419 -6.048078 0.0664506,-3.464216 -5.788275 -0.4506575,-3.667276 -4.806843 -0.3249931,-3.764277 -4.236541 -0.2208102,-3.844864 -3.685338 -0.1383441,-3.144638 -5.588949 -0.3866286,-3.255545 -4.462246 -0.2464034,-3.255545 -4.462246 -0.2464034,-3.355426 -3.089473 0.07058975,-2.824029 -5.596125 -0.2611406,-2.862224 -4.513669 -0.1299646,-2.912949 -3.831337 0.02469471,-2.968859 -3.250788 0.1489379,-2.489697 -5.799543 -0.109296,-2.40319 -4.962717 0.002178788,-2.372167 -4.43191 0.1304191,-2.359316 -3.93523 0.2436155,-8.107363 -8.239681 0.0891506,-7.567886 -7.848184 0.3145462,-7.080278 -7.07828 0.4634805,-6.732581 -6.424541 0.6368942,-6.380628 -6.167162 0.8407622,-7.509782 -5.573406 0.2284911,-7.376856 -4.515429 0.3245888,-7.321852 -3.86578 0.4585191,-7.281183 -3.317336 0.5755108,-7.85482 -5.44905 0.2730965,-7.774652 -4.261408 0.3679321,-7.716684 -3.479261 0.5601346,-7.66846 -2.81059 0.7357708,-8.18296 -5.559627 0.3389671,-8.15394 -4.484148 0.4445707,-8.114115 -3.793478 0.5792831,-8.057932 -3.21573 0.6881895,-8.513011 -5.866529 0.4355156,-8.611252 -5.102481 0.5661979,-8.655682 -4.606033 0.6763543,-8.66675 -4.127511 0.7647846,0.710,41  0
-2.656765 -8.189892 -0.6656028,-3.274223 -7.838291 -0.5136895,-3.744749 -7.17941 -0.4520977,-4.047139 -6.513772 -0.3726279,-4.327457 -6.079982 -0.2799142,-3.301704 -5.864662 -0.6568413,-3.497684 -4.871515 -0.5313469,-3.59721 -4.298843 -0.4072249,-3.674268 -3.782825 -0.303677,-2.984536 -5.672037 -0.5812791,-3.118526 -4.527799 -0.4378089,-3.118526 -4.527799 -0.4378089,-3.230415 -3.102972 -0.09915477,-2.661381 -5.691129 -0.4621195,-2.707691 -4.595245 -0.3214208,-2.75518 -3.8782 -0.1513118,-2.805013 -3.288341 -0.003312051,-2.332657 -5.914991 -0.3205332,-2.253868 -5.042339 -0.174469,-2.235011 -4.469127 -0.0189817,-2.238698 -3.961475 0.1108069,-8.239535 -8.258451 -0.0134088,-7.703309 -7.861215 0.2134202,-7.221731 -7.124448 0.3744934,-6.867264 -6.47933 0.5681277,-6.521103 -6.178186 0.7867653,-7.648913 -5.618309 0.1339142,-7.53635 -4.550432 0.2601289,-7.505613 -3.910906 0.4038373,-7.488585 -3.358779 0.5199352,-7.986289 -5.499134 0.1956451,-7.918406 -4.292345 0.3168327,-7.876124 -3.511612 0.5263629,-7.845982 -2.837118 0.7146781,-8.311439 -5.631176 0.2822938,-8.299625 -4.518766 0.4132112,-8.271219 -3.81173 0.5868379,-8.227736 -3.210968 0.7286323,-8.640923 -5.969429 0.3918876,-8.733109 -5.183725 0.56385,-8.765599 -4.669479 0.7161925,-8.766681 -4.183578 0.8329776,0.810,41  0
-2.549175 -8.214336 -0.5558362,-3.170427 -7.840049 -0.3807699,-3.668413 -7.195659 -0.2988929,-3.991927 -6.534885 -0.1976304,-4.261899 -6.081316 -0.07080582,-3.220104 -5.834796 -0.5956054,-3.414368 -4.853042 -0.505553,-3.521044 -4.274739 -0.4158792,-3.598454 -3.757633 -0.33014,-2.904008 -5.667147 -0.5348116,-3.035175 -4.550467 -0.4461676,-3.035175 -4.550467 -0.4461676,-3.152847 -3.160073 -0.1530118,-2.58652 -5.703177 -0.4172086,-2.630868 -4.635986 -0.3136875,-2.681588 -3.92357 -0.1623344,-2.737566 -3.349653 -0.02853727,-2.261601 -5.931707 -0.2724246,-2.173286 -5.087865 -0.1529986,-2.153686 -4.513317 -0.003357887,-2.157025 -4.009136 0.1261421,-8.281169 -8.296265 -0.04475687,-7.74091 -7.885684 0.1764954,-7.268237 -7.134408 0.3312711,-6.926311 -6.485717 0.5193512,-6.571654 -6.210256 0.7353038,-7.70432 -5.659458 0.1172304,-7.604805 -4.585432 0.2494417,-7.578023 -3.929258 0.3985952,-7.562133 -3.362685 0.5199587,-8.046854 -5.545013 0.1735463,-7.980674 -4.334106 0.3045459,-7.935039 -3.543359 0.5253583,-7.902114 -2.863245 0.7230356,-8.375904 -5.674856 0.2543246,-8.361663 -4.565479 0.3849339,-8.327951 -3.857249 0.5589632,-8.277249 -3.258135 0.6958617,-8.708757 -6.007953 0.3568175,-8.796612 -5.216465 0.5260085,-8.824446 -4.694423 0.6713788,-8.819565 -4.19981 0.7819536,0.910,41  0
-2.497756 -8.234728 -0.5306458,-3.107664 -7.884756 -0.3472244,-3.593758 -7.235462 -0.2668328,-3.910751 -6.566169 -0.1612433,-4.177656 -6.084117 -0.03368744,-3.148811 -5.855791 -0.5273273,-3.350556 -4.900449 -0.4187465,-3.451545 -4.335655 -0.3177852,-3.527965 -3.81079 -0.231274,-2.832761 -5.678617 -0.4568627,-2.962005 -4.554935 -0.3360213,-2.962005 -4.554935 -0.3360213,-3.077703 -3.159993 -0.001286387,-2.514711 -5.71743 -0.3361884,-2.562255 -4.635219 -0.2017853,-2.613051 -3.919405 -0.02271897,-2.671251 -3.340372 0.1303851,-2.186989 -5.969612 -0.185378,-2.101143 -5.13867 -0.03609669,-2.080209 -4.56895 0.1335695,-2.08785 -4.070127 0.2694163,-8.326624 -8.294783 -0.01472621,-7.793049 -7.869573 0.2030574,-7.326941 -7.121543 0.3701213,-6.983142 -6.481185 0.5637786,-6.617384 -6.216577 0.7923551,-7.762945 -5.650409 0.1757849,-7.667772 -4.601758 0.3123104,-7.645113 -3.967823 0.4722452,-7.636122 -3.416958 0.6014735,-8.104765 -5.537714 0.2472912,-8.036251 -4.345159 0.3845108,-8.000919 -3.564839 0.601458,-7.977265 -2.8903 0.7984906,-8.433746 -5.676113 0.340122,-8.419453 -4.584594 0.4799873,-8.38864 -3.887412 0.6541263,-8.342816 -3.290033 0.7929155,-8.766195 -6.018261 0.4577526,-8.855472 -5.24077 0.6351154,-8.890901 -4.717912 0.773031,-8.894509 -4.216802 0.8801968,1.010,41  0
-2.433743 -8.319389 -0.3170085,-3.044693 -7.925035 -0.1132378,-3.521014 -7.255661 -0.01180428,-3.826367 -6.547904 0.1109894,-4.082344 -6.018374 0.2547435,-3.091372 -5.856555 -0.3436895,-3.287207 -4.876338 -0.2290108,-3.38459 -4.303523 -0.1285133,-3.448774 -3.76922 -0.04074597,-2.771869 -5.701311 -0.2799932,-2.897583 -4.582963 -0.1740383,-2.897583 -4.582963 -0.1740383,-2.995479 -3.188051 0.1542414,-2.450037 -5.754556 -0.1570259,-2.500212 -4.676396 -0.03395563,-2.553818 -3.961255 0.1342123,-2.608839 -3.369964 0.2841564,-2.111157 -6.008597 0.001304299,-2.035192 -5.175231 0.1197129,-2.017053 -4.607327 0.2836634,-2.018064 -4.09347 0.4229202,-8.458351 -8.285746 0.04069375,-7.907077 -7.892408 0.2632828,-7.43666 -7.147922 0.4284748,-7.096489 -6.497474 0.6257879,-6.741472 -6.242176 0.8492612,-7.869864 -5.639844 0.1569296,-7.772755 -4.58126 0.2723383,-7.752783 -3.944425 0.4219345,-7.744903 -3.400953 0.5399454,-8.215931 -5.507471 0.212642,-8.151492 -4.312811 0.3030739,-8.116784 -3.537691 0.4873092,-8.089234 -2.874246 0.6636775,-8.547276 -5.630214 0.2961356,-8.536812 -4.53697 0.3944505,-8.513738 -3.848498 0.5344595,-8.472832 -3.258961 0.6557287,-8.882195 -5.954687 0.4081196,-8.986272 -5.190605 0.5533829,-9.035637 -4.677404 0.6757656,-9.053261 -4.17872 0.7800723,1.110,41  0
-2.427391 -8.342049 -0.2927752,-3.033392 -7.925398 -0.08137067,-3.504128 -7.26173 0.03456771,-3.810087 -6.572112 0.1740512,-4.058062 -6.038255 0.3297981,-3.068375 -5.873708 -0.2736464,-3.271986 -4.886899 -0.1450057,-3.370113 -4.313376 -0.04469196,-3.435988 -3.781913 0.0372889,-2.754931 -5.716542 -0.21583,-2.879376 -4.583778 -0.09414917,-2.879376 -4.583778 -0.09414917,-2.980839 -3.190305 0.2273021,-2.442057 -5.776453 -0.09883405,-2.483809 -4.679103 0.0416739,-2.542468 -3.962154 0.2214718,-2.602684 -3.362915 0.3727663,-2.114766 -6.03585 0.05000696,-2.040552 -5.189126 0.1769515,-2.030019 -4.619709 0.3478059,-2.037028 -4.101388 0.4829937,-8.480392 -8.289011 -0.01389218,-7.925984 -7.886518 0.1864325,-7.456525 -7.134784 0.3371471,-7.125533 -6.474685 0.528101,-6.776329 -6.213349 0.7435692,-7.88918 -5.655538 0.1215924,-7.786611 -4.595743 0.2345326,-7.763101 -3.957637 0.3804661,-7.751029 -3.416515 0.4940253,-8.239833 -5.528204 0.1870864,-8.17805 -4.313074 0.2851937,-8.145974 -3.519782 0.4864978,-8.124291 -2.846422 0.6687278,-8.570667 -5.652536 0.2676567,-8.550417 -4.544349 0.3682502,-8.523114 -3.841205 0.5032952,-8.481923 -3.241416 0.618101,-8.903881 -5.980854 0.3795003,-9.00645 -5.202771 0.5154892,-9.048788 -4.692415 0.6272529,-9.062999 -4.196197 0.7196542,1.210,41  0
-2.41562 -8.362249 -0.2153576,-3.026369 -7.946922 -0.04706083,-3.496849 -7.269249 0.03804404,-3.80302 -6.562129 0.1523118,-4.055481 -6.033105 0.2873648,-3.06163 -5.868258 -0.2358832,-3.261898 -4.877355 -0.1328611,-3.356368 -4.297584 -0.04623447,-3.420453 -3.751378 0.03415063,-2.751264 -5.71493 -0.1601308,-2.866236 -4.583183 -0.05208734,-2.866236 -4.583183 -0.05208734,-2.954301 -3.197363 0.2703387,-2.439185 -5.775217 -0.02915835,-2.4766 -4.677911 0.1002148,-2.52961 -3.969734 0.2762744,-2.582646 -3.369968 0.430154,-2.113293 -6.03544 0.1288889,-2.035377 -5.190948 0.2494231,-2.021995 -4.625143 0.4170229,-2.023426 -4.096977 0.5561445,-8.503713 -8.303942 -0.0006579345,-7.948244 -7.908752 0.2153119,-7.480961 -7.152792 0.3668812,-7.157437 -6.47949 0.5560066,-6.816384 -6.189525 0.7689952,-7.923844 -5.665203 0.1390514,-7.818419 -4.599612 0.261426,-7.790929 -3.952443 0.4144475,-7.776366 -3.399442 0.5360765,-8.274828 -5.538133 0.1973301,-8.211217 -4.315555 0.2974171,-8.176071 -3.521728 0.5022994,-8.153984 -2.848557 0.6949282,-8.604421 -5.664531 0.2728165,-8.576494 -4.551286 0.3750099,-8.546699 -3.836751 0.5132272,-8.503023 -3.226452 0.6355044,-8.938442 -5.999828 0.3805257,-9.037849 -5.216335 0.5167927,-9.075377 -4.703586 0.6333055,-9.083664 -4.210176 0.7336757,1.310,41  0
-2.393693 -8.364019 -0.1371368,-3.007969 -7.939032 0.04631326,-3.491434 -7.256936 0.1337625,-3.806705 -6.555242 0.2526428,-4.050365 -6.029317 0.3874542,-3.052808 -5.856529 -0.1799084,-3.257154 -4.859077 -0.08103561,-3.354578 -4.279417 0.0008290261,-3.417876 -3.742542 0.0764419,-2.740995 -5.695222 -0.112619,-2.865065 -4.545709 -0.02818555,-2.865065 -4.545709 -0.02818555,-2.956065 -3.1681 0.2622241,-2.430301 -5.749374 0.01377679,-2.470106 -4.63844 0.1256983,-2.52238 -3.923706 0.293708,-2.574977 -3.338542 0.435943,-2.102543 -6.004299 0.1739364,-2.027165 -5.152523 0.2777196,-2.01333 -4.585042 0.4360421,-2.012033 -4.073792 0.5635009,-8.570957 -8.32407 0.05161963,-8.019091 -7.915666 0.2949388,-7.559648 -7.149917 0.4809778,-7.220681 -6.485639 0.6950806,-6.8608 -6.189125 0.9422688,-8.026742 -5.655092 0.2728347,-7.930043 -4.570071 0.4452565,-7.912737 -3.917803 0.6161227,-7.916106 -3.359701 0.7449979,-8.386505 -5.547023 0.3316801,-8.333253 -4.296562 0.4745722,-8.319572 -3.497248 0.6821821,-8.323282 -2.821238 0.8742627,-8.722244 -5.700549 0.4078766,-8.728002 -4.54653 0.5549741,-8.727317 -3.82261 0.7162465,-8.718279 -3.190509 0.8473133,-9.059723 -6.059623 0.5135068,-9.151024 -5.233799 0.687853,-9.180458 -4.697704 0.8221416,-9.18203 -4.182766 0.9339313,1.410,41  0
-2.409171 -8.377823 -0.1067083,-3.026335 -7.943157 0.08991088,-3.500275 -7.258569 0.1829191,-3.80324 -6.550384 0.3117647,-4.057472 -6.021453 0.4553249,-3.062412 -5.852554 -0.1320223,-3.26798 -4.8537 -0.01818896,-3.360416 -4.274977 0.06761736,-3.419892 -3.731065 0.1425593,-2.748116 -5.699412 -0.0664458,-2.870161 -4.544849 0.03912795,-2.870161 -4.544849 0.03912795,-2.961668 -3.159427 0.3347335,-2.437921 -5.761676 0.06313124,-2.47112 -4.64645 0.1963674,-2.523063 -3.92534 0.3715989,-2.576311 -3.321762 0.51737,-2.112925 -6.023128 0.2271473,-2.038994 -5.176832 0.351945,-2.028627 -4.607141 0.5203815,-2.029811 -4.085213 0.6499665,-8.599473 -8.373037 0.07847437,-8.047289 -7.945566 0.3479659,-7.588462 -7.168245 0.5487666,-7.260211 -6.492169 0.7815583,-6.908637 -6.178661 1.033362,-8.052373 -5.689527 0.3539412,-7.961425 -4.585266 0.5574497,-7.944221 -3.926303 0.7412087,-7.947792 -3.352273 0.8735752,-8.416706 -5.593734 0.4094121,-8.384724 -4.33605 0.5830235,-8.374966 -3.523455 0.8240346,-8.384803 -2.834436 1.032608,-8.753291 -5.756546 0.4847978,-8.769541 -4.602024 0.6545967,-8.767353 -3.872369 0.8304631,-8.75588 -3.240602 0.9694001,-9.091276 -6.123857 0.5910747,-9.185734 -5.279514 0.7901771,-9.217001 -4.737384 0.9377817,-9.223973 -4.212938 1.051048,1.510,41  0
-2.421717 -8.381359 -0.07795692,-3.03433 -7.942453 0.1073553,-3.509344 -7.25865 0.1963083,-3.813944 -6.552928 0.3220651,-4.067144 -6.029344 0.4603999,-3.060998 -5.845432 -0.1149081,-3.265554 -4.833779 -0.009940922,-3.360806 -4.250175 0.07649355,-3.420275 -3.708636 0.1554573,-2.750197 -5.69325 -0.0432338,-2.875491 -4.526228 0.05686611,-2.875491 -4.526228 0.05686611,-2.97799 -3.136627 0.3481116,-2.441684 -5.753635 0.08880705,-2.473953 -4.627206 0.214694,-2.524437 -3.903408 0.3827412,-2.577845 -3.300776 0.5226423,-2.118168 -6.015398 0.2557314,-2.040139 -5.158495 0.3736563,-2.027888 -4.583866 0.5359539,-2.029508 -4.06269 0.6610469,-8.61991 -8.405783 0.1374095,-8.054039 -7.956502 0.4068443,-7.603517 -7.184833 0.6112601,-7.282271 -6.507134 0.8440043,-6.934299 -6.148645 1.087715,-8.077668 -5.697654 0.385834,-7.97784 -4.593086 0.5832359,-7.95701 -3.927809 0.7600042,-7.959028 -3.352718 0.8828303,-8.445415 -5.605961 0.4416332,-8.419463 -4.360559 0.595723,-8.422291 -3.590631 0.8209183,-8.440159 -2.945396 1.011685,-8.780078 -5.767518 0.5204208,-8.811736 -4.601749 0.6804849,-8.833644 -3.890221 0.8514414,-8.84643 -3.275054 0.9851791,-9.115764 -6.131731 0.6269169,-9.218344 -5.279134 0.8111303,-9.253478 -4.733543 0.9419354,-9.264647 -4.208362 1.045062,1.610,41  0
-2.440881 -8.40934 4.956149E-06,-3.053315 -7.965259 0.1800891,-3.525852 -7.264165 0.2730026,-3.828047 -6.552892 0.4050519,-4.079281 -6.014992 0.5539038,-3.090381 -5.857032 -0.01236639,-3.301645 -4.841648 0.1120806,-3.397272 -4.250587 0.2015458,-3.458849 -3.688868 0.2813362,-2.77597 -5.700287 0.06942795,-2.902214 -4.530828 0.1963359,-2.902214 -4.530828 0.1963359,-3.010916 -3.135716 0.503605,-2.461712 -5.757763 0.215181,-2.497701 -4.619663 0.3701861,-2.551148 -3.884243 0.5618572,-2.607494 -3.26816 0.722635,-2.129719 -6.025079 0.386944,-2.046792 -5.155073 0.5290052,-2.032323 -4.566015 0.7181886,-2.033875 -4.029518 0.8660796,-8.671783 -8.420582 0.2056222,-8.110252 -7.948646 0.4355453,-7.656901 -7.162309 0.6331296,-7.323834 -6.506888 0.8561082,-6.970927 -6.116804 1.113347,-8.156696 -5.64541 0.3045972,-8.026651 -4.613954 0.4227902,-7.982965 -3.989706 0.5743157,-7.955309 -3.435808 0.6969098,-8.53566 -5.587629 0.3740526,-8.532548 -4.517374 0.4358244,-8.546911 -3.911888 0.6048743,-8.564523 -3.448517 0.7420725,-8.876766 -5.748345 0.4836432,-8.932154 -4.718 0.5551926,-8.961856 -4.111206 0.70198,-8.971951 -3.596092 0.8098557,-9.204785 -6.100935 0.6257936,-9.306759 -5.322276 0.7432523,-9.338531 -4.801129 0.8498511,-9.336162 -4.306634 0.9404464,1.710,41  0
-2.445419 -8.423645 0.003536802,-3.066052 -7.990687 0.1789703,-3.544071 -7.285566 0.2680189,-3.844889 -6.576149 0.3964178,-4.098032 -6.04701 0.5422036,-3.099771 -5.873616 -0.02535289,-3.308598 -4.85189 0.1059424,-3.409828 -4.254962 0.196565,-3.476336 -3.69123 0.2765431,-2.786704 -5.714058 0.06097433,-2.917187 -4.54413 0.1976719,-2.917187 -4.54413 0.1976719,-3.048314 -3.135786 0.5091497,-2.473005 -5.771412 0.2126983,-2.51111 -4.628839 0.376965,-2.570525 -3.89355 0.5714656,-2.631702 -3.277102 0.7304581,-2.141578 -6.038003 0.39189,-2.056534 -5.163507 0.544764,-2.045772 -4.567918 0.7391896,-2.054577 -4.024745 0.8910429,-8.722199 -8.367041 0.03271818,-8.190034 -7.907404 0.2586486,-7.743623 -7.092643 0.3859217,-7.388864 -6.433652 0.5338507,-7.039715 -6.061035 0.7113628,-8.230532 -5.616773 -0.01712321,-8.09283 -4.611871 0.03345782,-8.053688 -3.981313 0.1569519,-8.01644 -3.434494 0.2668039,-8.60971 -5.577522 0.02221009,-8.629736 -4.615366 0.04533849,-8.657999 -4.156227 0.2067259,-8.661451 -3.898612 0.3300138,-8.941958 -5.746505 0.1093163,-9.013954 -4.841976 0.1387187,-9.030602 -4.357259 0.275962,-9.011931 -4.014297 0.3724563,-9.252439 -6.092416 0.2382957,-9.341051 -5.426706 0.3327812,-9.364469 -4.992977 0.4525078,-9.341932 -4.619217 0.546449,1.810,41  0
-2.454761 -8.421841 0.001668946,-3.076113 -7.986301 0.1534801,-3.551262 -7.28269 0.222913,-3.844014 -6.572292 0.3372909,-4.104465 -6.056621 0.4725256,-3.119246 -5.872381 -0.02586625,-3.338032 -4.853712 0.0993912,-3.43269 -4.26449 0.1793444,-3.490355 -3.702239 0.2481862,-2.807462 -5.714587 0.07318241,-2.941758 -4.543293 0.2156896,-2.941758 -4.543293 0.2156896,-3.060574 -3.145129 0.5208562,-2.492127 -5.774134 0.2371512,-2.534948 -4.625525 0.4102112,-2.59061 -3.893938 0.608845,-2.648246 -3.277958 0.7694866,-2.155424 -6.041254 0.4244256,-2.08061 -5.165372 0.5898513,-2.07895 -4.574565 0.7926065,-2.093606 -4.035439 0.9484258,-8.74656 -8.312418 -0.09369913,-8.222431 -7.916427 0.1705751,-7.776781 -7.098222 0.3193241,-7.425409 -6.426341 0.4870872,-7.037056 -6.05097 0.6880113,-8.235913 -5.631923 -0.04742555,-8.080423 -4.648711 0.05238694,-8.050494 -4.009016 0.2255327,-8.033505 -3.427671 0.3799923,-8.61455 -5.561389 -0.002438068,-8.599392 -4.56495 0.1086761,-8.626648 -4.189617 0.3244668,-8.661779 -4.061971 0.4794235,-8.953569 -5.718343 0.08983985,-9.011262 -4.795022 0.2037253,-9.039582 -4.318247 0.3934485,-9.051285 -4.014934 0.5389785,-9.281547 -6.075689 0.2167359,-9.371176 -5.415849 0.400515,-9.369541 -5.113212 0.570899,-9.331409 -4.950883 0.6944997,1.910,41  0
-2.452732 -8.436188 0.01407516,-3.075047 -8.021193 0.1828492,-3.552334 -7.313052 0.2628298,-3.849995 -6.59457 0.3809544,-4.116007 -6.085327 0.5092664,-3.122957 -5.886622 0.00086255,-3.334765 -4.863416 0.1423752,-3.42701 -4.268875 0.243704,-3.482807 -3.697957 0.3292485,-2.810409 -5.726295 0.09587641,-2.939237 -4.550962 0.2481322,-2.939237 -4.550962 0.2481322,-3.049482 -3.136596 0.5716082,-2.491923 -5.786752 0.2567293,-2.53424 -4.645401 0.4352207,-2.59184 -3.911059 0.6308968,-2.651211 -3.285435 0.791256,-2.153853 -6.059192 0.4457779,-2.072098 -5.197238 0.6114855,-2.062513 -4.611535 0.8087021,-2.067086 -4.071153 0.9637733,-8.822569 -8.35475 -0.1469817,-8.291932 -7.896243 0.1641262,-7.883893 -7.092094 0.3651545,-7.53538 -6.406801 0.5611485,-7.124041 -6.0177 0.7607911,-8.319589 -5.687389 -0.0590759,-8.241613 -4.692831 0.08158904,-8.240858 -4.020385 0.2863215,-8.2385 -3.434022 0.449898,-8.690319 -5.620224 -0.02269184,-8.757798 -4.522013 0.3725065,-8.77469 -4.679204 0.7497392,-8.75101 -5.062795 0.9334186,-9.024172 -5.747072 0.05305244,-9.116898 -4.722402 0.3804735,-9.103573 -4.966502 0.630668,-9.072002 -5.416665 0.6892644,-9.362053 -6.047927 0.149103,-9.465045 -5.188259 0.4516692,-9.404059 -5.249471 0.6162577,-9.336927 -5.595562 0.6548852,2.010,41  0
-2.461095 -8.456976 0.05501249,-3.083778 -8.037743 0.2161369,-3.558598 -7.3298 0.2967435,-3.852074 -6.608936 0.4227136,-4.124477 -6.094821 0.5660836,-3.133852 -5.890195 0.03200404,-3.351408 -4.865278 0.1708441,-3.449968 -4.272023 0.2642078,-3.508362 -3.700578 0.3461161,-2.820637 -5.73552 0.1366575,-2.943919 -4.566361 0.2778803,-2.943919 -4.566361 0.2778803,-3.056223 -3.169476 0.5798589,-2.502548 -5.803424 0.3084228,-2.538253 -4.665492 0.4770722,-2.596992 -3.933568 0.6703408,-2.656575 -3.309722 0.8302522,-2.164233 -6.08702 0.5080494,-2.077871 -5.228157 0.6743361,-2.068088 -4.639194 0.8731074,-2.072157 -4.09547 1.027472,-8.861555 -8.450298 -0.2100919,-8.319858 -7.934015 0.0511156,-7.931109 -7.053589 0.1957068,-7.612023 -6.337289 0.3425934,-7.219661 -5.934923 0.5033641,-8.416754 -5.777291 -0.2049367,-8.36275 -4.762649 -0.07339241,-8.377301 -4.107074 0.1191381,-8.387893 -3.530831 0.2789619,-8.772973 -5.729678 -0.1606995,-8.858941 -4.636467 0.2031793,-8.859715 -4.712787 0.5831913,-8.823825 -5.079015 0.7926137,-9.088529 -5.870143 -0.0790817,-9.203482 -4.824808 0.2344939,-9.176821 -4.988637 0.5127141,-9.125493 -5.419853 0.603453,-9.407873 -6.173311 0.0170846,-9.523963 -5.333765 0.3527085,-9.463453 -5.345512 0.5650771,-9.384303 -5.661432 0.6415947,2.110,41  0
-2.464561 -8.468611 -0.01415908,-3.093699 -8.072187 0.1602205,-3.577915 -7.373772 0.2547791,-3.873974 -6.657306 0.3930907,-4.131483 -6.125982 0.5421141,-3.152395 -5.928735 -0.005869217,-3.36265 -4.895792 0.1389123,-3.462232 -4.291799 0.2404231,-3.522324 -3.716413 0.3222176,-2.839616 -5.769934 0.08914121,-2.962893 -4.595865 0.2372528,-2.962893 -4.595865 0.2372528,-3.073862 -3.194333 0.5509489,-2.522328 -5.831715 0.2501821,-2.555225 -4.694235 0.4276506,-2.610858 -3.961961 0.6267015,-2.66729 -3.344177 0.7916462,-2.183423 -6.107284 0.4375099,-2.101853 -5.247076 0.6044711,-2.096676 -4.667294 0.8034124,-2.106182 -4.136077 0.9561595,-8.882156 -8.358103 -0.5494939,-8.334394 -7.897689 -0.2475168,-7.935805 -7.060434 -0.0805431,-7.610173 -6.339881 0.08212119,-7.223369 -5.899322 0.2480236,-8.409937 -5.7791 -0.4848315,-8.320959 -4.77482 -0.3261458,-8.320805 -4.101337 -0.101722,-8.316813 -3.513785 0.09789205,-8.771316 -5.736656 -0.453289,-8.830019 -4.661705 -0.06250447,-8.836921 -4.631204 0.3643866,-8.811307 -4.911041 0.61848,-9.088342 -5.865531 -0.3857118,-9.18455 -4.853193 -0.06728211,-9.149256 -4.889652 0.2271255,-9.09324 -5.219103 0.3447493,-9.402415 -6.160272 -0.2942599,-9.530692 -5.378151 0.03025371,-9.493068 -5.283617 0.2393758,-9.418002 -5.48276 0.3314738,2.210,41  0
-2.481092 -8.486765 -0.05688588,-3.105614 -8.100122 0.1306262,-3.577732 -7.401498 0.2395928,-3.873013 -6.687753 0.3890409,-4.144573 -6.160249 0.5512378,-3.161406 -5.965477 -0.02013741,-3.377253 -4.934085 0.1526221,-3.474682 -4.339738 0.2720912,-3.533894 -3.771942 0.3633957,-2.848501 -5.800839 0.07993142,-2.9715 -4.622367 0.2490842,-2.9715 -4.622367 0.2490842,-3.071955 -3.195998 0.59464,-2.529919 -5.861625 0.2450715,-2.563673 -4.722593 0.4383948,-2.620757 -3.973003 0.6515551,-2.683304 -3.33601 0.8259671,-2.193166 -6.144239 0.4360766,-2.106976 -5.276857 0.6175055,-2.095543 -4.686443 0.8183721,-2.100934 -4.137432 0.9738922,-8.877631 -8.329969 -0.5408229,-8.324467 -7.880765 -0.2153365,-7.922796 -7.03276 -0.05214316,-7.594885 -6.302824 0.09969872,-7.204176 -5.845571 0.2518997,-8.413763 -5.756002 -0.4766364,-8.324647 -4.769659 -0.3189487,-8.326856 -4.106348 -0.09528044,-8.324861 -3.524012 0.1070395,-8.774378 -5.70532 -0.4562173,-8.821513 -4.640705 -0.06485963,-8.823967 -4.634923 0.3732788,-8.801743 -4.928543 0.6340783,-9.092074 -5.832333 -0.3961808,-9.180289 -4.833705 -0.06536877,-9.141484 -4.897218 0.2426444,-9.087887 -5.251981 0.365846,-9.40832 -6.1305 -0.3115453,-9.531122 -5.356826 0.02768421,-9.487947 -5.281545 0.2507362,-9.409999 -5.506114 0.3495408,2.310,41  0
-2.500729 -8.476849 -0.06609561,-3.120269 -8.086927 0.107169,-3.593478 -7.396579 0.2042277,-3.88832 -6.691659 0.3493798,-4.156609 -6.174825 0.5104626,-3.176167 -5.950556 -0.07822201,-3.395898 -4.935552 0.07849051,-3.500041 -4.337205 0.1879182,-3.566381 -3.766378 0.2743889,-2.865251 -5.79117 0.02283949,-2.993892 -4.623699 0.1730163,-2.993892 -4.623699 0.1730163,-3.112835 -3.216914 0.4935474,-2.547197 -5.85488 0.1918935,-2.578396 -4.718966 0.3709558,-2.636944 -3.97941 0.5747828,-2.700381 -3.362581 0.7382935,-2.207818 -6.139225 0.3875273,-2.115248 -5.284942 0.5599443,-2.108277 -4.701217 0.7593096,-2.120532 -4.172815 0.9087159,-8.914199 -8.264828 -0.53754,-8.352688 -7.808279 -0.2085084,-7.951511 -6.964759 -0.03402328,-7.618632 -6.241439 0.128055,-7.229038 -5.799521 0.2936184,-8.42359 -5.706673 -0.3914906,-8.334909 -4.740715 -0.190455,-8.333363 -4.090719 0.05386049,-8.33039 -3.555898 0.2607632,-8.790941 -5.644421 -0.3654622,-8.847639 -4.582992 0.06403273,-8.847654 -4.605453 0.491382,-8.8232 -4.951923 0.7432071,-9.11798 -5.774804 -0.3017541,-9.216581 -4.768091 0.08053517,-9.173577 -4.885882 0.385375,-9.122418 -5.312883 0.4966273,-9.437379 -6.076478 -0.2175768,-9.561587 -5.289656 0.1450704,-9.5187 -5.20465 0.3577973,-9.448364 -5.445594 0.4555291,2.410,41  0
-2.490918 -8.476624 -0.1343587,-3.121056 -8.090975 0.05231051,-3.596769 -7.40781 0.1621667,-3.889097 -6.70075 0.3130598,-4.164993 -6.181673 0.4795989,-3.171318 -5.974685 -0.086804,-3.390629 -4.94272 0.08531347,-3.495723 -4.340234 0.2095144,-3.560007 -3.76678 0.303104,-2.858516 -5.813388 0.008293837,-2.985951 -4.63202 0.1736314,-2.985951 -4.63202 0.1736314,-3.095167 -3.206115 0.5141589,-2.540758 -5.875124 0.1674138,-2.573911 -4.742177 0.3495676,-2.630828 -4.004905 0.5578142,-2.692508 -3.383655 0.734161,-2.207685 -6.148764 0.3509023,-2.118631 -5.296382 0.5225156,-2.108758 -4.713324 0.7214668,-2.120227 -4.176769 0.8765999,-8.952092 -8.227076 -0.5444803,-8.374611 -7.765392 -0.2163154,-7.974861 -6.923458 -0.04583818,-7.649505 -6.183053 0.1188073,-7.25104 -5.738448 0.275652,-8.432629 -5.697036 -0.371236,-8.35103 -4.740805 -0.1555731,-8.350568 -4.099578 0.0937134,-8.345594 -3.558772 0.2991729,-8.811475 -5.611385 -0.345952,-8.876016 -4.53231 0.09901321,-8.870291 -4.648313 0.5025737,-8.841193 -5.041283 0.7251216,-9.149302 -5.71927 -0.2830321,-9.248472 -4.688676 0.108194,-9.205077 -4.865765 0.3876736,-9.158647 -5.314965 0.4687754,-9.481095 -5.997844 -0.2020062,-9.602274 -5.168794 0.1486369,-9.548822 -5.119591 0.3315614,-9.479753 -5.396327 0.3982038,2.510,41  0
-2.506316 -8.482653 -0.1181731,-3.124409 -8.096165 0.08513477,-3.594632 -7.412977 0.2025925,-3.883873 -6.706975 0.3605404,-4.157446 -6.181237 0.5359408,-3.176874 -5.972192 -0.0689245,-3.394245 -4.948099 0.104346,-3.498489 -4.347932 0.2262265,-3.563249 -3.77589 0.3229847,-2.86273 -5.812953 0.01958492,-2.992095 -4.640973 0.1811668,-2.992095 -4.640973 0.1811668,-3.09687 -3.224542 0.5114328,-2.545516 -5.877895 0.1753068,-2.579757 -4.746778 0.3591918,-2.638536 -4.01128 0.5653356,-2.698705 -3.390918 0.7363818,-2.212573 -6.158708 0.3570305,-2.125087 -5.29771 0.5320005,-2.116663 -4.710419 0.7318345,-2.124912 -4.16872 0.8864104,-9.006805 -8.140507 -0.396176,-8.423274 -7.685983 -0.03347796,-8.01317 -6.845809 0.1699911,-7.692872 -6.097977 0.3638564,-7.292859 -5.622667 0.566775,-8.47967 -5.571167 -0.1596855,-8.399482 -4.664714 0.1007044,-8.392375 -4.04738 0.4002164,-8.384813 -3.539554 0.6372254,-8.862107 -5.487422 -0.1391712,-8.936321 -4.391719 0.3629753,-8.918452 -4.536585 0.8202993,-8.891739 -4.964838 1.07814,-9.208857 -5.598016 -0.07153842,-9.308197 -4.549852 0.3811332,-9.249557 -4.817729 0.7097503,-9.201952 -5.361474 0.825364,-9.554517 -5.877649 0.01034948,-9.677695 -5.025491 0.3840427,-9.611011 -5.00469 0.5962451,-9.539486 -5.347511 0.6815625,2.610,41  0
-2.518109 -8.488779 -0.140968,-3.13698 -8.11342 0.0415784,-3.610325 -7.431283 0.1484508,-3.905434 -6.728963 0.2957798,-4.179613 -6.228128 0.4619798,-3.1908 -5.985017 -0.09450376,-3.406548 -4.970188 0.07444729,-3.510942 -4.372434 0.1895687,-3.578111 -3.802381 0.2788803,-2.875199 -5.825991 0.0008662939,-3.005669 -4.658392 0.1650405,-3.005669 -4.658392 0.1650405,-3.124933 -3.252143 0.4969277,-2.55725 -5.894069 0.1614113,-2.588943 -4.75735 0.348705,-2.647329 -4.023566 0.5551728,-2.709665 -3.410316 0.725426,-2.222146 -6.179935 0.3449686,-2.129715 -5.315915 0.5204076,-2.118644 -4.72731 0.7225185,-2.129362 -4.191425 0.8768615,-9.000384 -8.079607 -0.3200994,-8.416682 -7.64178 0.04707125,-8.013429 -6.774473 0.2420207,-7.700073 -6.004121 0.4325265,-7.301057 -5.50941 0.6261395,-8.493029 -5.478007 -0.1066297,-8.416481 -4.576969 0.1549504,-8.414525 -3.97682 0.4723681,-8.409142 -3.476108 0.7240939,-8.877858 -5.40208 -0.07886161,-8.962097 -4.286575 0.4342571,-8.937774 -4.479187 0.9061984,-8.901716 -4.93295 1.155467,-9.223201 -5.519506 -0.004973412,-9.333132 -4.462526 0.4594048,-9.263227 -4.77304 0.7842683,-9.203907 -5.337436 0.8885664,-9.565131 -5.809534 0.08584034,-9.70715 -4.955251 0.4588295,-9.635531 -4.952365 0.6628844,-9.556443 -5.300922 0.7282275,2.710,41  0
-2.531113 -8.497061 -0.1551917,-3.148438 -8.125761 0.04258384,-3.622521 -7.437277 0.1603729,-3.917155 -6.739546 0.3174841,-4.186345 -6.235463 0.4905542,-3.206282 -6.002682 -0.08955147,-3.422052 -4.984632 0.0830285,-3.524628 -4.386913 0.1978417,-3.590345 -3.821609 0.2866121,-2.893009 -5.839813 0.0008187443,-3.020315 -4.675113 0.1655697,-3.020315 -4.675113 0.1655697,-3.130825 -3.262307 0.4842271,-2.576102 -5.899732 0.1585261,-2.606014 -4.761549 0.3463662,-2.661112 -4.022104 0.5495479,-2.719272 -3.396467 0.7218555,-2.244266 -6.173934 0.3395946,-2.154701 -5.305822 0.5111253,-2.138335 -4.718874 0.7036892,-2.1373 -4.178586 0.8558766,-8.969075 -8.090097 -0.3322092,-8.371048 -7.65977 0.1019403,-7.96044 -6.821364 0.3378552,-7.639317 -6.052377 0.5571274,-7.224369 -5.533412 0.7960159,-8.454805 -5.48245 -0.06307825,-8.380479 -4.573703 0.1949907,-8.37468 -3.981424 0.5103199,-8.364319 -3.515033 0.7761408,-8.838097 -5.419897 -0.05544752,-8.902052 -4.314868 0.4794523,-8.887844 -4.400878 1.031578,-8.872406 -4.817222 1.367231,-9.185252 -5.534671 -0.008553267,-9.287958 -4.488387 0.4797816,-9.231328 -4.722367 0.8927284,-9.172457 -5.261568 1.085323,-9.534416 -5.805446 0.05943185,-9.677832 -4.952835 0.4845297,-9.617912 -4.922979 0.77763,-9.533253 -5.27842 0.931658,2.810,41  0
-2.527469 -8.505339 -0.1914115,-3.151416 -8.12579 0.0159606,-3.625629 -7.445341 0.1365061,-3.911024 -6.743169 0.2882406,-4.172075 -6.219369 0.4536029,-3.214533 -6.025287 -0.1143961,-3.415331 -5.001499 0.06514066,-3.515167 -4.405979 0.1968055,-3.587585 -3.845969 0.296962,-2.893655 -5.859137 -0.03550133,-3.010723 -4.68744 0.1383366,-3.010723 -4.68744 0.1383366,-3.114156 -3.272811 0.4859319,-2.573814 -5.915682 0.1068459,-2.605026 -4.787897 0.3024037,-2.658225 -4.057046 0.5030094,-2.718964 -3.439638 0.673393,-2.239276 -6.184234 0.2756672,-2.150602 -5.324852 0.4435206,-2.132833 -4.749719 0.6235481,-2.134233 -4.222444 0.7657779,-8.950159 -8.087368 -0.3131036,-8.348704 -7.64768 0.1505353,-7.937355 -6.799218 0.4125216,-7.624922 -6.011213 0.6505658,-7.220769 -5.448495 0.9148797,-8.435135 -5.48773 0.0716199,-8.346752 -4.576398 0.3648349,-8.34155 -3.994864 0.7048285,-8.330998 -3.5537 0.996583,-8.824494 -5.425093 0.07354763,-8.879509 -4.364765 0.6161795,-8.893312 -4.31837 1.18167,-8.897552 -4.65007 1.5592,-9.175167 -5.554969 0.1205404,-9.274082 -4.521944 0.607694,-9.236217 -4.585994 1.040894,-9.184715 -5.011027 1.278936,-9.522411 -5.856967 0.1881881,-9.666707 -5.012445 0.6438006,-9.630108 -4.887029 0.9838752,-9.552723 -5.150483 1.195234,2.910,41  0
-2.522321 -8.505842 -0.2497959,-3.14216 -8.145115 -0.04623199,-3.624476 -7.477026 0.07214639,-3.918215 -6.768556 0.2187785,-4.188826 -6.250944 0.378783,-3.211001 -6.05592 -0.1657344,-3.418125 -5.027033 0.01822096,-3.521431 -4.424379 0.1498982,-3.594679 -3.854633 0.250877,-2.889853 -5.876733 -0.09350282,-3.014393 -4.70565 0.08438146,-3.014393 -4.70565 0.08438146,-3.126072 -3.28614 0.4408938,-2.567274 -5.91934 0.04188082,-2.60415 -4.78573 0.2311558,-2.657078 -4.058609 0.4335381,-2.716713 -3.444572 0.606855,-2.232284 -6.173919 0.1994935,-2.141212 -5.3044 0.3643584,-2.118333 -4.718388 0.5505993,-2.115336 -4.175922 0.7015076,-8.976466 -8.05677 -0.3778618,-8.358233 -7.653215 0.08610967,-7.942108 -6.800769 0.3341866,-7.646257 -5.975999 0.5602514,-7.271289 -5.355186 0.7982833,-8.422106 -5.489936 -0.03906038,-8.330852 -4.581275 0.2393003,-8.324003 -3.997956 0.5575228,-8.30789 -3.533954 0.8227348,-8.813249 -5.407781 -0.04594466,-8.885865 -4.326145 0.4887745,-8.883078 -4.37457 1.027069,-8.86618 -4.74951 1.36601,-9.167312 -5.523502 -0.004742652,-9.280223 -4.482671 0.4895161,-9.232848 -4.651891 0.9042473,-9.178259 -5.146803 1.113627,-9.516493 -5.810272 0.05458736,-9.661589 -4.955118 0.4608902,-9.620203 -4.866635 0.7422135,-9.552505 -5.157344 0.9039515,3.010,41  0
-2.537392 -8.548985 -0.2318855,-3.148406 -8.176411 -0.00194101,-3.61705 -7.510988 0.1296242,-3.908567 -6.808836 0.2852582,-4.182667 -6.291727 0.4512716,-3.206127 -6.088457 -0.1113135,-3.419163 -5.07146 0.08033949,-3.521982 -4.476575 0.2047914,-3.593217 -3.912567 0.2981104,-2.884794 -5.913784 -0.04720519,-3.009516 -4.752669 0.1333695,-3.009516 -4.752669 0.1333695,-3.122564 -3.333796 0.4929472,-2.563191 -5.962711 0.0814192,-2.59655 -4.84073 0.2813821,-2.649801 -4.106107 0.4886592,-2.708813 -3.489872 0.6637992,-2.230545 -6.226757 0.2340915,-2.131819 -5.361948 0.4103931,-2.106145 -4.773919 0.5986273,-2.101702 -4.229502 0.7539877,-8.942258 -8.031172 -0.4341932,-8.307701 -7.654079 0.08827376,-7.903846 -6.810754 0.3756917,-7.668 -5.948822 0.6330932,-7.364576 -5.229478 0.8772111,-8.36684 -5.516261 -0.02985245,-8.290556 -4.622528 0.3066418,-8.297639 -4.03564 0.6644087,-8.297105 -3.547491 0.9493557,-8.767721 -5.404335 -0.06316227,-8.861066 -4.287708 0.5157799,-8.827767 -4.437942 1.069812,-8.79199 -4.845875 1.401756,-9.129756 -5.487884 -0.05025062,-9.256253 -4.410949 0.4874899,-9.185258 -4.708784 0.9244585,-9.116438 -5.274953 1.132727,-9.487926 -5.733902 -0.01885238,-9.652394 -4.848115 0.3557646,-9.587324 -4.797792 0.5995189,-9.500042 -5.110473 0.724086,3.110,41  0
-2.522373 -8.504747 -0.3336761,-3.130236 -8.149803 -0.09134933,-3.605808 -7.503186 0.05342731,-3.897713 -6.804689 0.219452,-4.173283 -6.282189 0.4028041,-3.202093 -6.079751 -0.1660403,-3.41048 -5.045205 0.03466025,-3.510477 -4.440246 0.1701236,-3.578979 -3.862453 0.2760094,-2.877763 -5.903236 -0.1081256,-2.999942 -4.725702 0.0876824,-2.999942 -4.725702 0.0876824,-3.102114 -3.307159 0.4550354,-2.554919 -5.951084 0.01217878,-2.587793 -4.817741 0.2183577,-2.638152 -4.088285 0.4253806,-2.697681 -3.473361 0.6038368,-2.218631 -6.207956 0.1554655,-2.116382 -5.341457 0.330434,-2.087946 -4.756652 0.5203909,-2.084393 -4.220621 0.6777204,-8.954937 -8.03492 -0.3703273,-8.313478 -7.654783 0.1903539,-7.922096 -6.838798 0.5023813,-7.725068 -5.977014 0.7762573,-7.481581 -5.212367 1.038794,-8.353171 -5.518718 0.09931397,-8.269994 -4.627751 0.4432244,-8.27954 -4.030965 0.8145422,-8.281704 -3.542377 1.104349,-8.759004 -5.39829 0.04862881,-8.850351 -4.2937 0.6190197,-8.831053 -4.374771 1.178622,-8.807942 -4.737894 1.540666,-9.123913 -5.476188 0.04406703,-9.242543 -4.382698 0.5728538,-9.187408 -4.632515 1.023956,-9.132159 -5.174572 1.259527,-9.485262 -5.710978 0.06133437,-9.641237 -4.808242 0.4399909,-9.584396 -4.75131 0.7020864,-9.503303 -5.064514 0.8533574,3.210,41  0
-2.512378 -8.515213 -0.3251867,-3.131569 -8.162365 -0.0873512,-3.609837 -7.512374 0.04505384,-3.906696 -6.815982 0.1989277,-4.188906 -6.310823 0.3715159,-3.197445 -6.083431 -0.1838584,-3.40419 -5.060492 0.007621408,-3.512024 -4.45518 0.1383202,-3.587037 -3.877182 0.2389686,-2.86981 -5.909561 -0.1237657,-2.989366 -4.743326 0.06246412,-2.989366 -4.743326 0.06246412,-3.101694 -3.32165 0.4286611,-2.545632 -5.958714 0.002106965,-2.577683 -4.832098 0.2035018,-2.629507 -4.100424 0.4177569,-2.686493 -3.477963 0.6007026,-2.213109 -6.215366 0.1488441,-2.112533 -5.348453 0.3244572,-2.082727 -4.762805 0.51707,-2.07267 -4.21541 0.6780466,-8.945289 -7.994487 -0.5054678,-8.314223 -7.641316 0.05842954,-7.913146 -6.869737 0.378132,-7.755501 -6.030624 0.6431136,-7.690453 -5.295411 0.8704826,-8.346395 -5.532955 -0.06523573,-8.263825 -4.641742 0.3213082,-8.268579 -4.042604 0.7517149,-8.271005 -3.583384 1.080019,-8.754244 -5.392045 -0.1164804,-8.853292 -4.295917 0.4571922,-8.828288 -4.341448 1.03548,-8.801531 -4.704373 1.41677,-9.119181 -5.449872 -0.1128187,-9.243325 -4.369592 0.402684,-9.190922 -4.61161 0.8394731,-9.135828 -5.157985 1.080202,-9.477524 -5.662397 -0.08575815,-9.640247 -4.765481 0.2790857,-9.589765 -4.718898 0.5243134,-9.505888 -5.0488 0.6791755,3.310,41  0
-2.513288 -8.536194 -0.3111277,-3.123704 -8.195623 -0.07229224,-3.599184 -7.535362 0.05322134,-3.895138 -6.841965 0.2038711,-4.177343 -6.338425 0.3783514,-3.182722 -6.100403 -0.1675327,-3.395756 -5.078884 0.01878878,-3.498954 -4.47022 0.1391761,-3.569292 -3.886898 0.2341917,-2.856261 -5.924687 -0.1080073,-2.976884 -4.75881 0.07617179,-2.976884 -4.75881 0.07617179,-3.092247 -3.343053 0.4234211,-2.533441 -5.976388 0.01562601,-2.561531 -4.841617 0.2216873,-2.618412 -4.105388 0.4384527,-2.678651 -3.478565 0.6235622,-2.200582 -6.238864 0.1586361,-2.099992 -5.36989 0.3414174,-2.076906 -4.783611 0.5435529,-2.075712 -4.241845 0.7099456,-8.929667 -7.854063 -0.7327437,-8.329746 -7.625591 -0.1511014,-7.860064 -6.842474 0.1825178,-7.786001 -5.94885 0.4438981,-8.124744 -5.660375 0.5860897,-8.36289 -5.506237 -0.2477127,-8.283843 -4.661668 0.2407762,-8.256063 -4.101215 0.7201737,-8.246628 -3.671527 1.078685,-8.781886 -5.326371 -0.273905,-8.870632 -4.237466 0.4089564,-8.802407 -4.338495 1.009595,-8.760292 -4.741085 1.382153,-9.159884 -5.340604 -0.2459237,-9.270923 -4.280595 0.3052613,-9.193339 -4.552873 0.6686941,-9.128014 -5.065389 0.8493607,-9.535757 -5.523109 -0.1799853,-9.680911 -4.644617 0.2096661,-9.617442 -4.638334 0.4311439,-9.529126 -4.980182 0.5583678,3.410,41  0
-2.519969 -8.538361 -0.307409,-3.128321 -8.194183 -0.05271861,-3.600594 -7.541275 0.0866929,-3.891246 -6.844541 0.2490945,-4.173853 -6.324083 0.4331774,-3.192446 -6.10666 -0.1398019,-3.402884 -5.090861 0.06884468,-3.508537 -4.486356 0.2086917,-3.583558 -3.901054 0.3163344,-2.865412 -5.927948 -0.08146845,-2.979254 -4.766918 0.1228131,-2.979254 -4.766918 0.1228131,-3.087889 -3.349552 0.4896926,-2.542836 -5.981931 0.04230735,-2.565991 -4.858181 0.261349,-2.621192 -4.124838 0.4872462,-2.680457 -3.498528 0.6750122,-2.211485 -6.24773 0.1873096,-2.110507 -5.383611 0.3808592,-2.087299 -4.800367 0.5857956,-2.085948 -4.257879 0.7525232,-8.929431 -7.853147 -0.8239694,-8.351983 -7.599893 -0.1949595,-7.869882 -6.840541 0.2172949,-7.795877 -6.034147 0.5383739,-8.128805 -5.768654 0.7625095,-8.381055 -5.562459 -0.08646971,-8.292925 -4.693332 0.4393876,-8.278753 -4.126974 0.9172573,-8.260345 -3.693249 1.290688,-8.798719 -5.408823 -0.1196163,-8.875712 -4.369216 0.592894,-8.865924 -4.189415 1.202071,-8.850183 -4.372087 1.614986,-9.176361 -5.429662 -0.110205,-9.275138 -4.388448 0.451483,-9.256658 -4.350869 0.8381763,-9.220431 -4.640049 1.067482,-9.552348 -5.616188 -0.04903597,-9.699617 -4.712569 0.3750788,-9.679588 -4.572821 0.6540635,-9.60526 -4.79791 0.8430384,3.510,41  0
-2.502032 -8.541389 -0.3374816,-3.119695 -8.207737 -0.07942745,-3.600286 -7.552215 0.06402639,-3.896286 -6.864648 0.2302211,-4.166759 -6.340145 0.4084337,-3.203671 -6.122152 -0.1663104,-3.411793 -5.103206 0.03833717,-3.517462 -4.501892 0.1752225,-3.594455 -3.92663 0.2808049,-2.878037 -5.943862 -0.1125148,-2.989415 -4.7884 0.09149441,-2.989415 -4.7884 0.09149441,-3.099266 -3.376115 0.4706284,-2.552435 -5.989868 0.008166939,-2.579901 -4.868318 0.2292491,-2.637733 -4.140016 0.454376,-2.699374 -3.518542 0.6413256,-2.214239 -6.246267 0.147297,-2.111095 -5.383747 0.3391137,-2.087251 -4.804207 0.5390022,-2.084794 -4.268972 0.7010367,-8.95153 -7.806063 -0.96926,-8.394464 -7.580288 -0.267722,-7.947283 -6.852135 0.2099142,-7.878915 -6.150033 0.5781568,-8.148801 -5.893386 0.8650994,-8.418583 -5.643243 0.05466151,-8.326825 -4.745598 0.6336812,-8.328585 -4.147378 1.114322,-8.338904 -3.644753 1.483975,-8.833899 -5.494674 -0.009082377,-8.877545 -4.571208 0.6995522,-8.93891 -4.158802 1.285845,-8.995096 -3.998703 1.722126,-9.215878 -5.499112 -0.03420687,-9.26334 -4.597372 0.5147864,-9.310486 -4.334024 0.8948023,-9.332219 -4.345841 1.152515,-9.593884 -5.661705 -0.001220942,-9.691448 -4.812809 0.414977,-9.695898 -4.603683 0.7032832,-9.655601 -4.679155 0.9165107,3.610,41  0
-2.536065 -8.544106 -0.3228799,-3.142624 -8.209688 -0.06101349,-3.607262 -7.563356 0.08417386,-3.89205 -6.868906 0.252122,-4.168192 -6.345466 0.4281556,-3.190575 -6.115867 -0.1593666,-3.401474 -5.107374 0.05069709,-3.506817 -4.517534 0.1893471,-3.582692 -3.948699 0.2976485,-2.871381 -5.936441 -0.1016054,-2.986889 -4.786087 0.10596,-2.986889 -4.786087 0.10596,-3.098408 -3.370102 0.4920367,-2.550112 -5.988506 0.02094403,-2.580567 -4.881696 0.2386999,-2.639642 -4.151258 0.4599654,-2.699635 -3.528215 0.6475543,-2.216835 -6.254047 0.1673601,-2.115365 -5.394364 0.356001,-2.09048 -4.812408 0.5539761,-2.087255 -4.267269 0.7184407,-8.974825 -7.816078 -1.100582,-8.420233 -7.595073 -0.4007519,-7.981933 -6.842913 0.06408775,-7.930829 -6.117284 0.4151815,-8.213035 -5.80336 0.67914,-8.459331 -5.68178 -0.07526958,-8.361975 -4.756549 0.4733694,-8.362481 -4.141363 0.9258032,-8.377822 -3.607391 1.279162,-8.878691 -5.540788 -0.1490867,-8.899896 -4.642796 0.5208516,-8.960989 -4.143276 1.071848,-9.019804 -3.871631 1.493336,-9.262513 -5.554014 -0.1841823,-9.278243 -4.664337 0.313477,-9.331747 -4.30149 0.6753254,-9.360005 -4.198438 0.9450829,-9.642258 -5.719322 -0.1656697,-9.716019 -4.888418 0.2037387,-9.733234 -4.604768 0.4639435,-9.710839 -4.564912 0.6796697,3.710,41  0
-2.511197 -8.592491 -0.2294493,-3.136451 -8.246973 -0.02665204,-3.614057 -7.556345 0.07648668,-3.901546 -6.83533 0.2115326,-4.173824 -6.316419 0.3695,-3.167789 -6.140304 -0.2237452,-3.382332 -5.124246 -0.07302803,-3.499739 -4.528276 0.0435712,-3.583449 -3.977661 0.1325717,-2.840263 -5.948909 -0.1516486,-2.962295 -4.78712 -0.01875067,-2.962295 -4.78712 -0.01875067,-3.084495 -3.349025 0.3171187,-2.517731 -5.980224 -0.01523808,-2.546786 -4.867582 0.1318376,-2.608282 -4.132726 0.3148293,-2.667845 -3.534115 0.4726121,-2.18806 -6.22714 0.1477662,-2.090515 -5.3623 0.2856414,-2.06578 -4.776706 0.4504484,-2.061839 -4.245851 0.5924597,-9.026904 -7.671518 -1.136246,-8.478606 -7.537998 -0.3079041,-8.040728 -6.812793 0.2256234,-7.985235 -6.094857 0.6228162,-8.253582 -5.737585 0.9152945,-8.557092 -5.635955 0.1096202,-8.448524 -4.741523 0.72677,-8.445882 -4.144704 1.197621,-8.463304 -3.610198 1.57668,-8.978901 -5.484899 -0.01499593,-8.994668 -4.607297 0.7144253,-9.066691 -4.074624 1.257988,-9.145295 -3.680082 1.670119,-9.352162 -5.487392 -0.09210634,-9.379438 -4.614299 0.4623318,-9.431746 -4.256105 0.8262875,-9.464052 -4.121356 1.080327,-9.71537 -5.639942 -0.1120039,-9.793532 -4.828575 0.3002013,-9.803544 -4.611383 0.5706148,-9.779807 -4.63964 0.7693447,3.810,41  0
-2.507457 -8.593515 -0.2286943,-3.136517 -8.238354 -0.03211378,-3.62772 -7.539703 0.06348252,-3.919034 -6.825195 0.1916659,-4.188015 -6.334451 0.3437613,-3.161475 -6.127805 -0.2178804,-3.362871 -5.095411 -0.07780397,-3.473442 -4.473831 0.02492994,-3.552958 -3.893163 0.1120892,-2.8339 -5.949609 -0.1439385,-2.952183 -4.779889 -0.01641858,-2.952183 -4.779889 -0.01641858,-3.091589 -3.35176 0.2899697,-2.513006 -5.987386 -0.004582986,-2.53782 -4.866005 0.1476465,-2.598063 -4.130586 0.3341612,-2.664245 -3.521602 0.4938734,-2.182093 -6.235185 0.1604883,-2.085484 -5.377403 0.3070076,-2.064795 -4.798349 0.4790683,-2.066633 -4.277318 0.6237512,-9.0518 -7.632963 -1.014965,-8.485264 -7.516202 -0.1898123,-8.033773 -6.732093 0.3254595,-8.018656 -5.957551 0.706255,-8.359015 -5.672355 0.9707867,-8.54401 -5.545879 0.1887138,-8.442528 -4.686059 0.8217862,-8.45912 -4.111714 1.31365,-8.489347 -3.595185 1.706695,-8.977077 -5.389075 0.06765735,-9.001474 -4.569891 0.832309,-9.084794 -4.151545 1.401749,-9.168122 -3.893201 1.810358,-9.362584 -5.386447 -0.000551343,-9.390229 -4.563406 0.5681239,-9.442456 -4.290102 0.9444028,-9.470621 -4.23162 1.199701,-9.739821 -5.539165 -0.01192856,-9.812496 -4.769895 0.4226984,-9.826085 -4.613433 0.7170618,-9.806395 -4.701299 0.9338604,3.910,41  0
-2.507004 -8.603849 -0.2352801,-3.131408 -8.257448 -0.02933019,-3.617418 -7.571476 0.07719103,-3.907995 -6.8549 0.2164917,-4.184137 -6.359458 0.3818964,-3.164268 -6.142147 -0.2021646,-3.3679 -5.110866 -0.06144129,-3.478364 -4.486237 0.04557008,-3.554712 -3.902601 0.1365273,-2.835657 -5.962848 -0.1300321,-2.956789 -4.782487 0.0004969388,-2.956789 -4.782487 0.0004969388,-3.089449 -3.350292 0.3193757,-2.515506 -6.003445 0.007093132,-2.541016 -4.867149 0.1638835,-2.601556 -4.126847 0.3548375,-2.66481 -3.509141 0.5207124,-2.18554 -6.255418 0.1690813,-2.08903 -5.389255 0.3188568,-2.067886 -4.805936 0.4966288,-2.067502 -4.276891 0.6476073,-9.036342 -7.612365 -1.120529,-8.482472 -7.470199 -0.3152653,-8.044088 -6.674361 0.1840622,-8.039662 -5.917228 0.5538402,-8.379307 -5.649343 0.8111588,-8.565649 -5.53764 0.07456267,-8.461178 -4.656885 0.6982578,-8.473053 -4.081445 1.163553,-8.507705 -3.552614 1.529066,-8.994156 -5.402969 -0.03420103,-9.00985 -4.540945 0.6992661,-9.094024 -4.039217 1.244285,-9.176305 -3.669513 1.653496,-9.376652 -5.411064 -0.08865392,-9.397964 -4.56981 0.4681756,-9.461125 -4.188083 0.8426023,-9.499154 -3.992307 1.115246,-9.750893 -5.567954 -0.09088743,-9.833709 -4.7835 0.3444737,-9.858241 -4.568361 0.635875,-9.842869 -4.572985 0.8578316,4.010,41  0
-2.496816 -8.629545 -0.1757668,-3.125097 -8.278584 0.04093173,-3.612736 -7.593639 0.150968,-3.901646 -6.871731 0.2886966,-4.179699 -6.360309 0.4474772,-3.156207 -6.151391 -0.118435,-3.364285 -5.112035 0.0295831,-3.480419 -4.48626 0.1389499,-3.559437 -3.901179 0.2311938,-2.825326 -5.972066 -0.05455262,-2.948221 -4.791439 0.07629585,-2.948221 -4.791439 0.07629585,-3.075956 -3.357916 0.3945012,-2.501918 -6.013348 0.07609451,-2.528799 -4.887929 0.2306979,-2.593714 -4.140226 0.4225045,-2.659119 -3.518953 0.5862052,-2.170719 -6.268224 0.2314492,-2.074497 -5.418599 0.3792065,-2.056274 -4.837426 0.5522793,-2.054604 -4.308507 0.6981693,-9.053055 -7.565569 -1.058262,-8.505004 -7.423746 -0.2296181,-8.064793 -6.66444 0.2991365,-8.045716 -5.927774 0.6925241,-8.382356 -5.634105 0.9723586,-8.573164 -5.513862 0.2128485,-8.469048 -4.653249 0.864938,-8.494672 -4.080127 1.352166,-8.547644 -3.556771 1.729095,-9.010036 -5.372783 0.0997957,-9.019492 -4.534654 0.8698355,-9.102607 -4.029027 1.438341,-9.19238 -3.646574 1.863575,-9.406293 -5.370117 0.0364778,-9.424627 -4.561382 0.6054316,-9.487874 -4.156063 0.9782938,-9.527415 -3.910104 1.253562,-9.79329 -5.522982 0.03163636,-9.876265 -4.75615 0.4726516,-9.902969 -4.524056 0.7665528,-9.887522 -4.490549 0.9931971,4.110,41  0
-2.493626 -8.648809 -0.155907,-3.117075 -8.278896 0.03737809,-3.599066 -7.577443 0.141559,-3.888786 -6.852529 0.281271,-4.167574 -6.361231 0.4444009,-3.144169 -6.160381 -0.1295236,-3.351611 -5.126377 0.01200245,-3.46307 -4.502895 0.1187164,-3.542093 -3.917112 0.2086622,-2.818333 -5.984529 -0.04919863,-2.940967 -4.80273 0.0798471,-2.940967 -4.80273 0.0798471,-3.080159 -3.364769 0.4021222,-2.498242 -6.026506 0.09792989,-2.523329 -4.885765 0.2502903,-2.58273 -4.139246 0.4352051,-2.648811 -3.515183 0.5980882,-2.166436 -6.27882 0.2698545,-2.066029 -5.410722 0.4129466,-2.041474 -4.823091 0.5832643,-2.039553 -4.287569 0.7296394,-9.095339 -7.543624 -0.9625126,-8.538385 -7.412813 -0.1026224,-8.087715 -6.620668 0.4329793,-8.081286 -5.860992 0.8251131,-8.440232 -5.594543 1.097731,-8.608178 -5.476623 0.3402029,-8.505506 -4.633064 1.014739,-8.52668 -4.075017 1.512109,-8.577626 -3.556396 1.890091,-9.046874 -5.326149 0.207123,-9.052143 -4.504062 0.983817,-9.13367 -4.032189 1.545461,-9.230438 -3.663113 1.956765,-9.440458 -5.313875 0.1317003,-9.45314 -4.509677 0.7196578,-9.514547 -4.164802 1.076768,-9.564487 -3.973941 1.326988,-9.825255 -5.455152 0.113596,-9.89889 -4.6781 0.5668046,-9.903625 -4.492733 0.8551586,-9.880278 -4.519729 1.067928,4.210,41  0
-2.486067 -8.639423 -0.1257278,-3.104999 -8.275208 0.05786882,-3.591846 -7.58492 0.1557088,-3.889218 -6.861467 0.2909763,-4.173798 -6.375607 0.451993,-3.142468 -6.146497 -0.1258686,-3.349415 -5.116861 -0.00580138,-3.459976 -4.497246 0.08739187,-3.540644 -3.913039 0.1724533,-2.812371 -5.965639 -0.04794165,-2.935099 -4.788492 0.06566486,-2.935099 -4.788492 0.06566486,-3.075521 -3.367324 0.3708715,-2.490799 -6.001581 0.09277122,-2.513818 -4.862525 0.2351215,-2.576015 -4.122846 0.4204609,-2.645691 -3.503429 0.5793716,-2.157821 -6.24618 0.2593368,-2.059801 -5.378377 0.3929504,-2.036138 -4.79346 0.5609369,-2.036451 -4.25489 0.7089471,-9.108476 -7.5276 -0.8653269,-8.553823 -7.38531 -0.001177132,-8.11014 -6.603295 0.5475844,-8.100492 -5.855405 0.9555627,-8.457187 -5.58814 1.245916,-8.634994 -5.425407 0.4597268,-8.535325 -4.597116 1.145931,-8.566101 -4.068285 1.646992,-8.625697 -3.580108 2.014774,-9.079161 -5.292341 0.3307203,-9.097711 -4.459545 1.103193,-9.172624 -3.951533 1.66259,-9.251846 -3.557584 2.076785,-9.475603 -5.306712 0.2545267,-9.505513 -4.498268 0.8344226,-9.563739 -4.080249 1.212434,-9.597242 -3.803947 1.490522,-9.854803 -5.473764 0.239238,-9.948277 -4.70995 0.6786035,-9.965299 -4.452646 0.9826875,-9.934021 -4.376424 1.215951,4.310,41  0
-2.504097 -8.645786 -0.07602135,-3.1164 -8.285763 0.12779,-3.589237 -7.587057 0.2484047,-3.86871 -6.872293 0.4051941,-4.141818 -6.375955 0.580285,-3.150299 -6.132648 -0.01160009,-3.346684 -5.111897 0.1385049,-3.456171 -4.495117 0.2471634,-3.537575 -3.909511 0.3391597,-2.823919 -5.959692 0.0682399,-2.934587 -4.784921 0.2198851,-2.934587 -4.784921 0.2198851,-3.068493 -3.363411 0.5527237,-2.505396 -6.012012 0.214623,-2.527511 -4.87132 0.3864658,-2.583877 -4.131732 0.5807974,-2.644988 -3.50523 0.7519102,-2.172823 -6.274349 0.3841574,-2.071932 -5.40644 0.5391783,-2.044066 -4.81738 0.7243541,-2.037779 -4.266298 0.8888063,-9.130438 -7.486429 -0.7497125,-8.572994 -7.362886 0.159066,-8.137447 -6.604943 0.7493746,-8.155867 -5.869458 1.184592,-8.487473 -5.589954 1.521605,-8.635884 -5.458103 0.7452841,-8.558618 -4.650592 1.454613,-8.605519 -4.13467 1.945589,-8.671256 -3.642045 2.313304,-9.096856 -5.309112 0.6121572,-9.11962 -4.459177 1.400849,-9.201088 -3.910502 1.959453,-9.287148 -3.435737 2.391613,-9.512593 -5.320109 0.5245395,-9.549021 -4.467615 1.142383,-9.604822 -4.018579 1.518502,-9.647581 -3.694919 1.800101,-9.914048 -5.500417 0.5016557,-10.01781 -4.695858 0.9684917,-10.038 -4.382556 1.274553,-10.01498 -4.246678 1.518247,4.410,41  0
-2.493311 -8.63806 -0.09548157,-3.1117 -8.285431 0.1107436,-3.58849 -7.582923 0.2304671,-3.868899 -6.859998 0.3848616,-4.14483 -6.360402 0.5569192,-3.151368 -6.133623 -0.0262015,-3.347683 -5.108261 0.1305599,-3.454302 -4.491373 0.2397961,-3.533543 -3.904884 0.3289761,-2.822604 -5.959093 0.0560654,-2.935319 -4.777477 0.2142575,-2.935319 -4.777477 0.2142575,-3.066703 -3.352409 0.5504064,-2.501707 -6.016096 0.2036787,-2.523109 -4.869548 0.3852192,-2.5783 -4.126619 0.5827228,-2.637452 -3.499219 0.7556271,-2.167664 -6.286834 0.3741815,-2.064583 -5.417655 0.5359588,-2.035834 -4.826695 0.7240824,-2.028683 -4.278114 0.8888671,-9.145208 -7.461507 -0.5715255,-8.601015 -7.315688 0.334343,-8.157688 -6.554515 0.9503453,-8.169806 -5.833602 1.420886,-8.513151 -5.569911 1.789292,-8.645589 -5.380969 0.9363596,-8.56993 -4.626466 1.674012,-8.636713 -4.156874 2.176197,-8.724524 -3.740669 2.533884,-9.113803 -5.243009 0.8206277,-9.135782 -4.433298 1.661911,-9.229674 -3.938533 2.223596,-9.324375 -3.529524 2.644133,-9.538206 -5.260686 0.7528852,-9.564381 -4.459037 1.400423,-9.627061 -4.018207 1.784173,-9.679575 -3.687774 2.073833,-9.953117 -5.450263 0.7421128,-10.04892 -4.687128 1.226363,-10.082 -4.372517 1.553887,-10.07975 -4.207099 1.808084,4.510,41  0
-2.497442 -8.645002 -0.05772242,-3.115695 -8.279207 0.1300874,-3.591627 -7.579149 0.2365245,-3.875486 -6.856557 0.3853352,-4.160094 -6.371403 0.5547165,-3.149803 -6.124137 -0.05583857,-3.352936 -5.098691 0.08056735,-3.464039 -4.485472 0.1759707,-3.546946 -3.906524 0.2581317,-2.8233 -5.952075 0.03502735,-2.937378 -4.773986 0.1711282,-2.937378 -4.773986 0.1711282,-3.070215 -3.355846 0.4937947,-2.504666 -6.00834 0.1932478,-2.528688 -4.864133 0.3538568,-2.589486 -4.113101 0.5424371,-2.653429 -3.490553 0.7082236,-2.170396 -6.280051 0.3768941,-2.070787 -5.417051 0.5236381,-2.050698 -4.827188 0.7005508,-2.052032 -4.28667 0.855994,-9.202203 -7.479165 -0.4682707,-8.6345 -7.355858 0.4787831,-8.191006 -6.645721 1.107065,-8.195921 -5.888935 1.586174,-8.522937 -5.601622 1.949052,-8.684079 -5.416806 1.040512,-8.618654 -4.678951 1.818802,-8.667116 -4.206211 2.407767,-8.725236 -3.823774 2.840439,-9.142774 -5.205392 0.889217,-9.190188 -4.397548 1.79168,-9.273148 -4.061072 2.419535,-9.362072 -3.859476 2.848994,-9.556881 -5.15907 0.7893283,-9.616033 -4.353753 1.462127,-9.653053 -4.155593 1.817266,-9.677528 -4.087809 2.031404,-9.958427 -5.298885 0.7592884,-10.06417 -4.543631 1.264227,-10.05616 -4.434596 1.587565,-10.01684 -4.52218 1.791278,4.610,41  0
-2.509615 -8.654301 -0.05917664,-3.125343 -8.260563 0.118972,-3.600077 -7.554391 0.2250265,-3.89013 -6.835323 0.3727501,-4.173105 -6.3526 0.5442856,-3.149311 -6.124296 -0.05922431,-3.353028 -5.088419 0.07677966,-3.463227 -4.468574 0.1765241,-3.544391 -3.885059 0.2624803,-2.825704 -5.960588 0.03176335,-2.941107 -4.78042 0.1659293,-2.941107 -4.78042 0.1659293,-3.082581 -3.354339 0.4812782,-2.508943 -6.012285 0.1886232,-2.533175 -4.867677 0.3463666,-2.596158 -4.11914 0.5334265,-2.66345 -3.494759 0.6928197,-2.178475 -6.273672 0.3693104,-2.075389 -5.398 0.517859,-2.050299 -4.796136 0.6965781,-2.047348 -4.243492 0.8506047,-9.197892 -7.467179 -0.4242533,-8.635509 -7.350646 0.5424645,-8.184699 -6.638635 1.190081,-8.195446 -5.874517 1.681575,-8.561694 -5.630945 2.06223,-8.668887 -5.363192 1.075545,-8.605439 -4.634447 1.894108,-8.668571 -4.194982 2.538971,-8.756444 -3.929326 3.012858,-9.130838 -5.175406 0.9272124,-9.186935 -4.384573 1.883553,-9.277431 -4.126382 2.549742,-9.378383 -4.065693 3.016792,-9.548385 -5.161699 0.8363227,-9.624651 -4.36431 1.567579,-9.674048 -4.252316 1.949285,-9.708522 -4.305273 2.168826,-9.955635 -5.338241 0.8142407,-10.07581 -4.557338 1.340319,-10.08916 -4.427338 1.676771,-10.06241 -4.52395 1.887909,4.710,41  0
-2.519727 -8.644253 -0.08401663,-3.137393 -8.280167 0.1234077,-3.621044 -7.582674 0.240021,-3.910927 -6.864477 0.3929728,-4.185879 -6.366663 0.5663517,-3.175165 -6.134239 -0.04147213,-3.378141 -5.100952 0.1041339,-3.489659 -4.483978 0.206719,-3.573076 -3.902929 0.2960397,-2.846157 -5.95997 0.033791,-2.964397 -4.783098 0.1759096,-2.964397 -4.783098 0.1759096,-3.102076 -3.3643 0.4836041,-2.525055 -6.00752 0.177195,-2.550186 -4.86828 0.3398464,-2.610445 -4.124786 0.5234027,-2.674543 -3.506475 0.6796709,-2.190616 -6.265056 0.3465959,-2.086617 -5.395081 0.4956549,-2.059392 -4.804704 0.6735614,-2.055238 -4.262074 0.8245239,-9.261184 -7.496503 -0.2077667,-8.671555 -7.439013 0.7961606,-8.202407 -6.718823 1.424826,-8.221387 -5.942611 1.897537,-8.588139 -5.676972 2.252786,-8.699704 -5.313816 1.205936,-8.630381 -4.675131 2.097926,-8.689039 -4.228564 2.79214,-8.76108 -3.917068 3.26354,-9.172743 -5.082225 1.049385,-9.273886 -4.228471 2.069638,-9.320371 -4.320226 2.758228,-9.362176 -4.523271 3.200016,-9.610125 -5.04393 0.9570472,-9.726181 -4.198932 1.769404,-9.703364 -4.475032 2.118034,-9.663476 -4.838785 2.28389,-10.03162 -5.200237 0.9413775,-10.16397 -4.411655 1.502693,-10.12271 -4.485304 1.787725,-10.03166 -4.806619 1.934227,4.810,41  0
-2.527014 -8.658318 -0.08925236,-3.151621 -8.278864 0.1142563,-3.63275 -7.585416 0.2315392,-3.923088 -6.863069 0.3840418,-4.204362 -6.364028 0.562481,-3.173369 -6.15063 -0.03917342,-3.376513 -5.112802 0.1046101,-3.48255 -4.491828 0.2099847,-3.55829 -3.906263 0.3013782,-2.844363 -5.974693 0.03442036,-2.962358 -4.792475 0.1685463,-2.962358 -4.792475 0.1685463,-3.092386 -3.357828 0.4957247,-2.524693 -6.021287 0.1737442,-2.546821 -4.881608 0.3320285,-2.60565 -4.136505 0.5236412,-2.670201 -3.517502 0.6894238,-2.192945 -6.279202 0.3355058,-2.085129 -5.4099 0.4880299,-2.058573 -4.811013 0.6683958,-2.057065 -4.264379 0.8217849,-9.27148 -7.534473 -0.02235084,-8.691479 -7.406457 0.9149418,-8.225426 -6.655236 1.541056,-8.251229 -5.890714 2.025012,-8.599473 -5.652488 2.398486,-8.710298 -5.238277 1.26303,-8.660294 -4.562269 2.131656,-8.713195 -4.132217 2.838651,-8.776255 -3.919577 3.31186,-9.185989 -5.014015 1.138754,-9.300571 -4.083069 2.117341,-9.320452 -4.286266 2.773333,-9.338851 -4.63344 3.180763,-9.624548 -4.988568 1.075554,-9.754177 -4.058391 1.848083,-9.719495 -4.433116 2.169305,-9.683283 -4.904251 2.297204,-10.05363 -5.165887 1.088031,-10.19189 -4.332988 1.613867,-10.14315 -4.458712 1.869918,-10.05382 -4.844691 1.983761,4.910,41  0
-2.519372 -8.667042 -0.04537132,-3.142424 -8.302311 0.1469151,-3.622503 -7.596675 0.2474302,-3.908537 -6.872591 0.3833059,-4.186088 -6.37434 0.5401495,-3.176964 -6.149979 -0.0142886,-3.376915 -5.112454 0.1279212,-3.48549 -4.488536 0.2294903,-3.567596 -3.899756 0.3177008,-2.84654 -5.971414 0.06595165,-2.961144 -4.792703 0.2024672,-2.961144 -4.792703 0.2024672,-3.102249 -3.364503 0.520886,-2.524878 -6.021909 0.2112192,-2.546535 -4.878284 0.370514,-2.608381 -4.135586 0.5560114,-2.675917 -3.514743 0.7192928,-2.191803 -6.288722 0.3830181,-2.090858 -5.422105 0.5311586,-2.070806 -4.833501 0.7089003,-2.076546 -4.291664 0.8624743,-9.292751 -7.509716 0.1692976,-8.698953 -7.374732 1.156624,-8.235591 -6.644382 1.823115,-8.260523 -5.918013 2.324778,-8.608069 -5.640842 2.728069,-8.724239 -5.207848 1.632499,-8.668544 -4.523107 2.499706,-8.743388 -4.061138 3.208508,-8.835454 -3.811407 3.704542,-9.215561 -5.004455 1.485718,-9.326435 -4.071763 2.487203,-9.385267 -4.081599 3.186842,-9.434527 -4.313026 3.670256,-9.665275 -4.984218 1.396787,-9.799336 -4.033559 2.198131,-9.791298 -4.287952 2.560712,-9.764576 -4.702798 2.738614,-10.09845 -5.175367 1.386709,-10.24224 -4.285253 1.953892,-10.20599 -4.338333 2.249839,-10.11731 -4.69963 2.403863,5.010,41  0
-2.525668 -8.661324 -0.03562693,-3.138533 -8.318447 0.1779729,-3.618238 -7.60976 0.293412,-3.903656 -6.878566 0.4432236,-4.191366 -6.3807 0.6129005,-3.179199 -6.142801 0.01422051,-3.382526 -5.111286 0.1594245,-3.491215 -4.494556 0.2542333,-3.572889 -3.909788 0.3353192,-2.848966 -5.962921 0.08713619,-2.968595 -4.786575 0.2266151,-2.968595 -4.786575 0.2266151,-3.105787 -3.370305 0.5336828,-2.526835 -6.012979 0.2287045,-2.553815 -4.868749 0.395526,-2.614587 -4.11838 0.58947,-2.680828 -3.494687 0.75192,-2.19072 -6.279867 0.3984547,-2.091302 -5.414166 0.5511543,-2.067417 -4.824381 0.7314985,-2.066313 -4.283498 0.8876015,-9.301258 -7.474296 0.3875356,-8.727973 -7.359033 1.401688,-8.265169 -6.610521 2.068342,-8.314456 -5.883096 2.58624,-8.6718 -5.648225 3.002622,-8.749618 -4.992864 1.663952,-8.733377 -4.290304 2.600175,-8.812395 -3.897499 3.358744,-8.894578 -3.775599 3.850685,-9.245198 -4.811058 1.517305,-9.407423 -3.85091 2.555274,-9.421876 -4.325332 3.192305,-9.407709 -4.867361 3.542509,-9.695489 -4.830848 1.45484,-9.863873 -3.896986 2.304287,-9.819688 -4.44032 2.646474,-9.758427 -5.014955 2.74543,-10.12772 -5.048522 1.462779,-10.29332 -4.210092 2.041667,-10.23184 -4.404573 2.296539,-10.11605 -4.839025 2.374914,5.110,41 4 0
-2.52036 -8.689701 -0.002029857,-3.139462 -8.320713 0.1572488,-3.618201 -7.611116 0.2415186,-3.909249 -6.885149 0.3744078,-4.201713 -6.389232 0.5306925,-3.181588 -6.151704 -0.005158914,-3.384706 -5.132005 0.1356306,-3.491611 -4.522851 0.2297407,-3.567938 -3.938125 0.3106788,-2.856619 -5.982276 0.09776484,-2.96709 -4.810555 0.2357055,-2.96709 -4.810555 0.2357055,-3.089777 -3.387218 0.5423427,-2.535017 -6.043251 0.2651606,-2.553015 -4.898155 0.4272726,-2.613256 -4.155221 0.6073852,-2.670794 -3.525266 0.7655064,-2.195116 -6.321302 0.4555272,-2.085764 -5.45822 0.6074286,-2.060989 -4.858493 0.7884361,-2.05652 -4.300998 0.9402918,-9.367112 -7.494703 0.5952458,-8.781976 -7.319933 1.664641,-8.326884 -6.574712 2.352232,-8.332001 -5.777862 2.892905,-8.679634 -5.483255 3.316038,-8.805599 -4.933418 1.879832,-8.811499 -4.243879 2.911463,-8.903051 -3.882374 3.704312,-8.995033 -3.695151 4.183753,-9.294931 -4.760203 1.707278,-9.458259 -3.834787 2.822475,-9.452767 -4.452964 3.434063,-9.431684 -4.947943 3.714398,-9.748211 -4.78473 1.635789,-9.940186 -3.866617 2.563043,-9.879778 -4.481445 2.825217,-9.814173 -4.982357 2.81518,-10.18633 -5.010338 1.643486,-10.38093 -4.121747 2.222525,-10.30375 -4.381106 2.384891,-10.18478 -4.806259 2.34258,5.210,41 4 0
-2.531377 -8.705153 0.1346338,-3.142225 -8.332935 0.2787312,-3.611838 -7.612601 0.3457955,-3.909445 -6.868382 0.4644828,-4.190002 -6.360693 0.6018256,-3.182055 -6.133745 0.0509266,-3.389 -5.123346 0.1468247,-3.486475 -4.529348 0.2101982,-3.552162 -3.963857 0.2739623,-2.862294 -5.955909 0.1443899,-2.976892 -4.794977 0.2300663,-2.976892 -4.794977 0.2300663,-3.093624 -3.397512 0.4863183,-2.547166 -6.01855 0.3040012,-2.5559 -4.87829 0.4205418,-2.61654 -4.146636 0.5744808,-2.681517 -3.531356 0.7066551,-2.211428 -6.308256 0.4906551,-2.100104 -5.45675 0.6050496,-2.079381 -4.873666 0.7627254,-2.08532 -4.338254 0.8892903,-9.374112 -7.456043 0.2869643,-8.803185 -7.268734 1.308624,-8.350183 -6.49633 1.956101,-8.363161 -5.685316 2.486636,-8.735234 -5.443475 2.899006,-8.83734 -4.928468 1.418342,-8.847717 -4.164517 2.432378,-8.937396 -3.810642 3.213837,-9.033238 -3.688106 3.673842,-9.322297 -4.757954 1.248324,-9.48512 -3.777476 2.338071,-9.453903 -4.495683 2.912031,-9.412148 -5.076831 3.112484,-9.773929 -4.782456 1.195737,-9.966136 -3.833166 2.082221,-9.887655 -4.496671 2.34327,-9.80456 -5.052539 2.299924,-10.21498 -4.987424 1.211906,-10.42679 -4.086322 1.761087,-10.32963 -4.333936 1.926771,-10.18786 -4.783315 1.870639,5.310,41 4 0
-2.524369 -8.781307 0.328957,-3.142284 -8.368664 0.4708526,-3.606879 -7.626457 0.5353596,-3.902182 -6.868396 0.6563771,-4.168858 -6.336433 0.7999777,-3.16683 -6.152502 0.2194719,-3.380186 -5.135698 0.3170153,-3.485161 -4.5365 0.3873599,-3.561047 -3.963089 0.4586523,-2.847287 -5.97525 0.3192864,-2.966682 -4.811355 0.4009632,-2.966682 -4.811355 0.4009632,-3.103703 -3.403224 0.6764107,-2.53275 -6.04132 0.485973,-2.541217 -4.893322 0.5984342,-2.605315 -4.162223 0.7652928,-2.678679 -3.549894 0.9088332,-2.200717 -6.335966 0.6808425,-2.087558 -5.469239 0.7941557,-2.072377 -4.87747 0.9625434,-2.092065 -4.346149 1.099103,-9.385652 -7.496406 0.2966824,-8.805905 -7.253844 1.268583,-8.390663 -6.506204 1.885136,-8.390165 -5.684209 2.403379,-8.722963 -5.411502 2.819256,-8.86303 -4.882665 1.241969,-8.900579 -4.112642 2.23537,-8.994589 -3.778789 3.033618,-9.085746 -3.671406 3.493045,-9.351708 -4.740913 1.089551,-9.541399 -3.718957 2.138437,-9.485883 -4.453557 2.691437,-9.426613 -5.025327 2.849664,-9.799462 -4.80082 1.060448,-10.02743 -3.793796 1.915133,-9.921693 -4.48463 2.161202,-9.817743 -5.025972 2.085661,-10.23265 -5.054247 1.104824,-10.48887 -4.142412 1.609694,-10.37613 -4.381826 1.739918,-10.21973 -4.790594 1.638876,5.410,41 4 0
-2.520276 -8.819931 0.3727427,-3.143586 -8.401281 0.4943324,-3.612723 -7.648211 0.5524631,-3.911402 -6.888941 0.6698625,-4.177501 -6.362024 0.8097297,-3.171198 -6.177339 0.2519151,-3.38711 -5.158172 0.3460335,-3.498207 -4.560236 0.4119787,-3.579496 -3.991999 0.4791002,-2.856565 -6.002878 0.3552716,-2.98079 -4.841484 0.4376304,-2.98079 -4.841484 0.4376304,-3.128779 -3.423779 0.7163445,-2.544986 -6.069428 0.5253595,-2.559609 -4.919794 0.6396991,-2.624712 -4.194213 0.8078818,-2.696958 -3.580903 0.9530306,-2.214553 -6.361022 0.7202239,-2.099498 -5.492226 0.8376124,-2.07605 -4.897651 1.011763,-2.085283 -4.353793 1.148858,-9.407289 -7.498119 0.08845967,-8.815623 -7.233978 1.033075,-8.376621 -6.484455 1.656639,-8.375344 -5.679605 2.165595,-8.740502 -5.43284 2.558695,-8.888056 -4.984184 1.110392,-8.89778 -4.196984 2.039664,-8.990845 -3.816797 2.809512,-9.085547 -3.687788 3.297641,-9.368871 -4.832512 0.9704319,-9.542901 -3.789896 1.957157,-9.507484 -4.393411 2.521897,-9.461507 -4.94774 2.751793,-9.80868 -4.879061 0.9327988,-10.02798 -3.841547 1.720895,-9.941626 -4.39737 1.968758,-9.844326 -4.913488 1.94383,-10.23875 -5.124515 0.9691128,-10.49657 -4.204834 1.439839,-10.41042 -4.347229 1.586336,-10.25802 -4.714099 1.536394,5.510,41 4 0
-2.51842 -8.840782 0.4507377,-3.142994 -8.422495 0.5700525,-3.611132 -7.663788 0.6148576,-3.896341 -6.888609 0.7172658,-4.159653 -6.353084 0.8435843,-3.16444 -6.185274 0.3062637,-3.375535 -5.164109 0.3835292,-3.477118 -4.562864 0.4374268,-3.545776 -3.986561 0.501081,-2.846117 -6.000638 0.4022792,-2.967741 -4.829761 0.4597495,-2.967741 -4.829761 0.4597495,-3.092064 -3.417245 0.7217906,-2.533959 -6.060266 0.5648985,-2.550891 -4.904624 0.6547011,-2.612278 -4.181146 0.8093092,-2.683286 -3.575196 0.9450197,-2.202594 -6.348968 0.7553971,-2.098858 -5.474252 0.8544102,-2.080098 -4.892219 1.014329,-2.093308 -4.367435 1.149601,-9.397609 -7.47227 0.1112027,-8.818542 -7.299791 1.0869,-8.363507 -6.591599 1.699848,-8.316625 -5.784877 2.20607,-8.676428 -5.504777 2.593343,-8.85454 -4.991542 1.135119,-8.878499 -4.211203 2.08816,-8.967693 -3.843434 2.870344,-9.05099 -3.746946 3.352059,-9.338603 -4.794407 0.9754813,-9.517501 -3.731966 1.968887,-9.477661 -4.39817 2.559995,-9.428246 -5.044525 2.789169,-9.785554 -4.818197 0.920502,-10.01156 -3.800775 1.734798,-9.925955 -4.449506 2.04771,-9.82089 -5.081775 2.061674,-10.22103 -5.044658 0.9362808,-10.482 -4.151606 1.439112,-10.3897 -4.351106 1.622346,-10.22462 -4.808298 1.596505,5.610,41 4 0
-2.518257 -8.83901 0.464647,-3.13727 -8.425362 0.5965083,-3.60381 -7.67128 0.6493229,-3.886974 -6.901265 0.762818,-4.146825 -6.3554 0.8967375,-3.149294 -6.175947 0.3251568,-3.362108 -5.153531 0.4089023,-3.466148 -4.55338 0.4673034,-3.535303 -3.978663 0.5314145,-2.834318 -5.993431 0.4243707,-2.956736 -4.816759 0.49585,-2.956736 -4.816759 0.49585,-3.083937 -3.411331 0.755677,-2.525957 -6.055058 0.5916088,-2.536564 -4.896735 0.6983751,-2.596467 -4.166746 0.8599085,-2.666032 -3.54975 0.9989741,-2.198213 -6.344718 0.7883615,-2.085932 -5.47453 0.8993103,-2.064445 -4.887891 1.062616,-2.075151 -4.356695 1.198824,-9.335044 -7.602077 0.2215371,-8.765553 -7.358913 1.085814,-8.33233 -6.650726 1.680162,-8.284229 -5.836921 2.180894,-8.656682 -5.558078 2.595391,-8.836811 -4.995998 1.047252,-8.883874 -4.156999 1.921017,-8.949506 -3.820027 2.690256,-9.007799 -3.798486 3.1737,-9.301432 -4.846508 0.9323955,-9.477647 -3.760959 1.840735,-9.41041 -4.422248 2.409872,-9.341265 -5.064271 2.6421,-9.730155 -4.906621 0.9182679,-9.960756 -3.835603 1.669872,-9.845401 -4.480237 1.990504,-9.728293 -5.110448 2.018357,-10.1504 -5.15299 0.9684116,-10.41418 -4.232456 1.445183,-10.30131 -4.45765 1.611053,-10.132 -4.930879 1.580425,5.710,41 4 0
-2.509826 -8.872374 0.4774216,-3.129619 -8.439651 0.5906807,-3.594326 -7.678787 0.6393399,-3.88242 -6.906749 0.7472965,-4.143882 -6.37393 0.877614,-3.148376 -6.200277 0.3290601,-3.364296 -5.185995 0.4130644,-3.476418 -4.585264 0.4731149,-3.557638 -4.006284 0.5397061,-2.83384 -6.024099 0.4321181,-2.957597 -4.860179 0.506157,-2.957597 -4.860179 0.506157,-3.102213 -3.458134 0.7783095,-2.524897 -6.089973 0.6014017,-2.537599 -4.935329 0.7068313,-2.600587 -4.215492 0.8769178,-2.672139 -3.606424 1.027696,-2.198183 -6.382097 0.7975663,-2.086025 -5.51472 0.9110334,-2.063655 -4.922272 1.087968,-2.073999 -4.380413 1.234353,-9.279747 -7.620767 0.1561394,-8.714341 -7.386156 1.056151,-8.285017 -6.677661 1.644932,-8.270022 -5.883635 2.123365,-8.667242 -5.602309 2.488787,-8.722686 -5.062183 0.9684704,-8.723048 -4.294469 1.798689,-8.792816 -3.919098 2.496266,-8.878353 -3.811903 2.95764,-9.191067 -4.882938 0.8561855,-9.333404 -3.793945 1.747508,-9.264238 -4.459071 2.297424,-9.216168 -5.145046 2.531929,-9.632082 -4.936426 0.8525832,-9.834506 -3.845606 1.639064,-9.720623 -4.531784 1.991814,-9.620953 -5.229387 2.031875,-10.08219 -5.20127 0.9224185,-10.30416 -4.273429 1.469126,-10.18056 -4.512213 1.688404,-10.02276 -5.025476 1.69683,5.810,41 4 0
-2.527427 -8.896162 0.4381266,-3.150983 -8.484999 0.5620631,-3.614204 -7.708257 0.6137971,-3.899386 -6.930103 0.7216892,-4.181525 -6.418266 0.8471168,-3.166274 -6.23805 0.3172756,-3.383463 -5.224139 0.4232835,-3.497478 -4.622874 0.4947949,-3.581747 -4.044242 0.5675515,-2.851849 -6.058961 0.4169706,-2.974794 -4.902426 0.5142402,-2.974794 -4.902426 0.5142402,-3.121056 -3.476753 0.7924458,-2.540933 -6.124563 0.585067,-2.553242 -4.983804 0.7150728,-2.617506 -4.249147 0.8925477,-2.689078 -3.630263 1.044881,-2.214455 -6.420362 0.7791897,-2.097141 -5.558376 0.9084699,-2.071603 -4.964952 1.086981,-2.074775 -4.419298 1.235715,-9.124103 -7.879682 -0.4836576,-8.59159 -7.680791 0.4020472,-8.174726 -7.052029 1.031675,-8.075426 -6.316141 1.576753,-8.394734 -5.930447 2.070431,-8.582997 -5.512912 0.3960473,-8.540047 -4.619819 1.160181,-8.534952 -4.231468 1.785161,-8.550937 -4.165021 2.173309,-9.002713 -5.350778 0.2798488,-9.092677 -4.180374 1.136116,-9.019575 -4.820879 1.627868,-8.987551 -5.488101 1.809595,-9.402998 -5.394039 0.2759539,-9.542112 -4.230558 1.014512,-9.451239 -4.849082 1.409279,-9.371552 -5.555574 1.477995,-9.824978 -5.584592 0.3230377,-10.01082 -4.560552 0.8485683,-9.902112 -4.756233 1.115174,-9.759421 -5.306356 1.180623,5.910,41 4 0
-2.534446 -8.886873 0.4327172,-3.149335 -8.494827 0.5612782,-3.61129 -7.719421 0.6146311,-3.893785 -6.934716 0.7215956,-4.179811 -6.434135 0.8506259,-3.170759 -6.234766 0.3230539,-3.376987 -5.217805 0.4200131,-3.479401 -4.62103 0.4849851,-3.553381 -4.03935 0.555657,-2.85058 -6.050239 0.4192508,-2.972237 -4.888759 0.512303,-2.972237 -4.888759 0.512303,-3.103365 -3.477582 0.7873911,-2.535026 -6.112861 0.5835137,-2.547877 -4.966736 0.7056356,-2.608741 -4.24541 0.8719243,-2.675284 -3.630768 1.017409,-2.201132 -6.407219 0.773214,-2.087612 -5.542402 0.895488,-2.059828 -4.960181 1.066815,-2.062151 -4.425319 1.211491,-9.10497 -7.985832 -0.7035823,-8.569292 -7.814122 0.08029854,-8.122735 -7.188224 0.6525633,-8.023784 -6.450701 1.132468,-8.35172 -6.109655 1.526702,-8.534932 -5.702692 0.0762893,-8.45781 -4.842895 0.7740984,-8.431032 -4.415936 1.36804,-8.430344 -4.319387 1.759188,-8.940273 -5.508189 0.002684951,-9.006361 -4.340194 0.7677261,-8.946266 -4.884375 1.217757,-8.91513 -5.554252 1.410145,-9.327747 -5.513996 0.01496017,-9.441795 -4.356615 0.6934541,-9.35546 -4.892086 1.02747,-9.283311 -5.584976 1.086378,-9.734023 -5.672135 0.08235168,-9.90581 -4.658565 0.5777467,-9.798808 -4.859184 0.8038104,-9.665225 -5.418216 0.8627083,6.010,41 4 0
-2.520495 -8.885853 0.3978446,-3.138102 -8.483398 0.5252652,-3.60239 -7.725068 0.5766581,-3.886299 -6.952948 0.6809994,-4.154409 -6.422687 0.8055021,-3.146696 -6.237392 0.290623,-3.356216 -5.215497 0.379307,-3.461242 -4.616369 0.4374083,-3.534704 -4.035484 0.5017385,-2.830256 -6.058551 0.3844321,-2.948009 -4.890123 0.4685218,-2.948009 -4.890123 0.4685218,-3.075319 -3.482494 0.7328099,-2.52102 -6.123449 0.5422108,-2.529432 -4.970194 0.6555679,-2.590083 -4.241764 0.816197,-2.656777 -3.626895 0.9568525,-2.194042 -6.415761 0.7276098,-2.081639 -5.546173 0.8407202,-2.05957 -4.961311 1.00297,-2.068339 -4.430241 1.139284,-9.058738 -8.256205 -1.117189,-8.518092 -8.0548 -0.5255874,-8.069985 -7.495391 -0.005250454,-7.947467 -6.782381 0.4275533,-8.223018 -6.439487 0.7801697,-8.467598 -6.129772 -0.3677877,-8.369005 -5.250886 0.1999555,-8.317484 -4.800227 0.7162324,-8.299496 -4.711867 1.094091,-8.85142 -5.908695 -0.399695,-8.864258 -4.701656 0.1612087,-8.804521 -5.085502 0.5184426,-8.792554 -5.696674 0.7224361,-9.223007 -5.875774 -0.3766344,-9.27921 -4.66543 0.09215701,-9.205527 -5.043266 0.3058568,-9.169712 -5.644495 0.3673027,-9.618607 -5.989909 -0.3132638,-9.749291 -4.88811 0.04049098,-9.64868 -5.001146 0.1772461,-9.543642 -5.495165 0.2004492,6.110,41 4 0
-2.503869 -8.884647 0.3626313,-3.13238 -8.470457 0.4944954,-3.603033 -7.71945 0.5592107,-3.888067 -6.94448 0.6803066,-4.168283 -6.419389 0.8222977,-3.15494 -6.243228 0.2582228,-3.362133 -5.222831 0.3654724,-3.470728 -4.626954 0.4352075,-3.547767 -4.046066 0.5071875,-2.837459 -6.070133 0.3657968,-2.958435 -4.903556 0.4671547,-2.958435 -4.903556 0.4671547,-3.094551 -3.48002 0.7561526,-2.522471 -6.146034 0.5428078,-2.537901 -4.991048 0.6721651,-2.599142 -4.255352 0.8500083,-2.66441 -3.628955 1.008472,-2.187108 -6.449068 0.746771,-2.068557 -5.573581 0.8776872,-2.042747 -4.970856 1.06513,-2.047222 -4.411544 1.224246,-9.049747 -8.32938 -1.032966,-8.509855 -8.16691 -0.3419039,-8.04653 -7.620349 0.2324915,-7.910892 -6.927829 0.7099675,-8.187916 -6.578977 1.105009,-8.399325 -6.256711 -0.09640676,-8.297387 -5.421195 0.5693898,-8.256384 -4.938079 1.119556,-8.234729 -4.794814 1.513624,-8.783626 -6.026734 -0.1303388,-8.815869 -4.893352 0.5856837,-8.784092 -5.204093 1.025578,-8.773302 -5.743435 1.275184,-9.155401 -5.978462 -0.1141667,-9.233952 -4.864192 0.4778403,-9.179958 -5.226377 0.7376937,-9.138325 -5.784082 0.8116326,-9.547812 -6.076427 -0.04275864,-9.697747 -5.051203 0.3726053,-9.611537 -5.161731 0.5353171,-9.503607 -5.631155 0.5735219,6.210,41 4 0
-2.463335 -8.836763 0.01292306,-3.090247 -8.439909 0.1727224,-3.570209 -7.71792 0.279742,-3.851129 -7.004863 0.4214357,-4.137556 -6.520187 0.5787401,-3.135626 -6.297214 0.06652771,-3.339338 -5.24587 0.2602884,-3.451343 -4.621469 0.3885996,-3.535696 -4.024831 0.4819177,-2.807273 -6.129347 0.1803642,-2.92957 -4.93399 0.3676154,-2.92957 -4.93399 0.3676154,-3.057077 -3.463361 0.7481916,-2.481501 -6.182661 0.3566373,-2.523633 -5.037671 0.5543817,-2.576456 -4.262899 0.7713091,-2.639964 -3.623353 0.9595408,-2.1415 -6.441839 0.5498466,-2.056471 -5.539228 0.72563,-2.039062 -4.941745 0.9137605,-2.041237 -4.405359 1.079709,-8.997742 -8.516001 -1.445064,-8.476336 -8.449223 -0.7218161,-8.03145 -7.890877 -0.2159417,-7.904046 -7.238885 0.1872606,-8.08044 -6.853836 0.5164798,-8.400977 -6.624309 -0.3545213,-8.245975 -5.893512 0.2695831,-8.207739 -5.385809 0.8014287,-8.187404 -5.08988 1.205959,-8.782402 -6.399415 -0.4013681,-8.773397 -5.470994 0.3667853,-8.774879 -5.17102 1.000436,-8.803947 -5.227483 1.460587,-9.15368 -6.36015 -0.4099232,-9.187154 -5.399385 0.205198,-9.193275 -5.224828 0.6408442,-9.193613 -5.391932 0.9258693,-9.530252 -6.496898 -0.3650275,-9.642607 -5.607681 0.07134843,-9.641273 -5.385754 0.3795135,-9.589725 -5.50223 0.6101433,6.310,41 4 0
-2.451977 -8.824703 -0.007293251,-3.081835 -8.468723 0.2002004,-3.573659 -7.743636 0.3287497,-3.858656 -7.025154 0.4825773,-4.146275 -6.54117 0.6596966,-3.132093 -6.29812 0.0988825,-3.326086 -5.251662 0.2683747,-3.439547 -4.620151 0.3841909,-3.525501 -4.024742 0.4772473,-2.801112 -6.125247 0.1828429,-2.916417 -4.938459 0.346893,-2.916417 -4.938459 0.346893,-3.064041 -3.476333 0.698731,-2.476943 -6.177537 0.3290671,-2.502775 -5.035211 0.5081975,-2.563468 -4.264814 0.7097628,-2.633527 -3.629659 0.8918822,-2.143585 -6.446214 0.5026576,-2.053133 -5.552337 0.6684316,-2.035839 -4.956964 0.8468949,-2.039785 -4.425698 1.008603,-9.061261 -8.615492 -1.416979,-8.528142 -8.607819 -0.6431952,-8.085097 -8.020803 -0.1155909,-7.984848 -7.339468 0.2876532,-8.192238 -7.014396 0.6432736,-8.468106 -6.65027 -0.3815114,-8.345239 -5.934291 0.2777971,-8.316599 -5.484655 0.8622022,-8.311356 -5.341243 1.275368,-8.875131 -6.44392 -0.4665151,-8.917472 -5.452013 0.3352573,-8.908549 -5.425872 0.9209051,-8.905507 -5.740173 1.314424,-9.263314 -6.42842 -0.4982634,-9.329092 -5.394489 0.1512792,-9.304531 -5.486303 0.5195125,-9.280274 -5.860872 0.7132967,-9.643384 -6.57612 -0.4793752,-9.75599 -5.646197 -0.0397805,-9.727014 -5.552848 0.2078632,-9.668205 -5.814321 0.360526,6.410,41 4 0
-2.464568 -8.803255 -0.05131551,-3.091345 -8.448755 0.150844,-3.577622 -7.728147 0.2766142,-3.863441 -7.004034 0.4301322,-4.157265 -6.515992 0.6091495,-3.127546 -6.288207 0.064927,-3.321914 -5.250131 0.2315751,-3.434225 -4.624898 0.3376228,-3.517995 -4.026496 0.4292462,-2.798113 -6.115303 0.1493695,-2.914968 -4.940402 0.309431,-2.914968 -4.940402 0.309431,-3.052998 -3.483066 0.6588308,-2.476618 -6.171461 0.2922641,-2.499384 -5.038892 0.4692862,-2.558065 -4.277645 0.672576,-2.620827 -3.650489 0.8571051,-2.147648 -6.445966 0.4605733,-2.046775 -5.555446 0.6212669,-2.022886 -4.95791 0.8023003,-2.016322 -4.4223 0.9652474,-9.115143 -8.808552 -1.345411,-8.57253 -8.724562 -0.6064494,-8.116686 -8.147631 -0.08068109,-8.003553 -7.452713 0.3364944,-8.235313 -7.123125 0.6765566,-8.547134 -6.809778 -0.4040039,-8.428268 -6.114739 0.2681528,-8.406995 -5.659963 0.8622613,-8.398547 -5.512001 1.298619,-8.950273 -6.58846 -0.4535319,-8.991231 -5.554446 0.3190423,-8.96348 -5.576248 0.902818,-8.941784 -5.972724 1.307754,-9.339565 -6.568518 -0.4419917,-9.426733 -5.482631 0.1876601,-9.369372 -5.529897 0.5516201,-9.304065 -5.912682 0.7606215,-9.732175 -6.738231 -0.376367,-9.908817 -5.802373 0.07217193,-9.868701 -5.645626 0.3354317,-9.768209 -5.882601 0.5030298,6.510,41 4 0
-2.452436 -8.779972 -0.1231136,-3.086583 -8.455608 0.08033121,-3.582037 -7.748128 0.2013362,-3.872585 -7.0184 0.3516431,-4.168129 -6.518168 0.5230861,-3.146924 -6.29137 -0.02434007,-3.335839 -5.250137 0.1463397,-3.442909 -4.622159 0.2582656,-3.521232 -4.022011 0.3513756,-2.815198 -6.11546 0.06240724,-2.933123 -4.941391 0.2296642,-2.933123 -4.941391 0.2296642,-3.072353 -3.488958 0.598219,-2.487273 -6.169178 0.2100093,-2.514171 -5.03078 0.3912177,-2.574373 -4.266874 0.6028387,-2.638181 -3.640549 0.7918204,-2.146947 -6.434797 0.3803495,-2.048725 -5.545902 0.5442952,-2.024891 -4.944869 0.7311581,-2.018271 -4.406047 0.8976759,-9.142159 -8.88805 -1.010764,-8.614758 -8.731773 -0.2252234,-8.169285 -8.159372 0.3521754,-8.058532 -7.49086 0.8128542,-8.285613 -7.19153 1.207662,-8.58729 -6.814695 0.04908061,-8.47813 -6.084396 0.7337277,-8.457562 -5.641486 1.344698,-8.450196 -5.508382 1.795045,-9.002546 -6.612926 0.0009994507,-9.031657 -5.590917 0.8122985,-9.007263 -5.523237 1.44125,-8.988881 -5.847194 1.899099,-9.400339 -6.615421 0.009557605,-9.480491 -5.537534 0.6537883,-9.434967 -5.477987 1.052218,-9.38143 -5.755701 1.305126,-9.796751 -6.820874 0.07152355,-9.963043 -5.915075 0.5314835,-9.940201 -5.67616 0.8204385,-9.857004 -5.7821 1.023902,6.610,41 4 0
-2.465349 -8.760914 -0.2082989,-3.103204 -8.420341 -0.0241209,-3.58942 -7.717956 0.0918802,-3.872562 -7.004257 0.2403287,-4.166895 -6.510999 0.4131145,-3.155763 -6.289443 -0.109267,-3.345015 -5.254583 0.07393724,-3.4561 -4.634927 0.1925658,-3.539492 -4.038595 0.2892545,-2.821782 -6.121511 -0.004317194,-2.928742 -4.944767 0.1633643,-2.928742 -4.944767 0.1633643,-3.055448 -3.486316 0.5361782,-2.492138 -6.179493 0.1597029,-2.515109 -5.038834 0.3462078,-2.573152 -4.267332 0.5521953,-2.632593 -3.637157 0.7362495,-2.150771 -6.449577 0.344332,-2.044572 -5.547992 0.5101606,-2.019218 -4.937524 0.6885178,-2.009927 -4.392763 0.8487006,-9.201355 -8.902559 -0.8917202,-8.665089 -8.772497 -0.02907592,-8.210011 -8.170116 0.6026458,-8.130649 -7.525882 1.102065,-8.396453 -7.225516 1.526883,-8.64656 -6.854614 0.3505307,-8.550234 -6.137027 1.150773,-8.552688 -5.707887 1.800683,-8.575376 -5.558125 2.254189,-9.076315 -6.672003 0.2910451,-9.126876 -5.684482 1.242604,-9.112485 -5.742088 1.90214,-9.101518 -6.100432 2.358265,-9.477373 -6.686737 0.2852439,-9.574548 -5.639265 1.045637,-9.540423 -5.633779 1.465523,-9.499903 -5.913274 1.713808,-9.870665 -6.887114 0.3375821,-10.04887 -5.982946 0.8401533,-10.04394 -5.735685 1.145046,-9.983078 -5.814929 1.34747,6.710,41 4 0
-2.555024 -8.792517 -0.1017736,-3.160749 -8.416349 0.1202214,-3.610443 -7.698774 0.2678479,-3.872536 -6.996116 0.4518158,-4.177412 -6.494339 0.6683823,-3.177779 -6.253191 0.04393587,-3.356212 -5.222102 0.250221,-3.465771 -4.602127 0.3816124,-3.550301 -4.019634 0.4890616,-2.838935 -6.117006 0.1428259,-2.933026 -4.947143 0.3390433,-2.933026 -4.947143 0.3390433,-3.051676 -3.490522 0.7371778,-2.509698 -6.210804 0.3045909,-2.524596 -5.084491 0.5126243,-2.57827 -4.307861 0.730414,-2.636155 -3.667003 0.9191977,-2.17775 -6.521162 0.4858586,-2.062852 -5.637737 0.6781355,-2.029654 -5.025094 0.874687,-2.008862 -4.468094 1.044603,-9.268839 -8.822435 -0.9328021,-8.719815 -8.79361 -0.01627499,-8.236653 -8.272659 0.6564691,-8.127168 -7.608441 1.183197,-8.390984 -7.228788 1.61712,-8.651365 -6.886049 0.5074002,-8.58478 -6.157329 1.355358,-8.618449 -5.721593 2.023753,-8.658945 -5.568536 2.472348,-9.102394 -6.697733 0.4047532,-9.178656 -5.785861 1.428309,-9.196681 -5.840911 2.115098,-9.210575 -6.169626 2.591102,-9.525014 -6.69 0.3495692,-9.625595 -5.740316 1.17882,-9.606231 -5.797224 1.614811,-9.5649 -6.112508 1.858741,-9.938162 -6.849678 0.3462136,-10.09985 -5.982205 0.894249,-10.09633 -5.772119 1.236786,-10.03904 -5.882427 1.460075,6.810,41 4 0
-2.51204 -8.792913 -0.169036,-3.125177 -8.404104 0.03659455,-3.586926 -7.697793 0.1595244,-3.866765 -6.973764 0.3123806,-4.158632 -6.468881 0.5002415,-3.155068 -6.301004 -0.05458856,-3.347988 -5.274075 0.127895,-3.455563 -4.647331 0.258117,-3.54183 -4.041683 0.3675279,-2.820876 -6.135994 0.03238043,-2.931736 -4.961238 0.1947688,-2.931736 -4.961238 0.1947688,-3.054958 -3.501081 0.5662148,-2.493296 -6.197246 0.182891,-2.514914 -5.057527 0.3599616,-2.569832 -4.282648 0.5684921,-2.634981 -3.649315 0.7520729,-2.154451 -6.474098 0.3540869,-2.040586 -5.591854 0.5095731,-2.006787 -4.979848 0.6796638,-1.991636 -4.427057 0.8334749,-9.385315 -8.865002 -0.808282,-8.829074 -8.82752 0.06906331,-8.34026 -8.243711 0.7065669,-8.242741 -7.564978 1.207092,-8.541247 -7.255601 1.614015,-8.775142 -6.849441 0.5623199,-8.683143 -6.12611 1.361288,-8.719837 -5.704202 2.00724,-8.773952 -5.568171 2.455802,-9.218544 -6.666746 0.4765055,-9.293495 -5.730203 1.450044,-9.324725 -5.776784 2.105038,-9.34618 -6.11519 2.56037,-9.631387 -6.67243 0.4351863,-9.743497 -5.706936 1.238242,-9.741879 -5.710544 1.668557,-9.715385 -5.975585 1.909494,-10.0331 -6.849264 0.4509524,-10.20506 -5.985528 0.9957355,-10.21438 -5.754003 1.332152,-10.16096 -5.819895 1.553279,6.910,41 4 0
-2.474892 -8.805307 -0.1337934,-3.107687 -8.441322 0.07216762,-3.590775 -7.733453 0.1947722,-3.873349 -7.013395 0.3458738,-4.149444 -6.503009 0.5292013,-3.15053 -6.30484 -0.03797574,-3.339273 -5.27555 0.1409523,-3.447746 -4.647638 0.2614195,-3.528917 -4.039598 0.3639694,-2.815385 -6.141094 0.05382931,-2.920217 -4.973877 0.2198486,-2.920217 -4.973877 0.2198486,-3.054712 -3.513347 0.5994251,-2.488266 -6.21039 0.2069673,-2.504555 -5.081304 0.3879617,-2.562883 -4.318111 0.6114497,-2.623781 -3.693273 0.8104064,-2.149598 -6.48934 0.3796247,-2.039626 -5.600074 0.5470526,-2.015218 -4.989578 0.7431073,-2.011042 -4.436196 0.9177825,-9.357166 -8.943207 -0.4591334,-8.800981 -8.816214 0.4455914,-8.326355 -8.225792 1.108118,-8.248796 -7.542037 1.642159,-8.540355 -7.21621 2.078445,-8.783169 -6.730616 0.7826167,-8.7337 -5.996049 1.670065,-8.762307 -5.606315 2.362061,-8.797174 -5.521051 2.805226,-9.235311 -6.562276 0.701125,-9.324643 -5.584278 1.747728,-9.322244 -5.912694 2.3913,-9.307578 -6.411375 2.778209,-9.649936 -6.587154 0.6845623,-9.781851 -5.582236 1.511812,-9.746731 -5.796605 1.896525,-9.694236 -6.191035 2.066528,-10.05136 -6.799261 0.7231418,-10.24426 -5.910316 1.252852,-10.23656 -5.759738 1.533088,-10.17263 -5.903116 1.67014,7.010,41 4 0
-2.497582 -8.854349 0.03829728,-3.122173 -8.492847 0.2474816,-3.596743 -7.757295 0.3610397,-3.869058 -7.020404 0.5118251,-4.163233 -6.525778 0.6842932,-3.143419 -6.299084 0.09629047,-3.333347 -5.271133 0.2540877,-3.43949 -4.646177 0.362597,-3.512093 -4.051092 0.4511508,-2.810085 -6.13412 0.1754181,-2.908458 -4.961081 0.3147046,-2.908458 -4.961081 0.3147046,-3.029217 -3.526317 0.6471242,-2.486452 -6.2014 0.3197644,-2.498387 -5.073183 0.4735715,-2.555372 -4.319408 0.6616988,-2.612033 -3.689022 0.8306327,-2.15458 -6.48554 0.4910171,-2.048454 -5.630094 0.6330717,-2.022614 -5.042907 0.8039376,-2.013332 -4.501045 0.9612074,-9.357235 -8.938927 -0.4705,-8.798882 -8.81542 0.4634736,-8.345724 -8.212772 1.126463,-8.278866 -7.484031 1.656673,-8.555377 -7.158118 2.083898,-8.831064 -6.748399 0.7974865,-8.77303 -6.001531 1.695307,-8.801485 -5.608339 2.401004,-8.829924 -5.488678 2.834616,-9.278918 -6.557272 0.6846796,-9.378283 -5.560569 1.727824,-9.358835 -6.003465 2.340898,-9.32965 -6.51617 2.672817,-9.692702 -6.549025 0.6440187,-9.834751 -5.520802 1.457839,-9.782166 -5.874458 1.768209,-9.721502 -6.324665 1.850226,-10.10151 -6.724819 0.6631967,-10.29279 -5.784219 1.159122,-10.23971 -5.80803 1.369017,-10.13779 -6.130374 1.423307,7.110,41 4 0
-2.493378 -8.836548 0.06525479,-3.114897 -8.474083 0.253793,-3.585246 -7.741063 0.3594892,-3.855412 -7.007518 0.5074937,-4.147417 -6.510087 0.6787388,-3.148709 -6.278697 0.09120494,-3.340193 -5.259647 0.2444306,-3.44689 -4.650909 0.3451264,-3.528324 -4.061397 0.4303854,-2.816323 -6.109146 0.1892664,-2.915385 -4.942194 0.3446248,-2.915385 -4.942194 0.3446248,-3.040747 -3.512641 0.6790961,-2.4918 -6.176141 0.354608,-2.504936 -5.041284 0.5253551,-2.564823 -4.294382 0.7207313,-2.625316 -3.666809 0.8945897,-2.155312 -6.459026 0.5463502,-2.043722 -5.586516 0.6974151,-2.014374 -4.989763 0.8800151,-2.004565 -4.435262 1.049807,-9.399153 -8.889278 -0.3554911,-8.822649 -8.787281 0.5578253,-8.342737 -8.129219 1.201175,-8.310726 -7.398556 1.730418,-8.641567 -7.130867 2.147538,-8.858977 -6.670146 0.8708016,-8.802145 -5.934347 1.776591,-8.832517 -5.566314 2.476225,-8.867228 -5.455434 2.907166,-9.315143 -6.458982 0.7736285,-9.421129 -5.454229 1.81307,-9.395037 -5.961631 2.443909,-9.366211 -6.512553 2.765847,-9.73804 -6.431488 0.7461396,-9.889561 -5.417024 1.591303,-9.828283 -5.874504 1.920476,-9.7616 -6.399686 1.995691,-10.15808 -6.585753 0.7785059,-10.36265 -5.663633 1.303832,-10.29037 -5.749359 1.518595,-10.16227 -6.130278 1.560019,7.210,41 4 0
-2.48326 -8.876337 0.0990478,-3.115183 -8.523613 0.3112163,-3.594028 -7.784004 0.4208755,-3.858239 -7.03455 0.5686352,-4.149258 -6.512196 0.7360963,-3.138039 -6.307903 0.163164,-3.330097 -5.283739 0.3298746,-3.447531 -4.666633 0.4408269,-3.533991 -4.079534 0.5356224,-2.805188 -6.140262 0.2464999,-2.911302 -4.970119 0.4137341,-2.911302 -4.970119 0.4137341,-3.051254 -3.523992 0.7621613,-2.482289 -6.209507 0.3994182,-2.503942 -5.080156 0.5758209,-2.565449 -4.32385 0.7852415,-2.623446 -3.682793 0.9693105,-2.14799 -6.497239 0.5746276,-2.051972 -5.63269 0.741698,-2.031317 -5.040826 0.9356045,-2.026121 -4.496187 1.111558,-9.394879 -8.879128 -0.3875961,-8.818784 -8.769047 0.5115951,-8.352039 -8.084957 1.150969,-8.334792 -7.368263 1.670017,-8.668894 -7.141996 2.081608,-8.879384 -6.655195 0.8536685,-8.84229 -5.901781 1.745599,-8.871937 -5.527557 2.446284,-8.908691 -5.445182 2.891221,-9.335342 -6.465909 0.7578143,-9.474545 -5.445661 1.757422,-9.44283 -5.926554 2.360988,-9.398663 -6.490007 2.693233,-9.754411 -6.458628 0.736801,-9.932584 -5.419659 1.54658,-9.869732 -5.830139 1.872713,-9.789616 -6.351276 1.971764,-10.16666 -6.636769 0.7742828,-10.40369 -5.684184 1.278419,-10.35284 -5.709223 1.501008,-10.22587 -6.070642 1.573693,7.310,41 4 0
-2.476068 -8.91333 0.2275456,-3.10158 -8.557247 0.4106497,-3.578648 -7.784717 0.501148,-3.850792 -7.025029 0.6366162,-4.141891 -6.523241 0.7896847,-3.13238 -6.300041 0.2250253,-3.323886 -5.266543 0.3548165,-3.434803 -4.644867 0.4334794,-3.513602 -4.054105 0.5109888,-2.803296 -6.138593 0.3223079,-2.911808 -4.961912 0.4542219,-2.911808 -4.961912 0.4542219,-3.047646 -3.539181 0.7612216,-2.481153 -6.21206 0.4902311,-2.49961 -5.06262 0.6466794,-2.559963 -4.301752 0.8384447,-2.62021 -3.658967 1.012394,-2.14564 -6.508358 0.6849498,-2.041342 -5.631168 0.8361773,-2.017665 -5.029829 1.020208,-2.013425 -4.473053 1.190807,-9.424659 -8.85136 -0.1742462,-8.849637 -8.742483 0.7754188,-8.390508 -8.063761 1.425805,-8.359356 -7.279548 1.965361,-8.677998 -6.993131 2.409963,-8.913241 -6.559477 1.061517,-8.882751 -5.804325 2.053988,-8.924747 -5.514669 2.803884,-8.965728 -5.466005 3.228995,-9.372686 -6.354325 0.9352132,-9.511193 -5.380471 2.039502,-9.474847 -6.034555 2.648796,-9.41996 -6.586927 2.910723,-9.800539 -6.337331 0.9019743,-9.982156 -5.334138 1.789619,-9.910124 -5.902042 2.095548,-9.828254 -6.445264 2.115335,-10.21921 -6.501721 0.9177083,-10.43678 -5.5848 1.443788,-10.36374 -5.758496 1.632111,-10.23634 -6.18465 1.619861,7.410,41 4 0
-2.488127 -8.931526 0.3005584,-3.100084 -8.550081 0.4954669,-3.568619 -7.782704 0.5993383,-3.833511 -7.025169 0.7455935,-4.124468 -6.515037 0.9112514,-3.12469 -6.290767 0.3094207,-3.317214 -5.260681 0.441437,-3.423193 -4.639221 0.5215166,-3.496788 -4.042724 0.5955819,-2.793772 -6.133379 0.3969528,-2.895143 -4.956613 0.5317318,-2.895143 -4.956613 0.5317318,-3.013295 -3.528121 0.8384515,-2.473769 -6.214027 0.5517756,-2.487001 -5.073923 0.7078812,-2.54092 -4.321376 0.899806,-2.595356 -3.682201 1.074116,-2.143318 -6.518231 0.7357742,-2.041166 -5.647796 0.8915666,-2.012604 -5.054017 1.080998,-2.002857 -4.503034 1.253951,-9.441927 -8.789885 -0.2598591,-8.850849 -8.661974 0.684158,-8.372338 -7.997568 1.36425,-8.344166 -7.271245 1.896586,-8.690784 -7.017076 2.305298,-8.918113 -6.606615 1.111473,-8.874756 -5.892063 1.980823,-8.917386 -5.515629 2.673744,-8.957395 -5.417749 3.1524,-9.387133 -6.394872 1.003764,-9.503722 -5.388272 1.997661,-9.49338 -5.656312 2.642622,-9.469533 -6.105794 3.059605,-9.813639 -6.374803 0.9518813,-9.971504 -5.354741 1.744692,-9.927283 -5.64578 2.071461,-9.864724 -6.101812 2.210452,-10.23225 -6.549953 0.9716456,-10.44621 -5.59717 1.481256,-10.39879 -5.585701 1.71723,-10.27966 -5.916435 1.820977,7.510,41 4 0
-2.484745 -8.954597 0.3287857,-3.097418 -8.568455 0.4776728,-3.563128 -7.813812 0.5491831,-3.844807 -7.04669 0.6632674,-4.116684 -6.525707 0.7963808,-3.105349 -6.321665 0.2782384,-3.30969 -5.297483 0.3733208,-3.412086 -4.693151 0.4296294,-3.480504 -4.106691 0.4867517,-2.785245 -6.146212 0.3554841,-2.901186 -4.977848 0.4489834,-2.901186 -4.977848 0.4489834,-3.01609 -3.558285 0.6973604,-2.472962 -6.212883 0.497264,-2.48061 -5.064085 0.6116618,-2.536726 -4.321903 0.770193,-2.599895 -3.695385 0.9114386,-2.144918 -6.507232 0.6674805,-2.037418 -5.62614 0.7703059,-2.010114 -5.0447 0.9228847,-2.008088 -4.514745 1.05888,-9.440207 -8.737467 -0.2285519,-8.86194 -8.596077 0.6954991,-8.395728 -7.909717 1.337657,-8.326558 -7.133239 1.875786,-8.670288 -6.935425 2.289744,-8.920856 -6.461421 0.9503547,-8.918195 -5.737571 1.961866,-8.945858 -5.534684 2.713752,-8.981047 -5.560155 3.152794,-9.372968 -6.237082 0.8331641,-9.529161 -5.199149 1.906044,-9.468159 -5.893795 2.448746,-9.417887 -6.459794 2.636889,-9.79976 -6.208801 0.8157464,-10.00358 -5.166728 1.666893,-9.905363 -5.796392 1.887718,-9.824836 -6.337318 1.843211,-10.22135 -6.364204 0.8589482,-10.47072 -5.415926 1.317703,-10.37276 -5.65262 1.420322,-10.23774 -6.10135 1.330972,7.610,41 4 0
-2.47523 -8.962645 0.3286696,-3.085043 -8.57136 0.4918243,-3.555441 -7.811111 0.5746644,-3.844889 -7.048273 0.6968535,-4.122064 -6.533521 0.8415102,-3.090725 -6.32982 0.2900754,-3.29433 -5.303651 0.3917674,-3.402329 -4.695734 0.4547172,-3.480813 -4.10778 0.522253,-2.769352 -6.153753 0.3655551,-2.881162 -4.973136 0.4707768,-2.881162 -4.973136 0.4707768,-3.005098 -3.549746 0.7287291,-2.45998 -6.226314 0.5072447,-2.465069 -5.06442 0.6352066,-2.522599 -4.318599 0.8055435,-2.585676 -3.689003 0.9556206,-2.136424 -6.524848 0.6772902,-2.026572 -5.649186 0.7936367,-1.999377 -5.06705 0.9572408,-1.996998 -4.536505 1.09919,-9.443161 -8.744633 -0.3241505,-8.867501 -8.578648 0.5748724,-8.39865 -7.890377 1.20883,-8.322194 -7.133816 1.750046,-8.66962 -6.93139 2.182657,-8.954424 -6.434826 0.7745717,-8.940426 -5.668312 1.749905,-8.961843 -5.507329 2.480696,-8.995869 -5.623483 2.895721,-9.402072 -6.244905 0.6686619,-9.563147 -5.181686 1.716064,-9.496151 -5.8705 2.245314,-9.421994 -6.463411 2.42391,-9.822019 -6.248385 0.6675595,-10.03271 -5.175903 1.503153,-9.92538 -5.788778 1.740473,-9.819921 -6.363604 1.702496,-10.23055 -6.42617 0.7182231,-10.48472 -5.459915 1.174464,-10.38727 -5.670328 1.28711,-10.24089 -6.127826 1.208389,7.710,41 4 0
