TiagoOliveira98/Thesis-Project/Difficulty_2_NEW/Dual_Task/Unity_Project/DataLogging/JointData/Logs(1651332448)_ddd_Dual_Difficulty0.csv
WRIST,THUMB_CMC,THUMB_MCP,THUMB_IP,THUMB_TIP,INDEX_FINGER_MCP,INDEX_FINGER_PIP,INDEX_FINGER_DIP,INDEX_FINGER_TIP,MIDDLE_FINGER_MCP,MIDDLE_FINGER_PIP,MIDDLE_FINGER_DIP,MIDDLE_FINGER_TIP,RING_FINGER_MCP,RING_FINGER_PIP,RING_FINGER_DIP,RING_FINGER_TIP,PINKY_MCP,PINKY_PIP,PINKY_DIP,PINKY_TIP,WRIST2,THUMB_CMC2,THUMB_MCP2,THUMB_IP2,THUMB_TIP2,INDEX_FINGER_MCP2,INDEX_FINGER_PIP2,INDEX_FINGER_DIP2,INDEX_FINGER_TIP2,MIDDLE_FINGER_MCP2,MIDDLE_FINGER_PIP2,MIDDLE_FINGER_DIP2,MIDDLE_FINGER_TIP2,RING_FINGER_MCP2,RING_FINGER_PIP2,RING_FINGER_DIP2,RING_FINGER_TIP2,PINKY_MCP2,PINKY_PIP2,PINKY_DIP2,PINKY_TIP2,Timestamp,Event
-2.085029 -7.565369 0.0004980652,-2.637483 -7.347183 0.2088376,-3.120756 -6.677036 0.3186594,-3.461411 -6.04942 0.4540258,-3.822799 -5.726505 0.6417931,-2.837193 -5.187304 0.03246491,-3.067271 -4.267961 0.1702486,-3.191353 -3.67737 0.2779698,-3.296059 -3.105519 0.3771087,-2.512177 -4.946849 0.09260701,-2.659613 -3.899499 0.2425884,-2.764706 -3.211116 0.409158,-2.85278 -2.57097 0.5516563,-2.191718 -4.932662 0.2139351,-2.290454 -3.898739 0.3713892,-2.393806 -3.245636 0.547028,-2.484761 -2.654457 0.6876931,-1.85275 -5.11515 0.3606162,-1.823786 -4.270646 0.5094162,-1.830542 -3.715169 0.6787233,-1.846965 -3.167325 0.8260124,-7.768529 -7.58 0.0001446234,-7.193594 -7.399581 0.2854433,-6.685572 -6.846549 0.4653215,-6.3159 -6.251308 0.6800359,-6.011727 -5.848129 0.8904052,-6.966382 -5.211406 0.1168777,-6.785351 -4.197684 0.2545959,-6.702065 -3.54972 0.4287229,-6.63855 -2.983106 0.5756953,-7.268954 -4.973157 0.1439201,-7.1013 -3.825122 0.2448064,-6.996058 -3.080427 0.4717389,-6.914952 -2.435669 0.6795394,-7.587401 -4.972232 0.2131624,-7.467837 -3.886952 0.3127091,-7.366424 -3.217371 0.4940273,-7.266927 -2.634528 0.6566752,-7.937498 -5.174654 0.320496,-7.950969 -4.365956 0.4543509,-7.931054 -3.840467 0.592208,-7.884779 -3.316203 0.7134745,0.01667,0 0 0 0 0 0 False
-2.097491 -7.541652 -0.02048814,-2.650875 -7.330295 0.2029489,-3.131337 -6.664663 0.3257574,-3.466162 -6.023965 0.4681106,-3.829076 -5.690742 0.6656036,-2.851061 -5.176867 0.03342685,-3.079287 -4.255929 0.1715074,-3.201138 -3.669418 0.2736692,-3.307631 -3.104375 0.3672502,-2.523831 -4.929641 0.08623344,-2.67324 -3.886478 0.2480126,-2.782022 -3.20657 0.4080569,-2.879331 -2.573817 0.5422997,-2.201191 -4.9113 0.2032394,-2.308934 -3.894333 0.3661889,-2.423883 -3.255088 0.5390016,-2.528037 -2.67638 0.6733958,-1.858969 -5.090341 0.3446267,-1.838912 -4.251727 0.4947308,-1.853701 -3.697862 0.6655594,-1.880982 -3.146427 0.8168014,-7.769572 -7.587772 0.08745303,-7.199003 -7.403282 0.3665983,-6.696321 -6.830148 0.5469699,-6.333881 -6.232679 0.7641253,-6.030682 -5.826898 0.9760587,-6.980267 -5.179636 0.1953568,-6.806746 -4.174696 0.3260376,-6.728521 -3.538757 0.4955898,-6.667854 -2.978297 0.636593,-7.285679 -4.952478 0.2291954,-7.131454 -3.812681 0.3225378,-7.035867 -3.077518 0.5406972,-6.959972 -2.447438 0.7410637,-7.603976 -4.968866 0.3079152,-7.498038 -3.88482 0.4043983,-7.409058 -3.210462 0.5910805,-7.320452 -2.623768 0.7586692,-7.953719 -5.193208 0.4213195,-7.969805 -4.381633 0.5558839,-7.949371 -3.855731 0.6996956,-7.904611 -3.338395 0.8293055,0.05000,0 0 0 0 0 0 False
-2.097491 -7.541652 -0.02048814,-2.650875 -7.330295 0.2029489,-3.131337 -6.664663 0.3257574,-3.466162 -6.023965 0.4681106,-3.829076 -5.690742 0.6656036,-2.851061 -5.176867 0.03342685,-3.079287 -4.255929 0.1715074,-3.201138 -3.669418 0.2736692,-3.307631 -3.104375 0.3672502,-2.523831 -4.929641 0.08623344,-2.67324 -3.886478 0.2480126,-2.782022 -3.20657 0.4080569,-2.879331 -2.573817 0.5422997,-2.201191 -4.9113 0.2032394,-2.308934 -3.894333 0.3661889,-2.423883 -3.255088 0.5390016,-2.528037 -2.67638 0.6733958,-1.858969 -5.090341 0.3446267,-1.838912 -4.251727 0.4947308,-1.853701 -3.697862 0.6655594,-1.880982 -3.146427 0.8168014,-7.769572 -7.587772 0.08745303,-7.199003 -7.403282 0.3665983,-6.696321 -6.830148 0.5469699,-6.333881 -6.232679 0.7641253,-6.030682 -5.826898 0.9760587,-6.980267 -5.179636 0.1953568,-6.806746 -4.174696 0.3260376,-6.728521 -3.538757 0.4955898,-6.667854 -2.978297 0.636593,-7.285679 -4.952478 0.2291954,-7.131454 -3.812681 0.3225378,-7.035867 -3.077518 0.5406972,-6.959972 -2.447438 0.7410637,-7.603976 -4.968866 0.3079152,-7.498038 -3.88482 0.4043983,-7.409058 -3.210462 0.5910805,-7.320452 -2.623768 0.7586692,-7.953719 -5.193208 0.4213195,-7.969805 -4.381633 0.5558839,-7.949371 -3.855731 0.6996956,-7.904611 -3.338395 0.8293055,0.08333,0 0 0 0 0 0 False
-2.090704 -7.537792 -0.02216503,-2.646137 -7.328222 0.1965163,-3.122595 -6.648859 0.3130709,-3.449392 -5.999248 0.454428,-3.815662 -5.662776 0.6508273,-2.859027 -5.171665 0.0198447,-3.090807 -4.264024 0.1682394,-3.217224 -3.684897 0.2786844,-3.326852 -3.11745 0.3774157,-2.532449 -4.9284 0.07382878,-2.689415 -3.908954 0.2262,-2.807597 -3.248508 0.376446,-2.911582 -2.623026 0.5013495,-2.206089 -4.922098 0.1963477,-2.307992 -3.92158 0.3551328,-2.419275 -3.301843 0.5271544,-2.521535 -2.732835 0.6599749,-1.860612 -5.114243 0.3440913,-1.840739 -4.29303 0.5004916,-1.859627 -3.749336 0.6783848,-1.891662 -3.210329 0.8287814,-7.793402 -7.625938 0.2097936,-7.223097 -7.426692 0.4892317,-6.716858 -6.827751 0.6551524,-6.358567 -6.22059 0.8603013,-6.045687 -5.811199 1.049092,-6.994862 -5.170685 0.2773006,-6.825112 -4.18283 0.3966368,-6.745525 -3.571605 0.5528859,-6.680581 -3.024423 0.6802789,-7.307006 -4.953611 0.3087187,-7.175564 -3.859428 0.3767161,-7.097147 -3.179728 0.5776945,-7.03141 -2.600189 0.750906,-7.625249 -4.972553 0.3939589,-7.543685 -3.924111 0.4776813,-7.474628 -3.28399 0.6571434,-7.398556 -2.724714 0.815419,-7.971282 -5.193161 0.5087742,-7.993891 -4.397359 0.6350063,-7.976356 -3.874454 0.7702602,-7.934702 -3.363561 0.8857266,0.11667,0 0 0 0 0 0 False
-2.090704 -7.537792 -0.02216503,-2.646137 -7.328222 0.1965163,-3.122595 -6.648859 0.3130709,-3.449392 -5.999248 0.454428,-3.815662 -5.662776 0.6508273,-2.859027 -5.171665 0.0198447,-3.090807 -4.264024 0.1682394,-3.217224 -3.684897 0.2786844,-3.326852 -3.11745 0.3774157,-2.532449 -4.9284 0.07382878,-2.689415 -3.908954 0.2262,-2.807597 -3.248508 0.376446,-2.911582 -2.623026 0.5013495,-2.206089 -4.922098 0.1963477,-2.307992 -3.92158 0.3551328,-2.419275 -3.301843 0.5271544,-2.521535 -2.732835 0.6599749,-1.860612 -5.114243 0.3440913,-1.840739 -4.29303 0.5004916,-1.859627 -3.749336 0.6783848,-1.891662 -3.210329 0.8287814,-7.793402 -7.625938 0.2097936,-7.223097 -7.426692 0.4892317,-6.716858 -6.827751 0.6551524,-6.358567 -6.22059 0.8603013,-6.045687 -5.811199 1.049092,-6.994862 -5.170685 0.2773006,-6.825112 -4.18283 0.3966368,-6.745525 -3.571605 0.5528859,-6.680581 -3.024423 0.6802789,-7.307006 -4.953611 0.3087187,-7.175564 -3.859428 0.3767161,-7.097147 -3.179728 0.5776945,-7.03141 -2.600189 0.750906,-7.625249 -4.972553 0.3939589,-7.543685 -3.924111 0.4776813,-7.474628 -3.28399 0.6571434,-7.398556 -2.724714 0.815419,-7.971282 -5.193161 0.5087742,-7.993891 -4.397359 0.6350063,-7.976356 -3.874454 0.7702602,-7.934702 -3.363561 0.8857266,0.15000,0 0 0 0 0 0 False
-2.091253 -7.580187 0.02827009,-2.646162 -7.362556 0.2632138,-3.120459 -6.645532 0.374327,-3.431986 -5.945755 0.511295,-3.789679 -5.555056 0.6981729,-2.863374 -5.193215 0.06716517,-3.096272 -4.289325 0.2192726,-3.224114 -3.712512 0.3326161,-3.332406 -3.147156 0.4340567,-2.537455 -4.956424 0.1083115,-2.696151 -3.94432 0.2460356,-2.81987 -3.289978 0.3826851,-2.918518 -2.684002 0.5009333,-2.211608 -4.95955 0.2216732,-2.301513 -3.965017 0.3639153,-2.412234 -3.347435 0.5338062,-2.506191 -2.786382 0.6711984,-1.86839 -5.163318 0.3670251,-1.850647 -4.36416 0.5116616,-1.884796 -3.836909 0.6864548,-1.926793 -3.326717 0.8371163,-7.809359 -7.611974 0.2278201,-7.23566 -7.388827 0.477156,-6.726453 -6.784074 0.6325116,-6.352484 -6.189748 0.8282382,-6.036681 -5.781126 1.025211,-7.033459 -5.12281 0.2267073,-6.846305 -4.131485 0.3088708,-6.745286 -3.536214 0.4466052,-6.651493 -3.019783 0.5596912,-7.356538 -4.926879 0.2564534,-7.239145 -3.879515 0.2905223,-7.170868 -3.300607 0.4449902,-7.112739 -2.871833 0.5667777,-7.66777 -4.950067 0.3502241,-7.591831 -3.953198 0.3895869,-7.525727 -3.405092 0.5295859,-7.45123 -2.964037 0.6481206,-7.993761 -5.161554 0.4803553,-7.997775 -4.412883 0.5519096,-7.978211 -3.914668 0.6633484,-7.929889 -3.44458 0.765842,0.18333,0 0 0 0 0 0 False
-2.091253 -7.580187 0.02827009,-2.646162 -7.362556 0.2632138,-3.120459 -6.645532 0.374327,-3.431986 -5.945755 0.511295,-3.789679 -5.555056 0.6981729,-2.863374 -5.193215 0.06716517,-3.096272 -4.289325 0.2192726,-3.224114 -3.712512 0.3326161,-3.332406 -3.147156 0.4340567,-2.537455 -4.956424 0.1083115,-2.696151 -3.94432 0.2460356,-2.81987 -3.289978 0.3826851,-2.918518 -2.684002 0.5009333,-2.211608 -4.95955 0.2216732,-2.301513 -3.965017 0.3639153,-2.412234 -3.347435 0.5338062,-2.506191 -2.786382 0.6711984,-1.86839 -5.163318 0.3670251,-1.850647 -4.36416 0.5116616,-1.884796 -3.836909 0.6864548,-1.926793 -3.326717 0.8371163,-7.809359 -7.611974 0.2278201,-7.23566 -7.388827 0.477156,-6.726453 -6.784074 0.6325116,-6.352484 -6.189748 0.8282382,-6.036681 -5.781126 1.025211,-7.033459 -5.12281 0.2267073,-6.846305 -4.131485 0.3088708,-6.745286 -3.536214 0.4466052,-6.651493 -3.019783 0.5596912,-7.356538 -4.926879 0.2564534,-7.239145 -3.879515 0.2905223,-7.170868 -3.300607 0.4449902,-7.112739 -2.871833 0.5667777,-7.66777 -4.950067 0.3502241,-7.591831 -3.953198 0.3895869,-7.525727 -3.405092 0.5295859,-7.45123 -2.964037 0.6481206,-7.993761 -5.161554 0.4803553,-7.997775 -4.412883 0.5519096,-7.978211 -3.914668 0.6633484,-7.929889 -3.44458 0.765842,0.21667,0 0 0 0 0 0 False
-2.071835 -7.589983 0.02475533,-2.640454 -7.337411 0.239518,-3.11651 -6.607837 0.3241618,-3.405073 -5.878229 0.4415627,-3.738214 -5.431806 0.6006064,-2.871346 -5.192741 -0.02998035,-3.108349 -4.291685 0.1023732,-3.237188 -3.717773 0.2078876,-3.341969 -3.14586 0.3128951,-2.544724 -4.97069 0.01489648,-2.703785 -3.969804 0.1118337,-2.824175 -3.337678 0.2363619,-2.916959 -2.763306 0.3468689,-2.221703 -4.975244 0.138024,-2.309581 -4.007232 0.2444693,-2.414404 -3.4101 0.4058703,-2.505693 -2.875746 0.5381864,-1.879409 -5.170639 0.294914,-1.873616 -4.400089 0.4239691,-1.918833 -3.90504 0.5918255,-1.971978 -3.426452 0.7273114,-7.813154 -7.584404 0.09806751,-7.24642 -7.402828 0.3991612,-6.733855 -6.774397 0.5720328,-6.365212 -6.168993 0.7615445,-6.061826 -5.740345 0.9433508,-7.038077 -5.121252 0.11382,-6.843781 -4.144721 0.1798709,-6.759222 -3.534501 0.3225301,-6.686861 -3.004442 0.443734,-7.37418 -4.934534 0.1166155,-7.28898 -3.946754 0.1946973,-7.263622 -3.473458 0.3919406,-7.246416 -3.214979 0.5465949,-7.694144 -4.954952 0.1892609,-7.644341 -4.03404 0.2384206,-7.587441 -3.574323 0.4103234,-7.530024 -3.274646 0.5556306,-8.019356 -5.15183 0.2985221,-8.012824 -4.457407 0.3572806,-7.997826 -4.010459 0.4876633,-7.955162 -3.603431 0.6255189,0.25000,0 0 0 0 0 0 False
-2.08563 -7.59376 0.1033205,-2.648616 -7.336767 0.3799081,-3.111007 -6.602575 0.4781819,-3.36224 -5.847808 0.6298206,-3.67119 -5.335912 0.8209837,-2.878074 -5.159034 0.0334465,-3.108313 -4.257534 0.1755229,-3.243572 -3.686471 0.3054741,-3.365142 -3.108556 0.4365836,-2.55095 -4.950473 0.06845652,-2.684928 -3.965918 0.1830298,-2.803605 -3.361377 0.3703749,-2.912433 -2.83275 0.5295747,-2.228787 -4.974273 0.181805,-2.286497 -4.078527 0.326242,-2.37737 -3.558326 0.5683985,-2.471303 -3.164466 0.7500357,-1.889687 -5.18032 0.331946,-1.866283 -4.47429 0.5329589,-1.91005 -4.111747 0.7441499,-1.968931 -3.874303 0.8901351,-7.825562 -7.531545 -0.01248983,-7.268334 -7.368921 0.3093576,-6.758829 -6.722414 0.4853927,-6.385849 -6.122857 0.6686551,-6.083763 -5.699863 0.8448853,-7.045785 -5.082915 0.02001974,-6.833425 -4.153759 0.07680127,-6.742307 -3.52016 0.2291396,-6.667372 -2.96898 0.3623688,-7.38299 -4.91443 0.01986181,-7.287943 -3.985017 0.1342902,-7.270209 -3.59349 0.3854389,-7.257919 -3.42451 0.5795686,-7.704113 -4.951252 0.07486773,-7.667091 -4.086023 0.1399095,-7.62053 -3.697174 0.3583476,-7.568772 -3.490118 0.53656,-8.025552 -5.158561 0.1732907,-8.025998 -4.518045 0.2344098,-8.020984 -4.102069 0.3923016,-7.980575 -3.74275 0.5588816,0.28333,0 0 0 0 0 0 False
-2.08563 -7.59376 0.1033205,-2.648616 -7.336767 0.3799081,-3.111007 -6.602575 0.4781819,-3.36224 -5.847808 0.6298206,-3.67119 -5.335912 0.8209837,-2.878074 -5.159034 0.0334465,-3.108313 -4.257534 0.1755229,-3.243572 -3.686471 0.3054741,-3.365142 -3.108556 0.4365836,-2.55095 -4.950473 0.06845652,-2.684928 -3.965918 0.1830298,-2.803605 -3.361377 0.3703749,-2.912433 -2.83275 0.5295747,-2.228787 -4.974273 0.181805,-2.286497 -4.078527 0.326242,-2.37737 -3.558326 0.5683985,-2.471303 -3.164466 0.7500357,-1.889687 -5.18032 0.331946,-1.866283 -4.47429 0.5329589,-1.91005 -4.111747 0.7441499,-1.968931 -3.874303 0.8901351,-7.825562 -7.531545 -0.01248983,-7.268334 -7.368921 0.3093576,-6.758829 -6.722414 0.4853927,-6.385849 -6.122857 0.6686551,-6.083763 -5.699863 0.8448853,-7.045785 -5.082915 0.02001974,-6.833425 -4.153759 0.07680127,-6.742307 -3.52016 0.2291396,-6.667372 -2.96898 0.3623688,-7.38299 -4.91443 0.01986181,-7.287943 -3.985017 0.1342902,-7.270209 -3.59349 0.3854389,-7.257919 -3.42451 0.5795686,-7.704113 -4.951252 0.07486773,-7.667091 -4.086023 0.1399095,-7.62053 -3.697174 0.3583476,-7.568772 -3.490118 0.53656,-8.025552 -5.158561 0.1732907,-8.025998 -4.518045 0.2344098,-8.020984 -4.102069 0.3923016,-7.980575 -3.74275 0.5588816,0.31667,0 0 0 0 0 0 False
-2.086297 -7.517038 -0.177594,-2.648184 -7.282194 0.1742975,-3.111446 -6.510278 0.3311734,-3.372984 -5.739172 0.510313,-3.677191 -5.164339 0.7256591,-2.912971 -5.119354 -0.2642066,-3.135008 -4.214714 -0.1442857,-3.241922 -3.636594 0.01974817,-3.332336 -3.129623 0.1951052,-2.558766 -4.957799 -0.2638969,-2.635695 -3.936945 -0.02742697,-2.672172 -3.598707 0.3010743,-2.684337 -3.621584 0.5200864,-2.227837 -4.998439 -0.1828193,-2.248165 -4.019111 0.1105377,-2.27739 -3.995569 0.5217135,-2.292411 -4.311878 0.7592776,-1.882156 -5.187831 -0.05673295,-1.883575 -4.433429 0.2358124,-1.935338 -4.452559 0.5700194,-1.96829 -4.756469 0.7978606,-7.860063 -7.479558 0.01400677,-7.301807 -7.3493 0.3745781,-6.805019 -6.691416 0.5634311,-6.418902 -6.093223 0.7539958,-6.09016 -5.670599 0.9185888,-7.068315 -5.039197 0.02261523,-6.839527 -4.135438 0.08147989,-6.750342 -3.473101 0.2027008,-6.687983 -2.882243 0.3242921,-7.398005 -4.857961 0.02493626,-7.299175 -3.883776 0.2920226,-7.299972 -3.874205 0.6103408,-7.317518 -4.10642 0.794483,-7.709568 -4.885732 0.07907078,-7.673447 -3.941494 0.3174982,-7.642865 -3.931315 0.6131871,-7.631725 -4.172142 0.7791131,-8.028256 -5.092767 0.169267,-8.025089 -4.363756 0.3619997,-7.995607 -4.123073 0.5554951,-7.967267 -4.105089 0.7128072,0.35000,0 0 0 0 0 0 False
-2.086297 -7.517038 -0.177594,-2.648184 -7.282194 0.1742975,-3.111446 -6.510278 0.3311734,-3.372984 -5.739172 0.510313,-3.677191 -5.164339 0.7256591,-2.912971 -5.119354 -0.2642066,-3.135008 -4.214714 -0.1442857,-3.241922 -3.636594 0.01974817,-3.332336 -3.129623 0.1951052,-2.558766 -4.957799 -0.2638969,-2.635695 -3.936945 -0.02742697,-2.672172 -3.598707 0.3010743,-2.684337 -3.621584 0.5200864,-2.227837 -4.998439 -0.1828193,-2.248165 -4.019111 0.1105377,-2.27739 -3.995569 0.5217135,-2.292411 -4.311878 0.7592776,-1.882156 -5.187831 -0.05673295,-1.883575 -4.433429 0.2358124,-1.935338 -4.452559 0.5700194,-1.96829 -4.756469 0.7978606,-7.860063 -7.479558 0.01400677,-7.301807 -7.3493 0.3745781,-6.805019 -6.691416 0.5634311,-6.418902 -6.093223 0.7539958,-6.09016 -5.670599 0.9185888,-7.068315 -5.039197 0.02261523,-6.839527 -4.135438 0.08147989,-6.750342 -3.473101 0.2027008,-6.687983 -2.882243 0.3242921,-7.398005 -4.857961 0.02493626,-7.299175 -3.883776 0.2920226,-7.299972 -3.874205 0.6103408,-7.317518 -4.10642 0.794483,-7.709568 -4.885732 0.07907078,-7.673447 -3.941494 0.3174982,-7.642865 -3.931315 0.6131871,-7.631725 -4.172142 0.7791131,-8.028256 -5.092767 0.169267,-8.025089 -4.363756 0.3619997,-7.995607 -4.123073 0.5554951,-7.967267 -4.105089 0.7128072,0.38333,0 0 0 0 0 0 False
-2.128582 -7.561945 -0.3480894,-2.691229 -7.282991 -0.008855611,-3.123686 -6.486809 0.1347347,-3.374879 -5.701102 0.289535,-3.674606 -5.106329 0.4304371,-2.974607 -5.189799 -0.4064654,-3.163164 -4.326049 -0.2514822,-3.274278 -3.718438 -0.05678532,-3.37114 -3.128165 0.1194102,-2.618313 -5.054733 -0.4011477,-2.681217 -4.022753 0.02803218,-2.708504 -4.251945 0.3578376,-2.688303 -4.643148 0.4636932,-2.27922 -5.089723 -0.3300599,-2.269351 -4.249408 0.09892282,-2.325059 -4.83189 0.3995257,-2.349391 -5.428977 0.450766,-1.913523 -5.268493 -0.2296834,-1.925202 -4.578908 0.1400682,-2.022601 -4.953731 0.3629889,-2.069484 -5.471451 0.4316268,-7.894591 -7.454448 -0.3039473,-7.315817 -7.332686 0.05035067,-6.830359 -6.69384 0.2120045,-6.451298 -6.090457 0.3965764,-6.14442 -5.644088 0.5347116,-7.081351 -5.085166 -0.3144718,-6.888598 -4.130725 -0.1900688,-6.797047 -3.474854 -0.06422211,-6.728547 -2.867188 0.05552807,-7.384833 -4.934251 -0.2868065,-7.325503 -3.910453 0.1167842,-7.356254 -4.506441 0.4034793,-7.383247 -5.104699 0.4556611,-7.701655 -4.938936 -0.1973666,-7.682317 -3.969268 0.1812701,-7.673334 -4.594731 0.4382353,-7.683874 -5.242639 0.4614202,-8.041936 -5.108545 -0.08022816,-8.04569 -4.308414 0.2602048,-7.98012 -4.596308 0.4455619,-7.935765 -5.073455 0.4749612,0.41667,0 0 0 0 0 0 False
-2.128582 -7.561945 -0.3480894,-2.691229 -7.282991 -0.008855611,-3.123686 -6.486809 0.1347347,-3.374879 -5.701102 0.289535,-3.674606 -5.106329 0.4304371,-2.974607 -5.189799 -0.4064654,-3.163164 -4.326049 -0.2514822,-3.274278 -3.718438 -0.05678532,-3.37114 -3.128165 0.1194102,-2.618313 -5.054733 -0.4011477,-2.681217 -4.022753 0.02803218,-2.708504 -4.251945 0.3578376,-2.688303 -4.643148 0.4636932,-2.27922 -5.089723 -0.3300599,-2.269351 -4.249408 0.09892282,-2.325059 -4.83189 0.3995257,-2.349391 -5.428977 0.450766,-1.913523 -5.268493 -0.2296834,-1.925202 -4.578908 0.1400682,-2.022601 -4.953731 0.3629889,-2.069484 -5.471451 0.4316268,-7.894591 -7.454448 -0.3039473,-7.315817 -7.332686 0.05035067,-6.830359 -6.69384 0.2120045,-6.451298 -6.090457 0.3965764,-6.14442 -5.644088 0.5347116,-7.081351 -5.085166 -0.3144718,-6.888598 -4.130725 -0.1900688,-6.797047 -3.474854 -0.06422211,-6.728547 -2.867188 0.05552807,-7.384833 -4.934251 -0.2868065,-7.325503 -3.910453 0.1167842,-7.356254 -4.506441 0.4034793,-7.383247 -5.104699 0.4556611,-7.701655 -4.938936 -0.1973666,-7.682317 -3.969268 0.1812701,-7.673334 -4.594731 0.4382353,-7.683874 -5.242639 0.4614202,-8.041936 -5.108545 -0.08022816,-8.04569 -4.308414 0.2602048,-7.98012 -4.596308 0.4455619,-7.935765 -5.073455 0.4749612,0.45000,0 0 0 0 0 0 False
-2.16048 -7.589445 -0.445312,-2.726439 -7.284736 -0.1823518,-3.160482 -6.437744 -0.09326077,-3.416792 -5.680053 0.02770692,-3.729191 -5.17602 0.1372513,-3.01843 -5.232192 -0.4658992,-3.234383 -4.442134 -0.234136,-3.344795 -3.858448 -0.001756251,-3.444807 -3.259842 0.1888342,-2.671968 -5.11509 -0.3862469,-2.78616 -4.308612 0.1970382,-2.790683 -4.920782 0.5624658,-2.762939 -5.513155 0.6696303,-2.320298 -5.170209 -0.2534477,-2.405852 -4.556911 0.3478687,-2.453744 -5.375818 0.6031777,-2.450252 -6.041797 0.6106461,-1.940222 -5.372535 -0.1057126,-2.028158 -4.879465 0.3855565,-2.130637 -5.425155 0.5621214,-2.171142 -5.941003 0.5595772,-7.898131 -7.489866 -0.3656577,-7.337239 -7.353574 0.04849845,-6.867793 -6.693935 0.2213467,-6.501162 -6.059967 0.4122545,-6.176559 -5.614805 0.5530381,-7.117529 -5.119222 -0.3998663,-6.938788 -4.153286 -0.2031374,-6.840241 -3.544073 -0.08136013,-6.781066 -2.934032 -0.008798182,-7.420281 -4.981319 -0.3879372,-7.347243 -4.06638 0.1556027,-7.375352 -4.885332 0.435766,-7.422428 -5.511165 0.4029185,-7.747061 -4.971717 -0.3018395,-7.714005 -4.094827 0.2270786,-7.691988 -4.879011 0.4934242,-7.701651 -5.5072 0.4355677,-8.107935 -5.10879 -0.1893104,-8.102608 -4.344619 0.2240327,-8.035735 -4.727541 0.4163357,-7.997142 -5.198946 0.3829333,0.48333,0 0 0 0 0 0 False
-2.218111 -7.60839 -0.4185012,-2.726439 -7.284736 -0.1557624,-3.160482 -6.437744 -0.06667137,-3.416792 -5.680053 0.05429631,-3.729191 -5.17602 0.1638407,-3.01843 -5.232192 -0.4393098,-3.234383 -4.442134 -0.2075467,-3.344795 -3.858448 0.02483314,-3.444807 -3.259842 0.2154236,-2.671968 -5.11509 -0.3596575,-2.78616 -4.308612 0.2236276,-2.790683 -4.920782 0.5890552,-2.762939 -5.513155 0.6962197,-2.320298 -5.170209 -0.2268583,-2.405852 -4.556911 0.3744581,-2.453744 -5.375818 0.6297671,-2.450252 -6.041797 0.6372355,-1.940222 -5.372535 -0.07912317,-2.028158 -4.879465 0.4121459,-2.130637 -5.425155 0.5887108,-2.171142 -5.941003 0.5861666,-7.898131 -7.489866 -0.3656577,-7.337239 -7.353574 0.04849845,-6.867793 -6.693935 0.2213467,-6.501162 -6.059967 0.4122545,-6.176559 -5.614805 0.5530381,-7.117529 -5.119222 -0.3998663,-6.938788 -4.153286 -0.2031374,-6.840241 -3.544073 -0.08136013,-6.781066 -2.934032 -0.008798182,-7.420281 -4.981319 -0.3879372,-7.347243 -4.06638 0.1556027,-7.375352 -4.885332 0.435766,-7.422428 -5.511165 0.4029185,-7.747061 -4.971717 -0.3018395,-7.714005 -4.094827 0.2270786,-7.691988 -4.879011 0.4934242,-7.701651 -5.5072 0.4355677,-8.107935 -5.10879 -0.1893104,-8.102608 -4.344619 0.2240327,-8.035735 -4.727541 0.4163357,-7.997142 -5.198946 0.3829333,0.51667,0 0 0 0 0 0 False
-2.218111 -7.60839 -0.4308487,-2.745579 -7.311711 -0.0978263,-3.185903 -6.456958 0.03808215,-3.441862 -5.719439 0.2022881,-3.731192 -5.219953 0.3629607,-3.051236 -5.258403 -0.2680452,-3.285948 -4.487939 0.1377423,-3.412603 -3.962415 0.4626482,-3.511649 -3.424877 0.7140017,-2.709279 -5.135118 -0.2076914,-2.824283 -4.543183 0.489033,-2.822274 -5.444843 0.7604251,-2.776797 -6.064086 0.7741462,-2.345078 -5.202263 -0.08532035,-2.432347 -4.716871 0.547849,-2.492164 -5.651315 0.6397457,-2.473027 -6.25274 0.5423704,-1.961431 -5.433509 0.06409934,-2.017948 -4.989252 0.5530354,-2.1269 -5.653411 0.6438764,-2.16291 -6.155053 0.5735421,-7.930967 -7.489106 -0.3861196,-7.366838 -7.342022 0.0492509,-6.908433 -6.681121 0.2465144,-6.554708 -6.02683 0.4523676,-6.231541 -5.573205 0.6193961,-7.150469 -5.123216 -0.3713093,-6.976009 -4.169989 -0.1401171,-6.885844 -3.550342 0.02685189,-6.829704 -2.933548 0.1210233,-7.459698 -4.985193 -0.379135,-7.396587 -4.106206 0.182871,-7.430041 -4.919889 0.4814242,-7.470235 -5.53334 0.454843,-7.79425 -4.981528 -0.3075866,-7.76627 -4.127095 0.2074529,-7.741518 -4.906563 0.4789737,-7.741549 -5.525805 0.4224328,-8.161682 -5.129709 -0.2127593,-8.16868 -4.38345 0.2017187,-8.100532 -4.782623 0.4058992,-8.052356 -5.260859 0.3776121,0.55000,0 0 0 0 0 0 False
-2.254326 -7.564415 -0.5103106,-2.763536 -7.305683 -0.1725028,-3.21208 -6.426439 -0.03529689,-3.46944 -5.664574 0.1255722,-3.775881 -5.204606 0.2969704,-3.087622 -5.266984 -0.2893253,-3.321105 -4.501028 0.1440153,-3.424164 -3.980246 0.4569504,-3.505671 -3.461568 0.6900436,-2.744884 -5.119462 -0.236254,-2.852968 -4.592577 0.4694302,-2.817124 -5.54896 0.7081281,-2.758514 -6.177743 0.6876533,-2.368102 -5.165227 -0.1272498,-2.4663 -4.819245 0.5096122,-2.49709 -5.787078 0.568583,-2.466225 -6.347946 0.4451666,-1.972016 -5.375997 0.007394731,-2.047052 -5.045759 0.4845972,-2.137228 -5.769634 0.5333416,-2.165779 -6.251958 0.4297002,-7.957195 -7.48349 -0.4059447,-7.399081 -7.339644 0.04284248,-6.947825 -6.663078 0.241182,-6.603429 -6.001028 0.4468035,-6.287059 -5.535754 0.611294,-7.189909 -5.114448 -0.3767637,-7.024714 -4.156291 -0.1331765,-6.939096 -3.536736 0.04003239,-6.888556 -2.91396 0.1318699,-7.499817 -4.982754 -0.3920662,-7.44948 -4.107345 0.1897484,-7.484006 -4.936359 0.4810257,-7.521091 -5.55179 0.4317128,-7.834643 -4.980795 -0.3269376,-7.817467 -4.128603 0.2213315,-7.78863 -4.932107 0.4917446,-7.78148 -5.563196 0.4203188,-8.201355 -5.135536 -0.2353429,-8.221503 -4.395774 0.204263,-8.150387 -4.817087 0.4212026,-8.09558 -5.317007 0.3916488,0.58333,0 0 0 0 0 0 False
-2.254326 -7.564415 -0.5103106,-2.763536 -7.305683 -0.1725028,-3.21208 -6.426439 -0.03529689,-3.46944 -5.664574 0.1255722,-3.775881 -5.204606 0.2969704,-3.087622 -5.266984 -0.2893253,-3.321105 -4.501028 0.1440153,-3.424164 -3.980246 0.4569504,-3.505671 -3.461568 0.6900436,-2.744884 -5.119462 -0.236254,-2.852968 -4.592577 0.4694302,-2.817124 -5.54896 0.7081281,-2.758514 -6.177743 0.6876533,-2.368102 -5.165227 -0.1272498,-2.4663 -4.819245 0.5096122,-2.49709 -5.787078 0.568583,-2.466225 -6.347946 0.4451666,-1.972016 -5.375997 0.007394731,-2.047052 -5.045759 0.4845972,-2.137228 -5.769634 0.5333416,-2.165779 -6.251958 0.4297002,-7.957195 -7.48349 -0.4059447,-7.399081 -7.339644 0.04284248,-6.947825 -6.663078 0.241182,-6.603429 -6.001028 0.4468035,-6.287059 -5.535754 0.611294,-7.189909 -5.114448 -0.3767637,-7.024714 -4.156291 -0.1331765,-6.939096 -3.536736 0.04003239,-6.888556 -2.91396 0.1318699,-7.499817 -4.982754 -0.3920662,-7.44948 -4.107345 0.1897484,-7.484006 -4.936359 0.4810257,-7.521091 -5.55179 0.4317128,-7.834643 -4.980795 -0.3269376,-7.817467 -4.128603 0.2213315,-7.78863 -4.932107 0.4917446,-7.78148 -5.563196 0.4203188,-8.201355 -5.135536 -0.2353429,-8.221503 -4.395774 0.204263,-8.150387 -4.817087 0.4212026,-8.09558 -5.317007 0.3916488,0.61667,0 0 0 0 0 0 False
-2.318172 -7.532974 -0.2217718,-2.816007 -7.265466 0.1255655,-3.261324 -6.356846 0.2843439,-3.50366 -5.620748 0.4698511,-3.815084 -5.190961 0.6764437,-3.101126 -5.165803 0.1186615,-3.340265 -4.495536 0.6189276,-3.442205 -4.008295 0.9615409,-3.528735 -3.532409 1.19979,-2.737354 -5.008363 0.1836247,-2.879027 -4.700363 0.9401946,-2.84408 -5.687122 1.189172,-2.778895 -6.302613 1.17891,-2.334986 -5.086115 0.2991809,-2.46454 -4.978555 0.993709,-2.489584 -5.969865 1.040783,-2.454789 -6.506528 0.9218982,-1.919437 -5.339591 0.4373063,-2.032515 -5.158822 0.9535913,-2.138166 -5.897071 0.9957715,-2.171852 -6.348135 0.9048604,-7.966639 -7.441808 -0.5128402,-7.415151 -7.296615 -0.06609887,-6.977316 -6.634476 0.1088912,-6.630607 -5.975257 0.2917889,-6.312457 -5.526639 0.4392394,-7.214794 -5.097932 -0.5245161,-7.050603 -4.128634 -0.2541183,-6.973463 -3.50428 -0.05011678,-6.927996 -2.872282 0.06590283,-7.524159 -4.96952 -0.5419337,-7.4956 -4.101099 0.0552128,-7.54779 -4.955468 0.3460263,-7.580344 -5.588399 0.2845699,-7.85738 -4.962867 -0.4761652,-7.865774 -4.132131 0.1013107,-7.85826 -4.97307 0.3590357,-7.84461 -5.621932 0.261916,-8.215605 -5.115284 -0.3800912,-8.250452 -4.390081 0.07979548,-8.195869 -4.833095 0.2853554,-8.141161 -5.343976 0.2278557,0.65000,0 0 0 0 0 0 False
-2.318172 -7.532974 -0.2217718,-2.816007 -7.265466 0.1255655,-3.261324 -6.356846 0.2843439,-3.50366 -5.620748 0.4698511,-3.815084 -5.190961 0.6764437,-3.101126 -5.165803 0.1186615,-3.340265 -4.495536 0.6189276,-3.442205 -4.008295 0.9615409,-3.528735 -3.532409 1.19979,-2.737354 -5.008363 0.1836247,-2.879027 -4.700363 0.9401946,-2.84408 -5.687122 1.189172,-2.778895 -6.302613 1.17891,-2.334986 -5.086115 0.2991809,-2.46454 -4.978555 0.993709,-2.489584 -5.969865 1.040783,-2.454789 -6.506528 0.9218982,-1.919437 -5.339591 0.4373063,-2.032515 -5.158822 0.9535913,-2.138166 -5.897071 0.9957715,-2.171852 -6.348135 0.9048604,-7.966639 -7.441808 -0.5128402,-7.415151 -7.296615 -0.06609887,-6.977316 -6.634476 0.1088912,-6.630607 -5.975257 0.2917889,-6.312457 -5.526639 0.4392394,-7.214794 -5.097932 -0.5245161,-7.050603 -4.128634 -0.2541183,-6.973463 -3.50428 -0.05011678,-6.927996 -2.872282 0.06590283,-7.524159 -4.96952 -0.5419337,-7.4956 -4.101099 0.0552128,-7.54779 -4.955468 0.3460263,-7.580344 -5.588399 0.2845699,-7.85738 -4.962867 -0.4761652,-7.865774 -4.132131 0.1013107,-7.85826 -4.97307 0.3590357,-7.84461 -5.621932 0.261916,-8.215605 -5.115284 -0.3800912,-8.250452 -4.390081 0.07979548,-8.195869 -4.833095 0.2853554,-8.141161 -5.343976 0.2278557,0.68333,0 0 0 0 0 0 False
-2.328162 -7.467069 -0.2549536,-2.837252 -7.238487 0.09625104,-3.310965 -6.349395 0.2656704,-3.568373 -5.618298 0.4541529,-3.887333 -5.169955 0.6774923,-3.112778 -5.131683 0.1633455,-3.36904 -4.474993 0.6592041,-3.489594 -4.007745 0.9984704,-3.595169 -3.56679 1.242391,-2.735629 -4.95964 0.2053876,-2.882633 -4.799255 0.8890424,-2.838676 -5.781446 1.117586,-2.765343 -6.409549 1.126474,-2.322282 -5.037225 0.2939901,-2.452098 -5.050251 0.9512084,-2.465001 -6.015012 1.00211,-2.435241 -6.544208 0.9099865,-1.898554 -5.27873 0.4022747,-2.004906 -5.124254 0.8966789,-2.10123 -5.840353 0.9249866,-2.140119 -6.296777 0.8461313,-7.97523 -7.425451 -0.6089079,-7.414976 -7.312475 -0.127771,-6.977864 -6.66537 0.08457363,-6.647062 -5.99927 0.2974222,-6.345743 -5.525323 0.4743211,-7.220788 -5.106412 -0.5306397,-7.067127 -4.117639 -0.2394663,-6.99074 -3.492748 -0.02606702,-6.949537 -2.868219 0.09245753,-7.528572 -4.98225 -0.5574352,-7.504137 -4.114513 0.05833519,-7.549448 -4.958047 0.3697375,-7.580399 -5.578451 0.3302824,-7.85993 -4.975283 -0.5014209,-7.862643 -4.146132 0.07819426,-7.850302 -4.968881 0.3506882,-7.837167 -5.606781 0.2725407,-8.220972 -5.12041 -0.4149945,-8.252718 -4.387853 0.04328156,-8.195401 -4.819614 0.252986,-8.142477 -5.327343 0.2037953,0.71667,0 0 0 0 0 0 False
-2.328162 -7.467069 -0.2549536,-2.837252 -7.238487 0.09625104,-3.310965 -6.349395 0.2656704,-3.568373 -5.618298 0.4541529,-3.887333 -5.169955 0.6774923,-3.112778 -5.131683 0.1633455,-3.36904 -4.474993 0.6592041,-3.489594 -4.007745 0.9984704,-3.595169 -3.56679 1.242391,-2.735629 -4.95964 0.2053876,-2.882633 -4.799255 0.8890424,-2.838676 -5.781446 1.117586,-2.765343 -6.409549 1.126474,-2.322282 -5.037225 0.2939901,-2.452098 -5.050251 0.9512084,-2.465001 -6.015012 1.00211,-2.435241 -6.544208 0.9099865,-1.898554 -5.27873 0.4022747,-2.004906 -5.124254 0.8966789,-2.10123 -5.840353 0.9249866,-2.140119 -6.296777 0.8461313,-7.97523 -7.425451 -0.6089079,-7.414976 -7.312475 -0.127771,-6.977864 -6.66537 0.08457363,-6.647062 -5.99927 0.2974222,-6.345743 -5.525323 0.4743211,-7.220788 -5.106412 -0.5306397,-7.067127 -4.117639 -0.2394663,-6.99074 -3.492748 -0.02606702,-6.949537 -2.868219 0.09245753,-7.528572 -4.98225 -0.5574352,-7.504137 -4.114513 0.05833519,-7.549448 -4.958047 0.3697375,-7.580399 -5.578451 0.3302824,-7.85993 -4.975283 -0.5014209,-7.862643 -4.146132 0.07819426,-7.850302 -4.968881 0.3506882,-7.837167 -5.606781 0.2725407,-8.220972 -5.12041 -0.4149945,-8.252718 -4.387853 0.04328156,-8.195401 -4.819614 0.252986,-8.142477 -5.327343 0.2037953,0.75000,0 0 0 0 0 0 False
-2.397346 -7.44199 0.0006756743,-2.891351 -7.19808 0.3794995,-3.366106 -6.340908 0.5806384,-3.620197 -5.6311 0.7954489,-3.940372 -5.164567 1.069131,-3.160213 -5.059672 0.5041822,-3.415342 -4.473655 1.050141,-3.536679 -4.038164 1.441133,-3.641782 -3.658844 1.712812,-2.777351 -4.871542 0.5445457,-2.934917 -4.834341 1.244556,-2.888642 -5.806255 1.482597,-2.80778 -6.462932 1.508266,-2.359318 -4.960735 0.636021,-2.495706 -5.085893 1.322652,-2.501243 -6.038042 1.381949,-2.473137 -6.585163 1.307117,-1.932785 -5.217076 0.7506718,-2.039833 -5.135358 1.28098,-2.134189 -5.844215 1.324919,-2.185038 -6.296274 1.269579,-7.967865 -7.455219 -0.5925279,-7.405161 -7.327805 -0.09408852,-6.976057 -6.681657 0.1146434,-6.647902 -6.007402 0.3231737,-6.348594 -5.513085 0.4936616,-7.21857 -5.123108 -0.5430981,-7.069194 -4.161012 -0.251019,-6.990973 -3.543821 -0.02209216,-6.946983 -2.925676 0.1109224,-7.522432 -5.006522 -0.5761465,-7.501551 -4.12984 0.06834853,-7.541437 -4.96384 0.4138701,-7.57357 -5.60385 0.3912649,-7.848907 -4.999681 -0.5245343,-7.856623 -4.152915 0.09492135,-7.84331 -4.979286 0.399497,-7.829373 -5.649409 0.3255406,-8.205759 -5.143727 -0.4425573,-8.243388 -4.412612 0.0472095,-8.180408 -4.833646 0.2761281,-8.121212 -5.353171 0.2300798,0.78333,0 0 0 0 0 0 False
-2.441108 -7.383607 0.05156731,-2.95716 -7.145559 0.4067342,-3.456045 -6.279479 0.6259906,-3.737835 -5.567813 0.8461856,-4.072052 -5.101137 1.139596,-3.21946 -5.001434 0.5502939,-3.474791 -4.483852 1.067691,-3.590876 -4.066959 1.452092,-3.697029 -3.717092 1.719081,-2.823301 -4.79906 0.5980866,-3.009457 -4.814725 1.249874,-2.958904 -5.751807 1.49225,-2.869536 -6.392644 1.539262,-2.397798 -4.890527 0.6942456,-2.55389 -5.104784 1.32441,-2.548666 -6.029722 1.389408,-2.516019 -6.564062 1.336752,-1.963428 -5.154516 0.8035339,-2.098439 -5.205612 1.308164,-2.191554 -5.917161 1.354982,-2.236285 -6.34453 1.321827,-7.971279 -7.445913 -0.5924621,-7.405161 -7.327805 -0.09408852,-6.976057 -6.681657 0.1146434,-6.647902 -6.007402 0.3231737,-6.348594 -5.513085 0.4936616,-7.21857 -5.123108 -0.5430981,-7.069194 -4.161012 -0.251019,-6.990973 -3.543821 -0.02209216,-6.946983 -2.925676 0.1109224,-7.522432 -5.006522 -0.5761465,-7.501551 -4.12984 0.06834853,-7.541437 -4.96384 0.4138701,-7.57357 -5.60385 0.3912649,-7.848907 -4.999681 -0.5245343,-7.856623 -4.152915 0.09492135,-7.84331 -4.979286 0.399497,-7.829373 -5.649409 0.3255406,-8.205759 -5.143727 -0.4425573,-8.243388 -4.412612 0.0472095,-8.180408 -4.833646 0.2761281,-8.121212 -5.353171 0.2300798,0.81667,0 0 0 0 0 0 False
-2.441108 -7.383607 0.05156731,-2.95716 -7.145559 0.4067342,-3.456045 -6.279479 0.6259906,-3.737835 -5.567813 0.8461856,-4.072052 -5.101137 1.139596,-3.21946 -5.001434 0.5502939,-3.474791 -4.483852 1.067691,-3.590876 -4.066959 1.452092,-3.697029 -3.717092 1.719081,-2.823301 -4.79906 0.5980866,-3.009457 -4.814725 1.249874,-2.958904 -5.751807 1.49225,-2.869536 -6.392644 1.539262,-2.397798 -4.890527 0.6942456,-2.55389 -5.104784 1.32441,-2.548666 -6.029722 1.389408,-2.516019 -6.564062 1.336752,-1.963428 -5.154516 0.8035339,-2.098439 -5.205612 1.308164,-2.191554 -5.917161 1.354982,-2.236285 -6.34453 1.321827,-7.971279 -7.445913 -0.6815054,-7.406848 -7.332656 -0.1844689,-6.969757 -6.689136 0.02554834,-6.635499 -6.026708 0.2395945,-6.330205 -5.537881 0.4161233,-7.210449 -5.138174 -0.6225291,-7.061982 -4.160853 -0.333432,-6.980651 -3.540233 -0.1213589,-6.933537 -2.912838 -0.006611884,-7.517297 -5.024768 -0.6540045,-7.496279 -4.165482 -0.004496515,-7.532926 -5.008914 0.3354161,-7.562196 -5.638254 0.307552,-7.843669 -5.022779 -0.6019853,-7.848634 -4.191986 0.01889449,-7.828777 -5.021517 0.3155028,-7.810017 -5.685115 0.2367795,-8.200128 -5.161553 -0.5172771,-8.229395 -4.420153 -0.04698116,-8.156935 -4.833164 0.164633,-8.093118 -5.342842 0.1077029,0.85000,0 0 0 0 0 0 False
-2.497199 -7.272851 0.005978543,-3.025287 -7.062711 0.3477404,-3.532871 -6.249329 0.5758765,-3.83411 -5.544147 0.8002598,-4.170794 -5.075193 1.104131,-3.284792 -4.939176 0.5242317,-3.525515 -4.478781 1.04223,-3.644449 -4.06016 1.412083,-3.752369 -3.690389 1.666038,-2.890112 -4.706112 0.5653364,-3.040412 -4.900799 1.192208,-2.990418 -5.802557 1.418819,-2.913074 -6.3777 1.468244,-2.461548 -4.79952 0.6547939,-2.595675 -5.192016 1.234011,-2.598203 -6.075922 1.282686,-2.578341 -6.551073 1.230925,-2.031062 -5.058353 0.7586098,-2.154105 -5.304818 1.208004,-2.251503 -6.009583 1.240646,-2.308926 -6.372358 1.199821,-7.975293 -7.467271 -0.6016013,-7.423859 -7.367803 -0.1058746,-6.982417 -6.720533 0.1028024,-6.650016 -6.044824 0.302054,-6.342702 -5.565618 0.4677583,-7.215981 -5.147577 -0.5051041,-7.071802 -4.170371 -0.234198,-7.000271 -3.558744 -0.05110461,-6.957832 -2.937203 0.04631335,-7.52707 -5.022274 -0.5465816,-7.512754 -4.189592 0.05330795,-7.56557 -5.036949 0.3267875,-7.592798 -5.64504 0.2676468,-7.861701 -5.01634 -0.5053259,-7.873388 -4.231962 0.09341061,-7.870999 -5.062835 0.3602565,-7.854546 -5.695899 0.2765423,-8.223166 -5.15745 -0.4332573,-8.252512 -4.439432 0.03820443,-8.199013 -4.860053 0.2525288,-8.14254 -5.353078 0.2049932,0.88333,0 0 0 0 0 0 False
-2.497199 -7.272851 0.005978543,-3.025287 -7.062711 0.3477404,-3.532871 -6.249329 0.5758765,-3.83411 -5.544147 0.8002598,-4.170794 -5.075193 1.104131,-3.284792 -4.939176 0.5242317,-3.525515 -4.478781 1.04223,-3.644449 -4.06016 1.412083,-3.752369 -3.690389 1.666038,-2.890112 -4.706112 0.5653364,-3.040412 -4.900799 1.192208,-2.990418 -5.802557 1.418819,-2.913074 -6.3777 1.468244,-2.461548 -4.79952 0.6547939,-2.595675 -5.192016 1.234011,-2.598203 -6.075922 1.282686,-2.578341 -6.551073 1.230925,-2.031062 -5.058353 0.7586098,-2.154105 -5.304818 1.208004,-2.251503 -6.009583 1.240646,-2.308926 -6.372358 1.199821,-7.975293 -7.467271 -0.6016013,-7.423859 -7.367803 -0.1058746,-6.982417 -6.720533 0.1028024,-6.650016 -6.044824 0.302054,-6.342702 -5.565618 0.4677583,-7.215981 -5.147577 -0.5051041,-7.071802 -4.170371 -0.234198,-7.000271 -3.558744 -0.05110461,-6.957832 -2.937203 0.04631335,-7.52707 -5.022274 -0.5465816,-7.512754 -4.189592 0.05330795,-7.56557 -5.036949 0.3267875,-7.592798 -5.64504 0.2676468,-7.861701 -5.01634 -0.5053259,-7.873388 -4.231962 0.09341061,-7.870999 -5.062835 0.3602565,-7.854546 -5.695899 0.2765423,-8.223166 -5.15745 -0.4332573,-8.252512 -4.439432 0.03820443,-8.199013 -4.860053 0.2525288,-8.14254 -5.353078 0.2049932,0.91667,0 0 0 0 0 0 False
-2.530194 -7.17217 0.1719095,-3.065649 -7.011757 0.5254347,-3.592062 -6.228757 0.8033589,-3.908463 -5.521146 1.065667,-4.251257 -5.05657 1.428759,-3.369265 -4.871135 0.8248308,-3.596446 -4.439005 1.368941,-3.707216 -4.024372 1.749863,-3.807785 -3.641951 2.013029,-2.974685 -4.597797 0.868032,-3.09441 -4.928311 1.498183,-3.044654 -5.811718 1.692283,-2.979208 -6.327775 1.731097,-2.543006 -4.686637 0.9548919,-2.652418 -5.237405 1.522401,-2.658418 -6.086679 1.541053,-2.645077 -6.500597 1.49119,-2.11345 -4.93818 1.054073,-2.217989 -5.376674 1.489375,-2.313941 -6.070816 1.497246,-2.376275 -6.363071 1.464155,-7.995282 -7.477546 -0.577758,-7.440697 -7.362424 -0.08462131,-7.002196 -6.721025 0.1275832,-6.671267 -6.051068 0.331466,-6.358897 -5.578096 0.4981802,-7.238188 -5.146566 -0.4742999,-7.099674 -4.177595 -0.1947914,-7.02928 -3.581529 -0.009057641,-6.988669 -2.976415 0.08341163,-7.55423 -5.024508 -0.5146759,-7.537238 -4.194734 0.08391494,-7.591498 -5.058996 0.3373203,-7.620867 -5.659744 0.2592208,-7.891307 -5.026296 -0.4686258,-7.903142 -4.257959 0.1293625,-7.901949 -5.099498 0.3860059,-7.887856 -5.715826 0.2973418,-8.255154 -5.172803 -0.3916532,-8.28062 -4.4501 0.07306498,-8.226855 -4.878782 0.2827758,-8.17322 -5.361509 0.2330974,0.95000,0 0 0 0 0 0 False
-2.530194 -7.17217 0.1719095,-3.065649 -7.011757 0.5254347,-3.592062 -6.228757 0.8033589,-3.908463 -5.521146 1.065667,-4.251257 -5.05657 1.428759,-3.369265 -4.871135 0.8248308,-3.596446 -4.439005 1.368941,-3.707216 -4.024372 1.749863,-3.807785 -3.641951 2.013029,-2.974685 -4.597797 0.868032,-3.09441 -4.928311 1.498183,-3.044654 -5.811718 1.692283,-2.979208 -6.327775 1.731097,-2.543006 -4.686637 0.9548919,-2.652418 -5.237405 1.522401,-2.658418 -6.086679 1.541053,-2.645077 -6.500597 1.49119,-2.11345 -4.93818 1.054073,-2.217989 -5.376674 1.489375,-2.313941 -6.070816 1.497246,-2.376275 -6.363071 1.464155,-7.995282 -7.477546 -0.577758,-7.440697 -7.362424 -0.08462131,-7.002196 -6.721025 0.1275832,-6.671267 -6.051068 0.331466,-6.358897 -5.578096 0.4981802,-7.238188 -5.146566 -0.4742999,-7.099674 -4.177595 -0.1947914,-7.02928 -3.581529 -0.009057641,-6.988669 -2.976415 0.08341163,-7.55423 -5.024508 -0.5146759,-7.537238 -4.194734 0.08391494,-7.591498 -5.058996 0.3373203,-7.620867 -5.659744 0.2592208,-7.891307 -5.026296 -0.4686258,-7.903142 -4.257959 0.1293625,-7.901949 -5.099498 0.3860059,-7.887856 -5.715826 0.2973418,-8.255154 -5.172803 -0.3916532,-8.28062 -4.4501 0.07306498,-8.226855 -4.878782 0.2827758,-8.17322 -5.361509 0.2330974,0.98333,0 0 0 0 0 0 False
-2.574609 -7.114324 0.3124425,-3.102194 -6.954917 0.7236103,-3.623486 -6.162258 1.044595,-3.949943 -5.459057 1.337818,-4.302353 -5.013782 1.735776,-3.41611 -4.813089 1.074485,-3.623962 -4.415389 1.664248,-3.723993 -4.012922 2.04213,-3.817208 -3.6149 2.294415,-3.024461 -4.524347 1.098588,-3.110622 -4.88829 1.773716,-3.059591 -5.803121 1.927337,-2.997542 -6.265593 1.917115,-2.589241 -4.60682 1.174018,-2.668713 -5.191538 1.776647,-2.685557 -6.061098 1.764934,-2.674173 -6.435941 1.689831,-2.161708 -4.870279 1.265757,-2.242672 -5.339239 1.708279,-2.347301 -6.040971 1.701464,-2.411559 -6.32147 1.652654,-8.026127 -7.505134 -0.5958903,-7.461848 -7.366325 -0.1066836,-7.026383 -6.732391 0.1176783,-6.699348 -6.065341 0.3349504,-6.387913 -5.596618 0.516601,-7.264597 -5.171535 -0.4686415,-7.121476 -4.204889 -0.1768706,-7.048221 -3.603857 0.01763684,-7.00731 -3.00267 0.1143444,-7.585979 -5.058013 -0.5067546,-7.568727 -4.230541 0.0935275,-7.614476 -5.074069 0.3524334,-7.644243 -5.659725 0.2817654,-7.926862 -5.064507 -0.4589856,-7.938416 -4.292469 0.1317893,-7.928571 -5.11455 0.3883968,-7.915687 -5.716897 0.3077205,-8.292331 -5.210844 -0.3828998,-8.318557 -4.488183 0.07253224,-8.262448 -4.909165 0.2791111,-8.211058 -5.379056 0.2350577,1.01667,0 0 0 0 0 0 False
-2.574609 -7.114324 0.3124425,-3.102194 -6.954917 0.7236103,-3.623486 -6.162258 1.044595,-3.949943 -5.459057 1.337818,-4.302353 -5.013782 1.735776,-3.41611 -4.813089 1.074485,-3.623962 -4.415389 1.664248,-3.723993 -4.012922 2.04213,-3.817208 -3.6149 2.294415,-3.024461 -4.524347 1.098588,-3.110622 -4.88829 1.773716,-3.059591 -5.803121 1.927337,-2.997542 -6.265593 1.917115,-2.589241 -4.60682 1.174018,-2.668713 -5.191538 1.776647,-2.685557 -6.061098 1.764934,-2.674173 -6.435941 1.689831,-2.161708 -4.870279 1.265757,-2.242672 -5.339239 1.708279,-2.347301 -6.040971 1.701464,-2.411559 -6.32147 1.652654,-8.026127 -7.505134 -0.5958903,-7.461848 -7.366325 -0.1066836,-7.026383 -6.732391 0.1176783,-6.699348 -6.065341 0.3349504,-6.387913 -5.596618 0.516601,-7.264597 -5.171535 -0.4686415,-7.121476 -4.204889 -0.1768706,-7.048221 -3.603857 0.01763684,-7.00731 -3.00267 0.1143444,-7.585979 -5.058013 -0.5067546,-7.568727 -4.230541 0.0935275,-7.614476 -5.074069 0.3524334,-7.644243 -5.659725 0.2817654,-7.926862 -5.064507 -0.4589856,-7.938416 -4.292469 0.1317893,-7.928571 -5.11455 0.3883968,-7.915687 -5.716897 0.3077205,-8.292331 -5.210844 -0.3828998,-8.318557 -4.488183 0.07253224,-8.262448 -4.909165 0.2791111,-8.211058 -5.379056 0.2350577,1.05000,0 0 0 0 0 0 False
-2.588825 -7.055715 0.5318732,-3.102493 -6.915643 1.003262,-3.61581 -6.138544 1.346661,-3.940928 -5.448104 1.65855,-4.314987 -5.003172 2.087182,-3.426493 -4.713829 1.358377,-3.624121 -4.368356 2.01501,-3.717009 -3.998682 2.415959,-3.80588 -3.626932 2.675379,-3.029621 -4.414421 1.372169,-3.103588 -4.791366 2.13895,-3.0639 -5.743214 2.309838,-3.014962 -6.221564 2.29565,-2.586767 -4.500513 1.448705,-2.645808 -5.100484 2.139543,-2.683354 -6.008857 2.123496,-2.688937 -6.399742 2.019253,-2.161869 -4.793536 1.542903,-2.213447 -5.297901 2.052732,-2.331882 -6.019366 2.04997,-2.412279 -6.298664 1.988327,-8.034632 -7.528184 -0.62527,-7.478189 -7.392971 -0.1203871,-7.042405 -6.748687 0.1011856,-6.712276 -6.077914 0.3203432,-6.396487 -5.610628 0.5025533,-7.280537 -5.198791 -0.5064297,-7.15536 -4.218488 -0.2079131,-7.085483 -3.621786 -0.01051676,-7.044158 -3.025137 0.08999163,-7.598438 -5.088655 -0.5421763,-7.596245 -4.259985 0.09571022,-7.637987 -5.135355 0.3559036,-7.659994 -5.729169 0.2699181,-7.936525 -5.096162 -0.4874623,-7.955147 -4.316368 0.1439782,-7.945971 -5.157655 0.3907189,-7.928251 -5.758189 0.2842576,-8.302268 -5.243911 -0.3999262,-8.336669 -4.504469 0.0772121,-8.280923 -4.927248 0.2760449,-8.225137 -5.397075 0.2154857,1.08333,0 0 0 0 0 0 False
-2.586535 -7.002628 0.4171753,-3.098377 -6.848437 0.8811774,-3.618383 -6.052841 1.201002,-3.950587 -5.357091 1.488361,-4.318285 -4.919431 1.900239,-3.419304 -4.672214 1.21432,-3.620712 -4.309407 1.842297,-3.708205 -3.940457 2.22766,-3.790857 -3.57887 2.471558,-3.020445 -4.385395 1.227015,-3.109165 -4.724938 1.973579,-3.064258 -5.657804 2.170466,-3.002773 -6.177765 2.172425,-2.578065 -4.469432 1.298908,-2.650819 -5.030149 1.980273,-2.676431 -5.940437 2.010396,-2.673377 -6.391677 1.931586,-2.148837 -4.754779 1.388856,-2.210621 -5.180357 1.90643,-2.31881 -5.894717 1.932634,-2.392623 -6.226533 1.88912,-8.049952 -7.532995 -0.6335697,-7.497935 -7.402187 -0.1282827,-7.057833 -6.756956 0.07610208,-6.722749 -6.086783 0.2829292,-6.407018 -5.626258 0.4471095,-7.287872 -5.207623 -0.57775,-7.175057 -4.240121 -0.2819863,-7.114332 -3.659498 -0.09228706,-7.079435 -3.068419 0.002573431,-7.600476 -5.096992 -0.6079519,-7.610945 -4.301792 0.04690337,-7.654267 -5.192756 0.3116125,-7.673219 -5.767683 0.2156401,-7.935424 -5.098615 -0.543121,-7.963333 -4.337658 0.1145298,-7.955921 -5.197723 0.3699958,-7.93738 -5.797985 0.2530972,-8.303464 -5.238124 -0.4438599,-8.342259 -4.497083 0.03669477,-8.285232 -4.907957 0.2393224,-8.22775 -5.371357 0.1727653,1.11667,0 0 0 0 0 0 False
-2.586535 -7.002628 0.4171753,-3.098377 -6.848437 0.8811774,-3.618383 -6.052841 1.201002,-3.950587 -5.357091 1.488361,-4.318285 -4.919431 1.900239,-3.419304 -4.672214 1.21432,-3.620712 -4.309407 1.842297,-3.708205 -3.940457 2.22766,-3.790857 -3.57887 2.471558,-3.020445 -4.385395 1.227015,-3.109165 -4.724938 1.973579,-3.064258 -5.657804 2.170466,-3.002773 -6.177765 2.172425,-2.578065 -4.469432 1.298908,-2.650819 -5.030149 1.980273,-2.676431 -5.940437 2.010396,-2.673377 -6.391677 1.931586,-2.148837 -4.754779 1.388856,-2.210621 -5.180357 1.90643,-2.31881 -5.894717 1.932634,-2.392623 -6.226533 1.88912,-8.049952 -7.532995 -0.6335697,-7.497935 -7.402187 -0.1282827,-7.057833 -6.756956 0.07610208,-6.722749 -6.086783 0.2829292,-6.407018 -5.626258 0.4471095,-7.287872 -5.207623 -0.57775,-7.175057 -4.240121 -0.2819863,-7.114332 -3.659498 -0.09228706,-7.079435 -3.068419 0.002573431,-7.600476 -5.096992 -0.6079519,-7.610945 -4.301792 0.04690337,-7.654267 -5.192756 0.3116125,-7.673219 -5.767683 0.2156401,-7.935424 -5.098615 -0.543121,-7.963333 -4.337658 0.1145298,-7.955921 -5.197723 0.3699958,-7.93738 -5.797985 0.2530972,-8.303464 -5.238124 -0.4438599,-8.342259 -4.497083 0.03669477,-8.285232 -4.907957 0.2393224,-8.22775 -5.371357 0.1727653,1.15000,0 0 0 0 0 0 False
-2.55948 -6.965766 0.3991477,-3.066637 -6.78405 0.8096219,-3.59195 -5.964907 1.09468,-3.9405 -5.290565 1.357239,-4.30975 -4.908139 1.751067,-3.406507 -4.624467 1.128024,-3.609304 -4.24776 1.741619,-3.687904 -3.872449 2.1151,-3.762517 -3.502328 2.347136,-3.00688 -4.340213 1.155238,-3.087109 -4.667255 1.886435,-3.039454 -5.605545 2.09691,-2.983157 -6.107624 2.112484,-2.563653 -4.428919 1.234495,-2.62946 -4.95909 1.904043,-2.660313 -5.877603 1.937327,-2.661001 -6.314876 1.863275,-2.136974 -4.717321 1.328799,-2.191683 -5.126667 1.83196,-2.309191 -5.851112 1.84191,-2.392363 -6.170408 1.78711,-8.053541 -7.533755 -0.6965865,-7.502299 -7.375011 -0.220184,-7.061338 -6.73084 -0.02665067,-6.726432 -6.072929 0.1707332,-6.418513 -5.608302 0.3286656,-7.301106 -5.229963 -0.65669,-7.184172 -4.266424 -0.3702137,-7.129296 -3.693348 -0.1852263,-7.099248 -3.105718 -0.09280038,-7.612802 -5.114446 -0.6736938,-7.623065 -4.367301 -0.0222199,-7.6671 -5.261432 0.2309697,-7.680635 -5.82081 0.1359369,-7.94392 -5.114846 -0.597095,-7.970796 -4.386287 0.0632453,-7.960896 -5.253344 0.3117881,-7.9375 -5.850006 0.198383,-8.30986 -5.248203 -0.487143,-8.352646 -4.507569 -0.007782459,-8.290827 -4.932009 0.1972952,-8.226393 -5.406524 0.1390288,1.18333,0 0 0 0 0 0 False
-2.55948 -6.965766 0.3991477,-3.066637 -6.78405 0.8096219,-3.59195 -5.964907 1.09468,-3.9405 -5.290565 1.357239,-4.30975 -4.908139 1.751067,-3.406507 -4.624467 1.128024,-3.609304 -4.24776 1.741619,-3.687904 -3.872449 2.1151,-3.762517 -3.502328 2.347136,-3.00688 -4.340213 1.155238,-3.087109 -4.667255 1.886435,-3.039454 -5.605545 2.09691,-2.983157 -6.107624 2.112484,-2.563653 -4.428919 1.234495,-2.62946 -4.95909 1.904043,-2.660313 -5.877603 1.937327,-2.661001 -6.314876 1.863275,-2.136974 -4.717321 1.328799,-2.191683 -5.126667 1.83196,-2.309191 -5.851112 1.84191,-2.392363 -6.170408 1.78711,-8.053541 -7.533755 -0.6965865,-7.502299 -7.375011 -0.220184,-7.061338 -6.73084 -0.02665067,-6.726432 -6.072929 0.1707332,-6.418513 -5.608302 0.3286656,-7.301106 -5.229963 -0.65669,-7.184172 -4.266424 -0.3702137,-7.129296 -3.693348 -0.1852263,-7.099248 -3.105718 -0.09280038,-7.612802 -5.114446 -0.6736938,-7.623065 -4.367301 -0.0222199,-7.6671 -5.261432 0.2309697,-7.680635 -5.82081 0.1359369,-7.94392 -5.114846 -0.597095,-7.970796 -4.386287 0.0632453,-7.960896 -5.253344 0.3117881,-7.9375 -5.850006 0.198383,-8.30986 -5.248203 -0.487143,-8.352646 -4.507569 -0.007782459,-8.290827 -4.932009 0.1972952,-8.226393 -5.406524 0.1390288,1.21667,0 0 0 0 0 0 False
-2.516083 -6.916929 0.3894105,-3.020272 -6.720754 0.7739537,-3.536047 -5.879883 1.02088,-3.888271 -5.20056 1.262828,-4.268847 -4.830271 1.635069,-3.336378 -4.516069 0.994883,-3.544399 -4.15574 1.596427,-3.61026 -3.799072 1.972531,-3.661124 -3.475665 2.205791,-2.946303 -4.264556 1.045006,-3.060925 -4.529536 1.803523,-3.013847 -5.479459 2.052596,-2.95151 -6.015758 2.09174,-2.50811 -4.360313 1.148926,-2.60596 -4.807291 1.83934,-2.633607 -5.75982 1.891376,-2.632594 -6.251969 1.82026,-2.080559 -4.664537 1.272614,-2.147779 -4.997397 1.815196,-2.261169 -5.736526 1.857327,-2.347178 -6.11798 1.80254,-8.049281 -7.521193 -0.7668208,-7.499145 -7.373941 -0.2813028,-7.058149 -6.71588 -0.08915603,-6.715244 -6.044567 0.1115388,-6.396044 -5.579412 0.2746685,-7.2968 -5.236194 -0.7501903,-7.18652 -4.279205 -0.471539,-7.129533 -3.705806 -0.2907537,-7.091705 -3.120284 -0.2010105,-7.607259 -5.122411 -0.7709332,-7.627131 -4.360081 -0.09929138,-7.668767 -5.254392 0.1741111,-7.677558 -5.816306 0.08130205,-7.937599 -5.119545 -0.6972792,-7.973367 -4.354569 -0.03891653,-7.960335 -5.211976 0.2207817,-7.93346 -5.810764 0.1083479,-8.300103 -5.248299 -0.5863177,-8.354661 -4.492082 -0.1264843,-8.294234 -4.88108 0.06958991,-8.228765 -5.335203 0.004535973,1.25000,0 0 0 0 0 0 False
-2.516083 -6.916929 0.3894105,-3.020272 -6.720754 0.7739537,-3.536047 -5.879883 1.02088,-3.888271 -5.20056 1.262828,-4.268847 -4.830271 1.635069,-3.336378 -4.516069 0.994883,-3.544399 -4.15574 1.596427,-3.61026 -3.799072 1.972531,-3.661124 -3.475665 2.205791,-2.946303 -4.264556 1.045006,-3.060925 -4.529536 1.803523,-3.013847 -5.479459 2.052596,-2.95151 -6.015758 2.09174,-2.50811 -4.360313 1.148926,-2.60596 -4.807291 1.83934,-2.633607 -5.75982 1.891376,-2.632594 -6.251969 1.82026,-2.080559 -4.664537 1.272614,-2.147779 -4.997397 1.815196,-2.261169 -5.736526 1.857327,-2.347178 -6.11798 1.80254,-8.049281 -7.521193 -0.7668208,-7.499145 -7.373941 -0.2813028,-7.058149 -6.71588 -0.08915603,-6.715244 -6.044567 0.1115388,-6.396044 -5.579412 0.2746685,-7.2968 -5.236194 -0.7501903,-7.18652 -4.279205 -0.471539,-7.129533 -3.705806 -0.2907537,-7.091705 -3.120284 -0.2010105,-7.607259 -5.122411 -0.7709332,-7.627131 -4.360081 -0.09929138,-7.668767 -5.254392 0.1741111,-7.677558 -5.816306 0.08130205,-7.937599 -5.119545 -0.6972792,-7.973367 -4.354569 -0.03891653,-7.960335 -5.211976 0.2207817,-7.93346 -5.810764 0.1083479,-8.300103 -5.248299 -0.5863177,-8.354661 -4.492082 -0.1264843,-8.294234 -4.88108 0.06958991,-8.228765 -5.335203 0.004535973,1.28333,0 0 0 0 0 0 False
-2.475184 -6.867342 0.5893486,-2.981139 -6.658113 0.9988428,-3.490249 -5.823673 1.281735,-3.828968 -5.150379 1.555566,-4.198108 -4.74897 1.966349,-3.251896 -4.412426 1.282871,-3.454703 -4.081895 1.933404,-3.532619 -3.757152 2.331631,-3.605412 -3.461475 2.578109,-2.848649 -4.171831 1.340212,-2.973346 -4.508118 2.119723,-2.952385 -5.472853 2.343521,-2.906386 -6.006159 2.37018,-2.406932 -4.306186 1.452046,-2.521062 -4.82612 2.173971,-2.573564 -5.772659 2.196267,-2.583352 -6.254958 2.106333,-1.985135 -4.650766 1.588369,-2.078225 -5.048263 2.151695,-2.208763 -5.773146 2.182492,-2.293967 -6.123398 2.127574,-8.028528 -7.495557 -0.8149915,-7.48506 -7.3494 -0.3350455,-7.048893 -6.696348 -0.1427614,-6.708273 -6.025301 0.0581618,-6.390766 -5.555363 0.2274593,-7.291798 -5.23009 -0.8018003,-7.178799 -4.282848 -0.5272858,-7.125523 -3.70264 -0.3385503,-7.093704 -3.116393 -0.2351701,-7.599044 -5.108481 -0.8223271,-7.611614 -4.363185 -0.1534526,-7.652311 -5.244013 0.138633,-7.66131 -5.818278 0.06284481,-7.928564 -5.096242 -0.7516185,-7.960602 -4.352077 -0.09746659,-7.948328 -5.206403 0.1778618,-7.918822 -5.816768 0.07676286,-8.291046 -5.215892 -0.6446865,-8.346356 -4.477714 -0.177837,-8.287333 -4.885456 0.03311652,-8.218352 -5.366247 -0.02156222,1.31667,0 0 0 0 0 0 False
-2.475184 -6.867342 0.5893486,-2.981139 -6.658113 0.9988428,-3.490249 -5.823673 1.281735,-3.828968 -5.150379 1.555566,-4.198108 -4.74897 1.966349,-3.251896 -4.412426 1.282871,-3.454703 -4.081895 1.933404,-3.532619 -3.757152 2.331631,-3.605412 -3.461475 2.578109,-2.848649 -4.171831 1.340212,-2.973346 -4.508118 2.119723,-2.952385 -5.472853 2.343521,-2.906386 -6.006159 2.37018,-2.406932 -4.306186 1.452046,-2.521062 -4.82612 2.173971,-2.573564 -5.772659 2.196267,-2.583352 -6.254958 2.106333,-1.985135 -4.650766 1.588369,-2.078225 -5.048263 2.151695,-2.208763 -5.773146 2.182492,-2.293967 -6.123398 2.127574,-8.028528 -7.495557 -0.8149915,-7.48506 -7.3494 -0.3350455,-7.048893 -6.696348 -0.1427614,-6.708273 -6.025301 0.0581618,-6.390766 -5.555363 0.2274593,-7.291798 -5.23009 -0.8018003,-7.178799 -4.282848 -0.5272858,-7.125523 -3.70264 -0.3385503,-7.093704 -3.116393 -0.2351701,-7.599044 -5.108481 -0.8223271,-7.611614 -4.363185 -0.1534526,-7.652311 -5.244013 0.138633,-7.66131 -5.818278 0.06284481,-7.928564 -5.096242 -0.7516185,-7.960602 -4.352077 -0.09746659,-7.948328 -5.206403 0.1778618,-7.918822 -5.816768 0.07676286,-8.291046 -5.215892 -0.6446865,-8.346356 -4.477714 -0.177837,-8.287333 -4.885456 0.03311652,-8.218352 -5.366247 -0.02156222,1.35000,0 0 0 0 0 0 False
-2.405813 -6.818723 0.724179,-2.932746 -6.579549 1.089647,-3.455497 -5.731287 1.386975,-3.804911 -5.051536 1.687476,-4.169002 -4.654068 2.126616,-3.207106 -4.372329 1.479419,-3.397013 -4.018211 2.110573,-3.47542 -3.714152 2.488769,-3.539852 -3.450759 2.726846,-2.797445 -4.104332 1.540781,-2.885503 -4.581542 2.261511,-2.874489 -5.499372 2.441449,-2.843169 -5.96628 2.46701,-2.354037 -4.234965 1.642541,-2.442313 -4.881671 2.277103,-2.502397 -5.760129 2.279877,-2.517913 -6.180316 2.210848,-1.929738 -4.559593 1.769004,-2.00244 -5.052728 2.238797,-2.139421 -5.746045 2.242761,-2.231687 -6.058305 2.201675,-8.030727 -7.456619 -0.900599,-7.47252 -7.342802 -0.414699,-7.036398 -6.697265 -0.2153676,-6.698833 -6.027235 -0.01153708,-6.378731 -5.54643 0.1575929,-7.288074 -5.216515 -0.8704293,-7.175287 -4.282814 -0.5845395,-7.120281 -3.714418 -0.3885309,-7.087229 -3.129433 -0.2910089,-7.594191 -5.095689 -0.8943499,-7.609715 -4.353201 -0.2136672,-7.644844 -5.252824 0.05730629,-7.647328 -5.8094 -0.04446441,-7.924404 -5.081989 -0.8223768,-7.960197 -4.33417 -0.16124,-7.94072 -5.198685 0.09471959,-7.906432 -5.792102 -0.02797639,-8.286959 -5.195207 -0.7146367,-8.345749 -4.44545 -0.2576898,-8.281603 -4.856092 -0.0651108,-8.208981 -5.326269 -0.1399229,1.38333,0 0 0 0 0 0 False
-2.352343 -6.770925 0.6906407,-2.88184 -6.522771 1.040769,-3.401834 -5.672672 1.350796,-3.763083 -5.011348 1.668159,-4.127117 -4.617229 2.101926,-3.123856 -4.347467 1.457725,-3.308634 -3.990544 2.07102,-3.391438 -3.69114 2.414774,-3.464407 -3.415681 2.625187,-2.707951 -4.06915 1.531395,-2.792587 -4.649704 2.233415,-2.806851 -5.528807 2.365385,-2.794027 -5.908697 2.368398,-2.265844 -4.209615 1.6398,-2.350919 -4.952272 2.237794,-2.430687 -5.786228 2.211751,-2.45454 -6.132399 2.131513,-1.850194 -4.534704 1.778495,-1.903439 -5.075314 2.202139,-2.051457 -5.733524 2.204082,-2.149129 -6.005893 2.173019,-8.029481 -7.470441 -0.9082043,-7.471579 -7.378109 -0.3840588,-7.028236 -6.714719 -0.1645169,-6.69827 -6.029167 0.04682702,-6.373027 -5.53963 0.2316952,-7.285767 -5.242852 -0.8127654,-7.174245 -4.317537 -0.514676,-7.116933 -3.751682 -0.311866,-7.079733 -3.16697 -0.2058068,-7.595336 -5.112027 -0.8508683,-7.608118 -4.393425 -0.1497877,-7.645595 -5.292245 0.1160851,-7.649113 -5.850399 0.01158154,-7.927361 -5.094968 -0.7915547,-7.959609 -4.365476 -0.1066194,-7.947043 -5.222174 0.1480113,-7.917908 -5.812403 0.02917838,-8.28872 -5.201766 -0.6933871,-8.348377 -4.465812 -0.2148872,-8.293777 -4.871358 -0.0103482,-8.230145 -5.335966 -0.07355571,1.41667,0 0 0 0 0 0 False
-2.352343 -6.770925 0.6906407,-2.88184 -6.522771 1.040769,-3.401834 -5.672672 1.350796,-3.763083 -5.011348 1.668159,-4.127117 -4.617229 2.101926,-3.123856 -4.347467 1.457725,-3.308634 -3.990544 2.07102,-3.391438 -3.69114 2.414774,-3.464407 -3.415681 2.625187,-2.707951 -4.06915 1.531395,-2.792587 -4.649704 2.233415,-2.806851 -5.528807 2.365385,-2.794027 -5.908697 2.368398,-2.265844 -4.209615 1.6398,-2.350919 -4.952272 2.237794,-2.430687 -5.786228 2.211751,-2.45454 -6.132399 2.131513,-1.850194 -4.534704 1.778495,-1.903439 -5.075314 2.202139,-2.051457 -5.733524 2.204082,-2.149129 -6.005893 2.173019,-8.029481 -7.470441 -0.9082043,-7.471579 -7.378109 -0.3840588,-7.028236 -6.714719 -0.1645169,-6.69827 -6.029167 0.04682702,-6.373027 -5.53963 0.2316952,-7.285767 -5.242852 -0.8127654,-7.174245 -4.317537 -0.514676,-7.116933 -3.751682 -0.311866,-7.079733 -3.16697 -0.2058068,-7.595336 -5.112027 -0.8508683,-7.608118 -4.393425 -0.1497877,-7.645595 -5.292245 0.1160851,-7.649113 -5.850399 0.01158154,-7.927361 -5.094968 -0.7915547,-7.959609 -4.365476 -0.1066194,-7.947043 -5.222174 0.1480113,-7.917908 -5.812403 0.02917838,-8.28872 -5.201766 -0.6933871,-8.348377 -4.465812 -0.2148872,-8.293777 -4.871358 -0.0103482,-8.230145 -5.335966 -0.07355571,1.45000,0 0 0 0 0 0 False
-2.307012 -6.796567 1.054288,-2.85383 -6.522922 1.408057,-3.359944 -5.659452 1.770211,-3.709613 -4.989631 2.115857,-4.065159 -4.57784 2.543844,-3.056331 -4.352149 1.992202,-3.193833 -4.004098 2.665927,-3.27582 -3.738386 3.020621,-3.349127 -3.497998 3.225755,-2.629283 -4.036659 2.061985,-2.679655 -4.838176 2.78362,-2.700231 -5.700778 2.821605,-2.688169 -5.954363 2.777363,-2.185775 -4.210419 2.165312,-2.250742 -5.158359 2.771888,-2.342985 -5.915176 2.663523,-2.36979 -6.098684 2.554495,-1.778881 -4.567167 2.305679,-1.822972 -5.306297 2.689929,-1.974555 -5.913601 2.636998,-2.062408 -6.045151 2.594706,-8.022634 -7.469934 -0.9472002,-7.465315 -7.367783 -0.4250342,-7.026383 -6.707212 -0.1998481,-6.696602 -6.024801 0.01980019,-6.367326 -5.536733 0.2134112,-7.282876 -5.250367 -0.8582547,-7.172988 -4.325355 -0.5607285,-7.117839 -3.754533 -0.3586995,-7.081062 -3.157898 -0.2542172,-7.595535 -5.121462 -0.8931431,-7.609712 -4.406917 -0.1900092,-7.646389 -5.323123 0.06340396,-7.646285 -5.861622 -0.05407232,-7.929516 -5.102544 -0.8288506,-7.961956 -4.372496 -0.1436039,-7.946799 -5.247377 0.09887767,-7.919686 -5.824132 -0.02930832,-8.291256 -5.204696 -0.7248431,-8.349986 -4.464715 -0.261377,-8.29415 -4.884614 -0.07490039,-8.235566 -5.343353 -0.1494967,1.48333,0 0 0 0 0 0 False
-2.307012 -6.796567 1.054288,-2.85383 -6.522922 1.408057,-3.359944 -5.659452 1.770211,-3.709613 -4.989631 2.115857,-4.065159 -4.57784 2.543844,-3.056331 -4.352149 1.992202,-3.193833 -4.004098 2.665927,-3.27582 -3.738386 3.020621,-3.349127 -3.497998 3.225755,-2.629283 -4.036659 2.061985,-2.679655 -4.838176 2.78362,-2.700231 -5.700778 2.821605,-2.688169 -5.954363 2.777363,-2.185775 -4.210419 2.165312,-2.250742 -5.158359 2.771888,-2.342985 -5.915176 2.663523,-2.36979 -6.098684 2.554495,-1.778881 -4.567167 2.305679,-1.822972 -5.306297 2.689929,-1.974555 -5.913601 2.636998,-2.062408 -6.045151 2.594706,-8.022634 -7.469934 -0.9472002,-7.465315 -7.367783 -0.4250342,-7.026383 -6.707212 -0.1998481,-6.696602 -6.024801 0.01980019,-6.367326 -5.536733 0.2134112,-7.282876 -5.250367 -0.8582547,-7.172988 -4.325355 -0.5607285,-7.117839 -3.754533 -0.3586995,-7.081062 -3.157898 -0.2542172,-7.595535 -5.121462 -0.8931431,-7.609712 -4.406917 -0.1900092,-7.646389 -5.323123 0.06340396,-7.646285 -5.861622 -0.05407232,-7.929516 -5.102544 -0.8288506,-7.961956 -4.372496 -0.1436039,-7.946799 -5.247377 0.09887767,-7.919686 -5.824132 -0.02930832,-8.291256 -5.204696 -0.7248431,-8.349986 -4.464715 -0.261377,-8.29415 -4.884614 -0.07490039,-8.235566 -5.343353 -0.1494967,1.51667,0 0 0 0 0 0 False
-2.259919 -6.835118 1.154622,-2.798308 -6.490135 1.474763,-3.300489 -5.605327 1.806005,-3.649077 -4.954977 2.148119,-4.00573 -4.578426 2.616947,-2.968294 -4.270204 2.001462,-3.136296 -3.930067 2.670281,-3.223927 -3.694662 3.072527,-3.292066 -3.539568 3.320028,-2.55126 -4.014371 2.084594,-2.667541 -4.751023 2.772988,-2.69971 -5.644461 2.845459,-2.674216 -6.045026 2.81256,-2.120584 -4.225251 2.20401,-2.23119 -5.085369 2.800916,-2.329461 -5.873614 2.733022,-2.351334 -6.184507 2.633302,-1.720254 -4.625152 2.353433,-1.810662 -5.240318 2.766312,-1.974211 -5.863575 2.741734,-2.064686 -6.098669 2.702878,-8.035914 -7.488571 -1.016783,-7.473533 -7.388776 -0.5049807,-7.029821 -6.725305 -0.2854502,-6.70506 -6.040123 -0.07296264,-6.380582 -5.544191 0.116156,-7.296327 -5.289682 -0.933874,-7.190248 -4.357986 -0.6465745,-7.133923 -3.793212 -0.4555631,-7.095516 -3.212579 -0.3566456,-7.606 -5.160742 -0.9681606,-7.613307 -4.468894 -0.2655557,-7.647645 -5.368831 -0.009097815,-7.652129 -5.905054 -0.1154734,-7.937856 -5.14151 -0.9045791,-7.959109 -4.42113 -0.2218719,-7.945899 -5.271539 0.0332377,-7.920942 -5.841133 -0.07954133,-8.301685 -5.237175 -0.8066712,-8.354282 -4.49439 -0.3313228,-8.297607 -4.898447 -0.1219591,-8.236627 -5.357516 -0.1762616,1.55000,0 0 0 0 0 0 False
-2.259919 -6.835118 1.154622,-2.798308 -6.490135 1.474763,-3.300489 -5.605327 1.806005,-3.649077 -4.954977 2.148119,-4.00573 -4.578426 2.616947,-2.968294 -4.270204 2.001462,-3.136296 -3.930067 2.670281,-3.223927 -3.694662 3.072527,-3.292066 -3.539568 3.320028,-2.55126 -4.014371 2.084594,-2.667541 -4.751023 2.772988,-2.69971 -5.644461 2.845459,-2.674216 -6.045026 2.81256,-2.120584 -4.225251 2.20401,-2.23119 -5.085369 2.800916,-2.329461 -5.873614 2.733022,-2.351334 -6.184507 2.633302,-1.720254 -4.625152 2.353433,-1.810662 -5.240318 2.766312,-1.974211 -5.863575 2.741734,-2.064686 -6.098669 2.702878,-8.035914 -7.488571 -1.016783,-7.473533 -7.388776 -0.5049807,-7.029821 -6.725305 -0.2854502,-6.70506 -6.040123 -0.07296264,-6.380582 -5.544191 0.116156,-7.296327 -5.289682 -0.933874,-7.190248 -4.357986 -0.6465745,-7.133923 -3.793212 -0.4555631,-7.095516 -3.212579 -0.3566456,-7.606 -5.160742 -0.9681606,-7.613307 -4.468894 -0.2655557,-7.647645 -5.368831 -0.009097815,-7.652129 -5.905054 -0.1154734,-7.937856 -5.14151 -0.9045791,-7.959109 -4.42113 -0.2218719,-7.945899 -5.271539 0.0332377,-7.920942 -5.841133 -0.07954133,-8.301685 -5.237175 -0.8066712,-8.354282 -4.49439 -0.3313228,-8.297607 -4.898447 -0.1219591,-8.236627 -5.357516 -0.1762616,1.58333,0 0 0 0 0 0 False
-2.095701 -6.821458 0.9847817,-2.647759 -6.534729 1.289798,-3.16564 -5.621249 1.582329,-3.516365 -4.918497 1.889083,-3.859642 -4.521327 2.315401,-2.826726 -4.290536 1.813675,-3.00782 -3.895854 2.498931,-3.102214 -3.692352 2.896666,-3.182103 -3.591923 3.129487,-2.398676 -4.051292 1.908627,-2.539216 -4.689519 2.6116,-2.566938 -5.578226 2.739927,-2.531012 -5.992332 2.750562,-1.966778 -4.268919 2.035958,-2.103498 -5.038845 2.651207,-2.198492 -5.872195 2.63127,-2.218717 -6.238526 2.562585,-1.576746 -4.680959 2.203876,-1.685885 -5.291145 2.62894,-1.84199 -5.922227 2.631818,-1.929364 -6.179279 2.608313,-8.033734 -7.4827 -1.026347,-7.478112 -7.375963 -0.5296626,-7.035413 -6.716902 -0.3211901,-6.70788 -6.041891 -0.120217,-6.385055 -5.560934 0.0490427,-7.301638 -5.288976 -0.9738192,-7.206667 -4.367162 -0.6947666,-7.163587 -3.804805 -0.5078565,-7.135365 -3.211223 -0.4086444,-7.610484 -5.156045 -1.000275,-7.621202 -4.491508 -0.2967543,-7.652534 -5.41011 -0.04861468,-7.650611 -5.930328 -0.160623,-7.94373 -5.130279 -0.9286269,-7.969474 -4.427267 -0.2460797,-7.951809 -5.298413 -0.002979159,-7.922539 -5.860956 -0.1233197,-8.310354 -5.219411 -0.8210633,-8.366953 -4.479898 -0.3554242,-8.303431 -4.896476 -0.1597639,-8.237112 -5.358386 -0.2200848,1.61667,0 0 0 0 0 0 False
-2.095701 -6.821458 0.9847817,-2.647759 -6.534729 1.289798,-3.16564 -5.621249 1.582329,-3.516365 -4.918497 1.889083,-3.859642 -4.521327 2.315401,-2.826726 -4.290536 1.813675,-3.00782 -3.895854 2.498931,-3.102214 -3.692352 2.896666,-3.182103 -3.591923 3.129487,-2.398676 -4.051292 1.908627,-2.539216 -4.689519 2.6116,-2.566938 -5.578226 2.739927,-2.531012 -5.992332 2.750562,-1.966778 -4.268919 2.035958,-2.103498 -5.038845 2.651207,-2.198492 -5.872195 2.63127,-2.218717 -6.238526 2.562585,-1.576746 -4.680959 2.203876,-1.685885 -5.291145 2.62894,-1.84199 -5.922227 2.631818,-1.929364 -6.179279 2.608313,-8.033734 -7.4827 -1.026347,-7.478112 -7.375963 -0.5296626,-7.035413 -6.716902 -0.3211901,-6.70788 -6.041891 -0.120217,-6.385055 -5.560934 0.0490427,-7.301638 -5.288976 -0.9738192,-7.206667 -4.367162 -0.6947666,-7.163587 -3.804805 -0.5078565,-7.135365 -3.211223 -0.4086444,-7.610484 -5.156045 -1.000275,-7.621202 -4.491508 -0.2967543,-7.652534 -5.41011 -0.04861468,-7.650611 -5.930328 -0.160623,-7.94373 -5.130279 -0.9286269,-7.969474 -4.427267 -0.2460797,-7.951809 -5.298413 -0.002979159,-7.922539 -5.860956 -0.1233197,-8.310354 -5.219411 -0.8210633,-8.366953 -4.479898 -0.3554242,-8.303431 -4.896476 -0.1597639,-8.237112 -5.358386 -0.2200848,1.65000,0 0 0 0 0 0 False
-2.077648 -6.857353 1.184921,-2.629783 -6.564182 1.571043,-3.128731 -5.660341 1.965556,-3.448303 -4.967592 2.349968,-3.796199 -4.501836 2.84603,-2.725169 -4.318956 2.16037,-2.876762 -3.922819 2.950704,-2.989455 -3.69107 3.419909,-3.09 -3.58477 3.707282,-2.293342 -4.06339 2.236489,-2.450685 -4.784055 3.007838,-2.506657 -5.733297 3.027473,-2.48256 -6.150716 2.936979,-1.863942 -4.287876 2.365471,-2.026223 -5.148713 3.054452,-2.13956 -5.998731 2.927021,-2.159 -6.306699 2.774335,-1.467726 -4.70572 2.534498,-1.605343 -5.324098 3.010231,-1.77469 -5.974451 2.950612,-1.84965 -6.181198 2.900548,-8.037428 -7.464374 -1.067142,-7.48306 -7.371521 -0.5721567,-7.041315 -6.703324 -0.3552849,-6.718009 -6.023058 -0.1477964,-6.397667 -5.536262 0.03849483,-7.312264 -5.281944 -1.003741,-7.215779 -4.35911 -0.7083507,-7.175845 -3.79227 -0.5045679,-7.149433 -3.194067 -0.3927101,-7.621774 -5.148357 -1.029096,-7.625697 -4.486793 -0.3202791,-7.65416 -5.401616 -0.0594101,-7.650179 -5.915368 -0.1657264,-7.95884 -5.124864 -0.9568369,-7.977787 -4.434596 -0.273407,-7.954617 -5.305436 -0.02920115,-7.923647 -5.856567 -0.1450816,-8.329282 -5.212615 -0.8521335,-8.37855 -4.482517 -0.3738631,-8.311444 -4.924139 -0.1725283,-8.2443 -5.394053 -0.2288716,1.68333,0 0 0 0 0 0 False
-2.077648 -6.857353 1.184921,-2.629783 -6.564182 1.571043,-3.128731 -5.660341 1.965556,-3.448303 -4.967592 2.349968,-3.796199 -4.501836 2.84603,-2.725169 -4.318956 2.16037,-2.876762 -3.922819 2.950704,-2.989455 -3.69107 3.419909,-3.09 -3.58477 3.707282,-2.293342 -4.06339 2.236489,-2.450685 -4.784055 3.007838,-2.506657 -5.733297 3.027473,-2.48256 -6.150716 2.936979,-1.863942 -4.287876 2.365471,-2.026223 -5.148713 3.054452,-2.13956 -5.998731 2.927021,-2.159 -6.306699 2.774335,-1.467726 -4.70572 2.534498,-1.605343 -5.324098 3.010231,-1.77469 -5.974451 2.950612,-1.84965 -6.181198 2.900548,-8.037428 -7.464374 -1.067142,-7.48306 -7.371521 -0.5721567,-7.041315 -6.703324 -0.3552849,-6.718009 -6.023058 -0.1477964,-6.397667 -5.536262 0.03849483,-7.312264 -5.281944 -1.003741,-7.215779 -4.35911 -0.7083507,-7.175845 -3.79227 -0.5045679,-7.149433 -3.194067 -0.3927101,-7.621774 -5.148357 -1.029096,-7.625697 -4.486793 -0.3202791,-7.65416 -5.401616 -0.0594101,-7.650179 -5.915368 -0.1657264,-7.95884 -5.124864 -0.9568369,-7.977787 -4.434596 -0.273407,-7.954617 -5.305436 -0.02920115,-7.923647 -5.856567 -0.1450816,-8.329282 -5.212615 -0.8521335,-8.37855 -4.482517 -0.3738631,-8.311444 -4.924139 -0.1725283,-8.2443 -5.394053 -0.2288716,1.71667,0 0 0 0 0 0 False
-2.106702 -6.976301 1.062392,-2.636003 -6.623191 1.316947,-3.112122 -5.68349 1.62489,-3.424225 -4.956008 1.961263,-3.770382 -4.529343 2.4007,-2.729335 -4.357295 1.782566,-2.88539 -3.868814 2.437959,-3.011248 -3.641492 2.856369,-3.13855 -3.584003 3.118443,-2.290859 -4.144287 1.896453,-2.469719 -4.767005 2.581677,-2.522351 -5.6693 2.658203,-2.504604 -6.090827 2.607463,-1.866779 -4.377335 2.049993,-2.039412 -5.154697 2.657396,-2.134171 -5.98791 2.57939,-2.148623 -6.310927 2.458497,-1.47332 -4.772926 2.21939,-1.606439 -5.315593 2.600074,-1.758185 -5.963886 2.551548,-1.827001 -6.198985 2.489902,-8.052553 -7.473007 -1.080338,-7.494529 -7.37824 -0.5779363,-7.056866 -6.724291 -0.355842,-6.737975 -6.038042 -0.1481794,-6.418153 -5.534465 0.03433061,-7.330608 -5.2954 -1.009859,-7.234888 -4.373969 -0.7076513,-7.193068 -3.813732 -0.5019544,-7.166757 -3.219177 -0.3922796,-7.639595 -5.160375 -1.04054,-7.648668 -4.497417 -0.3325881,-7.680734 -5.421604 -0.09234899,-7.674685 -5.931383 -0.2178071,-7.975613 -5.134236 -0.9690222,-8.000161 -4.441864 -0.2800523,-7.981043 -5.322019 -0.04382443,-7.949145 -5.866025 -0.1740162,-8.344049 -5.218162 -0.8670592,-8.393904 -4.486347 -0.3926054,-8.328853 -4.937002 -0.1981475,-8.260925 -5.405109 -0.2621034,1.75000,0 0 0 0 0 0 False
-2.129183 -7.040376 1.095631,-2.645477 -6.676957 1.318336,-3.124371 -5.709192 1.59516,-3.442419 -4.982486 1.897972,-3.77917 -4.591032 2.294079,-2.702509 -4.391057 1.7966,-2.894051 -3.974922 2.433232,-3.049638 -3.750283 2.828513,-3.20694 -3.619766 3.072788,-2.272865 -4.192709 1.918074,-2.510736 -4.806938 2.571854,-2.565654 -5.735639 2.606694,-2.527777 -6.189937 2.525089,-1.861509 -4.448346 2.07994,-2.070418 -5.183521 2.678015,-2.157524 -6.02386 2.585345,-2.154706 -6.369649 2.450507,-1.482047 -4.868747 2.256021,-1.645942 -5.352499 2.631021,-1.796745 -5.989243 2.58267,-1.852609 -6.242248 2.524641,-8.059967 -7.476588 -1.057616,-7.504326 -7.387262 -0.5375096,-7.06959 -6.738159 -0.3066066,-6.753126 -6.057746 -0.09502679,-6.433731 -5.557069 0.09660006,-7.343852 -5.2931 -0.9676269,-7.250302 -4.381826 -0.669463,-7.212595 -3.820095 -0.4658195,-7.191136 -3.220873 -0.3560853,-7.656075 -5.155929 -1.008686,-7.678316 -4.506036 -0.3029741,-7.706094 -5.43976 -0.07506508,-7.692233 -5.961386 -0.2059726,-7.994708 -5.129865 -0.9467912,-8.037292 -4.446729 -0.2621414,-8.011929 -5.336715 -0.03121388,-7.971802 -5.890338 -0.1645019,-8.362326 -5.213838 -0.8533235,-8.421354 -4.496489 -0.3829095,-8.353159 -4.948102 -0.1951725,-8.279532 -5.413571 -0.2656521,1.78333,0 0 0 0 0 0 False
-2.129183 -7.040376 1.095631,-2.645477 -6.676957 1.318336,-3.124371 -5.709192 1.59516,-3.442419 -4.982486 1.897972,-3.77917 -4.591032 2.294079,-2.702509 -4.391057 1.7966,-2.894051 -3.974922 2.433232,-3.049638 -3.750283 2.828513,-3.20694 -3.619766 3.072788,-2.272865 -4.192709 1.918074,-2.510736 -4.806938 2.571854,-2.565654 -5.735639 2.606694,-2.527777 -6.189937 2.525089,-1.861509 -4.448346 2.07994,-2.070418 -5.183521 2.678015,-2.157524 -6.02386 2.585345,-2.154706 -6.369649 2.450507,-1.482047 -4.868747 2.256021,-1.645942 -5.352499 2.631021,-1.796745 -5.989243 2.58267,-1.852609 -6.242248 2.524641,-8.059967 -7.476588 -1.057616,-7.504326 -7.387262 -0.5375096,-7.06959 -6.738159 -0.3066066,-6.753126 -6.057746 -0.09502679,-6.433731 -5.557069 0.09660006,-7.343852 -5.2931 -0.9676269,-7.250302 -4.381826 -0.669463,-7.212595 -3.820095 -0.4658195,-7.191136 -3.220873 -0.3560853,-7.656075 -5.155929 -1.008686,-7.678316 -4.506036 -0.3029741,-7.706094 -5.43976 -0.07506508,-7.692233 -5.961386 -0.2059726,-7.994708 -5.129865 -0.9467912,-8.037292 -4.446729 -0.2621414,-8.011929 -5.336715 -0.03121388,-7.971802 -5.890338 -0.1645019,-8.362326 -5.213838 -0.8533235,-8.421354 -4.496489 -0.3829095,-8.353159 -4.948102 -0.1951725,-8.279532 -5.413571 -0.2656521,1.81667,0 0 0 0 0 0 False
-2.048451 -7.042982 1.123369,-2.580137 -6.644782 1.322773,-3.066034 -5.668425 1.568461,-3.381968 -4.938344 1.84418,-3.694841 -4.538384 2.228777,-2.66978 -4.384759 1.779839,-2.82592 -3.913755 2.34419,-2.949121 -3.671831 2.691311,-3.076143 -3.583827 2.917172,-2.234847 -4.173528 1.888146,-2.417793 -4.860498 2.502847,-2.468581 -5.733204 2.593359,-2.455503 -6.142658 2.587482,-1.813311 -4.397541 2.026311,-1.984731 -5.183925 2.540602,-2.081868 -6.001126 2.486517,-2.106531 -6.357986 2.414835,-1.423202 -4.78574 2.182267,-1.549501 -5.302482 2.503271,-1.705795 -5.925805 2.470219,-1.785212 -6.178169 2.433764,-8.059822 -7.47991 -1.137808,-7.498979 -7.393303 -0.6448524,-7.063671 -6.733303 -0.4324748,-6.752009 -6.051658 -0.2299709,-6.43461 -5.563716 -0.0529331,-7.35492 -5.311615 -1.067082,-7.262173 -4.384552 -0.7953598,-7.22036 -3.817852 -0.6136777,-7.193043 -3.230145 -0.5113426,-7.660406 -5.181564 -1.097224,-7.668958 -4.51755 -0.3968149,-7.690158 -5.435007 -0.1461747,-7.68042 -5.970665 -0.2553906,-7.995347 -5.153457 -1.029656,-8.022376 -4.455063 -0.3612115,-7.997173 -5.322014 -0.1242646,-7.959533 -5.880694 -0.2514232,-8.363614 -5.230455 -0.9336168,-8.416096 -4.491315 -0.4798635,-8.347425 -4.912473 -0.2897501,-8.275679 -5.378344 -0.3583387,1.85000,0 0 0 0 0 0 False
-2.048451 -7.042982 1.123369,-2.580137 -6.644782 1.322773,-3.066034 -5.668425 1.568461,-3.381968 -4.938344 1.84418,-3.694841 -4.538384 2.228777,-2.66978 -4.384759 1.779839,-2.82592 -3.913755 2.34419,-2.949121 -3.671831 2.691311,-3.076143 -3.583827 2.917172,-2.234847 -4.173528 1.888146,-2.417793 -4.860498 2.502847,-2.468581 -5.733204 2.593359,-2.455503 -6.142658 2.587482,-1.813311 -4.397541 2.026311,-1.984731 -5.183925 2.540602,-2.081868 -6.001126 2.486517,-2.106531 -6.357986 2.414835,-1.423202 -4.78574 2.182267,-1.549501 -5.302482 2.503271,-1.705795 -5.925805 2.470219,-1.785212 -6.178169 2.433764,-8.059822 -7.47991 -1.137808,-7.498979 -7.393303 -0.6448524,-7.063671 -6.733303 -0.4324748,-6.752009 -6.051658 -0.2299709,-6.43461 -5.563716 -0.0529331,-7.35492 -5.311615 -1.067082,-7.262173 -4.384552 -0.7953598,-7.22036 -3.817852 -0.6136777,-7.193043 -3.230145 -0.5113426,-7.660406 -5.181564 -1.097224,-7.668958 -4.51755 -0.3968149,-7.690158 -5.435007 -0.1461747,-7.68042 -5.970665 -0.2553906,-7.995347 -5.153457 -1.029656,-8.022376 -4.455063 -0.3612115,-7.997173 -5.322014 -0.1242646,-7.959533 -5.880694 -0.2514232,-8.363614 -5.230455 -0.9336168,-8.416096 -4.491315 -0.4798635,-8.347425 -4.912473 -0.2897501,-8.275679 -5.378344 -0.3583387,1.88333,0 0 0 0 0 0 False
-1.99398 -7.023259 1.040318,-2.519114 -6.663542 1.29519,-3.004015 -5.702926 1.567971,-3.321299 -4.97207 1.861963,-3.64389 -4.554058 2.263804,-2.613935 -4.396455 1.717529,-2.775436 -3.921904 2.353576,-2.88006 -3.670922 2.762408,-2.975954 -3.548749 3.026134,-2.183937 -4.183793 1.824005,-2.34767 -4.800312 2.506554,-2.40025 -5.725275 2.603882,-2.386275 -6.153985 2.576497,-1.761296 -4.400818 1.968105,-1.928627 -5.177886 2.576629,-2.037894 -6.042715 2.521689,-2.064995 -6.400447 2.426047,-1.370784 -4.792581 2.134801,-1.498691 -5.33035 2.538597,-1.664601 -5.998777 2.496851,-1.750854 -6.259155 2.442533,-8.061749 -7.46488 -1.189338,-7.492531 -7.370481 -0.7098137,-7.059138 -6.730134 -0.4958097,-6.744388 -6.052759 -0.2836922,-6.428688 -5.560197 -0.0985831,-7.344945 -5.313323 -1.141519,-7.241791 -4.391624 -0.8529765,-7.200077 -3.809261 -0.6522464,-7.176094 -3.200599 -0.5434793,-7.648634 -5.183702 -1.164533,-7.656891 -4.500648 -0.4550378,-7.676348 -5.420403 -0.2060538,-7.664885 -5.950658 -0.3286569,-7.982332 -5.156654 -1.084535,-8.013532 -4.447645 -0.406814,-7.982549 -5.320878 -0.1822736,-7.94506 -5.873123 -0.3282742,-8.347259 -5.236893 -0.9769842,-8.40669 -4.496555 -0.5210673,-8.335161 -4.940925 -0.3484355,-8.264005 -5.409874 -0.4406397,1.91667,0 0 0 0 0 0 False
-1.99398 -7.023259 1.040318,-2.519114 -6.663542 1.29519,-3.004015 -5.702926 1.567971,-3.321299 -4.97207 1.861963,-3.64389 -4.554058 2.263804,-2.613935 -4.396455 1.717529,-2.775436 -3.921904 2.353576,-2.88006 -3.670922 2.762408,-2.975954 -3.548749 3.026134,-2.183937 -4.183793 1.824005,-2.34767 -4.800312 2.506554,-2.40025 -5.725275 2.603882,-2.386275 -6.153985 2.576497,-1.761296 -4.400818 1.968105,-1.928627 -5.177886 2.576629,-2.037894 -6.042715 2.521689,-2.064995 -6.400447 2.426047,-1.370784 -4.792581 2.134801,-1.498691 -5.33035 2.538597,-1.664601 -5.998777 2.496851,-1.750854 -6.259155 2.442533,-8.061749 -7.46488 -1.189338,-7.492531 -7.370481 -0.7098137,-7.059138 -6.730134 -0.4958097,-6.744388 -6.052759 -0.2836922,-6.428688 -5.560197 -0.0985831,-7.344945 -5.313323 -1.141519,-7.241791 -4.391624 -0.8529765,-7.200077 -3.809261 -0.6522464,-7.176094 -3.200599 -0.5434793,-7.648634 -5.183702 -1.164533,-7.656891 -4.500648 -0.4550378,-7.676348 -5.420403 -0.2060538,-7.664885 -5.950658 -0.3286569,-7.982332 -5.156654 -1.084535,-8.013532 -4.447645 -0.406814,-7.982549 -5.320878 -0.1822736,-7.94506 -5.873123 -0.3282742,-8.347259 -5.236893 -0.9769842,-8.40669 -4.496555 -0.5210673,-8.335161 -4.940925 -0.3484355,-8.264005 -5.409874 -0.4406397,1.95000,0 0 0 0 0 0 False
-1.975656 -7.066431 0.9686533,-2.490803 -6.713558 1.226581,-2.967922 -5.75137 1.508351,-3.289341 -5.025869 1.814428,-3.624008 -4.600432 2.222741,-2.573906 -4.450296 1.646177,-2.738452 -3.959263 2.296746,-2.851848 -3.716547 2.709561,-2.958495 -3.603471 2.972356,-2.139806 -4.248718 1.759809,-2.30825 -4.787404 2.474596,-2.364479 -5.715797 2.59668,-2.351108 -6.178873 2.565364,-1.717206 -4.484884 1.910508,-1.884173 -5.187902 2.542333,-1.993241 -6.05268 2.505396,-2.021372 -6.431512 2.402335,-1.326137 -4.900567 2.081347,-1.464343 -5.376381 2.510842,-1.62878 -6.025018 2.48856,-1.71006 -6.293097 2.440397,-8.061665 -7.458632 -1.172482,-7.502441 -7.392543 -0.6657928,-7.062207 -6.738387 -0.4404992,-6.747156 -6.050128 -0.2265985,-6.430111 -5.545549 -0.03048766,-7.345667 -5.311746 -1.090661,-7.247504 -4.39389 -0.8125358,-7.203443 -3.824687 -0.6213282,-7.172921 -3.2247 -0.5109508,-7.65052 -5.172565 -1.124807,-7.655655 -4.508927 -0.4264885,-7.680759 -5.420652 -0.166564,-7.674152 -5.94182 -0.2683488,-7.985366 -5.139027 -1.059676,-8.01109 -4.445188 -0.3873446,-7.985004 -5.311798 -0.1416254,-7.950968 -5.863199 -0.2603239,-8.352957 -5.21065 -0.9663019,-8.404169 -4.492513 -0.5040881,-8.33215 -4.926126 -0.3119866,-8.260811 -5.388076 -0.3755472,1.98333,0 0 0 0 0 0 False
-1.955806 -7.107271 1.160232,-2.477529 -6.770674 1.450794,-2.957622 -5.811171 1.749229,-3.261885 -5.059454 2.056287,-3.59583 -4.608505 2.460461,-2.571779 -4.490842 1.906702,-2.718397 -4.024343 2.552255,-2.813466 -3.774715 2.954043,-2.898309 -3.648172 3.2094,-2.131538 -4.247411 2.000773,-2.276468 -4.910474 2.707797,-2.33778 -5.828496 2.799155,-2.339829 -6.259273 2.770125,-1.706447 -4.462215 2.131515,-1.855209 -5.279983 2.761262,-1.968715 -6.137475 2.698327,-2.009256 -6.489269 2.592277,-1.313454 -4.852184 2.282681,-1.422018 -5.411254 2.71325,-1.588146 -6.070106 2.667506,-1.687568 -6.324143 2.605579,-8.049579 -7.447401 -1.190533,-7.489061 -7.371599 -0.6840569,-7.054633 -6.721887 -0.4531611,-6.744514 -6.035554 -0.2347836,-6.427427 -5.530832 -0.03699243,-7.342074 -5.297203 -1.104976,-7.248311 -4.383926 -0.8348167,-7.207586 -3.814366 -0.6517493,-7.180115 -3.214397 -0.5443668,-7.64692 -5.165166 -1.138231,-7.649933 -4.508356 -0.4342051,-7.670508 -5.421583 -0.1725222,-7.664151 -5.952464 -0.2717559,-7.983273 -5.135282 -1.072046,-8.009226 -4.443279 -0.395933,-7.981992 -5.311561 -0.1513847,-7.948712 -5.87435 -0.2719949,-8.353113 -5.210634 -0.9780028,-8.405956 -4.48737 -0.513191,-8.333542 -4.918209 -0.3215192,-8.261892 -5.387855 -0.3847358,2.01667,0 0 0 0 0 0 False
-1.955806 -7.107271 1.160232,-2.477529 -6.770674 1.450794,-2.957622 -5.811171 1.749229,-3.261885 -5.059454 2.056287,-3.59583 -4.608505 2.460461,-2.571779 -4.490842 1.906702,-2.718397 -4.024343 2.552255,-2.813466 -3.774715 2.954043,-2.898309 -3.648172 3.2094,-2.131538 -4.247411 2.000773,-2.276468 -4.910474 2.707797,-2.33778 -5.828496 2.799155,-2.339829 -6.259273 2.770125,-1.706447 -4.462215 2.131515,-1.855209 -5.279983 2.761262,-1.968715 -6.137475 2.698327,-2.009256 -6.489269 2.592277,-1.313454 -4.852184 2.282681,-1.422018 -5.411254 2.71325,-1.588146 -6.070106 2.667506,-1.687568 -6.324143 2.605579,-8.049579 -7.447401 -1.190533,-7.489061 -7.371599 -0.6840569,-7.054633 -6.721887 -0.4531611,-6.744514 -6.035554 -0.2347836,-6.427427 -5.530832 -0.03699243,-7.342074 -5.297203 -1.104976,-7.248311 -4.383926 -0.8348167,-7.207586 -3.814366 -0.6517493,-7.180115 -3.214397 -0.5443668,-7.64692 -5.165166 -1.138231,-7.649933 -4.508356 -0.4342051,-7.670508 -5.421583 -0.1725222,-7.664151 -5.952464 -0.2717559,-7.983273 -5.135282 -1.072046,-8.009226 -4.443279 -0.395933,-7.981992 -5.311561 -0.1513847,-7.948712 -5.87435 -0.2719949,-8.353113 -5.210634 -0.9780028,-8.405956 -4.48737 -0.513191,-8.333542 -4.918209 -0.3215192,-8.261892 -5.387855 -0.3847358,2.05000,0 0 0 0 0 0 False
-1.941565 -7.111654 1.319759,-2.486805 -6.822085 1.676857,-2.961997 -5.903551 2.060215,-3.268775 -5.158928 2.42092,-3.610181 -4.69487 2.850612,-2.593579 -4.544623 2.283967,-2.721381 -4.146194 2.99625,-2.82318 -3.916762 3.413531,-2.910563 -3.768713 3.671901,-2.139149 -4.270628 2.358849,-2.275364 -5.06514 3.102787,-2.350475 -5.977052 3.131594,-2.35253 -6.312855 3.049061,-1.706884 -4.508638 2.475584,-1.837504 -5.4316 3.131035,-1.970376 -6.257546 2.999052,-2.01491 -6.507095 2.853373,-1.316848 -4.918622 2.617256,-1.419773 -5.65065 3.035327,-1.605731 -6.292686 2.955891,-1.705822 -6.459816 2.881492,-8.042113 -7.422801 -1.256832,-7.472348 -7.388868 -0.7414752,-7.026456 -6.746419 -0.4875659,-6.720654 -6.061492 -0.2407702,-6.412943 -5.551897 -0.01978242,-7.307691 -5.302602 -1.109522,-7.210366 -4.361387 -0.8143296,-7.17141 -3.772809 -0.620868,-7.145081 -3.157498 -0.5075758,-7.608756 -5.168134 -1.136894,-7.604002 -4.512106 -0.4002725,-7.628993 -5.428159 -0.1310536,-7.628785 -5.9518 -0.2309313,-7.947162 -5.141973 -1.063953,-7.969718 -4.44102 -0.3765061,-7.949011 -5.288821 -0.1384257,-7.919783 -5.834028 -0.2669615,-8.320322 -5.216251 -0.960274,-8.379898 -4.47898 -0.4835541,-8.309992 -4.892083 -0.2907851,-8.237779 -5.346654 -0.3577138,2.08333,0 0 0 0 0 0 False
-1.941565 -7.111654 1.319759,-2.486805 -6.822085 1.676857,-2.961997 -5.903551 2.060215,-3.268775 -5.158928 2.42092,-3.610181 -4.69487 2.850612,-2.593579 -4.544623 2.283967,-2.721381 -4.146194 2.99625,-2.82318 -3.916762 3.413531,-2.910563 -3.768713 3.671901,-2.139149 -4.270628 2.358849,-2.275364 -5.06514 3.102787,-2.350475 -5.977052 3.131594,-2.35253 -6.312855 3.049061,-1.706884 -4.508638 2.475584,-1.837504 -5.4316 3.131035,-1.970376 -6.257546 2.999052,-2.01491 -6.507095 2.853373,-1.316848 -4.918622 2.617256,-1.419773 -5.65065 3.035327,-1.605731 -6.292686 2.955891,-1.705822 -6.459816 2.881492,-8.042113 -7.422801 -1.256832,-7.472348 -7.388868 -0.7414752,-7.026456 -6.746419 -0.4875659,-6.720654 -6.061492 -0.2407702,-6.412943 -5.551897 -0.01978242,-7.307691 -5.302602 -1.109522,-7.210366 -4.361387 -0.8143296,-7.17141 -3.772809 -0.620868,-7.145081 -3.157498 -0.5075758,-7.608756 -5.168134 -1.136894,-7.604002 -4.512106 -0.4002725,-7.628993 -5.428159 -0.1310536,-7.628785 -5.9518 -0.2309313,-7.947162 -5.141973 -1.063953,-7.969718 -4.44102 -0.3765061,-7.949011 -5.288821 -0.1384257,-7.919783 -5.834028 -0.2669615,-8.320322 -5.216251 -0.960274,-8.379898 -4.47898 -0.4835541,-8.309992 -4.892083 -0.2907851,-8.237779 -5.346654 -0.3577138,2.11667,0 0 0 0 0 0 False
-1.966151 -7.115402 1.330538,-2.539078 -6.841939 1.715406,-3.014709 -5.955066 2.151902,-3.314331 -5.239927 2.557187,-3.683492 -4.775289 3.048285,-2.662125 -4.571912 2.388811,-2.779445 -4.202604 3.14242,-2.864508 -3.977558 3.599027,-2.920383 -3.897287 3.889445,-2.196784 -4.308182 2.459744,-2.30406 -5.118216 3.20882,-2.392477 -6.017086 3.250098,-2.406317 -6.38574 3.174975,-1.750301 -4.558738 2.571748,-1.853704 -5.506906 3.213887,-1.995982 -6.311048 3.087694,-2.047991 -6.560674 2.946618,-1.348096 -4.979464 2.709601,-1.440262 -5.752512 3.114295,-1.635034 -6.383554 3.041049,-1.742394 -6.536782 2.968361,-8.002596 -7.428529 -1.254292,-7.437647 -7.386571 -0.7178081,-6.992457 -6.742047 -0.4619314,-6.679273 -6.057796 -0.2230208,-6.366982 -5.558559 -0.0004626513,-7.265651 -5.300346 -1.092255,-7.155678 -4.373741 -0.7860285,-7.113572 -3.808149 -0.5826358,-7.081435 -3.220764 -0.4631648,-7.573548 -5.172204 -1.136311,-7.575092 -4.519177 -0.3908963,-7.599099 -5.440754 -0.1066973,-7.59126 -5.994396 -0.1937431,-7.91182 -5.153369 -1.079796,-7.937546 -4.461202 -0.3774262,-7.913752 -5.31635 -0.1178024,-7.87738 -5.89106 -0.2344434,-8.278251 -5.242564 -0.99044,-8.344141 -4.524918 -0.5028768,-8.277504 -4.940826 -0.2960246,-8.200085 -5.401046 -0.3490571,2.15000,0 0 0 0 0 0 False
-1.966151 -7.115402 1.330538,-2.539078 -6.841939 1.715406,-3.014709 -5.955066 2.151902,-3.314331 -5.239927 2.557187,-3.683492 -4.775289 3.048285,-2.662125 -4.571912 2.388811,-2.779445 -4.202604 3.14242,-2.864508 -3.977558 3.599027,-2.920383 -3.897287 3.889445,-2.196784 -4.308182 2.459744,-2.30406 -5.118216 3.20882,-2.392477 -6.017086 3.250098,-2.406317 -6.38574 3.174975,-1.750301 -4.558738 2.571748,-1.853704 -5.506906 3.213887,-1.995982 -6.311048 3.087694,-2.047991 -6.560674 2.946618,-1.348096 -4.979464 2.709601,-1.440262 -5.752512 3.114295,-1.635034 -6.383554 3.041049,-1.742394 -6.536782 2.968361,-8.002596 -7.428529 -1.254292,-7.437647 -7.386571 -0.7178081,-6.992457 -6.742047 -0.4619314,-6.679273 -6.057796 -0.2230208,-6.366982 -5.558559 -0.0004626513,-7.265651 -5.300346 -1.092255,-7.155678 -4.373741 -0.7860285,-7.113572 -3.808149 -0.5826358,-7.081435 -3.220764 -0.4631648,-7.573548 -5.172204 -1.136311,-7.575092 -4.519177 -0.3908963,-7.599099 -5.440754 -0.1066973,-7.59126 -5.994396 -0.1937431,-7.91182 -5.153369 -1.079796,-7.937546 -4.461202 -0.3774262,-7.913752 -5.31635 -0.1178024,-7.87738 -5.89106 -0.2344434,-8.278251 -5.242564 -0.99044,-8.344141 -4.524918 -0.5028768,-8.277504 -4.940826 -0.2960246,-8.200085 -5.401046 -0.3490571,2.18333,0 1 0 1 0 1 False
-2.041941 -7.15975 1.552999,-2.623837 -6.910354 1.943569,-3.091122 -6.052247 2.427788,-3.396912 -5.357791 2.871751,-3.790855 -4.907549 3.401333,-2.728575 -4.59065 2.675671,-2.850304 -4.283416 3.44478,-2.951206 -4.088043 3.912496,-3.01507 -4.047784 4.216568,-2.249308 -4.309457 2.749336,-2.357273 -5.271814 3.489609,-2.44844 -6.154075 3.511208,-2.459385 -6.505188 3.425146,-1.796048 -4.575162 2.861693,-1.901481 -5.641881 3.49449,-2.038668 -6.422613 3.333632,-2.090605 -6.64164 3.170339,-1.396612 -5.013055 3.003165,-1.49404 -5.878915 3.384077,-1.689909 -6.496707 3.279207,-1.794263 -6.619951 3.185697,-7.975416 -7.470379 -1.213603,-7.415525 -7.44215 -0.6576634,-6.965128 -6.786013 -0.3909098,-6.654123 -6.105846 -0.1444362,-6.33779 -5.59128 0.0956409,-7.254069 -5.330704 -1.028883,-7.136123 -4.401643 -0.7035434,-7.085137 -3.839353 -0.4819183,-7.047317 -3.264507 -0.3494822,-7.555483 -5.201587 -1.076516,-7.534985 -4.534542 -0.3029287,-7.550776 -5.471226 -0.02004325,-7.547697 -6.065566 -0.1122087,-7.893652 -5.182365 -1.018418,-7.900895 -4.480422 -0.2975979,-7.872607 -5.343896 -0.03873479,-7.838161 -5.945386 -0.1592388,-8.266135 -5.269285 -0.927765,-8.316341 -4.539676 -0.416692,-8.243084 -4.968447 -0.1961281,-8.164475 -5.456511 -0.2412059,2.21667,0 1 0 1 0 1 False
-2.041941 -7.15975 1.552999,-2.623837 -6.910354 1.943569,-3.091122 -6.052247 2.427788,-3.396912 -5.357791 2.871751,-3.790855 -4.907549 3.401333,-2.728575 -4.59065 2.675671,-2.850304 -4.283416 3.44478,-2.951206 -4.088043 3.912496,-3.01507 -4.047784 4.216568,-2.249308 -4.309457 2.749336,-2.357273 -5.271814 3.489609,-2.44844 -6.154075 3.511208,-2.459385 -6.505188 3.425146,-1.796048 -4.575162 2.861693,-1.901481 -5.641881 3.49449,-2.038668 -6.422613 3.333632,-2.090605 -6.64164 3.170339,-1.396612 -5.013055 3.003165,-1.49404 -5.878915 3.384077,-1.689909 -6.496707 3.279207,-1.794263 -6.619951 3.185697,-7.975416 -7.470379 -1.213603,-7.415525 -7.44215 -0.6576634,-6.965128 -6.786013 -0.3909098,-6.654123 -6.105846 -0.1444362,-6.33779 -5.59128 0.0956409,-7.254069 -5.330704 -1.028883,-7.136123 -4.401643 -0.7035434,-7.085137 -3.839353 -0.4819183,-7.047317 -3.264507 -0.3494822,-7.555483 -5.201587 -1.076516,-7.534985 -4.534542 -0.3029287,-7.550776 -5.471226 -0.02004325,-7.547697 -6.065566 -0.1122087,-7.893652 -5.182365 -1.018418,-7.900895 -4.480422 -0.2975979,-7.872607 -5.343896 -0.03873479,-7.838161 -5.945386 -0.1592388,-8.266135 -5.269285 -0.927765,-8.316341 -4.539676 -0.416692,-8.243084 -4.968447 -0.1961281,-8.164475 -5.456511 -0.2412059,2.25000,0 1 0 1 0 1 False
-2.114143 -7.206568 1.666444,-2.68819 -6.93025 2.037767,-3.159117 -6.059433 2.523252,-3.486273 -5.385393 2.981002,-3.898457 -4.970495 3.520511,-2.802704 -4.625054 2.811169,-2.908158 -4.33268 3.569715,-2.998828 -4.173137 4.007367,-3.056125 -4.168008 4.281417,-2.318276 -4.330459 2.885686,-2.445206 -5.387008 3.603746,-2.539691 -6.260461 3.564705,-2.552923 -6.569908 3.444518,-1.865176 -4.600026 3.002261,-1.997535 -5.752834 3.618116,-2.133683 -6.510749 3.424132,-2.179461 -6.689364 3.239614,-1.4649 -5.041107 3.141583,-1.574692 -5.939263 3.491391,-1.768876 -6.562025 3.372604,-1.869458 -6.670597 3.277865,-7.978284 -7.486233 -1.149402,-7.408835 -7.447423 -0.6054934,-6.957579 -6.799086 -0.3398518,-6.648783 -6.117294 -0.09291387,-6.329846 -5.603523 0.1497601,-7.243901 -5.333005 -0.9876655,-7.135321 -4.407337 -0.6675364,-7.088063 -3.84445 -0.4440105,-7.053885 -3.26235 -0.3106819,-7.555594 -5.198318 -1.029047,-7.542336 -4.549293 -0.2767673,-7.57244 -5.470603 0.01243436,-7.575586 -6.010107 -0.06853676,-7.900893 -5.170537 -0.9666109,-7.902421 -4.485727 -0.2669322,-7.88748 -5.351732 0.00106585,-7.865532 -5.916786 -0.1037302,-8.283195 -5.244627 -0.8753377,-8.31797 -4.533473 -0.3769386,-8.252024 -4.990818 -0.154325,-8.188711 -5.472917 -0.1927154,2.28333,0 1 0 1 0 1 False
-2.129656 -7.21433 1.658193,-2.7085 -6.958315 2.039701,-3.181768 -6.101297 2.542513,-3.534058 -5.437721 3.004011,-3.98324 -5.049009 3.53864,-2.857457 -4.674928 2.879202,-2.991177 -4.402349 3.646251,-3.085756 -4.227525 4.064726,-3.14712 -4.170192 4.317704,-2.380427 -4.372949 2.942396,-2.52562 -5.474836 3.668621,-2.606587 -6.331062 3.590236,-2.606133 -6.551959 3.447156,-1.933729 -4.646923 3.043093,-2.070889 -5.844799 3.664359,-2.204913 -6.564713 3.466322,-2.233781 -6.673402 3.291456,-1.538452 -5.089258 3.166821,-1.658699 -6.058635 3.52533,-1.854391 -6.653395 3.419469,-1.940964 -6.709655 3.355585,-7.998943 -7.495819 -1.105429,-7.447062 -7.440238 -0.5445306,-6.997272 -6.801792 -0.2792813,-6.684508 -6.125078 -0.04457152,-6.363335 -5.615663 0.1864951,-7.262562 -5.337205 -0.8952358,-7.165473 -4.416639 -0.5745836,-7.12018 -3.849097 -0.3540687,-7.085342 -3.270435 -0.2199059,-7.578966 -5.197089 -0.9444039,-7.584743 -4.566188 -0.2041427,-7.612946 -5.480587 0.06317163,-7.606264 -6.028516 -0.01557112,-7.927265 -5.168451 -0.8933996,-7.951602 -4.492544 -0.1853763,-7.929948 -5.357598 0.08217549,-7.890278 -5.932477 -0.008243918,-8.308296 -5.24707 -0.8117528,-8.351826 -4.535549 -0.3000376,-8.283 -4.983381 -0.07527363,-8.20452 -5.474025 -0.09799695,2.31667,0 1 0 1 0 1 False
-2.129656 -7.21433 1.658193,-2.7085 -6.958315 2.039701,-3.181768 -6.101297 2.542513,-3.534058 -5.437721 3.004011,-3.98324 -5.049009 3.53864,-2.857457 -4.674928 2.879202,-2.991177 -4.402349 3.646251,-3.085756 -4.227525 4.064726,-3.14712 -4.170192 4.317704,-2.380427 -4.372949 2.942396,-2.52562 -5.474836 3.668621,-2.606587 -6.331062 3.590236,-2.606133 -6.551959 3.447156,-1.933729 -4.646923 3.043093,-2.070889 -5.844799 3.664359,-2.204913 -6.564713 3.466322,-2.233781 -6.673402 3.291456,-1.538452 -5.089258 3.166821,-1.658699 -6.058635 3.52533,-1.854391 -6.653395 3.419469,-1.940964 -6.709655 3.355585,-7.998943 -7.495819 -1.105429,-7.447062 -7.440238 -0.5445306,-6.997272 -6.801792 -0.2792813,-6.684508 -6.125078 -0.04457152,-6.363335 -5.615663 0.1864951,-7.262562 -5.337205 -0.8952358,-7.165473 -4.416639 -0.5745836,-7.12018 -3.849097 -0.3540687,-7.085342 -3.270435 -0.2199059,-7.578966 -5.197089 -0.9444039,-7.584743 -4.566188 -0.2041427,-7.612946 -5.480587 0.06317163,-7.606264 -6.028516 -0.01557112,-7.927265 -5.168451 -0.8933996,-7.951602 -4.492544 -0.1853763,-7.929948 -5.357598 0.08217549,-7.890278 -5.932477 -0.008243918,-8.308296 -5.24707 -0.8117528,-8.351826 -4.535549 -0.3000376,-8.283 -4.983381 -0.07527363,-8.20452 -5.474025 -0.09799695,2.35000,0 1 0 1 0 1 False
-2.174088 -7.27164 1.529011,-2.764818 -7.046581 1.915273,-3.244246 -6.189801 2.383932,-3.581853 -5.479465 2.818546,-4.009331 -5.043495 3.32609,-2.913519 -4.736438 2.648106,-3.052901 -4.474168 3.421378,-3.156011 -4.286626 3.859054,-3.221283 -4.19243 4.127231,-2.44873 -4.427011 2.707303,-2.570087 -5.48091 3.436439,-2.647771 -6.35827 3.396508,-2.649806 -6.604959 3.266253,-2.00051 -4.668357 2.811378,-2.114403 -5.830712 3.448696,-2.250235 -6.596859 3.283105,-2.284759 -6.748598 3.113464,-1.59848 -5.079044 2.940141,-1.695007 -6.025959 3.331325,-1.889965 -6.662096 3.249401,-1.987481 -6.759148 3.17691,-8.046458 -7.47224 -1.123464,-7.487151 -7.408496 -0.5697445,-7.035921 -6.780687 -0.3028088,-6.722786 -6.110012 -0.06728625,-6.404653 -5.60238 0.1632015,-7.305656 -5.326299 -0.9018949,-7.209583 -4.404657 -0.5664439,-7.167384 -3.858888 -0.3278992,-7.139562 -3.301151 -0.1885911,-7.623215 -5.180159 -0.9511634,-7.634359 -4.563665 -0.2270647,-7.670435 -5.478345 0.02126229,-7.666703 -5.994956 -0.07255793,-7.971525 -5.146879 -0.9003173,-7.997338 -4.489991 -0.2101023,-7.978913 -5.351581 0.03246653,-7.944163 -5.89694 -0.06628084,-8.353512 -5.219683 -0.8149152,-8.396318 -4.51173 -0.3307992,-8.331475 -4.956985 -0.1281164,-8.261675 -5.423347 -0.1597284,2.38333,0 1 0 1 0 1 False
-2.174088 -7.27164 1.529011,-2.764818 -7.046581 1.915273,-3.244246 -6.189801 2.383932,-3.581853 -5.479465 2.818546,-4.009331 -5.043495 3.32609,-2.913519 -4.736438 2.648106,-3.052901 -4.474168 3.421378,-3.156011 -4.286626 3.859054,-3.221283 -4.19243 4.127231,-2.44873 -4.427011 2.707303,-2.570087 -5.48091 3.436439,-2.647771 -6.35827 3.396508,-2.649806 -6.604959 3.266253,-2.00051 -4.668357 2.811378,-2.114403 -5.830712 3.448696,-2.250235 -6.596859 3.283105,-2.284759 -6.748598 3.113464,-1.59848 -5.079044 2.940141,-1.695007 -6.025959 3.331325,-1.889965 -6.662096 3.249401,-1.987481 -6.759148 3.17691,-8.046458 -7.47224 -1.123464,-7.487151 -7.408496 -0.5697445,-7.035921 -6.780687 -0.3028088,-6.722786 -6.110012 -0.06728625,-6.404653 -5.60238 0.1632015,-7.305656 -5.326299 -0.9018949,-7.209583 -4.404657 -0.5664439,-7.167384 -3.858888 -0.3278992,-7.139562 -3.301151 -0.1885911,-7.623215 -5.180159 -0.9511634,-7.634359 -4.563665 -0.2270647,-7.670435 -5.478345 0.02126229,-7.666703 -5.994956 -0.07255793,-7.971525 -5.146879 -0.9003173,-7.997338 -4.489991 -0.2101023,-7.978913 -5.351581 0.03246653,-7.944163 -5.89694 -0.06628084,-8.353512 -5.219683 -0.8149152,-8.396318 -4.51173 -0.3307992,-8.331475 -4.956985 -0.1281164,-8.261675 -5.423347 -0.1597284,2.41667,0 1 0 1 0 1 False
-2.216723 -7.341171 1.39833,-2.796824 -7.089692 1.794226,-3.278248 -6.208995 2.234377,-3.615798 -5.4753 2.654197,-4.044106 -5.02503 3.164927,-2.948508 -4.794065 2.423689,-3.084987 -4.527572 3.180733,-3.200491 -4.31529 3.620949,-3.287588 -4.196178 3.891088,-2.507381 -4.501983 2.485087,-2.619666 -5.442168 3.194308,-2.689322 -6.314655 3.173859,-2.688894 -6.590967 3.066396,-2.073104 -4.731966 2.597358,-2.166268 -5.782832 3.230551,-2.297331 -6.552087 3.090608,-2.325628 -6.744535 2.934744,-1.672404 -5.139863 2.735004,-1.73955 -5.934012 3.163472,-1.920391 -6.569377 3.121157,-2.010498 -6.72759 3.073649,-8.119886 -7.484517 -1.082489,-7.567931 -7.412269 -0.5452353,-7.103709 -6.764513 -0.2907484,-6.790275 -6.103436 -0.07420146,-6.48656 -5.604748 0.1475693,-7.380681 -5.327804 -0.8508747,-7.272003 -4.392927 -0.5759144,-7.232509 -3.844341 -0.3807017,-7.212934 -3.308245 -0.260976,-7.698516 -5.180902 -0.9002411,-7.70798 -4.58198 -0.2282563,-7.742764 -5.458381 0.01307142,-7.735702 -5.999114 -0.05626738,-8.041532 -5.155796 -0.8610721,-8.072639 -4.510092 -0.2293635,-8.053455 -5.327995 0.02485287,-8.010659 -5.885207 -0.03772104,-8.417977 -5.234575 -0.7888602,-8.469724 -4.523382 -0.3482561,-8.416682 -4.922117 -0.1591442,-8.348441 -5.369406 -0.1739777,2.45000,0 1 0 1 0 1 False
-2.216723 -7.341171 1.39833,-2.796824 -7.089692 1.794226,-3.278248 -6.208995 2.234377,-3.615798 -5.4753 2.654197,-4.044106 -5.02503 3.164927,-2.948508 -4.794065 2.423689,-3.084987 -4.527572 3.180733,-3.200491 -4.31529 3.620949,-3.287588 -4.196178 3.891088,-2.507381 -4.501983 2.485087,-2.619666 -5.442168 3.194308,-2.689322 -6.314655 3.173859,-2.688894 -6.590967 3.066396,-2.073104 -4.731966 2.597358,-2.166268 -5.782832 3.230551,-2.297331 -6.552087 3.090608,-2.325628 -6.744535 2.934744,-1.672404 -5.139863 2.735004,-1.73955 -5.934012 3.163472,-1.920391 -6.569377 3.121157,-2.010498 -6.72759 3.073649,-8.119886 -7.484517 -1.082489,-7.567931 -7.412269 -0.5452353,-7.103709 -6.764513 -0.2907484,-6.790275 -6.103436 -0.07420146,-6.48656 -5.604748 0.1475693,-7.380681 -5.327804 -0.8508747,-7.272003 -4.392927 -0.5759144,-7.232509 -3.844341 -0.3807017,-7.212934 -3.308245 -0.260976,-7.698516 -5.180902 -0.9002411,-7.70798 -4.58198 -0.2282563,-7.742764 -5.458381 0.01307142,-7.735702 -5.999114 -0.05626738,-8.041532 -5.155796 -0.8610721,-8.072639 -4.510092 -0.2293635,-8.053455 -5.327995 0.02485287,-8.010659 -5.885207 -0.03772104,-8.417977 -5.234575 -0.7888602,-8.469724 -4.523382 -0.3482561,-8.416682 -4.922117 -0.1591442,-8.348441 -5.369406 -0.1739777,2.48333,0 1 0 1 0 1 False
-2.288253 -7.405965 1.152838,-2.831744 -7.107938 1.486164,-3.318199 -6.185102 1.847628,-3.646157 -5.465454 2.212996,-4.056581 -5.060077 2.697605,-2.990222 -4.79203 1.946464,-3.158311 -4.502916 2.601458,-3.276152 -4.289888 3.011441,-3.366693 -4.193945 3.27217,-2.566821 -4.56386 2.01767,-2.704972 -5.274135 2.661385,-2.760666 -6.180271 2.717216,-2.746151 -6.606189 2.672827,-2.143658 -4.793758 2.136144,-2.259708 -5.580846 2.727827,-2.372594 -6.411045 2.645344,-2.39755 -6.759323 2.520754,-1.745432 -5.219301 2.282882,-1.837709 -5.718936 2.737441,-1.998485 -6.360424 2.733499,-2.081678 -6.646836 2.695758,-8.216665 -7.492578 -1.019949,-7.66822 -7.413661 -0.4598162,-7.198997 -6.815626 -0.1760782,-6.900897 -6.167824 0.0622015,-6.610331 -5.652055 0.3032254,-7.456586 -5.35144 -0.6526254,-7.349808 -4.39031 -0.3014012,-7.330358 -3.828165 -0.05049169,-7.339495 -3.290185 0.08877635,-7.786955 -5.184678 -0.7188126,-7.811477 -4.621463 -0.004418969,-7.843542 -5.502351 0.2257428,-7.828613 -5.985939 0.1529498,-8.142693 -5.159417 -0.6971314,-8.195204 -4.552444 -0.05338866,-8.174579 -5.369493 0.1661339,-8.123128 -5.862016 0.1071992,-8.520899 -5.236909 -0.6437328,-8.601549 -4.551172 -0.1889784,-8.540964 -4.980196 -0.01381934,-8.453947 -5.417771 -0.02344626,2.51667,0 1 0 1 0 1 False
-2.288253 -7.405965 1.152838,-2.831744 -7.107938 1.486164,-3.318199 -6.185102 1.847628,-3.646157 -5.465454 2.212996,-4.056581 -5.060077 2.697605,-2.990222 -4.79203 1.946464,-3.158311 -4.502916 2.601458,-3.276152 -4.289888 3.011441,-3.366693 -4.193945 3.27217,-2.566821 -4.56386 2.01767,-2.704972 -5.274135 2.661385,-2.760666 -6.180271 2.717216,-2.746151 -6.606189 2.672827,-2.143658 -4.793758 2.136144,-2.259708 -5.580846 2.727827,-2.372594 -6.411045 2.645344,-2.39755 -6.759323 2.520754,-1.745432 -5.219301 2.282882,-1.837709 -5.718936 2.737441,-1.998485 -6.360424 2.733499,-2.081678 -6.646836 2.695758,-8.216665 -7.492578 -1.019949,-7.66822 -7.413661 -0.4598162,-7.198997 -6.815626 -0.1760782,-6.900897 -6.167824 0.0622015,-6.610331 -5.652055 0.3032254,-7.456586 -5.35144 -0.6526254,-7.349808 -4.39031 -0.3014012,-7.330358 -3.828165 -0.05049169,-7.339495 -3.290185 0.08877635,-7.786955 -5.184678 -0.7188126,-7.811477 -4.621463 -0.004418969,-7.843542 -5.502351 0.2257428,-7.828613 -5.985939 0.1529498,-8.142693 -5.159417 -0.6971314,-8.195204 -4.552444 -0.05338866,-8.174579 -5.369493 0.1661339,-8.123128 -5.862016 0.1071992,-8.520899 -5.236909 -0.6437328,-8.601549 -4.551172 -0.1889784,-8.540964 -4.980196 -0.01381934,-8.453947 -5.417771 -0.02344626,2.55000,0 1 0 1 0 1 False
