TiagoOliveira98/Thesis-Project/Difficulty_2_NEW/Dual_Task/Unity_Project/DataLogging/JointData/Logs(1651332310)_wss_Dual_Difficulty0.csv
WRIST,THUMB_CMC,THUMB_MCP,THUMB_IP,THUMB_TIP,INDEX_FINGER_MCP,INDEX_FINGER_PIP,INDEX_FINGER_DIP,INDEX_FINGER_TIP,MIDDLE_FINGER_MCP,MIDDLE_FINGER_PIP,MIDDLE_FINGER_DIP,MIDDLE_FINGER_TIP,RING_FINGER_MCP,RING_FINGER_PIP,RING_FINGER_DIP,RING_FINGER_TIP,PINKY_MCP,PINKY_PIP,PINKY_DIP,PINKY_TIP,WRIST2,THUMB_CMC2,THUMB_MCP2,THUMB_IP2,THUMB_TIP2,INDEX_FINGER_MCP2,INDEX_FINGER_PIP2,INDEX_FINGER_DIP2,INDEX_FINGER_TIP2,MIDDLE_FINGER_MCP2,MIDDLE_FINGER_PIP2,MIDDLE_FINGER_DIP2,MIDDLE_FINGER_TIP2,RING_FINGER_MCP2,RING_FINGER_PIP2,RING_FINGER_DIP2,RING_FINGER_TIP2,PINKY_MCP2,PINKY_PIP2,PINKY_DIP2,PINKY_TIP2,Timestamp,Event
-1.892761 -7.410835 -0.04314752,-2.474485 -7.221776 0.1768869,-2.992198 -6.548839 0.2712119,-3.329787 -5.864996 0.3758686,-3.665173 -5.440921 0.5114645,-2.65605 -5.106287 0.0365219,-2.879712 -4.127764 0.1791752,-2.995596 -3.523502 0.2816353,-3.09087 -2.947513 0.3698749,-2.320926 -4.867187 0.07601205,-2.453279 -3.750068 0.251437,-2.539453 -2.997772 0.4380068,-2.608896 -2.314092 0.6089021,-1.990805 -4.843858 0.1732165,-2.0797 -3.774107 0.353791,-2.165617 -3.084404 0.5487795,-2.238658 -2.468751 0.7083353,-1.645838 -5.006389 0.283494,-1.613525 -4.135715 0.4439178,-1.613914 -3.581888 0.6211752,-1.625248 -3.031817 0.7779161,-7.838276 -7.627797 -0.003864654,-7.237739 -7.364325 0.2245228,-6.740102 -6.642214 0.3850828,-6.420608 -5.926797 0.5923786,-6.143742 -5.453323 0.8115154,-7.119544 -5.104726 0.1171501,-6.987388 -4.074542 0.2527219,-6.927958 -3.425146 0.4097354,-6.881735 -2.86123 0.5384385,-7.43562 -4.908158 0.1723477,-7.298862 -3.7609 0.2451053,-7.224182 -3.020292 0.4404362,-7.167868 -2.366921 0.6253894,-7.757436 -4.963377 0.2649669,-7.659189 -3.857091 0.3366826,-7.582758 -3.171764 0.5042455,-7.512029 -2.574994 0.6679752,-8.102299 -5.230918 0.3850417,-8.138068 -4.391714 0.4887848,-8.140603 -3.843807 0.6294064,-8.117276 -3.299089 0.7713964,0.01667,0 0 0 0 0 0 False
-1.892761 -7.410835 -0.04314752,-2.474485 -7.221776 0.1768869,-2.992198 -6.548839 0.2712119,-3.329787 -5.864996 0.3758686,-3.665173 -5.440921 0.5114645,-2.65605 -5.106287 0.0365219,-2.879712 -4.127764 0.1791752,-2.995596 -3.523502 0.2816353,-3.09087 -2.947513 0.3698749,-2.320926 -4.867187 0.07601205,-2.453279 -3.750068 0.251437,-2.539453 -2.997772 0.4380068,-2.608896 -2.314092 0.6089021,-1.990805 -4.843858 0.1732165,-2.0797 -3.774107 0.353791,-2.165617 -3.084404 0.5487795,-2.238658 -2.468751 0.7083353,-1.645838 -5.006389 0.283494,-1.613525 -4.135715 0.4439178,-1.613914 -3.581888 0.6211752,-1.625248 -3.031817 0.7779161,-7.838276 -7.627797 -0.003864654,-7.237739 -7.364325 0.2245228,-6.740102 -6.642214 0.3850828,-6.420608 -5.926797 0.5923786,-6.143742 -5.453323 0.8115154,-7.119544 -5.104726 0.1171501,-6.987388 -4.074542 0.2527219,-6.927958 -3.425146 0.4097354,-6.881735 -2.86123 0.5384385,-7.43562 -4.908158 0.1723477,-7.298862 -3.7609 0.2451053,-7.224182 -3.020292 0.4404362,-7.167868 -2.366921 0.6253894,-7.757436 -4.963377 0.2649669,-7.659189 -3.857091 0.3366826,-7.582758 -3.171764 0.5042455,-7.512029 -2.574994 0.6679752,-8.102299 -5.230918 0.3850417,-8.138068 -4.391714 0.4887848,-8.140603 -3.843807 0.6294064,-8.117276 -3.299089 0.7713964,0.05000,0 0 0 0 0 0 False
-1.90034 -7.397235 -0.01940516,-2.479819 -7.214756 0.2010566,-2.989279 -6.535409 0.2964479,-3.323452 -5.85464 0.4060685,-3.666983 -5.446832 0.5505705,-2.660774 -5.083593 0.05579091,-2.882015 -4.114366 0.2021134,-2.998332 -3.517395 0.307765,-3.093185 -2.942154 0.4000719,-2.325052 -4.846223 0.1016193,-2.455838 -3.740997 0.2815255,-2.542573 -2.992507 0.4708504,-2.610395 -2.310312 0.6424067,-1.993139 -4.828117 0.2062525,-2.079128 -3.769946 0.3908119,-2.165215 -3.083148 0.5832143,-2.235763 -2.471418 0.7406317,-1.646882 -4.998102 0.3255411,-1.609676 -4.133301 0.4921213,-1.609575 -3.57722 0.6699827,-1.620913 -3.025876 0.8287305,-7.850175 -7.624424 0.005542635,-7.246693 -7.350444 0.2354133,-6.746654 -6.629308 0.3921172,-6.427587 -5.915473 0.5947354,-6.153502 -5.439809 0.8126699,-7.123874 -5.099662 0.1131436,-6.987494 -4.07176 0.2422292,-6.928061 -3.424045 0.400862,-6.88624 -2.870119 0.5321656,-7.43889 -4.902334 0.1653135,-7.294729 -3.765875 0.2306642,-7.217647 -3.028025 0.4182357,-7.162493 -2.387472 0.5961508,-7.761516 -4.953475 0.2575664,-7.654276 -3.857514 0.327721,-7.575963 -3.176713 0.490535,-7.504311 -2.591253 0.6498437,-8.109641 -5.213945 0.376607,-8.144119 -4.378999 0.4840097,-8.146059 -3.83096 0.6239471,-8.122164 -3.286089 0.7650826,0.08333,0 0 0 0 0 0 False
-1.90034 -7.397235 -0.01940516,-2.479819 -7.214756 0.2010566,-2.989279 -6.535409 0.2964479,-3.323452 -5.85464 0.4060685,-3.666983 -5.446832 0.5505705,-2.660774 -5.083593 0.05579091,-2.882015 -4.114366 0.2021134,-2.998332 -3.517395 0.307765,-3.093185 -2.942154 0.4000719,-2.325052 -4.846223 0.1016193,-2.455838 -3.740997 0.2815255,-2.542573 -2.992507 0.4708504,-2.610395 -2.310312 0.6424067,-1.993139 -4.828117 0.2062525,-2.079128 -3.769946 0.3908119,-2.165215 -3.083148 0.5832143,-2.235763 -2.471418 0.7406317,-1.646882 -4.998102 0.3255411,-1.609676 -4.133301 0.4921213,-1.609575 -3.57722 0.6699827,-1.620913 -3.025876 0.8287305,-7.850175 -7.624424 0.005542635,-7.246693 -7.350444 0.2354133,-6.746654 -6.629308 0.3921172,-6.427587 -5.915473 0.5947354,-6.153502 -5.439809 0.8126699,-7.123874 -5.099662 0.1131436,-6.987494 -4.07176 0.2422292,-6.928061 -3.424045 0.400862,-6.88624 -2.870119 0.5321656,-7.43889 -4.902334 0.1653135,-7.294729 -3.765875 0.2306642,-7.217647 -3.028025 0.4182357,-7.162493 -2.387472 0.5961508,-7.761516 -4.953475 0.2575664,-7.654276 -3.857514 0.327721,-7.575963 -3.176713 0.490535,-7.504311 -2.591253 0.6498437,-8.109641 -5.213945 0.376607,-8.144119 -4.378999 0.4840097,-8.146059 -3.83096 0.6239471,-8.122164 -3.286089 0.7650826,0.11667,0 0 0 0 0 0 False
-1.883283 -7.390178 -0.06472117,-2.468779 -7.213867 0.1616735,-2.98397 -6.540668 0.2553699,-3.318889 -5.855443 0.3592862,-3.663483 -5.447568 0.4954098,-2.651309 -5.096431 0.0192664,-2.872547 -4.120798 0.1609963,-2.991434 -3.518814 0.2662262,-3.090118 -2.943647 0.3596957,-2.315064 -4.853353 0.0534282,-2.445494 -3.741588 0.225987,-2.534239 -2.990808 0.4160406,-2.605989 -2.303118 0.5922159,-1.984061 -4.829494 0.1460131,-2.067437 -3.772007 0.3206587,-2.153699 -3.088539 0.5133723,-2.225227 -2.478776 0.6720158,-1.641191 -4.990715 0.2514382,-1.604938 -4.126501 0.408443,-1.604554 -3.572847 0.5838454,-1.615891 -3.02359 0.7400149,-7.836937 -7.617162 -0.01408885,-7.243676 -7.346725 0.2114386,-6.748289 -6.630314 0.3718771,-6.428844 -5.915425 0.5768849,-6.155114 -5.439697 0.8009408,-7.125402 -5.094019 0.1139017,-6.990824 -4.060018 0.250705,-6.935479 -3.411239 0.4090229,-6.896886 -2.851315 0.5405653,-7.438785 -4.900603 0.1739305,-7.294797 -3.751648 0.2468311,-7.219207 -3.011199 0.4363087,-7.163475 -2.363571 0.6146866,-7.760341 -4.956218 0.2693888,-7.657853 -3.847146 0.3457747,-7.580772 -3.159728 0.5097875,-7.508628 -2.566793 0.6692019,-8.104522 -5.222313 0.3939621,-8.140998 -4.377817 0.5020521,-8.1418 -3.826932 0.6383311,-8.113281 -3.282697 0.7715014,0.15000,0 0 0 0 0 0 False
-1.883283 -7.390178 -0.06472117,-2.468779 -7.213867 0.1616735,-2.98397 -6.540668 0.2553699,-3.318889 -5.855443 0.3592862,-3.663483 -5.447568 0.4954098,-2.651309 -5.096431 0.0192664,-2.872547 -4.120798 0.1609963,-2.991434 -3.518814 0.2662262,-3.090118 -2.943647 0.3596957,-2.315064 -4.853353 0.0534282,-2.445494 -3.741588 0.225987,-2.534239 -2.990808 0.4160406,-2.605989 -2.303118 0.5922159,-1.984061 -4.829494 0.1460131,-2.067437 -3.772007 0.3206587,-2.153699 -3.088539 0.5133723,-2.225227 -2.478776 0.6720158,-1.641191 -4.990715 0.2514382,-1.604938 -4.126501 0.408443,-1.604554 -3.572847 0.5838454,-1.615891 -3.02359 0.7400149,-7.836937 -7.617162 -0.01408885,-7.243676 -7.346725 0.2114386,-6.748289 -6.630314 0.3718771,-6.428844 -5.915425 0.5768849,-6.155114 -5.439697 0.8009408,-7.125402 -5.094019 0.1139017,-6.990824 -4.060018 0.250705,-6.935479 -3.411239 0.4090229,-6.896886 -2.851315 0.5405653,-7.438785 -4.900603 0.1739305,-7.294797 -3.751648 0.2468311,-7.219207 -3.011199 0.4363087,-7.163475 -2.363571 0.6146866,-7.760341 -4.956218 0.2693888,-7.657853 -3.847146 0.3457747,-7.580772 -3.159728 0.5097875,-7.508628 -2.566793 0.6692019,-8.104522 -5.222313 0.3939621,-8.140998 -4.377817 0.5020521,-8.1418 -3.826932 0.6383311,-8.113281 -3.282697 0.7715014,0.18333,0 0 0 0 0 0 False
-1.903525 -7.397518 -0.02137483,-2.479512 -7.210014 0.2196494,-2.985663 -6.536663 0.3239078,-3.320461 -5.848579 0.4352144,-3.658931 -5.423063 0.5791491,-2.652819 -5.085463 0.09314853,-2.880237 -4.101985 0.2349135,-3.000664 -3.496116 0.3336326,-3.093622 -2.923507 0.4253201,-2.318408 -4.846744 0.1244903,-2.448841 -3.72408 0.2990574,-2.537519 -2.972085 0.4769993,-2.602976 -2.294662 0.6415557,-1.989069 -4.825563 0.2127557,-2.073086 -3.750867 0.3919736,-2.163563 -3.056719 0.5767087,-2.234081 -2.436182 0.7297889,-1.644608 -4.994375 0.3180464,-1.605073 -4.120393 0.4791658,-1.601594 -3.559306 0.6523809,-1.605528 -3.005403 0.8063266,-7.835808 -7.619196 -0.007154352,-7.239895 -7.318612 0.2121206,-6.741705 -6.599406 0.3688715,-6.420656 -5.890614 0.5762939,-6.146071 -5.422482 0.8009388,-7.124114 -5.093919 0.101022,-6.982928 -4.063243 0.2358527,-6.920764 -3.417826 0.394828,-6.877705 -2.862486 0.5244412,-7.441486 -4.898806 0.1614797,-7.291541 -3.754121 0.2311409,-7.212371 -3.0144 0.421003,-7.155883 -2.370118 0.598183,-7.764229 -4.947223 0.2582049,-7.651504 -3.841218 0.3384142,-7.575825 -3.150222 0.505375,-7.506478 -2.554739 0.6620044,-8.112713 -5.201415 0.3827384,-8.144412 -4.354695 0.4898051,-8.14552 -3.805365 0.6224989,-8.120569 -3.258766 0.7563071,0.21667,0 0 0 0 0 0 False
-1.903525 -7.397518 -0.02137483,-2.479512 -7.210014 0.2196494,-2.985663 -6.536663 0.3239078,-3.320461 -5.848579 0.4352144,-3.658931 -5.423063 0.5791491,-2.652819 -5.085463 0.09314853,-2.880237 -4.101985 0.2349135,-3.000664 -3.496116 0.3336326,-3.093622 -2.923507 0.4253201,-2.318408 -4.846744 0.1244903,-2.448841 -3.72408 0.2990574,-2.537519 -2.972085 0.4769993,-2.602976 -2.294662 0.6415557,-1.989069 -4.825563 0.2127557,-2.073086 -3.750867 0.3919736,-2.163563 -3.056719 0.5767087,-2.234081 -2.436182 0.7297889,-1.644608 -4.994375 0.3180464,-1.605073 -4.120393 0.4791658,-1.601594 -3.559306 0.6523809,-1.605528 -3.005403 0.8063266,-7.835808 -7.619196 -0.007154352,-7.239895 -7.318612 0.2121206,-6.741705 -6.599406 0.3688715,-6.420656 -5.890614 0.5762939,-6.146071 -5.422482 0.8009388,-7.124114 -5.093919 0.101022,-6.982928 -4.063243 0.2358527,-6.920764 -3.417826 0.394828,-6.877705 -2.862486 0.5244412,-7.441486 -4.898806 0.1614797,-7.291541 -3.754121 0.2311409,-7.212371 -3.0144 0.421003,-7.155883 -2.370118 0.598183,-7.764229 -4.947223 0.2582049,-7.651504 -3.841218 0.3384142,-7.575825 -3.150222 0.505375,-7.506478 -2.554739 0.6620044,-8.112713 -5.201415 0.3827384,-8.144412 -4.354695 0.4898051,-8.14552 -3.805365 0.6224989,-8.120569 -3.258766 0.7563071,0.25000,0 0 0 0 0 0 False
-1.90817 -7.401433 0.01873006,-2.48275 -7.217285 0.2409327,-2.988656 -6.528837 0.3384639,-3.321655 -5.839365 0.4468399,-3.66491 -5.420724 0.5922287,-2.649377 -5.074209 0.1165027,-2.872135 -4.09078 0.2551426,-2.99465 -3.488202 0.3523907,-3.09283 -2.919702 0.4407778,-2.314929 -4.837478 0.1602222,-2.439684 -3.713955 0.3381697,-2.533173 -2.956409 0.5191239,-2.606844 -2.276402 0.6830787,-1.986667 -4.819903 0.2599733,-2.064586 -3.74337 0.4448229,-2.15719 -3.046348 0.6310486,-2.231712 -2.431659 0.78498,-1.644419 -4.994354 0.3738432,-1.601221 -4.122799 0.5372335,-1.59896 -3.555038 0.7107629,-1.606997 -2.997811 0.8672562,-7.830425 -7.607221 0.02495046,-7.237572 -7.303712 0.2482129,-6.742481 -6.590974 0.4143064,-6.420322 -5.884441 0.6290023,-6.148909 -5.409193 0.8612056,-7.129364 -5.071645 0.1338383,-6.988143 -4.046916 0.2700073,-6.925065 -3.398428 0.4291139,-6.881437 -2.838935 0.5609269,-7.44433 -4.876571 0.1964166,-7.292927 -3.734334 0.2670871,-7.213839 -2.994925 0.452842,-7.158187 -2.354673 0.6277681,-7.763907 -4.927564 0.2972362,-7.651048 -3.824056 0.3791937,-7.573197 -3.132006 0.5480214,-7.500563 -2.538076 0.7061082,-8.110468 -5.185718 0.4256483,-8.139298 -4.337511 0.5371023,-8.136436 -3.784656 0.6725172,-8.107302 -3.236199 0.8068807,0.28333,0 0 0 0 0 0 False
-1.922114 -7.406127 0.03719785,-2.494646 -7.205772 0.2422019,-2.995436 -6.514377 0.3331389,-3.326931 -5.832111 0.438969,-3.666584 -5.418211 0.5779187,-2.649068 -5.065597 0.1050087,-2.869555 -4.084052 0.2369753,-2.997314 -3.479685 0.3296866,-3.101431 -2.912521 0.4152968,-2.317558 -4.833915 0.1562616,-2.4409 -3.711685 0.3318003,-2.538589 -2.956214 0.5119268,-2.616058 -2.276471 0.6705168,-1.992393 -4.819276 0.2639583,-2.072348 -3.740517 0.4500354,-2.168059 -3.043582 0.6321102,-2.245719 -2.427855 0.7805403,-1.652884 -4.997578 0.3844106,-1.608043 -4.123046 0.5479846,-1.604826 -3.556413 0.7182796,-1.611415 -3.001855 0.8692623,-7.83695 -7.604933 0.02024131,-7.236567 -7.305154 0.2226142,-6.741369 -6.593633 0.3736695,-6.426812 -5.883269 0.5746233,-6.164988 -5.417212 0.7906632,-7.125209 -5.06602 0.1025848,-6.985169 -4.034666 0.2281786,-6.923405 -3.386607 0.3771596,-6.881437 -2.838935 0.5562406,-7.44433 -4.876571 0.1917303,-7.292927 -3.734334 0.2624007,-7.213839 -2.994925 0.4481556,-7.158187 -2.354673 0.6230817,-7.763907 -4.927564 0.2925498,-7.651048 -3.824056 0.3745073,-7.573197 -3.132006 0.5433351,-7.500563 -2.538076 0.7014218,-8.110468 -5.185718 0.4209619,-8.139298 -4.337511 0.5324159,-8.136436 -3.784656 0.6678309,-8.107302 -3.236199 0.8021944,0.31667,0 0 0 0 0 0 False
-1.922114 -7.406127 0.03719785,-2.494646 -7.205772 0.2422019,-2.995436 -6.514377 0.3331389,-3.326931 -5.832111 0.438969,-3.666584 -5.418211 0.5779187,-2.649068 -5.065597 0.1050087,-2.869555 -4.084052 0.2369753,-2.997314 -3.479685 0.3296866,-3.101431 -2.912521 0.4152968,-2.317558 -4.833915 0.1562616,-2.4409 -3.711685 0.3318003,-2.538589 -2.956214 0.5119268,-2.616058 -2.276471 0.6705168,-1.992393 -4.819276 0.2639583,-2.072348 -3.740517 0.4500354,-2.168059 -3.043582 0.6321102,-2.245719 -2.427855 0.7805403,-1.652884 -4.997578 0.3844106,-1.608043 -4.123046 0.5479846,-1.604826 -3.556413 0.7182796,-1.611415 -3.001855 0.8692623,-7.83695 -7.604933 0.03983538,-7.236567 -7.305154 0.2422082,-6.741369 -6.593633 0.3932636,-6.426812 -5.883269 0.5942174,-6.164988 -5.417212 0.8102573,-7.125209 -5.06602 0.1221789,-6.985169 -4.034666 0.2477726,-6.923405 -3.386607 0.3967537,-6.878522 -2.833914 0.5202,-7.442088 -4.869976 0.1900251,-7.289753 -3.728498 0.2498602,-7.211695 -2.99515 0.4297293,-7.155137 -2.362223 0.5978905,-7.763615 -4.919237 0.2942355,-7.647392 -3.812708 0.3681521,-7.574413 -3.120767 0.5319721,-7.503532 -2.526784 0.6868361,-8.11111 -5.175299 0.4233352,-8.142022 -4.327492 0.5285472,-8.141971 -3.775336 0.6660305,-8.112582 -3.227808 0.8038594,0.35000,0 0 0 0 0 0 False
-1.912463 -7.40871 0.108274,-2.488914 -7.221555 0.3195591,-2.991886 -6.514974 0.4048928,-3.321049 -5.826965 0.504631,-3.668142 -5.42748 0.6413059,-2.659624 -5.055715 0.1682973,-2.875206 -4.082186 0.3084172,-3.001927 -3.475343 0.4102496,-3.102678 -2.898885 0.5031703,-2.328159 -4.818878 0.2225303,-2.450044 -3.710382 0.4013648,-2.545649 -2.9602 0.5863765,-2.61724 -2.273937 0.7474362,-2.001038 -4.807081 0.3344666,-2.083549 -3.743886 0.5238054,-2.176366 -3.057655 0.7107558,-2.246173 -2.444515 0.8641533,-1.656667 -4.985475 0.4613442,-1.616083 -4.124584 0.6276034,-1.61451 -3.563823 0.7984185,-1.619 -3.010276 0.9529977,-7.830052 -7.602127 0.03608325,-7.238441 -7.296499 0.2559569,-6.746023 -6.583971 0.4201654,-6.429691 -5.877592 0.6332133,-6.164769 -5.406759 0.8673891,-7.128612 -5.064088 0.1414284,-6.983974 -4.03713 0.2765555,-6.923373 -3.387173 0.4291021,-6.880606 -2.826573 0.5531675,-7.444019 -4.868181 0.2065499,-7.291845 -3.723073 0.2755905,-7.214979 -2.988595 0.4569713,-7.160801 -2.349354 0.6232302,-7.764406 -4.915342 0.3091297,-7.651435 -3.80887 0.3928578,-7.573859 -3.120405 0.5609853,-7.500291 -2.525367 0.7159659,-8.111536 -5.168622 0.4388663,-8.146528 -4.320328 0.553174,-8.148036 -3.769657 0.6930557,-8.120255 -3.219703 0.8282493,0.38333,0 0 0 0 0 0 False
-1.912463 -7.40871 0.108274,-2.488914 -7.221555 0.3195591,-2.991886 -6.514974 0.4048928,-3.321049 -5.826965 0.504631,-3.668142 -5.42748 0.6413059,-2.659624 -5.055715 0.1682973,-2.875206 -4.082186 0.3084172,-3.001927 -3.475343 0.4102496,-3.102678 -2.898885 0.5031703,-2.328159 -4.818878 0.2225303,-2.450044 -3.710382 0.4013648,-2.545649 -2.9602 0.5863765,-2.61724 -2.273937 0.7474362,-2.001038 -4.807081 0.3344666,-2.083549 -3.743886 0.5238054,-2.176366 -3.057655 0.7107558,-2.246173 -2.444515 0.8641533,-1.656667 -4.985475 0.4613442,-1.616083 -4.124584 0.6276034,-1.61451 -3.563823 0.7984185,-1.619 -3.010276 0.9529977,-7.830052 -7.602127 0.03608325,-7.238441 -7.296499 0.2559569,-6.746023 -6.583971 0.4201654,-6.429691 -5.877592 0.6332133,-6.164769 -5.406759 0.8673891,-7.128612 -5.064088 0.1414284,-6.983974 -4.03713 0.2765555,-6.923373 -3.387173 0.4291021,-6.880606 -2.826573 0.5531675,-7.444019 -4.868181 0.2065499,-7.291845 -3.723073 0.2755905,-7.214979 -2.988595 0.4569713,-7.160801 -2.349354 0.6232302,-7.764406 -4.915342 0.3091297,-7.651435 -3.80887 0.3928578,-7.573859 -3.120405 0.5609853,-7.500291 -2.525367 0.7159659,-8.111536 -5.168622 0.4388663,-8.146528 -4.320328 0.553174,-8.148036 -3.769657 0.6930557,-8.120255 -3.219703 0.8282493,0.41667,0 0 0 0 0 0 False
-1.9116 -7.41287 0.06474165,-2.492074 -7.224531 0.2877073,-3.001869 -6.531671 0.3828388,-3.329542 -5.839181 0.4891057,-3.67145 -5.419677 0.6284174,-2.660407 -5.074617 0.1613464,-2.880808 -4.089441 0.3043695,-3.005845 -3.481315 0.4050396,-3.10579 -2.90764 0.4957325,-2.325047 -4.836614 0.2056615,-2.452268 -3.714284 0.3926278,-2.5466 -2.959278 0.5792341,-2.619121 -2.27574 0.7406558,-1.995742 -4.821373 0.3071821,-2.079564 -3.7484 0.5024495,-2.173524 -3.056865 0.6907591,-2.247819 -2.440984 0.8427132,-1.651859 -4.998007 0.423492,-1.610592 -4.131095 0.5964099,-1.606543 -3.570409 0.7720106,-1.610704 -3.019519 0.9264411,-7.844429 -7.589616 0.01649027,-7.241776 -7.292978 0.2104539,-6.745052 -6.588897 0.3611914,-6.434145 -5.877681 0.5636886,-6.177501 -5.410142 0.7860888,-7.132523 -5.054465 0.08419688,-6.990616 -4.0216 0.203377,-6.923425 -3.379638 0.3519951,-6.870825 -2.834301 0.4736928,-7.452414 -4.860221 0.1519233,-7.300705 -3.704237 0.200115,-7.219078 -2.967712 0.3725336,-7.161141 -2.333425 0.5365099,-7.774947 -4.911581 0.2543762,-7.65638 -3.794758 0.3196947,-7.574719 -3.105928 0.4768272,-7.496862 -2.514499 0.6286284,-8.122319 -5.166496 0.3847875,-8.151912 -4.315615 0.4817737,-8.148153 -3.765491 0.6174258,-8.114891 -3.216774 0.7530652,0.45000,0 0 0 0 0 0 False
-1.9116 -7.41287 0.06474165,-2.492074 -7.224531 0.2877073,-3.001869 -6.531671 0.3828388,-3.329542 -5.839181 0.4891057,-3.67145 -5.419677 0.6284174,-2.660407 -5.074617 0.1613464,-2.880808 -4.089441 0.3043695,-3.005845 -3.481315 0.4050396,-3.10579 -2.90764 0.4957325,-2.325047 -4.836614 0.2056615,-2.452268 -3.714284 0.3926278,-2.5466 -2.959278 0.5792341,-2.619121 -2.27574 0.7406558,-1.995742 -4.821373 0.3071821,-2.079564 -3.7484 0.5024495,-2.173524 -3.056865 0.6907591,-2.247819 -2.440984 0.8427132,-1.651859 -4.998007 0.423492,-1.610592 -4.131095 0.5964099,-1.606543 -3.570409 0.7720106,-1.610704 -3.019519 0.9264411,-7.844429 -7.589616 0.01649027,-7.241776 -7.292978 0.2104539,-6.745052 -6.588897 0.3611914,-6.434145 -5.877681 0.5636886,-6.177501 -5.410142 0.7860888,-7.132523 -5.054465 0.08419688,-6.990616 -4.0216 0.203377,-6.923425 -3.379638 0.3519951,-6.870825 -2.834301 0.4736928,-7.452414 -4.860221 0.1519233,-7.300705 -3.704237 0.200115,-7.219078 -2.967712 0.3725336,-7.161141 -2.333425 0.5365099,-7.774947 -4.911581 0.2543762,-7.65638 -3.794758 0.3196947,-7.574719 -3.105928 0.4768272,-7.496862 -2.514499 0.6286284,-8.122319 -5.166496 0.3847875,-8.151912 -4.315615 0.4817737,-8.148153 -3.765491 0.6174258,-8.114891 -3.216774 0.7530652,0.48333,0 0 0 0 0 0 False
-1.91576 -7.415507 0.078523,-2.491131 -7.220133 0.3009443,-2.997079 -6.526847 0.4009912,-3.326269 -5.838726 0.5112277,-3.670677 -5.427404 0.6540609,-2.65825 -5.073451 0.193677,-2.877869 -4.089311 0.3376626,-3.003513 -3.481821 0.4388698,-3.107088 -2.90993 0.5296044,-2.323272 -4.835334 0.237049,-2.450557 -3.714571 0.4257382,-2.548892 -2.95976 0.6136332,-2.627389 -2.276058 0.780558,-1.994507 -4.819492 0.3354073,-2.078854 -3.745251 0.5298008,-2.176206 -3.052289 0.7175958,-2.254587 -2.436425 0.8705791,-1.650952 -4.996898 0.4475495,-1.609383 -4.130346 0.617214,-1.606268 -3.565635 0.791144,-1.611764 -3.010123 0.9484947,-7.848389 -7.60067 0.07308722,-7.254845 -7.286409 0.2585182,-6.764429 -6.591005 0.4023593,-6.45036 -5.888183 0.6004389,-6.19233 -5.422089 0.8145677,-7.139153 -5.045944 0.1337766,-6.999919 -4.020702 0.2472309,-6.933263 -3.378532 0.3939457,-6.881464 -2.835582 0.5138404,-7.454614 -4.854932 0.2034536,-7.304798 -3.712011 0.2505537,-7.224673 -2.97328 0.4298336,-7.169494 -2.339204 0.5985504,-7.777036 -4.908179 0.3059526,-7.664839 -3.809968 0.3638489,-7.585439 -3.121224 0.5209391,-7.511282 -2.535439 0.6688055,-8.123079 -5.167784 0.4351103,-8.156094 -4.323846 0.5270164,-8.155652 -3.771242 0.6606435,-8.126575 -3.22601 0.7912955,0.51667,0 0 0 0 0 0 False
-1.91576 -7.415507 0.078523,-2.491131 -7.220133 0.3009443,-2.997079 -6.526847 0.4009912,-3.326269 -5.838726 0.5112277,-3.670677 -5.427404 0.6540609,-2.65825 -5.073451 0.193677,-2.877869 -4.089311 0.3376626,-3.003513 -3.481821 0.4388698,-3.107088 -2.90993 0.5296044,-2.323272 -4.835334 0.237049,-2.450557 -3.714571 0.4257382,-2.548892 -2.95976 0.6136332,-2.627389 -2.276058 0.780558,-1.994507 -4.819492 0.3354073,-2.078854 -3.745251 0.5298008,-2.176206 -3.052289 0.7175958,-2.254587 -2.436425 0.8705791,-1.650952 -4.996898 0.4475495,-1.609383 -4.130346 0.617214,-1.606268 -3.565635 0.791144,-1.611764 -3.010123 0.9484947,-7.848389 -7.60067 0.07308722,-7.254845 -7.286409 0.2585182,-6.764429 -6.591005 0.4023593,-6.45036 -5.888183 0.6004389,-6.19233 -5.422089 0.8145677,-7.139153 -5.045944 0.1337766,-6.999919 -4.020702 0.2472309,-6.933263 -3.378532 0.3939457,-6.881464 -2.835582 0.5138404,-7.454614 -4.854932 0.2034536,-7.304798 -3.712011 0.2505537,-7.224673 -2.97328 0.4298336,-7.169494 -2.339204 0.5985504,-7.777036 -4.908179 0.3059526,-7.664839 -3.809968 0.3638489,-7.585439 -3.121224 0.5209391,-7.511282 -2.535439 0.6688055,-8.123079 -5.167784 0.4351103,-8.156094 -4.323846 0.5270164,-8.155652 -3.771242 0.6606435,-8.126575 -3.22601 0.7912955,0.55000,0 0 0 0 0 0 False
-1.894098 -7.433336 0.09456569,-2.472075 -7.244867 0.3127599,-2.982275 -6.539503 0.4045712,-3.313847 -5.846243 0.5069812,-3.662291 -5.438939 0.645615,-2.643321 -5.08841 0.1745643,-2.862022 -4.107824 0.3149842,-2.990121 -3.498405 0.418037,-3.094605 -2.926286 0.5121965,-2.311415 -4.848368 0.2221897,-2.444383 -3.728531 0.40233,-2.547006 -2.9722 0.5894048,-2.626903 -2.287015 0.7516146,-1.984556 -4.829511 0.3279955,-2.071754 -3.754337 0.5148553,-2.172355 -3.061054 0.6998008,-2.252451 -2.446619 0.8500384,-1.641891 -5.00195 0.4494824,-1.601724 -4.129945 0.613622,-1.603744 -3.566024 0.7833571,-1.614005 -3.014809 0.9367329,-7.860713 -7.602673 0.09058188,-7.265247 -7.308496 0.2847744,-6.777458 -6.609808 0.4282576,-6.472105 -5.899542 0.6201029,-6.211625 -5.441079 0.8241523,-7.149547 -5.047319 0.165824,-7.018315 -4.022235 0.2800716,-6.955118 -3.378581 0.4274272,-6.903497 -2.837783 0.5481107,-7.467433 -4.851864 0.2216415,-7.325115 -3.701903 0.2769517,-7.248493 -2.957525 0.4552472,-7.191685 -2.314897 0.6267154,-7.790448 -4.902362 0.3091525,-7.684457 -3.798748 0.3637823,-7.60813 -3.112023 0.5087348,-7.537271 -2.527313 0.6495254,-8.135912 -5.162105 0.4235791,-8.169715 -4.324991 0.512081,-8.171331 -3.777236 0.6371069,-8.146311 -3.236162 0.7601247,0.58333,0 0 0 0 0 0 False
-1.894098 -7.433336 0.09456569,-2.472075 -7.244867 0.3127599,-2.982275 -6.539503 0.4045712,-3.313847 -5.846243 0.5069812,-3.662291 -5.438939 0.645615,-2.643321 -5.08841 0.1745643,-2.862022 -4.107824 0.3149842,-2.990121 -3.498405 0.418037,-3.094605 -2.926286 0.5121965,-2.311415 -4.848368 0.2221897,-2.444383 -3.728531 0.40233,-2.547006 -2.9722 0.5894048,-2.626903 -2.287015 0.7516146,-1.984556 -4.829511 0.3279955,-2.071754 -3.754337 0.5148553,-2.172355 -3.061054 0.6998008,-2.252451 -2.446619 0.8500384,-1.641891 -5.00195 0.4494824,-1.601724 -4.129945 0.613622,-1.603744 -3.566024 0.7833571,-1.614005 -3.014809 0.9367329,-7.860713 -7.602673 0.09058188,-7.265247 -7.308496 0.2847744,-6.777458 -6.609808 0.4282576,-6.472105 -5.899542 0.6201029,-6.211625 -5.441079 0.8241523,-7.149547 -5.047319 0.165824,-7.018315 -4.022235 0.2800716,-6.955118 -3.378581 0.4274272,-6.903497 -2.837783 0.5481107,-7.467433 -4.851864 0.2216415,-7.325115 -3.701903 0.2769517,-7.248493 -2.957525 0.4552472,-7.191685 -2.314897 0.6267154,-7.790448 -4.902362 0.3091525,-7.684457 -3.798748 0.3637823,-7.60813 -3.112023 0.5087348,-7.537271 -2.527313 0.6495254,-8.135912 -5.162105 0.4235791,-8.169715 -4.324991 0.512081,-8.171331 -3.777236 0.6371069,-8.146311 -3.236162 0.7601247,0.61667,0 0 0 0 0 0 False
-1.862823 -7.458557 0.08599968,-2.440096 -7.255353 0.3231427,-2.949793 -6.562804 0.4289243,-3.283333 -5.872259 0.544593,-3.632301 -5.443143 0.6962271,-2.625028 -5.121232 0.1980493,-2.853241 -4.136676 0.3483462,-2.980598 -3.526585 0.4627314,-3.08519 -2.946213 0.567315,-2.291069 -4.879117 0.2369622,-2.426601 -3.752882 0.420357,-2.524606 -2.993944 0.6153915,-2.602256 -2.305986 0.7862868,-1.962787 -4.858338 0.3351848,-2.046782 -3.776728 0.5157942,-2.141492 -3.07506 0.7101444,-2.218015 -2.453746 0.871725,-1.619523 -5.028858 0.4473516,-1.58385 -4.151292 0.6100193,-1.589239 -3.58404 0.7858738,-1.606384 -3.03449 0.9427198,-7.874956 -7.640647 0.1469103,-7.290565 -7.329082 0.3461998,-6.808968 -6.620459 0.4987206,-6.509516 -5.918307 0.7024772,-6.241366 -5.470523 0.9098491,-7.184562 -5.057519 0.243355,-7.056774 -4.023218 0.3683634,-6.992589 -3.374434 0.5173753,-6.940407 -2.821174 0.637111,-7.504337 -4.87156 0.2998874,-7.371934 -3.714923 0.3783514,-7.292859 -2.968211 0.566313,-7.232573 -2.319705 0.7448228,-7.827545 -4.929521 0.3884688,-7.730404 -3.817976 0.4522602,-7.651955 -3.122548 0.5949528,-7.579838 -2.528738 0.7329878,-8.171064 -5.199932 0.502317,-8.204424 -4.351799 0.5916747,-8.202477 -3.801563 0.7143313,-8.177232 -3.262064 0.8366295,0.65000,0 0 0 0 0 0 False
-1.862823 -7.458557 0.08599968,-2.440096 -7.255353 0.3231427,-2.949793 -6.562804 0.4289243,-3.283333 -5.872259 0.544593,-3.632301 -5.443143 0.6962271,-2.625028 -5.121232 0.1980493,-2.853241 -4.136676 0.3483462,-2.980598 -3.526585 0.4627314,-3.08519 -2.946213 0.567315,-2.291069 -4.879117 0.2369622,-2.426601 -3.752882 0.420357,-2.524606 -2.993944 0.6153915,-2.602256 -2.305986 0.7862868,-1.962787 -4.858338 0.3351848,-2.046782 -3.776728 0.5157942,-2.141492 -3.07506 0.7101444,-2.218015 -2.453746 0.871725,-1.619523 -5.028858 0.4473516,-1.58385 -4.151292 0.6100193,-1.589239 -3.58404 0.7858738,-1.606384 -3.03449 0.9427198,-7.874956 -7.640647 0.1469103,-7.290565 -7.329082 0.3461998,-6.808968 -6.620459 0.4987206,-6.509516 -5.918307 0.7024772,-6.241366 -5.470523 0.9098491,-7.184562 -5.057519 0.243355,-7.056774 -4.023218 0.3683634,-6.992589 -3.374434 0.5173753,-6.940407 -2.821174 0.637111,-7.504337 -4.87156 0.2998874,-7.371934 -3.714923 0.3783514,-7.292859 -2.968211 0.566313,-7.232573 -2.319705 0.7448228,-7.827545 -4.929521 0.3884688,-7.730404 -3.817976 0.4522602,-7.651955 -3.122548 0.5949528,-7.579838 -2.528738 0.7329878,-8.171064 -5.199932 0.502317,-8.204424 -4.351799 0.5916747,-8.202477 -3.801563 0.7143313,-8.177232 -3.262064 0.8366295,0.68333,0 0 0 0 0 0 False
-1.837118 -7.479045 0.0797852,-2.414472 -7.254347 0.3053488,-2.916616 -6.563995 0.4093953,-3.245456 -5.869481 0.5267983,-3.591496 -5.425088 0.6828116,-2.582539 -5.129055 0.1686983,-2.807751 -4.132729 0.2987676,-2.925657 -3.529092 0.3975098,-3.017128 -2.956003 0.4958357,-2.253994 -4.898304 0.2083453,-2.393492 -3.761835 0.3780984,-2.483281 -3.011511 0.5615776,-2.54821 -2.330708 0.7300875,-1.929097 -4.881843 0.3093305,-2.019974 -3.792031 0.4783825,-2.122646 -3.08803 0.6601286,-2.204097 -2.462051 0.8174906,-1.585929 -5.054424 0.423709,-1.542839 -4.165273 0.5835116,-1.546327 -3.595846 0.7551926,-1.559708 -3.050106 0.9133652,-7.945147 -7.651571 0.1936059,-7.353292 -7.348375 0.3920457,-6.867524 -6.641162 0.5399947,-6.567472 -5.930633 0.7410324,-6.292204 -5.48887 0.9464877,-7.227647 -5.070108 0.2949359,-7.091159 -4.040452 0.4174958,-7.032076 -3.394454 0.5578524,-6.985112 -2.837142 0.6715747,-7.550474 -4.87323 0.3625039,-7.413528 -3.723327 0.4349696,-7.340329 -2.969114 0.620284,-7.286248 -2.313667 0.8023552,-7.877871 -4.933514 0.4624724,-7.776334 -3.826498 0.5341885,-7.702618 -3.130573 0.6882089,-7.630503 -2.531562 0.8330056,-8.229956 -5.206302 0.5869298,-8.253465 -4.352832 0.7026552,-8.24719 -3.803095 0.8448822,-8.213786 -3.259744 0.9778378,0.71667,0 0 0 0 0 0 False
-1.837118 -7.479045 0.0797852,-2.414472 -7.254347 0.3053488,-2.916616 -6.563995 0.4093953,-3.245456 -5.869481 0.5267983,-3.591496 -5.425088 0.6828116,-2.582539 -5.129055 0.1686983,-2.807751 -4.132729 0.2987676,-2.925657 -3.529092 0.3975098,-3.017128 -2.956003 0.4958357,-2.253994 -4.898304 0.2083453,-2.393492 -3.761835 0.3780984,-2.483281 -3.011511 0.5615776,-2.54821 -2.330708 0.7300875,-1.929097 -4.881843 0.3093305,-2.019974 -3.792031 0.4783825,-2.122646 -3.08803 0.6601286,-2.204097 -2.462051 0.8174906,-1.585929 -5.054424 0.423709,-1.542839 -4.165273 0.5835116,-1.546327 -3.595846 0.7551926,-1.559708 -3.050106 0.9133652,-7.945147 -7.651571 0.1936059,-7.353292 -7.348375 0.3920457,-6.867524 -6.641162 0.5399947,-6.567472 -5.930633 0.7410324,-6.292204 -5.48887 0.9464877,-7.227647 -5.070108 0.2949359,-7.091159 -4.040452 0.4174958,-7.032076 -3.394454 0.5578524,-6.985112 -2.837142 0.6715747,-7.550474 -4.87323 0.3625039,-7.413528 -3.723327 0.4349696,-7.340329 -2.969114 0.620284,-7.286248 -2.313667 0.8023552,-7.877871 -4.933514 0.4624724,-7.776334 -3.826498 0.5341885,-7.702618 -3.130573 0.6882089,-7.630503 -2.531562 0.8330056,-8.229956 -5.206302 0.5869298,-8.253465 -4.352832 0.7026552,-8.24719 -3.803095 0.8448822,-8.213786 -3.259744 0.9778378,0.75000,0 0 0 0 0 0 False
-1.770236 -7.549391 0.1724045,-2.343041 -7.337746 0.4439616,-2.853119 -6.640991 0.5716707,-3.192915 -5.935974 0.7043104,-3.553728 -5.483119 0.8889382,-2.529027 -5.189258 0.2989108,-2.755126 -4.193019 0.4443096,-2.881692 -3.577803 0.5657783,-2.982501 -2.995299 0.6854606,-2.196749 -4.944507 0.3220843,-2.336668 -3.804699 0.4949074,-2.432562 -3.044647 0.6938407,-2.504453 -2.352941 0.8724974,-1.869156 -4.927684 0.4093398,-1.961757 -3.842239 0.5796546,-2.068056 -3.130412 0.7762653,-2.152489 -2.496807 0.9461524,-1.525401 -5.111516 0.517,-1.485612 -4.219575 0.6809267,-1.491322 -3.651011 0.8596388,-1.505971 -3.106496 1.02549,-8.021741 -7.706577 0.2084458,-7.4504 -7.392559 0.4123141,-6.967809 -6.672445 0.5648578,-6.665696 -5.973028 0.7675016,-6.392826 -5.546699 0.9778247,-7.316237 -5.116708 0.3122756,-7.179956 -4.067285 0.4175159,-7.120108 -3.414045 0.5370601,-7.071164 -2.858064 0.6357269,-7.644269 -4.921145 0.3705209,-7.509147 -3.742785 0.4396015,-7.428123 -2.976051 0.6234235,-7.365937 -2.32147 0.7991534,-7.971964 -4.978816 0.4593396,-7.877946 -3.857451 0.5337572,-7.793386 -3.139505 0.6996138,-7.706902 -2.529317 0.8544046,-8.318736 -5.253192 0.5687782,-8.356115 -4.400484 0.6885334,-8.351103 -3.857852 0.8433515,-8.315556 -3.333598 0.9906549,0.78333,0 0 0 0 0 0 False
-1.796817 -7.587898 0.2876935,-2.376048 -7.350578 0.5337544,-2.886569 -6.654397 0.6502016,-3.218265 -5.956689 0.775972,-3.55313 -5.509262 0.9280855,-2.534096 -5.184537 0.4262471,-2.760132 -4.203485 0.5881801,-2.89049 -3.599091 0.6989926,-2.998605 -3.02514 0.7934443,-2.200879 -4.947969 0.467633,-2.331226 -3.818886 0.6763067,-2.429005 -3.059859 0.8782855,-2.507158 -2.367218 1.046823,-1.874872 -4.937889 0.5664309,-1.963148 -3.861492 0.7765658,-2.062738 -3.158066 0.9863922,-2.14299 -2.529635 1.14792,-1.534457 -5.12211 0.6818779,-1.493896 -4.238689 0.8549748,-1.49334 -3.662713 1.038664,-1.502582 -3.105296 1.197937,-8.058622 -7.707042 0.2808727,-7.479177 -7.411047 0.4957285,-6.994482 -6.708798 0.6561956,-6.680368 -5.993368 0.8745175,-6.390482 -5.555143 1.100575,-7.353957 -5.10199 0.3412303,-7.2068 -4.066503 0.4456068,-7.143277 -3.398065 0.5770711,-7.089357 -2.82135 0.6941242,-7.677529 -4.899023 0.3997865,-7.539153 -3.744068 0.4454528,-7.463499 -2.983308 0.6242199,-7.411469 -2.327632 0.7934331,-8.000445 -4.948173 0.4930125,-7.898499 -3.839408 0.5475351,-7.818595 -3.146155 0.693112,-7.743282 -2.552694 0.8256823,-8.345247 -5.205902 0.6171259,-8.364258 -4.361579 0.7206557,-8.34988 -3.813047 0.8452969,-8.310528 -3.269666 0.9560221,0.81667,0 0 0 0 0 0 False
-1.796817 -7.587898 0.2876935,-2.376048 -7.350578 0.5337544,-2.886569 -6.654397 0.6502016,-3.218265 -5.956689 0.775972,-3.55313 -5.509262 0.9280855,-2.534096 -5.184537 0.4262471,-2.760132 -4.203485 0.5881801,-2.89049 -3.599091 0.6989926,-2.998605 -3.02514 0.7934443,-2.200879 -4.947969 0.467633,-2.331226 -3.818886 0.6763067,-2.429005 -3.059859 0.8782855,-2.507158 -2.367218 1.046823,-1.874872 -4.937889 0.5664309,-1.963148 -3.861492 0.7765658,-2.062738 -3.158066 0.9863922,-2.14299 -2.529635 1.14792,-1.534457 -5.12211 0.6818779,-1.493896 -4.238689 0.8549748,-1.49334 -3.662713 1.038664,-1.502582 -3.105296 1.197937,-8.058622 -7.707042 0.2808727,-7.479177 -7.411047 0.4957285,-6.994482 -6.708798 0.6561956,-6.680368 -5.993368 0.8745175,-6.390482 -5.555143 1.100575,-7.353957 -5.10199 0.3412303,-7.2068 -4.066503 0.4456068,-7.143277 -3.398065 0.5770711,-7.089357 -2.82135 0.6941242,-7.677529 -4.899023 0.3997865,-7.539153 -3.744068 0.4454528,-7.463499 -2.983308 0.6242199,-7.411469 -2.327632 0.7934331,-8.000445 -4.948173 0.4930125,-7.898499 -3.839408 0.5475351,-7.818595 -3.146155 0.693112,-7.743282 -2.552694 0.8256823,-8.345247 -5.205902 0.6171259,-8.364258 -4.361579 0.7206557,-8.34988 -3.813047 0.8452969,-8.310528 -3.269666 0.9560221,0.85000,0 0 0 0 0 0 False
-1.792429 -7.617185 0.3310601,-2.369745 -7.385746 0.5627709,-2.879162 -6.66122 0.6617511,-3.208645 -5.951704 0.7767754,-3.555222 -5.508974 0.9238067,-2.538814 -5.199598 0.4214956,-2.759622 -4.222838 0.5746464,-2.88773 -3.61434 0.6832842,-2.993239 -3.029974 0.7806458,-2.20472 -4.963562 0.4712499,-2.33402 -3.842634 0.6672138,-2.432088 -3.087968 0.8671277,-2.508253 -2.386015 1.035404,-1.876431 -4.955427 0.5826176,-1.962528 -3.886364 0.7825862,-2.060517 -3.189312 0.9839914,-2.136527 -2.555376 1.147491,-1.532259 -5.142897 0.708642,-1.491934 -4.269043 0.8778005,-1.48917 -3.697117 1.058143,-1.494216 -3.134647 1.218512,-8.09157 -7.720272 0.2562412,-7.512465 -7.419723 0.4790164,-7.026148 -6.709823 0.6360142,-6.712778 -5.998783 0.848998,-6.427002 -5.556395 1.067694,-7.378054 -5.123702 0.3146293,-7.22567 -4.086998 0.4334959,-7.16156 -3.421678 0.5805324,-7.115697 -2.842453 0.7077052,-7.698351 -4.920854 0.3708396,-7.556157 -3.761568 0.4259146,-7.478681 -2.997942 0.6101997,-7.430582 -2.332227 0.7852699,-8.018743 -4.969192 0.4643984,-7.919102 -3.860252 0.5288123,-7.839253 -3.169066 0.6792198,-7.77063 -2.571002 0.8175058,-8.361956 -5.226625 0.5892968,-8.382264 -4.388191 0.7005801,-8.369637 -3.845665 0.831553,-8.335976 -3.306211 0.9465628,0.88333,0 0 0 0 0 0 False
-1.792429 -7.617185 0.3310601,-2.369745 -7.385746 0.5627709,-2.879162 -6.66122 0.6617511,-3.208645 -5.951704 0.7767754,-3.555222 -5.508974 0.9238067,-2.538814 -5.199598 0.4214956,-2.759622 -4.222838 0.5746464,-2.88773 -3.61434 0.6832842,-2.993239 -3.029974 0.7806458,-2.20472 -4.963562 0.4712499,-2.33402 -3.842634 0.6672138,-2.432088 -3.087968 0.8671277,-2.508253 -2.386015 1.035404,-1.876431 -4.955427 0.5826176,-1.962528 -3.886364 0.7825862,-2.060517 -3.189312 0.9839914,-2.136527 -2.555376 1.147491,-1.532259 -5.142897 0.708642,-1.491934 -4.269043 0.8778005,-1.48917 -3.697117 1.058143,-1.494216 -3.134647 1.218512,-8.09157 -7.720272 0.2562412,-7.512465 -7.419723 0.4790164,-7.026148 -6.709823 0.6360142,-6.712778 -5.998783 0.848998,-6.427002 -5.556395 1.067694,-7.378054 -5.123702 0.3146293,-7.22567 -4.086998 0.4334959,-7.16156 -3.421678 0.5805324,-7.115697 -2.842453 0.7077052,-7.698351 -4.920854 0.3708396,-7.556157 -3.761568 0.4259146,-7.478681 -2.997942 0.6101997,-7.430582 -2.332227 0.7852699,-8.018743 -4.969192 0.4643984,-7.919102 -3.860252 0.5288123,-7.839253 -3.169066 0.6792198,-7.77063 -2.571002 0.8175058,-8.361956 -5.226625 0.5892968,-8.382264 -4.388191 0.7005801,-8.369637 -3.845665 0.831553,-8.335976 -3.306211 0.9465628,0.91667,0 0 0 0 0 0 False
-1.754658 -7.642343 0.3247731,-2.328581 -7.398302 0.5781625,-2.839002 -6.687833 0.693506,-3.178251 -5.980859 0.8165509,-3.527145 -5.531325 0.9803786,-2.51338 -5.233222 0.4415704,-2.738574 -4.243062 0.5926054,-2.862093 -3.630755 0.7081218,-2.964007 -3.044302 0.8186672,-2.179244 -4.993079 0.4762177,-2.315951 -3.85909 0.662855,-2.410529 -3.097025 0.8615646,-2.481174 -2.393955 1.037284,-1.848558 -4.978712 0.5726501,-1.938601 -3.894287 0.7512441,-2.037788 -3.189381 0.9513303,-2.11445 -2.552318 1.11959,-1.500019 -5.162253 0.6852444,-1.463441 -4.265994 0.8454302,-1.466701 -3.689332 1.025266,-1.479029 -3.129038 1.189123,-8.115832 -7.748933 0.2937474,-7.540482 -7.425706 0.4998606,-7.061804 -6.719921 0.6520613,-6.746377 -6.013301 0.8612329,-6.464749 -5.562232 1.075493,-7.412504 -5.127386 0.3462565,-7.272241 -4.099172 0.4696124,-7.214944 -3.446207 0.6225814,-7.175497 -2.871444 0.7476487,-7.728043 -4.938056 0.4113852,-7.608251 -3.781745 0.4813489,-7.539454 -3.020187 0.6736326,-7.49698 -2.350511 0.8548005,-8.045705 -4.998505 0.5138555,-7.969095 -3.903833 0.5787766,-7.896654 -3.218598 0.7306907,-7.836351 -2.621852 0.8681554,-8.387409 -5.266828 0.6454884,-8.418506 -4.442922 0.7582763,-8.41431 -3.89872 0.8902277,-8.3925 -3.36256 1.000786,0.95000,0 0 0 0 0 0 False
-1.754658 -7.642343 0.3247731,-2.328581 -7.398302 0.5781625,-2.839002 -6.687833 0.693506,-3.178251 -5.980859 0.8165509,-3.527145 -5.531325 0.9803786,-2.51338 -5.233222 0.4415704,-2.738574 -4.243062 0.5926054,-2.862093 -3.630755 0.7081218,-2.964007 -3.044302 0.8186672,-2.179244 -4.993079 0.4762177,-2.315951 -3.85909 0.662855,-2.410529 -3.097025 0.8615646,-2.481174 -2.393955 1.037284,-1.848558 -4.978712 0.5726501,-1.938601 -3.894287 0.7512441,-2.037788 -3.189381 0.9513303,-2.11445 -2.552318 1.11959,-1.500019 -5.162253 0.6852444,-1.463441 -4.265994 0.8454302,-1.466701 -3.689332 1.025266,-1.479029 -3.129038 1.189123,-8.115832 -7.748933 0.2937474,-7.540482 -7.425706 0.4998606,-7.061804 -6.719921 0.6520613,-6.746377 -6.013301 0.8612329,-6.464749 -5.562232 1.075493,-7.412504 -5.127386 0.3462565,-7.272241 -4.099172 0.4696124,-7.214944 -3.446207 0.6225814,-7.175497 -2.871444 0.7476487,-7.728043 -4.938056 0.4113852,-7.608251 -3.781745 0.4813489,-7.539454 -3.020187 0.6736326,-7.49698 -2.350511 0.8548005,-8.045705 -4.998505 0.5138555,-7.969095 -3.903833 0.5787766,-7.896654 -3.218598 0.7306907,-7.836351 -2.621852 0.8681554,-8.387409 -5.266828 0.6454884,-8.418506 -4.442922 0.7582763,-8.41431 -3.89872 0.8902277,-8.3925 -3.36256 1.000786,0.98333,0 0 0 0 0 0 False
-1.725486 -7.651457 0.3301496,-2.290203 -7.403066 0.6013488,-2.79234 -6.700845 0.7373708,-3.130261 -5.996715 0.8819695,-3.479535 -5.537014 1.070228,-2.467632 -5.232397 0.4744887,-2.695229 -4.239007 0.6225102,-2.81162 -3.628009 0.7323226,-2.899045 -3.036793 0.8409463,-2.137571 -5.000009 0.5034394,-2.279704 -3.849929 0.6869846,-2.368377 -3.092792 0.8778345,-2.427977 -2.402557 1.046716,-1.809881 -4.993358 0.5955453,-1.901536 -3.894298 0.7724259,-2.005318 -3.179691 0.9696,-2.084238 -2.537141 1.139865,-1.463337 -5.185922 0.7065384,-1.427231 -4.287233 0.8696048,-1.435796 -3.71245 1.053313,-1.451706 -3.164488 1.223945,-8.149299 -7.788417 0.3379026,-7.581429 -7.44802 0.5483872,-7.104632 -6.730822 0.7071484,-6.791577 -6.030623 0.9247159,-6.5041 -5.58088 1.145348,-7.457527 -5.149549 0.4194352,-7.332705 -4.12062 0.5463666,-7.284628 -3.46619 0.697,-7.248331 -2.889006 0.8226039,-7.777395 -4.964061 0.4849142,-7.661077 -3.809233 0.5814689,-7.59554 -3.045325 0.7863845,-7.549888 -2.369308 0.9804118,-8.10028 -5.026056 0.5870613,-8.023161 -3.92563 0.6728164,-7.954634 -3.216196 0.8358939,-7.89054 -2.592674 0.9829608,-8.449131 -5.295799 0.7123989,-8.480489 -4.46301 0.8358486,-8.476948 -3.91042 0.9712296,-8.451572 -3.365942 1.085945,1.01667,0 0 0 0 0 0 False
-1.725486 -7.651457 0.3301496,-2.290203 -7.403066 0.6013488,-2.79234 -6.700845 0.7373708,-3.130261 -5.996715 0.8819695,-3.479535 -5.537014 1.070228,-2.467632 -5.232397 0.4744887,-2.695229 -4.239007 0.6225102,-2.81162 -3.628009 0.7323226,-2.899045 -3.036793 0.8409463,-2.137571 -5.000009 0.5034394,-2.279704 -3.849929 0.6869846,-2.368377 -3.092792 0.8778345,-2.427977 -2.402557 1.046716,-1.809881 -4.993358 0.5955453,-1.901536 -3.894298 0.7724259,-2.005318 -3.179691 0.9696,-2.084238 -2.537141 1.139865,-1.463337 -5.185922 0.7065384,-1.427231 -4.287233 0.8696048,-1.435796 -3.71245 1.053313,-1.451706 -3.164488 1.223945,-8.149299 -7.788417 0.3379026,-7.581429 -7.44802 0.5483872,-7.104632 -6.730822 0.7071484,-6.791577 -6.030623 0.9247159,-6.5041 -5.58088 1.145348,-7.457527 -5.149549 0.4194352,-7.332705 -4.12062 0.5463666,-7.284628 -3.46619 0.697,-7.248331 -2.889006 0.8226039,-7.777395 -4.964061 0.4849142,-7.661077 -3.809233 0.5814689,-7.59554 -3.045325 0.7863845,-7.549888 -2.369308 0.9804118,-8.10028 -5.026056 0.5870613,-8.023161 -3.92563 0.6728164,-7.954634 -3.216196 0.8358939,-7.89054 -2.592674 0.9829608,-8.449131 -5.295799 0.7123989,-8.480489 -4.46301 0.8358486,-8.476948 -3.91042 0.9712296,-8.451572 -3.365942 1.085945,1.05000,0 0 0 0 0 0 False
-1.677999 -7.639116 0.3439313,-2.250463 -7.399791 0.6386638,-2.754097 -6.699985 0.7832402,-3.082661 -5.982152 0.9272324,-3.432104 -5.524507 1.113488,-2.442374 -5.224783 0.5372838,-2.662738 -4.221862 0.6955822,-2.773772 -3.607405 0.8084259,-2.86006 -3.012674 0.9199638,-2.103213 -4.98818 0.5512226,-2.240399 -3.835019 0.7509669,-2.322132 -3.082812 0.9467148,-2.378471 -2.39127 1.122517,-1.768639 -4.982215 0.6299303,-1.860274 -3.884067 0.8230824,-1.957742 -3.178326 1.029047,-2.033026 -2.535831 1.202963,-1.416915 -5.177328 0.7277793,-1.381866 -4.277577 0.9024684,-1.381571 -3.708557 1.092893,-1.385781 -3.156494 1.271649,-8.186758 -7.799448 0.3500748,-7.613746 -7.455385 0.5552886,-7.135359 -6.734924 0.7067937,-6.819026 -6.026126 0.9208391,-6.530782 -5.579098 1.141451,-7.498437 -5.154733 0.3922724,-7.355036 -4.130979 0.5084194,-7.303503 -3.469575 0.6610259,-7.271181 -2.888177 0.7868972,-7.819515 -4.969244 0.459365,-7.699476 -3.806045 0.5162601,-7.642982 -3.03293 0.7107694,-7.614088 -2.359994 0.8966204,-8.141664 -5.038735 0.5662709,-8.066857 -3.938317 0.6232899,-8.005301 -3.233112 0.7786736,-7.952028 -2.619151 0.920301,-8.489143 -5.314565 0.7010398,-8.519102 -4.471296 0.8074685,-8.515659 -3.923404 0.9371908,-8.489091 -3.383871 1.047519,1.08333,0 0 0 0 0 0 False
-1.677999 -7.639116 0.3439313,-2.250463 -7.399791 0.6386638,-2.754097 -6.699985 0.7832402,-3.082661 -5.982152 0.9272324,-3.432104 -5.524507 1.113488,-2.442374 -5.224783 0.5372838,-2.662738 -4.221862 0.6955822,-2.773772 -3.607405 0.8084259,-2.86006 -3.012674 0.9199638,-2.103213 -4.98818 0.5512226,-2.240399 -3.835019 0.7509669,-2.322132 -3.082812 0.9467148,-2.378471 -2.39127 1.122517,-1.768639 -4.982215 0.6299303,-1.860274 -3.884067 0.8230824,-1.957742 -3.178326 1.029047,-2.033026 -2.535831 1.202963,-1.416915 -5.177328 0.7277793,-1.381866 -4.277577 0.9024684,-1.381571 -3.708557 1.092893,-1.385781 -3.156494 1.271649,-8.186758 -7.799448 0.3500748,-7.613746 -7.455385 0.5552886,-7.135359 -6.734924 0.7067937,-6.819026 -6.026126 0.9208391,-6.530782 -5.579098 1.141451,-7.498437 -5.154733 0.3922724,-7.355036 -4.130979 0.5084194,-7.303503 -3.469575 0.6610259,-7.271181 -2.888177 0.7868972,-7.819515 -4.969244 0.459365,-7.699476 -3.806045 0.5162601,-7.642982 -3.03293 0.7107694,-7.614088 -2.359994 0.8966204,-8.141664 -5.038735 0.5662709,-8.066857 -3.938317 0.6232899,-8.005301 -3.233112 0.7786736,-7.952028 -2.619151 0.920301,-8.489143 -5.314565 0.7010398,-8.519102 -4.471296 0.8074685,-8.515659 -3.923404 0.9371908,-8.489091 -3.383871 1.047519,1.11667,0 0 0 0 0 0 False
-1.665833 -7.643272 0.4119431,-2.242028 -7.384393 0.6768237,-2.744413 -6.667846 0.8057967,-3.074352 -5.949817 0.9490869,-3.413689 -5.482834 1.127301,-2.427873 -5.202343 0.5694357,-2.656799 -4.217315 0.7326509,-2.772837 -3.604995 0.8505476,-2.859499 -3.012808 0.9572811,-2.089866 -4.971191 0.6023294,-2.224058 -3.832323 0.8047429,-2.310225 -3.079463 1.004665,-2.37294 -2.385418 1.175757,-1.756494 -4.973938 0.6979967,-1.845092 -3.885945 0.8998793,-1.942871 -3.181992 1.100882,-2.01839 -2.538932 1.265671,-1.403916 -5.176845 0.8126233,-1.364028 -4.29582 0.9870191,-1.35947 -3.728227 1.169203,-1.36148 -3.172222 1.33609,-8.209178 -7.831798 0.4372391,-7.632821 -7.501174 0.6729389,-7.155581 -6.771759 0.835533,-6.840497 -6.059781 1.05962,-6.548407 -5.612177 1.29718,-7.516408 -5.162795 0.4684336,-7.374394 -4.135583 0.5780511,-7.324006 -3.475989 0.7264717,-7.292449 -2.899194 0.8463368,-7.838525 -4.976232 0.5280119,-7.725965 -3.832417 0.5650414,-7.673035 -3.074262 0.7509464,-7.645042 -2.403958 0.9278001,-8.161873 -5.042854 0.6336626,-8.091249 -3.951191 0.689252,-8.034541 -3.255939 0.8490006,-7.9834 -2.640168 0.9908568,-8.51023 -5.31825 0.7712383,-8.546786 -4.486963 0.8754487,-8.556266 -3.945727 1.002105,-8.540894 -3.397714 1.115093,1.15000,0 0 0 0 0 0 False
-1.665833 -7.643272 0.4119431,-2.242028 -7.384393 0.6768237,-2.744413 -6.667846 0.8057967,-3.074352 -5.949817 0.9490869,-3.413689 -5.482834 1.127301,-2.427873 -5.202343 0.5694357,-2.656799 -4.217315 0.7326509,-2.772837 -3.604995 0.8505476,-2.859499 -3.012808 0.9572811,-2.089866 -4.971191 0.6023294,-2.224058 -3.832323 0.8047429,-2.310225 -3.079463 1.004665,-2.37294 -2.385418 1.175757,-1.756494 -4.973938 0.6979967,-1.845092 -3.885945 0.8998793,-1.942871 -3.181992 1.100882,-2.01839 -2.538932 1.265671,-1.403916 -5.176845 0.8126233,-1.364028 -4.29582 0.9870191,-1.35947 -3.728227 1.169203,-1.36148 -3.172222 1.33609,-8.209178 -7.831798 0.4372391,-7.632821 -7.501174 0.6729389,-7.155581 -6.771759 0.835533,-6.840497 -6.059781 1.05962,-6.548407 -5.612177 1.29718,-7.516408 -5.162795 0.4684336,-7.374394 -4.135583 0.5780511,-7.324006 -3.475989 0.7264717,-7.292449 -2.899194 0.8463368,-7.838525 -4.976232 0.5280119,-7.725965 -3.832417 0.5650414,-7.673035 -3.074262 0.7509464,-7.645042 -2.403958 0.9278001,-8.161873 -5.042854 0.6336626,-8.091249 -3.951191 0.689252,-8.034541 -3.255939 0.8490006,-7.9834 -2.640168 0.9908568,-8.51023 -5.31825 0.7712383,-8.546786 -4.486963 0.8754487,-8.556266 -3.945727 1.002105,-8.540894 -3.397714 1.115093,1.18333,0 0 0 0 0 0 False
-1.676651 -7.630513 0.420105,-2.260121 -7.371685 0.6966604,-2.759845 -6.656116 0.8282719,-3.076372 -5.934352 0.9669989,-3.405588 -5.46116 1.131027,-2.43021 -5.19402 0.6202608,-2.653923 -4.202873 0.7891124,-2.773418 -3.58595 0.9083633,-2.871038 -2.996589 1.016559,-2.091781 -4.95746 0.645943,-2.224092 -3.821224 0.8697146,-2.31661 -3.074931 1.069003,-2.389474 -2.378956 1.242844,-1.763344 -4.957117 0.7332505,-1.848006 -3.879483 0.9543384,-1.947365 -3.178921 1.166601,-2.026556 -2.529249 1.339773,-1.421166 -5.153064 0.8379401,-1.378568 -4.282468 1.025622,-1.372675 -3.707454 1.218323,-1.373225 -3.141531 1.392819,-8.202079 -7.833822 0.3272381,-7.642983 -7.51264 0.5756052,-7.164865 -6.790163 0.7597808,-6.853219 -6.068401 1.003051,-6.557497 -5.607619 1.262649,-7.5424 -5.209597 0.4244411,-7.382189 -4.177869 0.5577494,-7.325763 -3.514492 0.7170261,-7.291089 -2.929618 0.849331,-7.859978 -5.009698 0.4914445,-7.721258 -3.844055 0.5647596,-7.658841 -3.075532 0.7627448,-7.625378 -2.399518 0.9457465,-8.177631 -5.062301 0.6006426,-8.076852 -3.952384 0.692968,-8.01063 -3.236989 0.866723,-7.955057 -2.612907 1.022939,-8.524261 -5.320468 0.7401928,-8.539205 -4.455411 0.8677898,-8.536561 -3.896659 1.006497,-8.51174 -3.339984 1.129164,1.21667,0 0 0 0 0 0 False
-1.676651 -7.630513 0.420105,-2.260121 -7.371685 0.6966604,-2.759845 -6.656116 0.8282719,-3.076372 -5.934352 0.9669989,-3.405588 -5.46116 1.131027,-2.43021 -5.19402 0.6202608,-2.653923 -4.202873 0.7891124,-2.773418 -3.58595 0.9083633,-2.871038 -2.996589 1.016559,-2.091781 -4.95746 0.645943,-2.224092 -3.821224 0.8697146,-2.31661 -3.074931 1.069003,-2.389474 -2.378956 1.242844,-1.763344 -4.957117 0.7332505,-1.848006 -3.879483 0.9543384,-1.947365 -3.178921 1.166601,-2.026556 -2.529249 1.339773,-1.421166 -5.153064 0.8379401,-1.378568 -4.282468 1.025622,-1.372675 -3.707454 1.218323,-1.373225 -3.141531 1.392819,-8.202079 -7.833822 0.3272381,-7.642983 -7.51264 0.5756052,-7.164865 -6.790163 0.7597808,-6.853219 -6.068401 1.003051,-6.557497 -5.607619 1.262649,-7.5424 -5.209597 0.4244411,-7.382189 -4.177869 0.5577494,-7.325763 -3.514492 0.7170261,-7.291089 -2.929618 0.849331,-7.859978 -5.009698 0.4914445,-7.721258 -3.844055 0.5647596,-7.658841 -3.075532 0.7627448,-7.625378 -2.399518 0.9457465,-8.177631 -5.062301 0.6006426,-8.076852 -3.952384 0.692968,-8.01063 -3.236989 0.866723,-7.955057 -2.612907 1.022939,-8.524261 -5.320468 0.7401928,-8.539205 -4.455411 0.8677898,-8.536561 -3.896659 1.006497,-8.51174 -3.339984 1.129164,1.25000,0 0 0 0 0 0 False
-1.687174 -7.612623 0.4315008,-2.269963 -7.358013 0.6855063,-2.768701 -6.635982 0.8037835,-3.085434 -5.911613 0.9347272,-3.416813 -5.440324 1.091571,-2.438258 -5.170915 0.579313,-2.661406 -4.183044 0.7368299,-2.782493 -3.5662 0.8503329,-2.878441 -2.979622 0.954345,-2.100009 -4.93293 0.6187441,-2.230872 -3.803292 0.8292925,-2.327556 -3.056006 1.025465,-2.399713 -2.359233 1.199324,-1.770602 -4.933183 0.7206514,-1.854875 -3.85418 0.9294065,-1.957372 -3.15328 1.136639,-2.035836 -2.505293 1.3069,-1.42666 -5.131073 0.8396928,-1.384269 -4.256452 1.019257,-1.383515 -3.679776 1.21019,-1.387839 -3.113941 1.384656,-8.20534 -7.817501 0.2753958,-7.635938 -7.49109 0.5057414,-7.155554 -6.764874 0.6820462,-6.837206 -6.054307 0.9201683,-6.537588 -5.602724 1.175569,-7.544765 -5.196995 0.3451074,-7.386839 -4.159545 0.4636053,-7.328845 -3.496503 0.6132964,-7.29247 -2.912241 0.7340596,-7.862369 -5.007267 0.4185415,-7.731089 -3.824859 0.4746388,-7.670478 -3.058022 0.6608462,-7.636698 -2.390711 0.8290677,-8.178815 -5.060367 0.5333998,-8.085727 -3.927779 0.6108778,-8.018847 -3.20852 0.7791148,-7.960615 -2.584736 0.9236473,-8.524976 -5.315235 0.6803107,-8.54705 -4.438522 0.7991403,-8.544996 -3.8736 0.9341371,-8.522832 -3.313686 1.047674,1.28333,0 0 0 0 0 0 False
-1.687174 -7.612623 0.4315008,-2.269963 -7.358013 0.6855063,-2.768701 -6.635982 0.8037835,-3.085434 -5.911613 0.9347272,-3.416813 -5.440324 1.091571,-2.438258 -5.170915 0.579313,-2.661406 -4.183044 0.7368299,-2.782493 -3.5662 0.8503329,-2.878441 -2.979622 0.954345,-2.100009 -4.93293 0.6187441,-2.230872 -3.803292 0.8292925,-2.327556 -3.056006 1.025465,-2.399713 -2.359233 1.199324,-1.770602 -4.933183 0.7206514,-1.854875 -3.85418 0.9294065,-1.957372 -3.15328 1.136639,-2.035836 -2.505293 1.3069,-1.42666 -5.131073 0.8396928,-1.384269 -4.256452 1.019257,-1.383515 -3.679776 1.21019,-1.387839 -3.113941 1.384656,-8.20534 -7.817501 0.2753958,-7.635938 -7.49109 0.5057414,-7.155554 -6.764874 0.6820462,-6.837206 -6.054307 0.9201683,-6.537588 -5.602724 1.175569,-7.544765 -5.196995 0.3451074,-7.386839 -4.159545 0.4636053,-7.328845 -3.496503 0.6132964,-7.29247 -2.912241 0.7340596,-7.862369 -5.007267 0.4185415,-7.731089 -3.824859 0.4746388,-7.670478 -3.058022 0.6608462,-7.636698 -2.390711 0.8290677,-8.178815 -5.060367 0.5333998,-8.085727 -3.927779 0.6108778,-8.018847 -3.20852 0.7791148,-7.960615 -2.584736 0.9236473,-8.524976 -5.315235 0.6803107,-8.54705 -4.438522 0.7991403,-8.544996 -3.8736 0.9341371,-8.522832 -3.313686 1.047674,1.31667,0 0 0 0 0 0 False
-1.69531 -7.620409 0.4481971,-2.278085 -7.369781 0.6961221,-2.779313 -6.648057 0.8159518,-3.097119 -5.924422 0.949658,-3.429435 -5.447163 1.108367,-2.446579 -5.172754 0.598173,-2.670662 -4.186343 0.7605708,-2.792205 -3.570161 0.8787675,-2.887328 -2.982399 0.9836415,-2.106404 -4.936203 0.6439127,-2.231184 -3.802053 0.8616713,-2.325939 -3.050889 1.064173,-2.398959 -2.354751 1.242644,-1.775617 -4.94042 0.7513703,-1.855263 -3.857503 0.9681186,-1.955848 -3.156144 1.185049,-2.033742 -2.508131 1.363858,-1.431755 -5.147035 0.8733646,-1.386673 -4.270729 1.056496,-1.384665 -3.693262 1.248608,-1.39114 -3.123403 1.425061,-8.19939 -7.809877 0.3329094,-7.63146 -7.486217 0.5684512,-7.152561 -6.764125 0.7429535,-6.837666 -6.050737 0.9771456,-6.543494 -5.599522 1.227333,-7.539129 -5.175121 0.3940103,-7.383203 -4.154634 0.5106,-7.326359 -3.499849 0.6593637,-7.289391 -2.921659 0.7832587,-7.856408 -4.98253 0.4649381,-7.726952 -3.818093 0.515029,-7.66782 -3.057678 0.69908,-7.634178 -2.392035 0.8698179,-8.172175 -5.039779 0.5784793,-8.08136 -3.926092 0.6515462,-8.016462 -3.210344 0.8198873,-7.959904 -2.585583 0.970134,-8.516856 -5.304904 0.7246045,-8.540178 -4.442192 0.8402376,-8.540147 -3.886837 0.9753226,-8.518815 -3.333454 1.092088,1.35000,0 0 0 0 0 0 False
-1.695561 -7.651306 0.4058485,-2.275841 -7.391197 0.6457982,-2.773306 -6.66819 0.7602546,-3.093978 -5.95477 0.8916404,-3.43379 -5.494731 1.049525,-2.443182 -5.209619 0.534995,-2.667389 -4.218301 0.7046746,-2.789444 -3.598068 0.8320941,-2.882459 -3.007502 0.943095,-2.108815 -4.978624 0.5858912,-2.233236 -3.839399 0.8081601,-2.32422 -3.085897 1.01745,-2.394542 -2.386739 1.194986,-1.781409 -4.982383 0.7009798,-1.861479 -3.892372 0.9191519,-1.957411 -3.189407 1.135841,-2.032179 -2.544854 1.309937,-1.439701 -5.187528 0.8312823,-1.393486 -4.306158 1.017827,-1.385732 -3.730546 1.20994,-1.384253 -3.166688 1.37988,-8.191895 -7.805072 0.3197422,-7.627662 -7.468243 0.555537,-7.150525 -6.751474 0.7306066,-6.833365 -6.04273 0.9648319,-6.540558 -5.595155 1.214616,-7.537771 -5.172843 0.4041573,-7.38475 -4.152784 0.532105,-7.328257 -3.49955 0.6885083,-7.292393 -2.922874 0.8152804,-7.855569 -4.981899 0.4749098,-7.727571 -3.817905 0.5369743,-7.671053 -3.055915 0.726029,-7.640747 -2.389809 0.8987375,-8.171996 -5.043476 0.5874181,-8.085038 -3.931503 0.6693481,-8.025474 -3.212383 0.8378769,-7.973047 -2.587007 0.9877146,-8.516254 -5.312749 0.7305275,-8.544774 -4.454777 0.8494271,-8.548552 -3.897186 0.9831743,-8.528344 -3.340826 1.097288,1.38333,0 0 0 0 0 0 False
-1.695561 -7.651306 0.4058485,-2.275841 -7.391197 0.6457982,-2.773306 -6.66819 0.7602546,-3.093978 -5.95477 0.8916404,-3.43379 -5.494731 1.049525,-2.443182 -5.209619 0.534995,-2.667389 -4.218301 0.7046746,-2.789444 -3.598068 0.8320941,-2.882459 -3.007502 0.943095,-2.108815 -4.978624 0.5858912,-2.233236 -3.839399 0.8081601,-2.32422 -3.085897 1.01745,-2.394542 -2.386739 1.194986,-1.781409 -4.982383 0.7009798,-1.861479 -3.892372 0.9191519,-1.957411 -3.189407 1.135841,-2.032179 -2.544854 1.309937,-1.439701 -5.187528 0.8312823,-1.393486 -4.306158 1.017827,-1.385732 -3.730546 1.20994,-1.384253 -3.166688 1.37988,-8.191895 -7.805072 0.3197422,-7.627662 -7.468243 0.555537,-7.150525 -6.751474 0.7306066,-6.833365 -6.04273 0.9648319,-6.540558 -5.595155 1.214616,-7.537771 -5.172843 0.4041573,-7.38475 -4.152784 0.532105,-7.328257 -3.49955 0.6885083,-7.292393 -2.922874 0.8152804,-7.855569 -4.981899 0.4749098,-7.727571 -3.817905 0.5369743,-7.671053 -3.055915 0.726029,-7.640747 -2.389809 0.8987375,-8.171996 -5.043476 0.5874181,-8.085038 -3.931503 0.6693481,-8.025474 -3.212383 0.8378769,-7.973047 -2.587007 0.9877146,-8.516254 -5.312749 0.7305275,-8.544774 -4.454777 0.8494271,-8.548552 -3.897186 0.9831743,-8.528344 -3.340826 1.097288,1.41667,0 0 0 0 0 0 False
-1.685789 -7.688573 0.4463641,-2.263671 -7.433984 0.6925757,-2.765565 -6.694423 0.806423,-3.088315 -5.970298 0.9359752,-3.42881 -5.509403 1.098863,-2.442177 -5.241045 0.5722631,-2.667323 -4.253765 0.7365525,-2.788218 -3.631116 0.8564084,-2.882026 -3.036163 0.9651066,-2.108305 -5.005236 0.6212261,-2.236867 -3.876389 0.8331923,-2.327978 -3.127401 1.032395,-2.39839 -2.433839 1.202238,-1.779851 -5.004156 0.7365134,-1.86808 -3.921495 0.945995,-1.966853 -3.21999 1.153675,-2.044801 -2.572959 1.322689,-1.434082 -5.204383 0.8684861,-1.39277 -4.328037 1.049858,-1.386648 -3.751319 1.236972,-1.385614 -3.185703 1.408012,-8.202563 -7.811992 0.3243287,-7.632411 -7.477165 0.5489265,-7.158247 -6.759849 0.7184019,-6.846756 -6.053155 0.9498417,-6.554454 -5.603307 1.196882,-7.542159 -5.176698 0.380902,-7.395768 -4.155216 0.5023159,-7.34137 -3.501234 0.6535437,-7.308044 -2.926895 0.7760983,-7.860141 -4.986977 0.4546393,-7.735449 -3.824253 0.5113866,-7.680723 -3.066893 0.6964576,-7.65111 -2.400226 0.8683264,-8.178578 -5.057094 0.5717803,-8.098054 -3.944519 0.644818,-8.041945 -3.227525 0.8082444,-7.991158 -2.59718 0.9580737,-8.523461 -5.336858 0.7188584,-8.563655 -4.483699 0.8342446,-8.568868 -3.925345 0.9721674,-8.547441 -3.363266 1.090318,1.45000,0 0 0 0 0 0 False
-1.685789 -7.688573 0.4463641,-2.263671 -7.433984 0.6925757,-2.765565 -6.694423 0.806423,-3.088315 -5.970298 0.9359752,-3.42881 -5.509403 1.098863,-2.442177 -5.241045 0.5722631,-2.667323 -4.253765 0.7365525,-2.788218 -3.631116 0.8564084,-2.882026 -3.036163 0.9651066,-2.108305 -5.005236 0.6212261,-2.236867 -3.876389 0.8331923,-2.327978 -3.127401 1.032395,-2.39839 -2.433839 1.202238,-1.779851 -5.004156 0.7365134,-1.86808 -3.921495 0.945995,-1.966853 -3.21999 1.153675,-2.044801 -2.572959 1.322689,-1.434082 -5.204383 0.8684861,-1.39277 -4.328037 1.049858,-1.386648 -3.751319 1.236972,-1.385614 -3.185703 1.408012,-8.202563 -7.811992 0.3243287,-7.632411 -7.477165 0.5489265,-7.158247 -6.759849 0.7184019,-6.846756 -6.053155 0.9498417,-6.554454 -5.603307 1.196882,-7.542159 -5.176698 0.380902,-7.395768 -4.155216 0.5023159,-7.34137 -3.501234 0.6535437,-7.308044 -2.926895 0.7760983,-7.860141 -4.986977 0.4546393,-7.735449 -3.824253 0.5113866,-7.680723 -3.066893 0.6964576,-7.65111 -2.400226 0.8683264,-8.178578 -5.057094 0.5717803,-8.098054 -3.944519 0.644818,-8.041945 -3.227525 0.8082444,-7.991158 -2.59718 0.9580737,-8.523461 -5.336858 0.7188584,-8.563655 -4.483699 0.8342446,-8.568868 -3.925345 0.9721674,-8.547441 -3.363266 1.090318,1.48333,0 0 0 0 0 0 False
-1.666908 -7.68725 0.3918135,-2.253899 -7.419122 0.6438516,-2.756684 -6.710677 0.7623868,-3.073258 -5.992404 0.8957328,-3.408598 -5.513555 1.0637,-2.441166 -5.256483 0.519056,-2.667293 -4.275871 0.6830288,-2.785204 -3.661113 0.8020535,-2.878664 -3.06703 0.9105007,-2.102122 -5.021219 0.5580622,-2.238385 -3.898935 0.7612386,-2.325494 -3.163059 0.9604041,-2.390734 -2.469869 1.132669,-1.77135 -5.014818 0.660862,-1.862162 -3.947644 0.8609641,-1.955999 -3.261593 1.068503,-2.029691 -2.627774 1.237982,-1.422322 -5.200481 0.781449,-1.387165 -4.332102 0.9579874,-1.384077 -3.762663 1.149542,-1.387696 -3.206602 1.31982,-8.207633 -7.819665 0.3633414,-7.637397 -7.490564 0.6024662,-7.161377 -6.769582 0.7774045,-6.852349 -6.053616 1.013306,-6.56387 -5.600449 1.265217,-7.547881 -5.174377 0.4282578,-7.401977 -4.155939 0.5530047,-7.350944 -3.504283 0.7056437,-7.317459 -2.92932 0.8273078,-7.870845 -4.982812 0.495378,-7.751201 -3.821803 0.5504057,-7.698201 -3.059774 0.737286,-7.667853 -2.392325 0.9123181,-8.190726 -5.051855 0.6060255,-8.114985 -3.942913 0.6814867,-8.061439 -3.222475 0.8487188,-8.011074 -2.593084 1.001678,-8.53619 -5.330972 0.7485187,-8.572273 -4.467872 0.8674026,-8.577211 -3.907736 1.006909,-8.554784 -3.353078 1.130445,1.51667,0 0 0 0 0 0 False
-1.666908 -7.68725 0.3918135,-2.253899 -7.419122 0.6438516,-2.756684 -6.710677 0.7623868,-3.073258 -5.992404 0.8957328,-3.408598 -5.513555 1.0637,-2.441166 -5.256483 0.519056,-2.667293 -4.275871 0.6830288,-2.785204 -3.661113 0.8020535,-2.878664 -3.06703 0.9105007,-2.102122 -5.021219 0.5580622,-2.238385 -3.898935 0.7612386,-2.325494 -3.163059 0.9604041,-2.390734 -2.469869 1.132669,-1.77135 -5.014818 0.660862,-1.862162 -3.947644 0.8609641,-1.955999 -3.261593 1.068503,-2.029691 -2.627774 1.237982,-1.422322 -5.200481 0.781449,-1.387165 -4.332102 0.9579874,-1.384077 -3.762663 1.149542,-1.387696 -3.206602 1.31982,-8.207633 -7.819665 0.3633414,-7.637397 -7.490564 0.6024662,-7.161377 -6.769582 0.7774045,-6.852349 -6.053616 1.013306,-6.56387 -5.600449 1.265217,-7.547881 -5.174377 0.4282578,-7.401977 -4.155939 0.5530047,-7.350944 -3.504283 0.7056437,-7.317459 -2.92932 0.8273078,-7.870845 -4.982812 0.495378,-7.751201 -3.821803 0.5504057,-7.698201 -3.059774 0.737286,-7.667853 -2.392325 0.9123181,-8.190726 -5.051855 0.6060255,-8.114985 -3.942913 0.6814867,-8.061439 -3.222475 0.8487188,-8.011074 -2.593084 1.001678,-8.53619 -5.330972 0.7485187,-8.572273 -4.467872 0.8674026,-8.577211 -3.907736 1.006909,-8.554784 -3.353078 1.130445,1.55000,0 0 0 0 0 0 False
-1.66801 -7.697362 0.4115493,-2.255625 -7.422541 0.6455405,-2.75254 -6.694522 0.7501816,-3.065018 -5.963951 0.8732986,-3.392965 -5.474748 1.026609,-2.438262 -5.258922 0.498329,-2.666424 -4.283399 0.6507739,-2.787901 -3.675336 0.7506993,-2.885654 -3.091272 0.8462133,-2.103796 -5.023687 0.5413939,-2.242829 -3.908703 0.7267247,-2.335634 -3.172334 0.9077737,-2.40863 -2.490092 1.06703,-1.775636 -5.015576 0.6479993,-1.861888 -3.954912 0.8333679,-1.956817 -3.267591 1.02673,-2.03627 -2.640439 1.185016,-1.429827 -5.200338 0.7762711,-1.393758 -4.329343 0.9386812,-1.393704 -3.760557 1.124456,-1.403401 -3.212862 1.29004,-8.213023 -7.842756 0.424719,-7.643381 -7.507761 0.665148,-7.170364 -6.780269 0.841282,-6.866055 -6.062273 1.077886,-6.56988 -5.610751 1.332968,-7.552894 -5.177122 0.4573899,-7.402578 -4.15059 0.5604936,-7.349631 -3.492506 0.7059323,-7.311503 -2.911772 0.8221798,-7.88249 -4.985786 0.5125537,-7.767139 -3.827116 0.5494659,-7.718127 -3.078617 0.7261215,-7.686899 -2.42283 0.8907053,-8.205514 -5.048491 0.6129023,-8.133505 -3.948572 0.6637429,-8.086791 -3.243676 0.8160018,-8.037904 -2.63302 0.9540935,-8.55108 -5.317015 0.7476757,-8.583017 -4.458937 0.8452492,-8.586567 -3.902502 0.9738344,-8.561707 -3.357715 1.087173,1.58333,0 0 0 0 0 0 False
-1.66801 -7.697362 0.4115493,-2.255625 -7.422541 0.6455405,-2.75254 -6.694522 0.7501816,-3.065018 -5.963951 0.8732986,-3.392965 -5.474748 1.026609,-2.438262 -5.258922 0.498329,-2.666424 -4.283399 0.6507739,-2.787901 -3.675336 0.7506993,-2.885654 -3.091272 0.8462133,-2.103796 -5.023687 0.5413939,-2.242829 -3.908703 0.7267247,-2.335634 -3.172334 0.9077737,-2.40863 -2.490092 1.06703,-1.775636 -5.015576 0.6479993,-1.861888 -3.954912 0.8333679,-1.956817 -3.267591 1.02673,-2.03627 -2.640439 1.185016,-1.429827 -5.200338 0.7762711,-1.393758 -4.329343 0.9386812,-1.393704 -3.760557 1.124456,-1.403401 -3.212862 1.29004,-8.213023 -7.842756 0.424719,-7.643381 -7.507761 0.665148,-7.170364 -6.780269 0.841282,-6.866055 -6.062273 1.077886,-6.56988 -5.610751 1.332968,-7.552894 -5.177122 0.4573899,-7.402578 -4.15059 0.5604936,-7.349631 -3.492506 0.7059323,-7.311503 -2.911772 0.8221798,-7.88249 -4.985786 0.5125537,-7.767139 -3.827116 0.5494659,-7.718127 -3.078617 0.7261215,-7.686899 -2.42283 0.8907053,-8.205514 -5.048491 0.6129023,-8.133505 -3.948572 0.6637429,-8.086791 -3.243676 0.8160018,-8.037904 -2.63302 0.9540935,-8.55108 -5.317015 0.7476757,-8.583017 -4.458937 0.8452492,-8.586567 -3.902502 0.9738344,-8.561707 -3.357715 1.087173,1.61667,0 0 0 0 0 0 False
-1.66625 -7.697448 0.4092666,-2.258794 -7.413427 0.647689,-2.75936 -6.671875 0.7480823,-3.07478 -5.933782 0.8680078,-3.397363 -5.433935 1.015276,-2.441806 -5.257722 0.4969851,-2.674152 -4.280675 0.6500604,-2.791357 -3.672265 0.7501293,-2.885403 -3.089422 0.8423414,-2.105857 -5.024902 0.535483,-2.2389 -3.912831 0.7154913,-2.32398 -3.185617 0.8958688,-2.389794 -2.510856 1.054492,-1.778862 -5.012895 0.6389223,-1.861172 -3.957769 0.8160865,-1.952672 -3.283298 1.011637,-2.029092 -2.662237 1.17128,-1.436409 -5.188627 0.7620319,-1.402395 -4.322093 0.919287,-1.404247 -3.757987 1.103361,-1.415244 -3.210155 1.263414,-8.227879 -7.862372 0.4504184,-7.657408 -7.516499 0.6866391,-7.176368 -6.79776 0.8554604,-6.865566 -6.081052 1.08473,-6.572372 -5.619684 1.329492,-7.565891 -5.186929 0.4545398,-7.410195 -4.160159 0.5478517,-7.357252 -3.50736 0.688008,-7.323539 -2.932114 0.8020884,-7.895732 -4.997373 0.5055309,-7.775054 -3.844855 0.5265872,-7.730218 -3.106856 0.7005104,-7.70762 -2.467042 0.8625623,-8.21557 -5.055548 0.6031985,-8.141508 -3.970875 0.6403333,-8.095297 -3.279322 0.780255,-8.047948 -2.688412 0.9105059,-8.557212 -5.313875 0.7360978,-8.585811 -4.460025 0.8293468,-8.585845 -3.910705 0.9507867,-8.556704 -3.382632 1.056564,1.65000,0 0 0 0 0 0 False
-1.66625 -7.697448 0.4092666,-2.258794 -7.413427 0.647689,-2.75936 -6.671875 0.7480823,-3.07478 -5.933782 0.8680078,-3.397363 -5.433935 1.015276,-2.441806 -5.257722 0.4969851,-2.674152 -4.280675 0.6500604,-2.791357 -3.672265 0.7501293,-2.885403 -3.089422 0.8423414,-2.105857 -5.024902 0.535483,-2.2389 -3.912831 0.7154913,-2.32398 -3.185617 0.8958688,-2.389794 -2.510856 1.054492,-1.778862 -5.012895 0.6389223,-1.861172 -3.957769 0.8160865,-1.952672 -3.283298 1.011637,-2.029092 -2.662237 1.17128,-1.436409 -5.188627 0.7620319,-1.402395 -4.322093 0.919287,-1.404247 -3.757987 1.103361,-1.415244 -3.210155 1.263414,-8.227879 -7.862372 0.4504184,-7.657408 -7.516499 0.6866391,-7.176368 -6.79776 0.8554604,-6.865566 -6.081052 1.08473,-6.572372 -5.619684 1.329492,-7.565891 -5.186929 0.4545398,-7.410195 -4.160159 0.5478517,-7.357252 -3.50736 0.688008,-7.323539 -2.932114 0.8020884,-7.895732 -4.997373 0.5055309,-7.775054 -3.844855 0.5265872,-7.730218 -3.106856 0.7005104,-7.70762 -2.467042 0.8625623,-8.21557 -5.055548 0.6031985,-8.141508 -3.970875 0.6403333,-8.095297 -3.279322 0.780255,-8.047948 -2.688412 0.9105059,-8.557212 -5.313875 0.7360978,-8.585811 -4.460025 0.8293468,-8.585845 -3.910705 0.9507867,-8.556704 -3.382632 1.056564,1.68333,0 0 0 0 0 0 False
-1.684732 -7.720918 0.4284483,-2.267881 -7.43476 0.6762214,-2.763793 -6.694553 0.789827,-3.078142 -5.956694 0.9213502,-3.4 -5.438151 1.083965,-2.460679 -5.278619 0.5318539,-2.696125 -4.303783 0.6943633,-2.811987 -3.687478 0.7968109,-2.900142 -3.097852 0.8937494,-2.124341 -5.043597 0.5704799,-2.261308 -3.930318 0.7483265,-2.346371 -3.195612 0.9189126,-2.404391 -2.529952 1.064114,-1.797734 -5.033171 0.6737336,-1.875593 -3.964254 0.8459136,-1.961217 -3.269538 1.045336,-2.02944 -2.636396 1.206043,-1.454279 -5.21434 0.7972201,-1.425661 -4.332172 0.951322,-1.433508 -3.756036 1.138798,-1.449383 -3.205251 1.300406,-8.23758 -7.876636 0.4830281,-7.656451 -7.537658 0.723422,-7.178005 -6.803446 0.8994585,-6.876878 -6.073444 1.137404,-6.580184 -5.605716 1.390246,-7.566157 -5.193801 0.4892667,-7.416484 -4.17279 0.5792319,-7.36928 -3.523076 0.7116932,-7.340662 -2.952001 0.8166322,-7.897816 -5.003168 0.5393609,-7.78371 -3.855662 0.5497047,-7.743932 -3.128781 0.713868,-7.724688 -2.493494 0.8664807,-8.219331 -5.05632 0.6382027,-8.150083 -3.974279 0.6662112,-8.10965 -3.294303 0.8019328,-8.068323 -2.706872 0.9273884,-8.562676 -5.307778 0.7715135,-8.587628 -4.453611 0.8572942,-8.588911 -3.911005 0.9745439,-8.561984 -3.388978 1.079427,1.71667,0 0 0 0 0 0 False
-1.684732 -7.720918 0.4284483,-2.267881 -7.43476 0.6762214,-2.763793 -6.694553 0.789827,-3.078142 -5.956694 0.9213502,-3.4 -5.438151 1.083965,-2.460679 -5.278619 0.5318539,-2.696125 -4.303783 0.6943633,-2.811987 -3.687478 0.7968109,-2.900142 -3.097852 0.8937494,-2.124341 -5.043597 0.5704799,-2.261308 -3.930318 0.7483265,-2.346371 -3.195612 0.9189126,-2.404391 -2.529952 1.064114,-1.797734 -5.033171 0.6737336,-1.875593 -3.964254 0.8459136,-1.961217 -3.269538 1.045336,-2.02944 -2.636396 1.206043,-1.454279 -5.21434 0.7972201,-1.425661 -4.332172 0.951322,-1.433508 -3.756036 1.138798,-1.449383 -3.205251 1.300406,-8.23758 -7.876636 0.4830281,-7.656451 -7.537658 0.723422,-7.178005 -6.803446 0.8994585,-6.876878 -6.073444 1.137404,-6.580184 -5.605716 1.390246,-7.566157 -5.193801 0.4892667,-7.416484 -4.17279 0.5792319,-7.36928 -3.523076 0.7116932,-7.340662 -2.952001 0.8166322,-7.897816 -5.003168 0.5393609,-7.78371 -3.855662 0.5497047,-7.743932 -3.128781 0.713868,-7.724688 -2.493494 0.8664807,-8.219331 -5.05632 0.6382027,-8.150083 -3.974279 0.6662112,-8.10965 -3.294303 0.8019328,-8.068323 -2.706872 0.9273884,-8.562676 -5.307778 0.7715135,-8.587628 -4.453611 0.8572942,-8.588911 -3.911005 0.9745439,-8.561984 -3.388978 1.079427,1.75000,0 0 0 0 0 0 False
-1.710842 -7.7183 0.4306394,-2.28891 -7.441308 0.6915929,-2.782037 -6.711235 0.8173668,-3.096411 -5.977113 0.9566269,-3.415108 -5.460718 1.129195,-2.488911 -5.282878 0.5542073,-2.724824 -4.30725 0.7153038,-2.839092 -3.694473 0.8176018,-2.92909 -3.105571 0.9140127,-2.149926 -5.040935 0.5850229,-2.282838 -3.927742 0.7588242,-2.368177 -3.202749 0.9239033,-2.430349 -2.544771 1.066812,-1.823187 -5.025863 0.6808431,-1.897391 -3.960647 0.8476771,-1.982667 -3.274871 1.041781,-2.052052 -2.648966 1.201013,-1.479717 -5.202775 0.7972395,-1.450213 -4.325763 0.9479226,-1.457378 -3.753612 1.13343,-1.475138 -3.20035 1.295018,-8.230607 -7.886372 0.4968108,-7.658937 -7.540323 0.7312872,-7.173948 -6.808418 0.8960211,-6.856814 -6.083527 1.119328,-6.557538 -5.618503 1.356313,-7.570567 -5.197184 0.4672142,-7.417203 -4.180944 0.5452412,-7.366201 -3.534688 0.6744356,-7.332077 -2.968917 0.7785082,-7.899435 -5.007421 0.5091106,-7.786043 -3.864841 0.5018303,-7.741635 -3.152098 0.6656022,-7.71595 -2.532909 0.8136101,-8.216047 -5.062307 0.6000478,-8.147182 -3.979099 0.614567,-8.101708 -3.309953 0.7456366,-8.054957 -2.733268 0.8690075,-8.552612 -5.312345 0.7245215,-8.583975 -4.463556 0.7993233,-8.583603 -3.924931 0.9146044,-8.554723 -3.408765 1.013816,1.78333,0 0 0 0 0 0 False
-1.716342 -7.73777 0.4185636,-2.298031 -7.465633 0.6796938,-2.797649 -6.734644 0.8030699,-3.110041 -5.995798 0.9384227,-3.432484 -5.484581 1.107453,-2.503654 -5.304571 0.5532836,-2.739369 -4.329446 0.723966,-2.854678 -3.706753 0.8361048,-2.944077 -3.107542 0.9372577,-2.162083 -5.065507 0.5812462,-2.295849 -3.957822 0.7588611,-2.378698 -3.229012 0.9296227,-2.437753 -2.566953 1.076887,-1.833623 -5.049901 0.6747398,-1.91057 -3.986917 0.8425121,-1.996041 -3.30591 1.039004,-2.066675 -2.684356 1.200636,-1.489176 -5.224239 0.7890042,-1.460804 -4.341686 0.9411243,-1.467877 -3.76801 1.125437,-1.485671 -3.21545 1.285417,-8.232988 -7.89668 0.5506055,-7.650619 -7.550706 0.7793444,-7.168439 -6.810134 0.945837,-6.859973 -6.083002 1.173102,-6.556947 -5.613088 1.411567,-7.560664 -5.191803 0.4995021,-7.410284 -4.188083 0.5625913,-7.359127 -3.54832 0.6861576,-7.32624 -2.986911 0.7851301,-7.893893 -5.003152 0.5427439,-7.787896 -3.87147 0.5182961,-7.743872 -3.168105 0.6641454,-7.717723 -2.563699 0.7957509,-8.2132 -5.05303 0.636642,-8.147729 -3.977474 0.6328845,-8.103137 -3.318338 0.749747,-8.056588 -2.752488 0.8610901,-8.551833 -5.296352 0.764904,-8.576305 -4.455831 0.8222213,-8.574561 -3.924057 0.9196014,-8.545876 -3.414475 1.005776,1.81667,0 0 0 0 0 0 False
-1.716342 -7.73777 0.4185636,-2.298031 -7.465633 0.6796938,-2.797649 -6.734644 0.8030699,-3.110041 -5.995798 0.9384227,-3.432484 -5.484581 1.107453,-2.503654 -5.304571 0.5532836,-2.739369 -4.329446 0.723966,-2.854678 -3.706753 0.8361048,-2.944077 -3.107542 0.9372577,-2.162083 -5.065507 0.5812462,-2.295849 -3.957822 0.7588611,-2.378698 -3.229012 0.9296227,-2.437753 -2.566953 1.076887,-1.833623 -5.049901 0.6747398,-1.91057 -3.986917 0.8425121,-1.996041 -3.30591 1.039004,-2.066675 -2.684356 1.200636,-1.489176 -5.224239 0.7890042,-1.460804 -4.341686 0.9411243,-1.467877 -3.76801 1.125437,-1.485671 -3.21545 1.285417,-8.232988 -7.89668 0.5506055,-7.650619 -7.550706 0.7793444,-7.168439 -6.810134 0.945837,-6.859973 -6.083002 1.173102,-6.556947 -5.613088 1.411567,-7.560664 -5.191803 0.4995021,-7.410284 -4.188083 0.5625913,-7.359127 -3.54832 0.6861576,-7.32624 -2.986911 0.7851301,-7.893893 -5.003152 0.5427439,-7.787896 -3.87147 0.5182961,-7.743872 -3.168105 0.6641454,-7.717723 -2.563699 0.7957509,-8.2132 -5.05303 0.636642,-8.147729 -3.977474 0.6328845,-8.103137 -3.318338 0.749747,-8.056588 -2.752488 0.8610901,-8.551833 -5.296352 0.764904,-8.576305 -4.455831 0.8222213,-8.574561 -3.924057 0.9196014,-8.545876 -3.414475 1.005776,1.85000,0 0 0 0 0 0 False
-1.719209 -7.750305 0.4129984,-2.302172 -7.456182 0.6618702,-2.80022 -6.716991 0.7734169,-3.11989 -5.975804 0.9010873,-3.449127 -5.465974 1.068082,-2.49955 -5.306653 0.4986915,-2.742115 -4.329246 0.6477991,-2.866811 -3.71076 0.7474037,-2.967969 -3.114723 0.8438051,-2.162729 -5.076875 0.529484,-2.299864 -3.966917 0.6873562,-2.388688 -3.236778 0.850993,-2.451722 -2.571762 0.9938289,-1.834699 -5.060981 0.6279866,-1.916089 -4.001836 0.7813605,-2.013285 -3.318627 0.9699267,-2.091767 -2.695611 1.126662,-1.487616 -5.232837 0.7482359,-1.453512 -4.352756 0.8933308,-1.460371 -3.780227 1.077443,-1.473958 -3.228129 1.23809,-8.234603 -7.907779 0.5405547,-7.648202 -7.551805 0.7697796,-7.167159 -6.815847 0.9396475,-6.85856 -6.090726 1.168461,-6.555509 -5.622059 1.407173,-7.564971 -5.20402 0.5016704,-7.415975 -4.198896 0.5658495,-7.364343 -3.562313 0.6875516,-7.329348 -3.005758 0.7876165,-7.898147 -5.016828 0.5388097,-7.790474 -3.888591 0.5150799,-7.746259 -3.195774 0.659811,-7.719818 -2.591306 0.7942751,-8.215844 -5.0632 0.6234378,-8.150088 -3.991971 0.6143512,-8.107307 -3.345646 0.724178,-8.063155 -2.785777 0.8309083,-8.552446 -5.299463 0.7418988,-8.576383 -4.462768 0.7879903,-8.575753 -3.932912 0.8821781,-8.548388 -3.420541 0.9685477,1.88333,0 0 0 0 0 0 False
-1.719209 -7.750305 0.4129984,-2.302172 -7.456182 0.6618702,-2.80022 -6.716991 0.7734169,-3.11989 -5.975804 0.9010873,-3.449127 -5.465974 1.068082,-2.49955 -5.306653 0.4986915,-2.742115 -4.329246 0.6477991,-2.866811 -3.71076 0.7474037,-2.967969 -3.114723 0.8438051,-2.162729 -5.076875 0.529484,-2.299864 -3.966917 0.6873562,-2.388688 -3.236778 0.850993,-2.451722 -2.571762 0.9938289,-1.834699 -5.060981 0.6279866,-1.916089 -4.001836 0.7813605,-2.013285 -3.318627 0.9699267,-2.091767 -2.695611 1.126662,-1.487616 -5.232837 0.7482359,-1.453512 -4.352756 0.8933308,-1.460371 -3.780227 1.077443,-1.473958 -3.228129 1.23809,-8.234603 -7.907779 0.5405547,-7.648202 -7.551805 0.7697796,-7.167159 -6.815847 0.9396475,-6.85856 -6.090726 1.168461,-6.555509 -5.622059 1.407173,-7.564971 -5.20402 0.5016704,-7.415975 -4.198896 0.5658495,-7.364343 -3.562313 0.6875516,-7.329348 -3.005758 0.7876165,-7.898147 -5.016828 0.5388097,-7.790474 -3.888591 0.5150799,-7.746259 -3.195774 0.659811,-7.719818 -2.591306 0.7942751,-8.215844 -5.0632 0.6234378,-8.150088 -3.991971 0.6143512,-8.107307 -3.345646 0.724178,-8.063155 -2.785777 0.8309083,-8.552446 -5.299463 0.7418988,-8.576383 -4.462768 0.7879903,-8.575753 -3.932912 0.8821781,-8.548388 -3.420541 0.9685477,1.91667,0 0 0 0 0 0 False
-1.721262 -7.771396 0.4392798,-2.303611 -7.478946 0.6788056,-2.798313 -6.735927 0.7823702,-3.112485 -5.993059 0.9083936,-3.442671 -5.490312 1.073845,-2.494059 -5.312458 0.4807285,-2.733368 -4.339073 0.6263319,-2.860251 -3.723897 0.7274959,-2.961252 -3.128366 0.8261038,-2.157373 -5.08783 0.5202873,-2.291252 -3.984931 0.6701324,-2.380736 -3.254872 0.8350618,-2.443436 -2.590442 0.9793972,-1.829464 -5.074279 0.6301236,-1.906392 -4.022737 0.7776046,-1.998334 -3.342835 0.9629191,-2.071388 -2.725763 1.114483,-1.483994 -5.247196 0.7633544,-1.448916 -4.369946 0.908934,-1.452971 -3.796574 1.087456,-1.462008 -3.243616 1.243746,-8.243608 -7.931333 0.5357423,-7.653858 -7.559736 0.7500494,-7.171759 -6.825782 0.9223401,-6.861058 -6.113233 1.157915,-6.555278 -5.63245 1.408518,-7.569752 -5.223569 0.4822311,-7.426158 -4.222028 0.5501415,-7.375096 -3.590802 0.6737936,-7.340918 -3.042965 0.7730719,-7.902178 -5.042352 0.5335705,-7.799799 -3.921245 0.5149603,-7.755491 -3.227554 0.6615712,-7.728765 -2.628753 0.7960628,-8.219776 -5.090717 0.6347924,-8.161777 -4.030664 0.6310167,-8.120356 -3.391348 0.7393168,-8.077149 -2.847369 0.8443596,-8.556445 -5.323869 0.7685001,-8.581433 -4.481203 0.819464,-8.5789 -3.947565 0.9102174,-8.551042 -3.439079 0.9942366,1.95000,0 0 0 0 0 0 False
-1.721262 -7.771396 0.4392798,-2.303611 -7.478946 0.6788056,-2.798313 -6.735927 0.7823702,-3.112485 -5.993059 0.9083936,-3.442671 -5.490312 1.073845,-2.494059 -5.312458 0.4807285,-2.733368 -4.339073 0.6263319,-2.860251 -3.723897 0.7274959,-2.961252 -3.128366 0.8261038,-2.157373 -5.08783 0.5202873,-2.291252 -3.984931 0.6701324,-2.380736 -3.254872 0.8350618,-2.443436 -2.590442 0.9793972,-1.829464 -5.074279 0.6301236,-1.906392 -4.022737 0.7776046,-1.998334 -3.342835 0.9629191,-2.071388 -2.725763 1.114483,-1.483994 -5.247196 0.7633544,-1.448916 -4.369946 0.908934,-1.452971 -3.796574 1.087456,-1.462008 -3.243616 1.243746,-8.243608 -7.931333 0.5357423,-7.653858 -7.559736 0.7500494,-7.171759 -6.825782 0.9223401,-6.861058 -6.113233 1.157915,-6.555278 -5.63245 1.408518,-7.569752 -5.223569 0.4822311,-7.426158 -4.222028 0.5501415,-7.375096 -3.590802 0.6737936,-7.340918 -3.042965 0.7730719,-7.902178 -5.042352 0.5335705,-7.799799 -3.921245 0.5149603,-7.755491 -3.227554 0.6615712,-7.728765 -2.628753 0.7960628,-8.219776 -5.090717 0.6347924,-8.161777 -4.030664 0.6310167,-8.120356 -3.391348 0.7393168,-8.077149 -2.847369 0.8443596,-8.556445 -5.323869 0.7685001,-8.581433 -4.481203 0.819464,-8.5789 -3.947565 0.9102174,-8.551042 -3.439079 0.9942366,1.98333,0 0 0 0 0 0 False
-1.711726 -7.805143 0.4460286,-2.298105 -7.507905 0.685709,-2.792278 -6.770275 0.7915073,-3.10467 -6.031504 0.9202935,-3.437464 -5.526008 1.091974,-2.488126 -5.346974 0.4947386,-2.728798 -4.375167 0.6483833,-2.852062 -3.75587 0.7563971,-2.945812 -3.152087 0.8592158,-2.150802 -5.12033 0.534927,-2.283318 -4.018844 0.684615,-2.36884 -3.289135 0.8467882,-2.427189 -2.623426 0.9892386,-1.822569 -5.105838 0.6463842,-1.895423 -4.049373 0.7910949,-1.984952 -3.368668 0.9778439,-2.055887 -2.751726 1.130136,-1.477709 -5.278165 0.7809945,-1.441798 -4.392132 0.9249472,-1.448816 -3.816762 1.103491,-1.462276 -3.265998 1.258122,-8.254317 -7.962244 0.5239563,-7.663546 -7.59589 0.7429646,-7.179268 -6.856124 0.9032339,-6.867698 -6.135379 1.122746,-6.56342 -5.646295 1.352407,-7.570747 -5.253157 0.4512213,-7.42751 -4.254903 0.5179297,-7.379022 -3.625343 0.639231,-7.348516 -3.067001 0.7388363,-7.904463 -5.077804 0.4945296,-7.807535 -3.986423 0.4712232,-7.765946 -3.316213 0.6233262,-7.743655 -2.731319 0.7595433,-8.222044 -5.129188 0.5902621,-8.173179 -4.09749 0.5891856,-8.139691 -3.480165 0.7046267,-8.10499 -2.950717 0.8132119,-8.556834 -5.358528 0.7187338,-8.584642 -4.535066 0.7732072,-8.582599 -4.016956 0.8694491,-8.556179 -3.521975 0.949107,2.01667,0 0 0 0 0 0 False
-1.711726 -7.805143 0.4460286,-2.298105 -7.507905 0.685709,-2.792278 -6.770275 0.7915073,-3.10467 -6.031504 0.9202935,-3.437464 -5.526008 1.091974,-2.488126 -5.346974 0.4947386,-2.728798 -4.375167 0.6483833,-2.852062 -3.75587 0.7563971,-2.945812 -3.152087 0.8592158,-2.150802 -5.12033 0.534927,-2.283318 -4.018844 0.684615,-2.36884 -3.289135 0.8467882,-2.427189 -2.623426 0.9892386,-1.822569 -5.105838 0.6463842,-1.895423 -4.049373 0.7910949,-1.984952 -3.368668 0.9778439,-2.055887 -2.751726 1.130136,-1.477709 -5.278165 0.7809945,-1.441798 -4.392132 0.9249472,-1.448816 -3.816762 1.103491,-1.462276 -3.265998 1.258122,-8.254317 -7.962244 0.5239563,-7.663546 -7.59589 0.7429646,-7.179268 -6.856124 0.9032339,-6.867698 -6.135379 1.122746,-6.56342 -5.646295 1.352407,-7.570747 -5.253157 0.4512213,-7.42751 -4.254903 0.5179297,-7.379022 -3.625343 0.639231,-7.348516 -3.067001 0.7388363,-7.904463 -5.077804 0.4945296,-7.807535 -3.986423 0.4712232,-7.765946 -3.316213 0.6233262,-7.743655 -2.731319 0.7595433,-8.222044 -5.129188 0.5902621,-8.173179 -4.09749 0.5891856,-8.139691 -3.480165 0.7046267,-8.10499 -2.950717 0.8132119,-8.556834 -5.358528 0.7187338,-8.584642 -4.535066 0.7732072,-8.582599 -4.016956 0.8694491,-8.556179 -3.521975 0.949107,2.05000,0 0 0 0 0 0 False
-1.709039 -7.812311 0.4437754,-2.296766 -7.528884 0.6755707,-2.79319 -6.77329 0.7777101,-3.106014 -6.029136 0.9041129,-3.436655 -5.537447 1.067155,-2.490944 -5.353174 0.5009689,-2.729381 -4.370254 0.6522563,-2.85111 -3.75509 0.7484795,-2.944798 -3.159633 0.8382384,-2.15124 -5.129053 0.5428981,-2.283321 -4.018858 0.6937404,-2.367959 -3.296178 0.8439195,-2.426998 -2.644029 0.9738079,-1.820912 -5.11927 0.6548501,-1.894782 -4.060314 0.8043371,-1.983215 -3.388237 0.9811352,-2.054032 -2.779199 1.120844,-1.474448 -5.297108 0.7895923,-1.441128 -4.42122 0.9334739,-1.447141 -3.855247 1.104155,-1.458352 -3.311721 1.248978,-8.260443 -7.982917 0.4311921,-7.680408 -7.614951 0.6640062,-7.197354 -6.887687 0.8338218,-6.882638 -6.167718 1.063778,-6.576086 -5.645797 1.309036,-7.585543 -5.291436 0.3664215,-7.428901 -4.289062 0.444726,-7.364334 -3.655236 0.5791816,-7.321882 -3.093681 0.6858728,-7.915015 -5.124505 0.4154815,-7.804148 -4.044063 0.3976749,-7.756642 -3.379382 0.5654428,-7.728547 -2.802003 0.7111228,-8.235128 -5.190452 0.5215483,-8.176536 -4.170549 0.5387277,-8.137522 -3.558389 0.6790297,-8.094651 -3.0314 0.8101493,-8.576979 -5.431832 0.6573306,-8.598178 -4.620395 0.7328475,-8.587548 -4.107939 0.8526512,-8.548628 -3.61971 0.9558638,2.08333,0 0 0 0 0 0 False
-1.709039 -7.812311 0.4437754,-2.296766 -7.528884 0.6755707,-2.79319 -6.77329 0.7777101,-3.106014 -6.029136 0.9041129,-3.436655 -5.537447 1.067155,-2.490944 -5.353174 0.5009689,-2.729381 -4.370254 0.6522563,-2.85111 -3.75509 0.7484795,-2.944798 -3.159633 0.8382384,-2.15124 -5.129053 0.5428981,-2.283321 -4.018858 0.6937404,-2.367959 -3.296178 0.8439195,-2.426998 -2.644029 0.9738079,-1.820912 -5.11927 0.6548501,-1.894782 -4.060314 0.8043371,-1.983215 -3.388237 0.9811352,-2.054032 -2.779199 1.120844,-1.474448 -5.297108 0.7895923,-1.441128 -4.42122 0.9334739,-1.447141 -3.855247 1.104155,-1.458352 -3.311721 1.248978,-8.260443 -7.982917 0.4311921,-7.680408 -7.614951 0.6640062,-7.197354 -6.887687 0.8338218,-6.882638 -6.167718 1.063778,-6.576086 -5.645797 1.309036,-7.585543 -5.291436 0.3664215,-7.428901 -4.289062 0.444726,-7.364334 -3.655236 0.5791816,-7.321882 -3.093681 0.6858728,-7.915015 -5.124505 0.4154815,-7.804148 -4.044063 0.3976749,-7.756642 -3.379382 0.5654428,-7.728547 -2.802003 0.7111228,-8.235128 -5.190452 0.5215483,-8.176536 -4.170549 0.5387277,-8.137522 -3.558389 0.6790297,-8.094651 -3.0314 0.8101493,-8.576979 -5.431832 0.6573306,-8.598178 -4.620395 0.7328475,-8.587548 -4.107939 0.8526512,-8.548628 -3.61971 0.9558638,2.11667,0 0 0 0 0 0 False
-1.700227 -7.830932 0.4767129,-2.292479 -7.542424 0.7032473,-2.791383 -6.801502 0.8067993,-3.105375 -6.064828 0.9309992,-3.435469 -5.570766 1.092996,-2.486827 -5.368747 0.5464005,-2.73011 -4.389059 0.7011138,-2.856827 -3.770005 0.8042741,-2.955609 -3.170264 0.9017032,-2.148548 -5.139688 0.5898493,-2.284065 -4.032892 0.746066,-2.373639 -3.307868 0.8997042,-2.436171 -2.649393 1.034928,-1.817874 -5.130031 0.7001618,-1.893387 -4.072031 0.8486557,-1.984903 -3.398982 1.024544,-2.057399 -2.792628 1.166635,-1.471551 -5.309162 0.8331464,-1.437977 -4.433242 0.9748368,-1.447473 -3.861571 1.147147,-1.462821 -3.317411 1.293345,-8.269559 -7.964748 0.3236705,-7.692967 -7.620453 0.549491,-7.209917 -6.892352 0.7133242,-6.896255 -6.175287 0.9354212,-6.595064 -5.670379 1.165141,-7.598209 -5.310363 0.2806565,-7.447224 -4.303118 0.3702095,-7.389772 -3.666968 0.5090396,-7.352446 -3.103674 0.6175829,-7.922671 -5.137405 0.3288217,-7.813 -4.026842 0.3285668,-7.770793 -3.334905 0.4986051,-7.745571 -2.735116 0.6559783,-8.241057 -5.204813 0.4306132,-8.180019 -4.155456 0.4495271,-8.141854 -3.514992 0.5867419,-8.100956 -2.955443 0.7235736,-8.584764 -5.455406 0.5605235,-8.600968 -4.63015 0.6361135,-8.587447 -4.107645 0.7552623,-8.546013 -3.6067 0.8666137,2.15000,0 0 0 0 0 0 False
-1.700227 -7.830932 0.4767129,-2.292479 -7.542424 0.7032473,-2.791383 -6.801502 0.8067993,-3.105375 -6.064828 0.9309992,-3.435469 -5.570766 1.092996,-2.486827 -5.368747 0.5464005,-2.73011 -4.389059 0.7011138,-2.856827 -3.770005 0.8042741,-2.955609 -3.170264 0.9017032,-2.148548 -5.139688 0.5898493,-2.284065 -4.032892 0.746066,-2.373639 -3.307868 0.8997042,-2.436171 -2.649393 1.034928,-1.817874 -5.130031 0.7001618,-1.893387 -4.072031 0.8486557,-1.984903 -3.398982 1.024544,-2.057399 -2.792628 1.166635,-1.471551 -5.309162 0.8331464,-1.437977 -4.433242 0.9748368,-1.447473 -3.861571 1.147147,-1.462821 -3.317411 1.293345,-8.269559 -7.964748 0.3236705,-7.692967 -7.620453 0.549491,-7.209917 -6.892352 0.7133242,-6.896255 -6.175287 0.9354212,-6.595064 -5.670379 1.165141,-7.598209 -5.310363 0.2806565,-7.447224 -4.303118 0.3702095,-7.389772 -3.666968 0.5090396,-7.352446 -3.103674 0.6175829,-7.922671 -5.137405 0.3288217,-7.813 -4.026842 0.3285668,-7.770793 -3.334905 0.4986051,-7.745571 -2.735116 0.6559783,-8.241057 -5.204813 0.4306132,-8.180019 -4.155456 0.4495271,-8.141854 -3.514992 0.5867419,-8.100956 -2.955443 0.7235736,-8.584764 -5.455406 0.5605235,-8.600968 -4.63015 0.6361135,-8.587447 -4.107645 0.7552623,-8.546013 -3.6067 0.8666137,2.18333,0 0 0 0 0 0 False
-1.705521 -7.830617 0.4976136,-2.297795 -7.550776 0.7380191,-2.795322 -6.810035 0.8476086,-3.109291 -6.071129 0.9801508,-3.441456 -5.579858 1.148478,-2.502727 -5.362461 0.5683581,-2.746722 -4.375776 0.7241151,-2.866279 -3.756557 0.8247381,-2.955756 -3.157416 0.9213524,-2.159874 -5.134216 0.6080557,-2.292415 -4.018142 0.7675198,-2.376021 -3.290916 0.9227741,-2.430776 -2.635169 1.057148,-1.826246 -5.126033 0.7178898,-1.897063 -4.059789 0.8668904,-1.984985 -3.387505 1.044898,-2.053267 -2.779163 1.187034,-1.476317 -5.306266 0.8491244,-1.438703 -4.425027 0.9930907,-1.446569 -3.853501 1.166122,-1.460075 -3.305633 1.311794,-8.259743 -7.948204 0.2819979,-7.688175 -7.628653 0.5199227,-7.208446 -6.90162 0.6953066,-6.893877 -6.193754 0.9275776,-6.588533 -5.694088 1.164147,-7.606065 -5.304234 0.2959218,-7.459056 -4.277259 0.4109034,-7.40461 -3.632039 0.5554368,-7.367507 -3.06021 0.6660585,-7.929614 -5.131599 0.3466774,-7.822571 -3.99226 0.3836304,-7.780168 -3.281839 0.5569965,-7.753864 -2.666866 0.71236,-8.246517 -5.201643 0.4485343,-8.185635 -4.111814 0.4967381,-8.149202 -3.445533 0.6436424,-8.109698 -2.858821 0.7840589,-8.586332 -5.462041 0.577297,-8.603536 -4.6131 0.6731884,-8.591649 -4.077961 0.8036675,-8.55124 -3.558948 0.920775,2.21667,0 0 0 0 0 0 False
-1.705521 -7.830617 0.4976136,-2.297795 -7.550776 0.7380191,-2.795322 -6.810035 0.8476086,-3.109291 -6.071129 0.9801508,-3.441456 -5.579858 1.148478,-2.502727 -5.362461 0.5683581,-2.746722 -4.375776 0.7241151,-2.866279 -3.756557 0.8247381,-2.955756 -3.157416 0.9213524,-2.159874 -5.134216 0.6080557,-2.292415 -4.018142 0.7675198,-2.376021 -3.290916 0.9227741,-2.430776 -2.635169 1.057148,-1.826246 -5.126033 0.7178898,-1.897063 -4.059789 0.8668904,-1.984985 -3.387505 1.044898,-2.053267 -2.779163 1.187034,-1.476317 -5.306266 0.8491244,-1.438703 -4.425027 0.9930907,-1.446569 -3.853501 1.166122,-1.460075 -3.305633 1.311794,-8.259743 -7.948204 0.2819979,-7.688175 -7.628653 0.5199227,-7.208446 -6.90162 0.6953066,-6.893877 -6.193754 0.9275776,-6.588533 -5.694088 1.164147,-7.606065 -5.304234 0.2959218,-7.459056 -4.277259 0.4109034,-7.40461 -3.632039 0.5554368,-7.367507 -3.06021 0.6660585,-7.929614 -5.131599 0.3466774,-7.822571 -3.99226 0.3836304,-7.780168 -3.281839 0.5569965,-7.753864 -2.666866 0.71236,-8.246517 -5.201643 0.4485343,-8.185635 -4.111814 0.4967381,-8.149202 -3.445533 0.6436424,-8.109698 -2.858821 0.7840589,-8.586332 -5.462041 0.577297,-8.603536 -4.6131 0.6731884,-8.591649 -4.077961 0.8036675,-8.55124 -3.558948 0.920775,2.25000,0 0 0 0 0 0 False
-1.725494 -7.872201 0.5804128,-2.314101 -7.573189 0.7974411,-2.806438 -6.807991 0.8960804,-3.12125 -6.065992 1.023429,-3.457571 -5.587838 1.18497,-2.495794 -5.372849 0.6229672,-2.740566 -4.395959 0.7794254,-2.867177 -3.779231 0.8780726,-2.96506 -3.180072 0.967941,-2.156472 -5.147441 0.6763614,-2.294253 -4.036972 0.8373153,-2.388403 -3.302516 0.9968452,-2.4566 -2.641371 1.134624,-1.825962 -5.144574 0.7981638,-1.903144 -4.077005 0.9510033,-1.99909 -3.394231 1.129063,-2.07804 -2.780633 1.268944,-1.480702 -5.334829 0.9420564,-1.44046 -4.45527 1.088244,-1.448009 -3.880384 1.258342,-1.461829 -3.330532 1.40272,-8.251729 -7.978483 0.3366016,-7.671027 -7.627628 0.5803604,-7.190925 -6.918981 0.7500733,-6.878222 -6.214919 0.9743309,-6.572865 -5.731966 1.210833,-7.581245 -5.32481 0.325509,-7.433288 -4.30993 0.4105953,-7.380321 -3.665687 0.5499991,-7.344262 -3.097675 0.6578807,-7.914455 -5.146392 0.3607875,-7.817118 -4.016403 0.3700313,-7.777645 -3.311697 0.5417585,-7.752914 -2.705278 0.6956029,-8.23426 -5.201225 0.4484029,-8.183129 -4.136103 0.4670308,-8.14903 -3.495167 0.5953797,-8.1125 -2.952838 0.7172907,-8.572104 -5.440392 0.5683262,-8.604264 -4.59554 0.63427,-8.598564 -4.063697 0.7398751,-8.56658 -3.565876 0.83032,2.28333,0 0 0 0 0 0 False
-1.725494 -7.872201 0.5804128,-2.314101 -7.573189 0.7974411,-2.806438 -6.807991 0.8960804,-3.12125 -6.065992 1.023429,-3.457571 -5.587838 1.18497,-2.495794 -5.372849 0.6229672,-2.740566 -4.395959 0.7794254,-2.867177 -3.779231 0.8780726,-2.96506 -3.180072 0.967941,-2.156472 -5.147441 0.6763614,-2.294253 -4.036972 0.8373153,-2.388403 -3.302516 0.9968452,-2.4566 -2.641371 1.134624,-1.825962 -5.144574 0.7981638,-1.903144 -4.077005 0.9510033,-1.99909 -3.394231 1.129063,-2.07804 -2.780633 1.268944,-1.480702 -5.334829 0.9420564,-1.44046 -4.45527 1.088244,-1.448009 -3.880384 1.258342,-1.461829 -3.330532 1.40272,-8.251729 -7.978483 0.3366016,-7.671027 -7.627628 0.5803604,-7.190925 -6.918981 0.7500733,-6.878222 -6.214919 0.9743309,-6.572865 -5.731966 1.210833,-7.581245 -5.32481 0.325509,-7.433288 -4.30993 0.4105953,-7.380321 -3.665687 0.5499991,-7.344262 -3.097675 0.6578807,-7.914455 -5.146392 0.3607875,-7.817118 -4.016403 0.3700313,-7.777645 -3.311697 0.5417585,-7.752914 -2.705278 0.6956029,-8.23426 -5.201225 0.4484029,-8.183129 -4.136103 0.4670308,-8.14903 -3.495167 0.5953797,-8.1125 -2.952838 0.7172907,-8.572104 -5.440392 0.5683262,-8.604264 -4.59554 0.63427,-8.598564 -4.063697 0.7398751,-8.56658 -3.565876 0.83032,2.31667,0 0 0 0 0 0 False
-1.719092 -7.858545 0.55908,-2.30928 -7.569705 0.7865173,-2.80906 -6.817198 0.8874339,-3.130125 -6.070514 1.013939,-3.469004 -5.580163 1.179129,-2.499743 -5.371217 0.6000078,-2.738786 -4.381897 0.7464952,-2.857094 -3.761691 0.8459336,-2.946588 -3.163887 0.9392153,-2.160215 -5.141222 0.643418,-2.300291 -4.0216 0.7947766,-2.391593 -3.288189 0.9509045,-2.455567 -2.626903 1.089892,-1.829151 -5.132722 0.7557959,-1.900901 -4.06554 0.8985831,-1.99082 -3.389947 1.078027,-2.062828 -2.77842 1.222819,-1.483723 -5.313236 0.8930268,-1.450365 -4.436334 1.030896,-1.462276 -3.871736 1.204598,-1.48231 -3.329545 1.353181,-8.240479 -7.953266 0.2838337,-7.658747 -7.622425 0.5154322,-7.176545 -6.89726 0.675124,-6.859231 -6.187896 0.8916367,-6.549321 -5.714204 1.116942,-7.571672 -5.31491 0.2753326,-7.423992 -4.288852 0.3691894,-7.370812 -3.634708 0.5129809,-7.335384 -3.0589 0.6262694,-7.904211 -5.136318 0.3183066,-7.798771 -3.993483 0.3316233,-7.760727 -3.282149 0.502675,-7.739975 -2.672255 0.6594873,-8.225145 -5.189664 0.4092839,-8.168512 -4.110767 0.4337425,-8.134679 -3.458245 0.5620136,-8.09965 -2.896208 0.6853768,-8.566265 -5.429952 0.5322387,-8.599493 -4.579111 0.601886,-8.599697 -4.038425 0.7033596,-8.574079 -3.518445 0.7961036,2.35000,0 0 0 0 0 0 False
-1.719092 -7.858545 0.55908,-2.30928 -7.569705 0.7865173,-2.80906 -6.817198 0.8874339,-3.130125 -6.070514 1.013939,-3.469004 -5.580163 1.179129,-2.499743 -5.371217 0.6000078,-2.738786 -4.381897 0.7464952,-2.857094 -3.761691 0.8459336,-2.946588 -3.163887 0.9392153,-2.160215 -5.141222 0.643418,-2.300291 -4.0216 0.7947766,-2.391593 -3.288189 0.9509045,-2.455567 -2.626903 1.089892,-1.829151 -5.132722 0.7557959,-1.900901 -4.06554 0.8985831,-1.99082 -3.389947 1.078027,-2.062828 -2.77842 1.222819,-1.483723 -5.313236 0.8930268,-1.450365 -4.436334 1.030896,-1.462276 -3.871736 1.204598,-1.48231 -3.329545 1.353181,-8.240479 -7.953266 0.2838337,-7.658747 -7.622425 0.5154322,-7.176545 -6.89726 0.675124,-6.859231 -6.187896 0.8916367,-6.549321 -5.714204 1.116942,-7.571672 -5.31491 0.2753326,-7.423992 -4.288852 0.3691894,-7.370812 -3.634708 0.5129809,-7.335384 -3.0589 0.6262694,-7.904211 -5.136318 0.3183066,-7.798771 -3.993483 0.3316233,-7.760727 -3.282149 0.502675,-7.739975 -2.672255 0.6594873,-8.225145 -5.189664 0.4092839,-8.168512 -4.110767 0.4337425,-8.134679 -3.458245 0.5620136,-8.09965 -2.896208 0.6853768,-8.566265 -5.429952 0.5322387,-8.599493 -4.579111 0.601886,-8.599697 -4.038425 0.7033596,-8.574079 -3.518445 0.7961036,2.38333,0 0 0 0 0 0 False
-1.713438 -7.873937 0.6200988,-2.313965 -7.570011 0.8261541,-2.810603 -6.814223 0.9132543,-3.123911 -6.064792 1.03303,-3.458817 -5.567298 1.188673,-2.493914 -5.364545 0.6146134,-2.739168 -4.388252 0.7581413,-2.864975 -3.77869 0.8516988,-2.963185 -3.186854 0.9403405,-2.157172 -5.138473 0.6687993,-2.295898 -4.031484 0.8096762,-2.388009 -3.309552 0.9541703,-2.454402 -2.655126 1.082223,-1.82799 -5.132637 0.7953269,-1.904729 -4.070963 0.9363042,-2.000782 -3.403048 1.099699,-2.077326 -2.803024 1.232563,-1.481789 -5.318974 0.9462787,-1.441303 -4.441883 1.087554,-1.450772 -3.872012 1.255503,-1.464756 -3.330483 1.395369,-8.2377 -7.937234 0.2905577,-7.661824 -7.601588 0.5309389,-7.182002 -6.888786 0.7079711,-6.864215 -6.191833 0.9430133,-6.559678 -5.711729 1.189293,-7.56917 -5.292861 0.2953854,-7.416629 -4.265328 0.3963529,-7.359521 -3.61198 0.5456566,-7.319444 -3.037732 0.6597368,-7.899113 -5.118919 0.3438509,-7.797348 -3.975763 0.3649389,-7.75907 -3.264102 0.538546,-7.737109 -2.653569 0.6902635,-8.219128 -5.179017 0.4419375,-8.164324 -4.094653 0.4774314,-8.126902 -3.43806 0.612009,-8.086814 -2.868399 0.7335171,-8.560543 -5.425279 0.5721213,-8.594044 -4.568876 0.6589123,-8.591976 -4.024251 0.7712119,-8.562367 -3.498158 0.8636255,2.41667,0 0 0 0 0 0 False
-1.713438 -7.873937 0.6200988,-2.313965 -7.570011 0.8261541,-2.810603 -6.814223 0.9132543,-3.123911 -6.064792 1.03303,-3.458817 -5.567298 1.188673,-2.493914 -5.364545 0.6146134,-2.739168 -4.388252 0.7581413,-2.864975 -3.77869 0.8516988,-2.963185 -3.186854 0.9403405,-2.157172 -5.138473 0.6687993,-2.295898 -4.031484 0.8096762,-2.388009 -3.309552 0.9541703,-2.454402 -2.655126 1.082223,-1.82799 -5.132637 0.7953269,-1.904729 -4.070963 0.9363042,-2.000782 -3.403048 1.099699,-2.077326 -2.803024 1.232563,-1.481789 -5.318974 0.9462787,-1.441303 -4.441883 1.087554,-1.450772 -3.872012 1.255503,-1.464756 -3.330483 1.395369,-8.2377 -7.937234 0.2905577,-7.661824 -7.601588 0.5309389,-7.182002 -6.888786 0.7079711,-6.864215 -6.191833 0.9430133,-6.559678 -5.711729 1.189293,-7.56917 -5.292861 0.2953854,-7.416629 -4.265328 0.3963529,-7.359521 -3.61198 0.5456566,-7.319444 -3.037732 0.6597368,-7.899113 -5.118919 0.3438509,-7.797348 -3.975763 0.3649389,-7.75907 -3.264102 0.538546,-7.737109 -2.653569 0.6902635,-8.219128 -5.179017 0.4419375,-8.164324 -4.094653 0.4774314,-8.126902 -3.43806 0.612009,-8.086814 -2.868399 0.7335171,-8.560543 -5.425279 0.5721213,-8.594044 -4.568876 0.6589123,-8.591976 -4.024251 0.7712119,-8.562367 -3.498158 0.8636255,2.45000,0 0 0 0 0 0 False
-1.695733 -7.862842 0.6029009,-2.296289 -7.568365 0.8383585,-2.799525 -6.805028 0.9362911,-3.120548 -6.051891 1.06275,-3.463625 -5.563533 1.227939,-2.491777 -5.366144 0.6428338,-2.735867 -4.388928 0.7910249,-2.856918 -3.776166 0.8869488,-2.953372 -3.181219 0.9772735,-2.153728 -5.13553 0.684579,-2.295605 -4.023366 0.8349948,-2.388578 -3.298658 0.9913905,-2.459341 -2.64131 1.129044,-1.822472 -5.129587 0.7999281,-1.900227 -4.061057 0.9484367,-1.996115 -3.391148 1.124386,-2.076014 -2.785358 1.266399,-1.473741 -5.316854 0.9414888,-1.433124 -4.444267 1.089874,-1.439806 -3.878633 1.266667,-1.453469 -3.337364 1.415329,-8.232669 -7.920015 0.300298,-7.65342 -7.593364 0.5366877,-7.174426 -6.872991 0.7024236,-6.859201 -6.168485 0.924109,-6.556772 -5.693931 1.153162,-7.562047 -5.276434 0.2947934,-7.412942 -4.258854 0.3943553,-7.356807 -3.611187 0.5418407,-7.317244 -3.038956 0.6558307,-7.892936 -5.098819 0.340184,-7.796704 -3.958281 0.3541063,-7.756618 -3.246987 0.5241691,-7.732183 -2.636402 0.6733865,-8.213088 -5.155324 0.4354626,-8.162785 -4.072462 0.4637674,-8.125896 -3.417604 0.5948819,-8.085917 -2.847742 0.7168355,-8.551741 -5.398913 0.56201,-8.58715 -4.553383 0.6399465,-8.586765 -4.014189 0.7487763,-8.558423 -3.492427 0.8396167,2.48333,0 0 0 0 0 0 False
-1.696404 -7.880396 0.6182391,-2.298923 -7.563005 0.8000634,-2.796916 -6.790972 0.8797972,-3.116723 -6.043759 0.9987001,-3.453843 -5.565057 1.146262,-2.474726 -5.367038 0.6170223,-2.718716 -4.38879 0.7624079,-2.849037 -3.776561 0.8534712,-2.954942 -3.186941 0.9370307,-2.142555 -5.146272 0.6852154,-2.285587 -4.034533 0.8390952,-2.385539 -3.298044 0.9935315,-2.461619 -2.631501 1.127856,-1.813582 -5.143327 0.8218796,-1.891069 -4.076168 0.9715459,-1.987427 -3.394883 1.139347,-2.067371 -2.782959 1.272001,-1.467192 -5.329545 0.9785432,-1.423874 -4.454626 1.120755,-1.429861 -3.880277 1.28803,-1.440892 -3.333697 1.427509,-8.233003 -7.937694 0.3192932,-7.657556 -7.597883 0.5514357,-7.176475 -6.873163 0.7141588,-6.854931 -6.166264 0.9368163,-6.551264 -5.693574 1.167845,-7.568271 -5.284732 0.3003863,-7.419236 -4.26371 0.3926117,-7.363618 -3.609935 0.5368411,-7.322423 -3.036394 0.6493235,-7.893935 -5.110803 0.3456848,-7.796714 -3.972261 0.356492,-7.755493 -3.252316 0.5269968,-7.731761 -2.635631 0.6744195,-8.211466 -5.17259 0.4387985,-8.159297 -4.088316 0.4635584,-8.121385 -3.424263 0.5932806,-8.082024 -2.850443 0.7106689,-8.549519 -5.421408 0.5638548,-8.585965 -4.568662 0.6399718,-8.585382 -4.028455 0.7474834,-8.55919 -3.509024 0.8344994,2.51667,0 0 0 0 0 0 False
-1.696404 -7.880396 0.6182391,-2.298923 -7.563005 0.8000634,-2.796916 -6.790972 0.8797972,-3.116723 -6.043759 0.9987001,-3.453843 -5.565057 1.146262,-2.474726 -5.367038 0.6170223,-2.718716 -4.38879 0.7624079,-2.849037 -3.776561 0.8534712,-2.954942 -3.186941 0.9370307,-2.142555 -5.146272 0.6852154,-2.285587 -4.034533 0.8390952,-2.385539 -3.298044 0.9935315,-2.461619 -2.631501 1.127856,-1.813582 -5.143327 0.8218796,-1.891069 -4.076168 0.9715459,-1.987427 -3.394883 1.139347,-2.067371 -2.782959 1.272001,-1.467192 -5.329545 0.9785432,-1.423874 -4.454626 1.120755,-1.429861 -3.880277 1.28803,-1.440892 -3.333697 1.427509,-8.233003 -7.937694 0.3192932,-7.657556 -7.597883 0.5514357,-7.176475 -6.873163 0.7141588,-6.854931 -6.166264 0.9368163,-6.551264 -5.693574 1.167845,-7.568271 -5.284732 0.3003863,-7.419236 -4.26371 0.3926117,-7.363618 -3.609935 0.5368411,-7.322423 -3.036394 0.6493235,-7.893935 -5.110803 0.3456848,-7.796714 -3.972261 0.356492,-7.755493 -3.252316 0.5269968,-7.731761 -2.635631 0.6744195,-8.211466 -5.17259 0.4387985,-8.159297 -4.088316 0.4635584,-8.121385 -3.424263 0.5932806,-8.082024 -2.850443 0.7106689,-8.549519 -5.421408 0.5638548,-8.585965 -4.568662 0.6399718,-8.585382 -4.028455 0.7474834,-8.55919 -3.509024 0.8344994,2.55000,0 0 0 0 0 0 False
-1.694733 -7.856294 0.6385234,-2.293147 -7.554531 0.8658698,-2.79372 -6.78376 0.9651479,-3.115905 -6.034942 1.098629,-3.454266 -5.543689 1.265667,-2.481637 -5.33946 0.6603335,-2.72639 -4.363813 0.8122133,-2.848306 -3.757501 0.908812,-2.947177 -3.165838 0.9994459,-2.141769 -5.116585 0.7109394,-2.284745 -4.002534 0.8666597,-2.378251 -3.281874 1.026599,-2.448264 -2.625174 1.162635,-1.809679 -5.117353 0.8348117,-1.888421 -4.050487 0.9846356,-1.985025 -3.386695 1.1599,-2.065139 -2.783893 1.297906,-1.461684 -5.309154 0.9834403,-1.423673 -4.438353 1.132534,-1.434824 -3.874422 1.309906,-1.454118 -3.334099 1.454532,-8.226266 -7.940711 0.318548,-7.653338 -7.597459 0.5436841,-7.172558 -6.876869 0.7091176,-6.852255 -6.177314 0.9348017,-6.549596 -5.706586 1.172083,-7.566182 -5.285581 0.3021859,-7.419402 -4.262512 0.3970497,-7.364843 -3.611381 0.5420214,-7.325447 -3.041354 0.6528327,-7.893426 -5.113394 0.352741,-7.7953 -3.972776 0.3685473,-7.755879 -3.254499 0.5401983,-7.732438 -2.637845 0.6881542,-8.211859 -5.178144 0.4500706,-8.161573 -4.095658 0.4779313,-8.124034 -3.433609 0.6054186,-8.084008 -2.857596 0.721861,-8.549724 -5.431312 0.5785835,-8.592504 -4.580801 0.6539901,-8.594339 -4.038818 0.7605473,-8.568855 -3.516135 0.8475869,2.58333,0 0 0 0 0 0 False
