TiagoOliveira98/Thesis-Project/Difficulty_2_NEW/Dual_Task/Unity_Project/DataLogging/JointData/Logs(1651332756)_sss_Dual_Difficulty0.csv
WRIST,THUMB_CMC,THUMB_MCP,THUMB_IP,THUMB_TIP,INDEX_FINGER_MCP,INDEX_FINGER_PIP,INDEX_FINGER_DIP,INDEX_FINGER_TIP,MIDDLE_FINGER_MCP,MIDDLE_FINGER_PIP,MIDDLE_FINGER_DIP,MIDDLE_FINGER_TIP,RING_FINGER_MCP,RING_FINGER_PIP,RING_FINGER_DIP,RING_FINGER_TIP,PINKY_MCP,PINKY_PIP,PINKY_DIP,PINKY_TIP,WRIST2,THUMB_CMC2,THUMB_MCP2,THUMB_IP2,THUMB_TIP2,INDEX_FINGER_MCP2,INDEX_FINGER_PIP2,INDEX_FINGER_DIP2,INDEX_FINGER_TIP2,MIDDLE_FINGER_MCP2,MIDDLE_FINGER_PIP2,MIDDLE_FINGER_DIP2,MIDDLE_FINGER_TIP2,RING_FINGER_MCP2,RING_FINGER_PIP2,RING_FINGER_DIP2,RING_FINGER_TIP2,PINKY_MCP2,PINKY_PIP2,PINKY_DIP2,PINKY_TIP2,Timestamp,Event
-2.134063 -7.637363 0.02035037,-2.713297 -7.424652 0.2410156,-3.240414 -6.851302 0.3562466,-3.635836 -6.305299 0.4758123,-3.947777 -6.018741 0.6164376,-2.87127 -5.364663 0.09547003,-3.092808 -4.432777 0.2292515,-3.199326 -3.858281 0.3394154,-3.284065 -3.318918 0.4339436,-2.536839 -5.127246 0.1331403,-2.670084 -4.051624 0.2706938,-2.745925 -3.339134 0.4426382,-2.811402 -2.735041 0.5906764,-2.204174 -5.110242 0.222999,-2.281174 -4.081726 0.3657496,-2.354074 -3.425123 0.5159682,-2.428931 -2.886879 0.6362368,-1.854835 -5.288547 0.3348548,-1.750703 -4.455717 0.4714728,-1.698609 -3.907403 0.6157061,-1.671415 -3.38505 0.7423671,-7.61288 -7.860319 0.007565129,-7.039034 -7.618015 0.245527,-6.529217 -7.056614 0.408201,-6.165333 -6.463625 0.6144251,-5.850992 -6.074062 0.8364228,-6.818616 -5.533409 0.1206002,-6.636551 -4.556861 0.254701,-6.565866 -3.939738 0.3977706,-6.519182 -3.41538 0.5015536,-7.117933 -5.310798 0.149581,-6.93375 -4.220367 0.2281363,-6.835286 -3.532746 0.3977832,-6.75531 -2.94762 0.5482801,-7.427987 -5.311939 0.2118968,-7.294896 -4.279109 0.2921113,-7.203519 -3.659598 0.4508921,-7.116433 -3.133466 0.5800756,-7.754956 -5.505258 0.300989,-7.759143 -4.73516 0.4014496,-7.738129 -4.234131 0.5265539,-7.689185 -3.752764 0.6379981,0.01667,0 0 0 0 0 0 False
-2.134063 -7.637363 0.02035037,-2.713297 -7.424652 0.2410156,-3.240414 -6.851302 0.3562466,-3.635836 -6.305299 0.4758123,-3.947777 -6.018741 0.6164376,-2.87127 -5.364663 0.09547003,-3.092808 -4.432777 0.2292515,-3.199326 -3.858281 0.3394154,-3.284065 -3.318918 0.4339436,-2.536839 -5.127246 0.1331403,-2.670084 -4.051624 0.2706938,-2.745925 -3.339134 0.4426382,-2.811402 -2.735041 0.5906764,-2.204174 -5.110242 0.222999,-2.281174 -4.081726 0.3657496,-2.354074 -3.425123 0.5159682,-2.428931 -2.886879 0.6362368,-1.854835 -5.288547 0.3348548,-1.750703 -4.455717 0.4714728,-1.698609 -3.907403 0.6157061,-1.671415 -3.38505 0.7423671,-7.61288 -7.860319 0.007565129,-7.039034 -7.618015 0.245527,-6.529217 -7.056614 0.408201,-6.165333 -6.463625 0.6144251,-5.850992 -6.074062 0.8364228,-6.818616 -5.533409 0.1206002,-6.636551 -4.556861 0.254701,-6.565866 -3.939738 0.3977706,-6.519182 -3.41538 0.5015536,-7.117933 -5.310798 0.149581,-6.93375 -4.220367 0.2281363,-6.835286 -3.532746 0.3977832,-6.75531 -2.94762 0.5482801,-7.427987 -5.311939 0.2118968,-7.294896 -4.279109 0.2921113,-7.203519 -3.659598 0.4508921,-7.116433 -3.133466 0.5800756,-7.754956 -5.505258 0.300989,-7.759143 -4.73516 0.4014496,-7.738129 -4.234131 0.5265539,-7.689185 -3.752764 0.6379981,0.05000,0 0 0 0 0 0 False
-2.128714 -7.621732 -0.06622237,-2.708073 -7.417537 0.1592972,-3.237547 -6.850845 0.2793148,-3.637745 -6.307743 0.400952,-3.954153 -6.021046 0.5428767,-2.867218 -5.374921 0.02225911,-3.087768 -4.443998 0.1595812,-3.197338 -3.86471 0.2741242,-3.284897 -3.327861 0.3710566,-2.532979 -5.137188 0.05181006,-2.664621 -4.058216 0.1923772,-2.739008 -3.338556 0.3612246,-2.802203 -2.72967 0.5015243,-2.200253 -5.121044 0.1331004,-2.272928 -4.092202 0.2771944,-2.343081 -3.434007 0.4247261,-2.412982 -2.895095 0.5394353,-1.849206 -5.29961 0.2342491,-1.747051 -4.467729 0.3700765,-1.694754 -3.92183 0.5134681,-1.664409 -3.401845 0.6347344,-7.611151 -7.877386 0.01522164,-7.052937 -7.627326 0.264808,-6.540571 -7.088424 0.4299158,-6.16305 -6.514737 0.6344895,-5.841119 -6.153953 0.8550095,-6.820874 -5.550619 0.1293018,-6.634946 -4.58982 0.2547092,-6.553389 -3.974214 0.3997546,-6.497829 -3.456213 0.5099756,-7.111682 -5.326145 0.1499269,-6.921849 -4.247618 0.22852,-6.820868 -3.550897 0.4104343,-6.745438 -2.961648 0.5635648,-7.413503 -5.332489 0.2041863,-7.276078 -4.307745 0.2767358,-7.179238 -3.685756 0.4291885,-7.094046 -3.162052 0.5546321,-7.734003 -5.535661 0.2888863,-7.740107 -4.765359 0.3887025,-7.717056 -4.26628 0.5158458,-7.673603 -3.782327 0.6261691,0.08333,0 0 0 0 0 0 False
-2.128714 -7.621732 -0.06622237,-2.708073 -7.417537 0.1592972,-3.237547 -6.850845 0.2793148,-3.637745 -6.307743 0.400952,-3.954153 -6.021046 0.5428767,-2.867218 -5.374921 0.02225911,-3.087768 -4.443998 0.1595812,-3.197338 -3.86471 0.2741242,-3.284897 -3.327861 0.3710566,-2.532979 -5.137188 0.05181006,-2.664621 -4.058216 0.1923772,-2.739008 -3.338556 0.3612246,-2.802203 -2.72967 0.5015243,-2.200253 -5.121044 0.1331004,-2.272928 -4.092202 0.2771944,-2.343081 -3.434007 0.4247261,-2.412982 -2.895095 0.5394353,-1.849206 -5.29961 0.2342491,-1.747051 -4.467729 0.3700765,-1.694754 -3.92183 0.5134681,-1.664409 -3.401845 0.6347344,-7.611151 -7.877386 0.01522164,-7.052937 -7.627326 0.264808,-6.540571 -7.088424 0.4299158,-6.16305 -6.514737 0.6344895,-5.841119 -6.153953 0.8550095,-6.820874 -5.550619 0.1293018,-6.634946 -4.58982 0.2547092,-6.553389 -3.974214 0.3997546,-6.497829 -3.456213 0.5099756,-7.111682 -5.326145 0.1499269,-6.921849 -4.247618 0.22852,-6.820868 -3.550897 0.4104343,-6.745438 -2.961648 0.5635648,-7.413503 -5.332489 0.2041863,-7.276078 -4.307745 0.2767358,-7.179238 -3.685756 0.4291885,-7.094046 -3.162052 0.5546321,-7.734003 -5.535661 0.2888863,-7.740107 -4.765359 0.3887025,-7.717056 -4.26628 0.5158458,-7.673603 -3.782327 0.6261691,0.11667,0 0 0 0 0 0 False
-2.142565 -7.630044 -0.0445898,-2.720555 -7.422801 0.1775942,-3.246588 -6.853109 0.2954469,-3.642027 -6.312228 0.4176833,-3.95083 -6.019238 0.5585845,-2.869063 -5.369392 0.03771851,-3.084242 -4.439981 0.1761351,-3.189661 -3.864654 0.2866319,-3.274357 -3.328627 0.3788406,-2.534205 -5.137246 0.07391955,-2.66281 -4.059044 0.2166181,-2.736633 -3.3449 0.3885302,-2.800834 -2.740245 0.5352623,-2.202606 -5.124208 0.1632487,-2.275397 -4.094299 0.3094495,-2.346576 -3.436142 0.4573413,-2.420056 -2.896994 0.5731243,-1.853076 -5.305467 0.2725683,-1.746832 -4.473322 0.4105247,-1.693436 -3.929045 0.5526235,-1.665054 -3.410949 0.6758167,-7.614425 -7.909392 0.02130327,-7.052181 -7.659399 0.2490001,-6.53836 -7.111299 0.3965248,-6.163964 -6.53312 0.5902858,-5.847017 -6.169199 0.7970528,-6.816348 -5.580492 0.08439313,-6.633443 -4.620439 0.1892526,-6.55182 -4.007501 0.3243688,-6.49373 -3.487997 0.4270374,-7.109007 -5.355335 0.1048901,-6.92688 -4.284935 0.1600099,-6.824477 -3.602842 0.3322351,-6.745631 -3.023016 0.4801311,-7.412576 -5.355991 0.1596199,-7.280591 -4.340281 0.2132918,-7.183382 -3.731108 0.3609186,-7.094327 -3.21704 0.482957,-7.73398 -5.550973 0.2423953,-7.744871 -4.783247 0.3310324,-7.723493 -4.292337 0.458667,-7.679278 -3.818169 0.5725695,0.15000,0 0 0 0 0 0 False
-2.142565 -7.630044 -0.0445898,-2.720555 -7.422801 0.1775942,-3.246588 -6.853109 0.2954469,-3.642027 -6.312228 0.4176833,-3.95083 -6.019238 0.5585845,-2.869063 -5.369392 0.03771851,-3.084242 -4.439981 0.1761351,-3.189661 -3.864654 0.2866319,-3.274357 -3.328627 0.3788406,-2.534205 -5.137246 0.07391955,-2.66281 -4.059044 0.2166181,-2.736633 -3.3449 0.3885302,-2.800834 -2.740245 0.5352623,-2.202606 -5.124208 0.1632487,-2.275397 -4.094299 0.3094495,-2.346576 -3.436142 0.4573413,-2.420056 -2.896994 0.5731243,-1.853076 -5.305467 0.2725683,-1.746832 -4.473322 0.4105247,-1.693436 -3.929045 0.5526235,-1.665054 -3.410949 0.6758167,-7.614425 -7.909392 0.02130327,-7.052181 -7.659399 0.2490001,-6.53836 -7.111299 0.3965248,-6.163964 -6.53312 0.5902858,-5.847017 -6.169199 0.7970528,-6.816348 -5.580492 0.08439313,-6.633443 -4.620439 0.1892526,-6.55182 -4.007501 0.3243688,-6.49373 -3.487997 0.4270374,-7.109007 -5.355335 0.1048901,-6.92688 -4.284935 0.1600099,-6.824477 -3.602842 0.3322351,-6.745631 -3.023016 0.4801311,-7.412576 -5.355991 0.1596199,-7.280591 -4.340281 0.2132918,-7.183382 -3.731108 0.3609186,-7.094327 -3.21704 0.482957,-7.73398 -5.550973 0.2423953,-7.744871 -4.783247 0.3310324,-7.723493 -4.292337 0.458667,-7.679278 -3.818169 0.5725695,0.18333,0 0 0 0 0 0 False
-2.146954 -7.63715 -0.02383609,-2.72773 -7.424863 0.1933264,-3.250084 -6.855443 0.3088078,-3.63697 -6.308977 0.4274618,-3.942186 -6.015371 0.5635183,-2.871644 -5.370288 0.06554697,-3.091879 -4.440004 0.2016095,-3.203094 -3.867362 0.310927,-3.29099 -3.33542 0.4021538,-2.536563 -5.138567 0.1053885,-2.666389 -4.053871 0.250119,-2.743465 -3.337096 0.4248993,-2.807144 -2.726739 0.5728577,-2.206177 -5.129503 0.1981802,-2.277354 -4.092268 0.3492149,-2.348068 -3.433009 0.5012041,-2.415331 -2.89118 0.6214616,-1.859865 -5.318752 0.3076987,-1.755038 -4.485557 0.4457964,-1.700559 -3.933784 0.5901977,-1.665586 -3.40718 0.7140275,-7.591008 -7.914094 0.03702042,-7.02234 -7.657859 0.2405464,-6.517816 -7.089159 0.3811716,-6.150286 -6.501899 0.5730695,-5.835516 -6.11495 0.7779099,-6.820239 -5.568449 0.08225815,-6.638431 -4.601038 0.1971087,-6.564919 -3.982885 0.3360481,-6.517964 -3.454163 0.4364994,-7.117976 -5.349185 0.1178601,-6.938328 -4.264076 0.1778609,-6.834929 -3.572263 0.3415672,-6.753645 -2.984816 0.4836944,-7.426965 -5.352607 0.1856946,-7.300756 -4.318923 0.2470272,-7.205524 -3.705871 0.3967258,-7.115671 -3.19083 0.5145018,-7.750425 -5.545136 0.2795077,-7.761077 -4.769607 0.3670292,-7.735441 -4.268861 0.4838372,-7.680343 -3.791304 0.583824,0.21667,0 0 0 0 0 0 False
-2.152979 -7.615314 -0.07305264,-2.726396 -7.412353 0.1330507,-3.243185 -6.84874 0.2422639,-3.625038 -6.301697 0.3550126,-3.927143 -6.002377 0.4872788,-2.858826 -5.361275 -0.01269886,-3.077892 -4.432469 0.1079404,-3.188133 -3.868467 0.2068338,-3.273325 -3.340778 0.2910199,-2.531023 -5.128038 0.03221958,-2.660773 -4.052022 0.1642067,-2.736353 -3.341365 0.3318043,-2.80014 -2.738306 0.475096,-2.204907 -5.115674 0.1278949,-2.276315 -4.08485 0.2661422,-2.350061 -3.426884 0.4151291,-2.421899 -2.890601 0.533052,-1.86142 -5.299657 0.2429565,-1.750897 -4.468908 0.3750984,-1.692162 -3.915487 0.519066,-1.655688 -3.393566 0.6452011,-7.604056 -7.908311 0.05123354,-7.039202 -7.644215 0.2427502,-6.533892 -7.076988 0.3802603,-6.172177 -6.497364 0.5740166,-5.864302 -6.121587 0.7809674,-6.8296 -5.555503 0.08319455,-6.658974 -4.578422 0.1961133,-6.586921 -3.958453 0.3288959,-6.53717 -3.430206 0.4309673,-7.128779 -5.33973 0.1325918,-6.957695 -4.253271 0.2010707,-6.855582 -3.558605 0.3715297,-6.773107 -2.964092 0.5245243,-7.437135 -5.35077 0.2139233,-7.316125 -4.312021 0.2770226,-7.220304 -3.695388 0.4238753,-7.126792 -3.169588 0.5456829,-7.761683 -5.554115 0.3203359,-7.780727 -4.773669 0.4086469,-7.758931 -4.277822 0.5227715,-7.708588 -3.797391 0.6219684,0.25000,0 0 0 0 0 0 False
-2.152979 -7.615314 -0.07305264,-2.726396 -7.412353 0.1330507,-3.243185 -6.84874 0.2422639,-3.625038 -6.301697 0.3550126,-3.927143 -6.002377 0.4872788,-2.858826 -5.361275 -0.01269886,-3.077892 -4.432469 0.1079404,-3.188133 -3.868467 0.2068338,-3.273325 -3.340778 0.2910199,-2.531023 -5.128038 0.03221958,-2.660773 -4.052022 0.1642067,-2.736353 -3.341365 0.3318043,-2.80014 -2.738306 0.475096,-2.204907 -5.115674 0.1278949,-2.276315 -4.08485 0.2661422,-2.350061 -3.426884 0.4151291,-2.421899 -2.890601 0.533052,-1.86142 -5.299657 0.2429565,-1.750897 -4.468908 0.3750984,-1.692162 -3.915487 0.519066,-1.655688 -3.393566 0.6452011,-7.604056 -7.908311 0.05123354,-7.039202 -7.644215 0.2427502,-6.533892 -7.076988 0.3802603,-6.172177 -6.497364 0.5740166,-5.864302 -6.121587 0.7809674,-6.8296 -5.555503 0.08319455,-6.658974 -4.578422 0.1961133,-6.586921 -3.958453 0.3288959,-6.53717 -3.430206 0.4309673,-7.128779 -5.33973 0.1325918,-6.957695 -4.253271 0.2010707,-6.855582 -3.558605 0.3715297,-6.773107 -2.964092 0.5245243,-7.437135 -5.35077 0.2139233,-7.316125 -4.312021 0.2770226,-7.220304 -3.695388 0.4238753,-7.126792 -3.169588 0.5456829,-7.761683 -5.554115 0.3203359,-7.780727 -4.773669 0.4086469,-7.758931 -4.277822 0.5227715,-7.708588 -3.797391 0.6219684,0.28333,0 0 0 0 0 0 False
-2.138835 -7.596546 -0.1218553,-2.710497 -7.400437 0.08168893,-3.22599 -6.845001 0.187427,-3.612677 -6.307933 0.2978076,-3.90872 -6.008166 0.4257305,-2.84496 -5.354507 -0.08019895,-3.066787 -4.430115 0.03635941,-3.181425 -3.86483 0.140001,-3.271516 -3.339604 0.2270002,-2.519403 -5.123029 -0.03592948,-2.64743 -4.045079 0.09103328,-2.724792 -3.330786 0.2609064,-2.79008 -2.723375 0.4074691,-2.196123 -5.111808 0.06136641,-2.263093 -4.082519 0.1931635,-2.335074 -3.420179 0.3475119,-2.405545 -2.881555 0.4707282,-1.856268 -5.296246 0.1768298,-1.740448 -4.464983 0.3037254,-1.682567 -3.913729 0.4494674,-1.649077 -3.394205 0.575105,-7.626781 -7.906129 0.1101034,-7.048985 -7.653512 0.2970375,-6.539667 -7.082611 0.4293073,-6.173799 -6.480129 0.6159272,-5.865064 -6.083548 0.8133785,-6.84043 -5.544923 0.1319279,-6.664171 -4.58698 0.2310657,-6.587007 -3.971223 0.3595996,-6.52998 -3.448282 0.4602411,-7.141812 -5.321809 0.1770163,-6.966244 -4.251659 0.2239573,-6.866669 -3.555754 0.391303,-6.787836 -2.968206 0.5443239,-7.454224 -5.33112 0.2534627,-7.326753 -4.308891 0.2990849,-7.22861 -3.695717 0.4325755,-7.133993 -3.183113 0.547175,-7.785349 -5.532403 0.3553176,-7.789651 -4.759494 0.4385672,-7.763536 -4.262449 0.5522821,-7.711178 -3.784877 0.6505237,0.31667,0 0 0 0 0 0 False
-2.138835 -7.596546 -0.1218553,-2.710497 -7.400437 0.08168893,-3.22599 -6.845001 0.187427,-3.612677 -6.307933 0.2978076,-3.90872 -6.008166 0.4257305,-2.84496 -5.354507 -0.08019895,-3.066787 -4.430115 0.03635941,-3.181425 -3.86483 0.140001,-3.271516 -3.339604 0.2270002,-2.519403 -5.123029 -0.03592948,-2.64743 -4.045079 0.09103328,-2.724792 -3.330786 0.2609064,-2.79008 -2.723375 0.4074691,-2.196123 -5.111808 0.06136641,-2.263093 -4.082519 0.1931635,-2.335074 -3.420179 0.3475119,-2.405545 -2.881555 0.4707282,-1.856268 -5.296246 0.1768298,-1.740448 -4.464983 0.3037254,-1.682567 -3.913729 0.4494674,-1.649077 -3.394205 0.575105,-7.626781 -7.906129 0.1101034,-7.048985 -7.653512 0.2970375,-6.539667 -7.082611 0.4293073,-6.173799 -6.480129 0.6159272,-5.865064 -6.083548 0.8133785,-6.84043 -5.544923 0.1319279,-6.664171 -4.58698 0.2310657,-6.587007 -3.971223 0.3595996,-6.52998 -3.448282 0.4602411,-7.141812 -5.321809 0.1770163,-6.966244 -4.251659 0.2239573,-6.866669 -3.555754 0.391303,-6.787836 -2.968206 0.5443239,-7.454224 -5.33112 0.2534627,-7.326753 -4.308891 0.2990849,-7.22861 -3.695717 0.4325755,-7.133993 -3.183113 0.547175,-7.785349 -5.532403 0.3553176,-7.789651 -4.759494 0.4385672,-7.763536 -4.262449 0.5522821,-7.711178 -3.784877 0.6505237,0.35000,0 0 0 0 0 0 False
-2.121153 -7.610706 -0.06173715,-2.695614 -7.412616 0.1522052,-3.216389 -6.848762 0.2682275,-3.598654 -6.302725 0.3868945,-3.90303 -5.991453 0.5271103,-2.844611 -5.361499 0.01114793,-3.062055 -4.436101 0.1372399,-3.176975 -3.870706 0.2471369,-3.271725 -3.341316 0.3405725,-2.514511 -5.123154 0.05715822,-2.641729 -4.052394 0.1985808,-2.724172 -3.339009 0.3764594,-2.793456 -2.729211 0.5287274,-2.187696 -5.109518 0.1563994,-2.257128 -4.086717 0.2982487,-2.332245 -3.42803 0.4606644,-2.403017 -2.888753 0.5882524,-1.843997 -5.291425 0.2727102,-1.746148 -4.459857 0.4082036,-1.703467 -3.909448 0.5575829,-1.684285 -3.38967 0.6875433,-7.646019 -7.925207 0.1223022,-7.063223 -7.673542 0.302346,-6.552611 -7.096981 0.4277639,-6.189085 -6.488096 0.6080574,-5.881705 -6.088605 0.7975895,-6.855481 -5.562482 0.1347906,-6.676759 -4.606246 0.2347952,-6.595855 -3.996355 0.362508,-6.533119 -3.470006 0.4616896,-7.157994 -5.337711 0.1811986,-6.984727 -4.271404 0.2330236,-6.882086 -3.586262 0.4039805,-6.799062 -3.000535 0.5557365,-7.469762 -5.344571 0.2608361,-7.346427 -4.32555 0.3098232,-7.248659 -3.71525 0.4430909,-7.153811 -3.202693 0.5567011,-7.7985 -5.544649 0.3632455,-7.804388 -4.770861 0.4526927,-7.775727 -4.270607 0.5734432,-7.719222 -3.794425 0.6769764,0.38333,0 0 0 0 0 0 False
-2.121153 -7.610706 -0.06173715,-2.695614 -7.412616 0.1522052,-3.216389 -6.848762 0.2682275,-3.598654 -6.302725 0.3868945,-3.90303 -5.991453 0.5271103,-2.844611 -5.361499 0.01114793,-3.062055 -4.436101 0.1372399,-3.176975 -3.870706 0.2471369,-3.271725 -3.341316 0.3405725,-2.514511 -5.123154 0.05715822,-2.641729 -4.052394 0.1985808,-2.724172 -3.339009 0.3764594,-2.793456 -2.729211 0.5287274,-2.187696 -5.109518 0.1563994,-2.257128 -4.086717 0.2982487,-2.332245 -3.42803 0.4606644,-2.403017 -2.888753 0.5882524,-1.843997 -5.291425 0.2727102,-1.746148 -4.459857 0.4082036,-1.703467 -3.909448 0.5575829,-1.684285 -3.38967 0.6875433,-7.646019 -7.925207 0.1223022,-7.063223 -7.673542 0.302346,-6.552611 -7.096981 0.4277639,-6.189085 -6.488096 0.6080574,-5.881705 -6.088605 0.7975895,-6.855481 -5.562482 0.1347906,-6.676759 -4.606246 0.2347952,-6.595855 -3.996355 0.362508,-6.533119 -3.470006 0.4616896,-7.157994 -5.337711 0.1811986,-6.984727 -4.271404 0.2330236,-6.882086 -3.586262 0.4039805,-6.799062 -3.000535 0.5557365,-7.469762 -5.344571 0.2608361,-7.346427 -4.32555 0.3098232,-7.248659 -3.71525 0.4430909,-7.153811 -3.202693 0.5567011,-7.7985 -5.544649 0.3632455,-7.804388 -4.770861 0.4526927,-7.775727 -4.270607 0.5734432,-7.719222 -3.794425 0.6769764,0.41667,0 0 0 0 0 0 False
-2.099297 -7.633714 -0.05774469,-2.669876 -7.4277 0.1691759,-3.178463 -6.838117 0.2932383,-3.538038 -6.227728 0.4247003,-3.846638 -5.839443 0.5806265,-2.820767 -5.368217 -0.003196683,-3.032351 -4.442495 0.1181242,-3.14065 -3.87585 0.2105247,-3.227779 -3.342336 0.2908179,-2.495771 -5.144327 0.03289462,-2.629249 -4.087997 0.1626377,-2.71425 -3.3941 0.3189074,-2.783507 -2.797267 0.4594178,-2.176753 -5.135309 0.1271696,-2.257768 -4.107671 0.2632208,-2.338105 -3.454382 0.4221835,-2.411706 -2.903673 0.5465908,-1.841641 -5.321597 0.2447801,-1.764253 -4.495732 0.3726938,-1.734735 -3.958131 0.5235655,-1.720903 -3.448305 0.6534377,-7.661715 -7.945201 0.09289195,-7.088313 -7.691871 0.3158369,-6.581116 -7.087771 0.4683628,-6.225167 -6.463794 0.6664794,-5.913771 -6.044034 0.8733025,-6.885519 -5.587712 0.1989323,-6.714782 -4.609508 0.3371543,-6.64049 -4.000391 0.476348,-6.586571 -3.469176 0.5828685,-7.190603 -5.366966 0.2454822,-7.022266 -4.284013 0.3417967,-6.918632 -3.587007 0.5286782,-6.831017 -2.9826 0.6990077,-7.502944 -5.380973 0.3246474,-7.382458 -4.350702 0.4220281,-7.277141 -3.727617 0.5796452,-7.172976 -3.199543 0.7148629,-7.832053 -5.592981 0.4274336,-7.84472 -4.817934 0.5572426,-7.823459 -4.313884 0.6918116,-7.771563 -3.830926 0.802424,0.45000,0 0 0 0 0 0 False
-2.099297 -7.633714 -0.05774469,-2.669876 -7.4277 0.1691759,-3.178463 -6.838117 0.2932383,-3.538038 -6.227728 0.4247003,-3.846638 -5.839443 0.5806265,-2.820767 -5.368217 -0.003196683,-3.032351 -4.442495 0.1181242,-3.14065 -3.87585 0.2105247,-3.227779 -3.342336 0.2908179,-2.495771 -5.144327 0.03289462,-2.629249 -4.087997 0.1626377,-2.71425 -3.3941 0.3189074,-2.783507 -2.797267 0.4594178,-2.176753 -5.135309 0.1271696,-2.257768 -4.107671 0.2632208,-2.338105 -3.454382 0.4221835,-2.411706 -2.903673 0.5465908,-1.841641 -5.321597 0.2447801,-1.764253 -4.495732 0.3726938,-1.734735 -3.958131 0.5235655,-1.720903 -3.448305 0.6534377,-7.661715 -7.945201 0.09289195,-7.088313 -7.691871 0.3158369,-6.581116 -7.087771 0.4683628,-6.225167 -6.463794 0.6664794,-5.913771 -6.044034 0.8733025,-6.885519 -5.587712 0.1989323,-6.714782 -4.609508 0.3371543,-6.64049 -4.000391 0.476348,-6.586571 -3.469176 0.5828685,-7.190603 -5.366966 0.2454822,-7.022266 -4.284013 0.3417967,-6.918632 -3.587007 0.5286782,-6.831017 -2.9826 0.6990077,-7.502944 -5.380973 0.3246474,-7.382458 -4.350702 0.4220281,-7.277141 -3.727617 0.5796452,-7.172976 -3.199543 0.7148629,-7.832053 -5.592981 0.4274336,-7.84472 -4.817934 0.5572426,-7.823459 -4.313884 0.6918116,-7.771563 -3.830926 0.802424,0.48333,0 0 0 0 0 0 False
-2.086941 -7.665906 0.01729038,-2.657102 -7.419227 0.222644,-3.134932 -6.735998 0.3014565,-3.428828 -6.043731 0.3962426,-3.743089 -5.618315 0.5251328,-2.796511 -5.359134 0.02627862,-2.995369 -4.44025 0.1160662,-3.099327 -3.879216 0.1754526,-3.184397 -3.340095 0.2437671,-2.469287 -5.151344 0.05826342,-2.598404 -4.122169 0.1552715,-2.683372 -3.446157 0.2822369,-2.747746 -2.855121 0.4068354,-2.152887 -5.14853 0.1510427,-2.22626 -4.149328 0.256752,-2.303483 -3.50461 0.4053335,-2.37174 -2.946949 0.5309504,-1.819246 -5.324732 0.2686123,-1.759416 -4.512743 0.3850134,-1.744294 -3.975983 0.5415559,-1.741155 -3.464864 0.6869073,-7.70428 -7.983795 0.2312445,-7.127616 -7.725761 0.4707804,-6.634488 -7.083509 0.6372669,-6.298879 -6.427978 0.8489121,-5.987136 -5.995669 1.068509,-6.936494 -5.586522 0.3401187,-6.792116 -4.624721 0.4735886,-6.731536 -4.034034 0.6149962,-6.682467 -3.511889 0.7266066,-7.241611 -5.363653 0.3812256,-7.09826 -4.280565 0.4750791,-7.001754 -3.594021 0.6586649,-6.912683 -2.983932 0.830166,-7.55494 -5.37895 0.4633256,-7.445745 -4.333408 0.5473708,-7.343399 -3.705596 0.707112,-7.238345 -3.157612 0.849694,-7.891132 -5.597759 0.5655614,-7.897241 -4.807748 0.6826359,-7.87139 -4.300962 0.8163589,-7.820386 -3.808033 0.9274252,0.51667,0 0 0 0 0 0 False
-2.056017 -7.701232 0.1547913,-2.621317 -7.395105 0.317461,-3.074466 -6.665773 0.3505938,-3.333112 -5.934852 0.4250349,-3.632885 -5.482982 0.5386461,-2.772143 -5.334358 0.01857269,-2.978063 -4.437948 0.08006066,-3.093176 -3.885407 0.1242339,-3.194275 -3.357004 0.1834677,-2.444552 -5.149078 0.06696209,-2.561869 -4.178478 0.1093907,-2.655352 -3.574247 0.2117136,-2.733487 -3.046462 0.3158384,-2.129591 -5.159193 0.1829964,-2.178237 -4.215613 0.2437611,-2.244449 -3.640296 0.3928399,-2.316 -3.140302 0.515478,-1.805974 -5.336956 0.3272769,-1.772153 -4.577575 0.4206153,-1.785923 -4.090148 0.5646563,-1.820401 -3.628697 0.6916066,-7.70428 -7.983795 0.2312445,-7.127616 -7.725761 0.4707804,-6.634488 -7.083509 0.6372669,-6.298879 -6.427978 0.8489121,-5.987136 -5.995669 1.068509,-6.936494 -5.586522 0.3401187,-6.792116 -4.624721 0.4735886,-6.731536 -4.034034 0.6149962,-6.682467 -3.511889 0.7266066,-7.241611 -5.363653 0.3812256,-7.09826 -4.280565 0.4750791,-7.001754 -3.594021 0.6586649,-6.912683 -2.983932 0.830166,-7.55494 -5.37895 0.4633256,-7.445745 -4.333408 0.5473708,-7.343399 -3.705596 0.707112,-7.238345 -3.157612 0.849694,-7.891132 -5.597759 0.5655614,-7.897241 -4.807748 0.6826359,-7.87139 -4.300962 0.8163589,-7.820386 -3.808033 0.9274252,0.55000,0 0 0 0 0 0 False
-2.056017 -7.701232 0.1547913,-2.621317 -7.395105 0.317461,-3.074466 -6.665773 0.3505938,-3.333112 -5.934852 0.4250349,-3.632885 -5.482982 0.5386461,-2.772143 -5.334358 0.01857269,-2.978063 -4.437948 0.08006066,-3.093176 -3.885407 0.1242339,-3.194275 -3.357004 0.1834677,-2.444552 -5.149078 0.06696209,-2.561869 -4.178478 0.1093907,-2.655352 -3.574247 0.2117136,-2.733487 -3.046462 0.3158384,-2.129591 -5.159193 0.1829964,-2.178237 -4.215613 0.2437611,-2.244449 -3.640296 0.3928399,-2.316 -3.140302 0.515478,-1.805974 -5.336956 0.3272769,-1.772153 -4.577575 0.4206153,-1.785923 -4.090148 0.5646563,-1.820401 -3.628697 0.6916066,-7.729416 -7.986263 0.2647983,-7.148998 -7.70495 0.4804527,-6.67058 -7.016717 0.6447845,-6.355112 -6.341388 0.8506199,-6.053302 -5.902793 1.069992,-6.980118 -5.561318 0.4110695,-6.843322 -4.579401 0.5547984,-6.789344 -3.970964 0.7013548,-6.746718 -3.432432 0.8169458,-7.294117 -5.354607 0.4594683,-7.165588 -4.252535 0.5634217,-7.073021 -3.551763 0.7437795,-6.987661 -2.922462 0.916704,-7.608526 -5.373428 0.537299,-7.510405 -4.31553 0.6344532,-7.411246 -3.682558 0.7893581,-7.309614 -3.122686 0.9220777,-7.94225 -5.579181 0.6347704,-7.953135 -4.781232 0.7600486,-7.933278 -4.267747 0.8802368,-7.887321 -3.750956 0.9792045,0.58333,0 0 0 0 0 0 False
-2.037847 -7.646675 0.1841581,-2.598561 -7.347789 0.4570278,-3.044293 -6.579893 0.5373904,-3.279308 -5.83708 0.6622608,-3.548105 -5.286816 0.8202365,-2.772957 -5.239324 0.005254447,-2.980951 -4.393554 0.06537635,-3.080087 -3.862525 0.1711251,-3.160933 -3.368972 0.2904542,-2.430262 -5.089435 0.03507151,-2.477998 -4.17043 0.1553273,-2.504325 -3.754234 0.3963604,-2.512836 -3.614554 0.5647561,-2.112038 -5.134393 0.1398224,-2.097708 -4.259302 0.3067654,-2.096618 -4.002851 0.6536472,-2.107495 -4.038362 0.8706691,-1.786451 -5.320511 0.2776005,-1.760105 -4.606185 0.4942945,-1.773121 -4.415035 0.7611518,-1.802912 -4.478724 0.9393697,-7.757229 -7.960216 0.1935187,-7.172533 -7.660552 0.4140163,-6.701633 -6.955328 0.5828344,-6.395736 -6.27046 0.7951055,-6.101011 -5.79917 1.022977,-7.030073 -5.541961 0.338214,-6.883244 -4.547414 0.5070374,-6.827599 -3.930385 0.6694118,-6.788977 -3.384288 0.7894229,-7.342651 -5.346248 0.3926705,-7.216814 -4.21783 0.510185,-7.132362 -3.506471 0.7055357,-7.057217 -2.866368 0.8811008,-7.651057 -5.366374 0.4803837,-7.561772 -4.290187 0.594864,-7.474418 -3.644688 0.7541122,-7.386814 -3.069467 0.8878244,-7.978312 -5.570186 0.5880854,-7.991758 -4.747709 0.729516,-7.976307 -4.219461 0.8512203,-7.938333 -3.691663 0.9518449,0.61667,0 0 0 0 0 0 False
-2.037847 -7.646675 0.1841581,-2.598561 -7.347789 0.4570278,-3.044293 -6.579893 0.5373904,-3.279308 -5.83708 0.6622608,-3.548105 -5.286816 0.8202365,-2.772957 -5.239324 0.005254447,-2.980951 -4.393554 0.06537635,-3.080087 -3.862525 0.1711251,-3.160933 -3.368972 0.2904542,-2.430262 -5.089435 0.03507151,-2.477998 -4.17043 0.1553273,-2.504325 -3.754234 0.3963604,-2.512836 -3.614554 0.5647561,-2.112038 -5.134393 0.1398224,-2.097708 -4.259302 0.3067654,-2.096618 -4.002851 0.6536472,-2.107495 -4.038362 0.8706691,-1.786451 -5.320511 0.2776005,-1.760105 -4.606185 0.4942945,-1.773121 -4.415035 0.7611518,-1.802912 -4.478724 0.9393697,-7.757229 -7.960216 0.1935187,-7.172533 -7.660552 0.4140163,-6.701633 -6.955328 0.5828344,-6.395736 -6.27046 0.7951055,-6.101011 -5.79917 1.022977,-7.030073 -5.541961 0.338214,-6.883244 -4.547414 0.5070374,-6.827599 -3.930385 0.6694118,-6.788977 -3.384288 0.7894229,-7.342651 -5.346248 0.3926705,-7.216814 -4.21783 0.510185,-7.132362 -3.506471 0.7055357,-7.057217 -2.866368 0.8811008,-7.651057 -5.366374 0.4803837,-7.561772 -4.290187 0.594864,-7.474418 -3.644688 0.7541122,-7.386814 -3.069467 0.8878244,-7.978312 -5.570186 0.5880854,-7.991758 -4.747709 0.729516,-7.976307 -4.219461 0.8512203,-7.938333 -3.691663 0.9518449,0.65000,0 0 0 0 0 0 False
-2.021751 -7.564027 -0.2149563,-2.585413 -7.28404 0.05502099,-3.014769 -6.507629 0.2046936,-3.253773 -5.732456 0.3623942,-3.527185 -5.184589 0.4952387,-2.816497 -5.260805 -0.3461492,-2.989533 -4.39866 -0.173597,-3.0954 -3.844448 0.02037182,-3.180651 -3.379695 0.1827173,-2.475251 -5.130331 -0.3106538,-2.514199 -4.060669 0.1152204,-2.567781 -4.190984 0.4581795,-2.56363 -4.632074 0.5587669,-2.146818 -5.167342 -0.2141884,-2.130887 -4.185682 0.1368743,-2.213954 -4.450467 0.4228457,-2.252271 -4.961565 0.4942084,-1.794962 -5.358665 -0.08179802,-1.7755 -4.572576 0.2095838,-1.873219 -4.698076 0.4449477,-1.924183 -5.138233 0.5415377,-7.77083 -7.93917 0.277735,-7.198057 -7.594364 0.4806832,-6.733493 -6.854201 0.6214154,-6.438167 -6.157455 0.8163959,-6.158622 -5.67657 1.018582,-7.099151 -5.459814 0.3241868,-6.976184 -4.478263 0.4302449,-6.915025 -3.885475 0.5593315,-6.8573 -3.361522 0.6615774,-7.407455 -5.287134 0.3636228,-7.308316 -4.180304 0.4137758,-7.232718 -3.496828 0.5834531,-7.157707 -2.897095 0.7393111,-7.701038 -5.322286 0.442652,-7.641179 -4.271745 0.5037959,-7.572373 -3.649066 0.6486795,-7.494421 -3.103418 0.7721143,-8.000813 -5.535986 0.5427604,-8.033947 -4.742127 0.6394555,-8.028157 -4.22347 0.7541261,-7.992124 -3.717531 0.8537031,0.68333,0 0 0 0 0 0 False
-2.021751 -7.564027 -0.2149563,-2.585413 -7.28404 0.05502099,-3.014769 -6.507629 0.2046936,-3.253773 -5.732456 0.3623942,-3.527185 -5.184589 0.4952387,-2.816497 -5.260805 -0.3461492,-2.989533 -4.39866 -0.173597,-3.0954 -3.844448 0.02037182,-3.180651 -3.379695 0.1827173,-2.475251 -5.130331 -0.3106538,-2.514199 -4.060669 0.1152204,-2.567781 -4.190984 0.4581795,-2.56363 -4.632074 0.5587669,-2.146818 -5.167342 -0.2141884,-2.130887 -4.185682 0.1368743,-2.213954 -4.450467 0.4228457,-2.252271 -4.961565 0.4942084,-1.794962 -5.358665 -0.08179802,-1.7755 -4.572576 0.2095838,-1.873219 -4.698076 0.4449477,-1.924183 -5.138233 0.5415377,-7.77083 -7.93917 0.277735,-7.198057 -7.594364 0.4806832,-6.733493 -6.854201 0.6214154,-6.438167 -6.157455 0.8163959,-6.158622 -5.67657 1.018582,-7.099151 -5.459814 0.3241868,-6.976184 -4.478263 0.4302449,-6.915025 -3.885475 0.5593315,-6.8573 -3.361522 0.6615774,-7.407455 -5.287134 0.3636228,-7.308316 -4.180304 0.4137758,-7.232718 -3.496828 0.5834531,-7.157707 -2.897095 0.7393111,-7.701038 -5.322286 0.442652,-7.641179 -4.271745 0.5037959,-7.572373 -3.649066 0.6486795,-7.494421 -3.103418 0.7721143,-8.000813 -5.535986 0.5427604,-8.033947 -4.742127 0.6394555,-8.028157 -4.22347 0.7541261,-7.992124 -3.717531 0.8537031,0.71667,0 0 0 0 0 0 False
-2.054795 -7.585682 -0.08681544,-2.599138 -7.252437 0.1704792,-2.999648 -6.46278 0.3010893,-3.250898 -5.685909 0.4561123,-3.529626 -5.080343 0.5810184,-2.832014 -5.249289 -0.2397053,-2.996038 -4.424153 -0.1173289,-3.100196 -3.864563 0.03921713,-3.18854 -3.314983 0.1834098,-2.49412 -5.112219 -0.182122,-2.533343 -4.095688 0.2701824,-2.5712 -4.606244 0.5890677,-2.56245 -5.182231 0.6765968,-2.168083 -5.159536 -0.07434095,-2.156656 -4.242902 0.3229265,-2.24384 -4.874019 0.5592195,-2.270917 -5.499176 0.5596814,-1.81828 -5.362491 0.06917265,-1.815339 -4.640027 0.3711545,-1.939013 -4.972049 0.5503958,-1.988235 -5.470962 0.5874402,-7.787415 -7.915299 0.4634726,-7.225731 -7.507432 0.6287022,-6.774003 -6.735361 0.7424955,-6.488606 -6.028923 0.9196864,-6.209998 -5.543293 1.100129,-7.153907 -5.351779 0.3801131,-7.018611 -4.412232 0.4399822,-6.960779 -3.839274 0.530602,-6.912251 -3.337974 0.5963285,-7.466292 -5.203411 0.4153697,-7.372814 -4.190974 0.391486,-7.326092 -3.589191 0.5004945,-7.290287 -3.083689 0.601303,-7.757464 -5.249254 0.4995611,-7.709148 -4.301023 0.4969991,-7.668543 -3.740243 0.5891799,-7.621388 -3.262368 0.6713978,-8.051813 -5.461342 0.6095798,-8.078839 -4.739538 0.653083,-8.080914 -4.271547 0.7342411,-8.053047 -3.819798 0.8091329,0.75000,0 0 0 0 0 0 False
-2.054795 -7.585682 -0.08681544,-2.599138 -7.252437 0.1704792,-2.999648 -6.46278 0.3010893,-3.250898 -5.685909 0.4561123,-3.529626 -5.080343 0.5810184,-2.832014 -5.249289 -0.2397053,-2.996038 -4.424153 -0.1173289,-3.100196 -3.864563 0.03921713,-3.18854 -3.314983 0.1834098,-2.49412 -5.112219 -0.182122,-2.533343 -4.095688 0.2701824,-2.5712 -4.606244 0.5890677,-2.56245 -5.182231 0.6765968,-2.168083 -5.159536 -0.07434095,-2.156656 -4.242902 0.3229265,-2.24384 -4.874019 0.5592195,-2.270917 -5.499176 0.5596814,-1.81828 -5.362491 0.06917265,-1.815339 -4.640027 0.3711545,-1.939013 -4.972049 0.5503958,-1.988235 -5.470962 0.5874402,-7.787415 -7.915299 0.4634726,-7.225731 -7.507432 0.6287022,-6.774003 -6.735361 0.7424955,-6.488606 -6.028923 0.9196864,-6.209998 -5.543293 1.100129,-7.153907 -5.351779 0.3801131,-7.018611 -4.412232 0.4399822,-6.960779 -3.839274 0.530602,-6.912251 -3.337974 0.5963285,-7.466292 -5.203411 0.4153697,-7.372814 -4.190974 0.391486,-7.326092 -3.589191 0.5004945,-7.290287 -3.083689 0.601303,-7.757464 -5.249254 0.4995611,-7.709148 -4.301023 0.4969991,-7.668543 -3.740243 0.5891799,-7.621388 -3.262368 0.6713978,-8.051813 -5.461342 0.6095798,-8.078839 -4.739538 0.653083,-8.080914 -4.271547 0.7342411,-8.053047 -3.819798 0.8091329,0.78333,0 0 0 0 0 0 False
-2.072521 -7.506553 -0.182584,-2.610378 -7.175094 0.1052974,-3.005337 -6.371397 0.2393259,-3.256639 -5.608644 0.4020877,-3.542102 -5.023012 0.5484665,-2.844487 -5.168201 -0.2465788,-3.021677 -4.376365 -0.04913278,-3.125109 -3.824474 0.1538045,-3.207781 -3.248019 0.3242908,-2.511851 -5.059011 -0.1709661,-2.595369 -4.171447 0.3834475,-2.624855 -4.89125 0.7032892,-2.596379 -5.50562 0.7742171,-2.174196 -5.127469 -0.04045266,-2.217477 -4.358785 0.4534802,-2.303697 -5.161672 0.6558648,-2.302939 -5.794994 0.6305972,-1.805086 -5.347475 0.1325132,-1.83232 -4.700914 0.4962336,-1.966586 -5.167718 0.6422076,-2.007895 -5.693087 0.6371762,-7.788784 -7.846507 0.4299947,-7.241676 -7.45331 0.5798848,-6.80867 -6.669239 0.6720458,-6.531577 -5.957345 0.8221724,-6.268518 -5.43677 0.9872535,-7.179983 -5.267362 0.272938,-7.037457 -4.33257 0.2958627,-6.983425 -3.757779 0.3906825,-6.934479 -3.249784 0.4631646,-7.492292 -5.143919 0.3052666,-7.42021 -4.206424 0.2558736,-7.391759 -3.70624 0.3558174,-7.373349 -3.331303 0.4404119,-7.78163 -5.196366 0.3883619,-7.753109 -4.306298 0.3587137,-7.727209 -3.807262 0.4418635,-7.692286 -3.415931 0.5083578,-8.07236 -5.401998 0.5011414,-8.101524 -4.717562 0.5131202,-8.108874 -4.280895 0.5705019,-8.084415 -3.879543 0.6196818,0.81667,0 0 0 0 0 0 False
-2.082263 -7.43289 -0.464267,-2.602997 -7.113772 -0.1212857,-3.013832 -6.337306 0.02560484,-3.260865 -5.587341 0.1908703,-3.533771 -4.995037 0.3316293,-2.875341 -5.185142 -0.4184609,-3.061307 -4.38355 -0.1331924,-3.163921 -3.824591 0.1194104,-3.240786 -3.258926 0.3280972,-2.543656 -5.07295 -0.3766958,-2.625096 -4.288486 0.2427381,-2.629489 -5.09341 0.5394553,-2.5897 -5.724341 0.5917023,-2.198183 -5.11614 -0.2721006,-2.241251 -4.433275 0.2829964,-2.308236 -5.296176 0.4221154,-2.303363 -5.925224 0.3584641,-1.824376 -5.306055 -0.1271461,-1.84092 -4.681108 0.2854297,-1.962481 -5.230941 0.3928186,-2.008955 -5.772254 0.3441971,-7.790463 -7.742709 0.2674521,-7.258654 -7.383155 0.4640892,-6.831493 -6.602521 0.5700327,-6.546119 -5.899415 0.714668,-6.264558 -5.393301 0.8811357,-7.201071 -5.197571 0.1637645,-7.044124 -4.306041 0.2027269,-6.992599 -3.73674 0.3434743,-6.946908 -3.217278 0.4528641,-7.512194 -5.083232 0.1878816,-7.441854 -4.194088 0.1789724,-7.412169 -3.752483 0.3350974,-7.390828 -3.450979 0.4599879,-7.799412 -5.147106 0.2611114,-7.775715 -4.312767 0.2573374,-7.747705 -3.865142 0.3924199,-7.712193 -3.537212 0.4942768,-8.086425 -5.357633 0.3675145,-8.113324 -4.713729 0.3951074,-8.113935 -4.307817 0.4790899,-8.084531 -3.945245 0.5549862,0.85000,0 0 0 0 0 0 False
-2.082263 -7.43289 -0.464267,-2.602997 -7.113772 -0.1212857,-3.013832 -6.337306 0.02560484,-3.260865 -5.587341 0.1908703,-3.533771 -4.995037 0.3316293,-2.875341 -5.185142 -0.4184609,-3.061307 -4.38355 -0.1331924,-3.163921 -3.824591 0.1194104,-3.240786 -3.258926 0.3280972,-2.543656 -5.07295 -0.3766958,-2.625096 -4.288486 0.2427381,-2.629489 -5.09341 0.5394553,-2.5897 -5.724341 0.5917023,-2.198183 -5.11614 -0.2721006,-2.241251 -4.433275 0.2829964,-2.308236 -5.296176 0.4221154,-2.303363 -5.925224 0.3584641,-1.824376 -5.306055 -0.1271461,-1.84092 -4.681108 0.2854297,-1.962481 -5.230941 0.3928186,-2.008955 -5.772254 0.3441971,-7.790463 -7.742709 0.2674521,-7.258654 -7.383155 0.4640892,-6.831493 -6.602521 0.5700327,-6.546119 -5.899415 0.714668,-6.264558 -5.393301 0.8811357,-7.201071 -5.197571 0.1637645,-7.044124 -4.306041 0.2027269,-6.992599 -3.73674 0.3434743,-6.946908 -3.217278 0.4528641,-7.512194 -5.083232 0.1878816,-7.441854 -4.194088 0.1789724,-7.412169 -3.752483 0.3350974,-7.390828 -3.450979 0.4599879,-7.799412 -5.147106 0.2611114,-7.775715 -4.312767 0.2573374,-7.747705 -3.865142 0.3924199,-7.712193 -3.537212 0.4942768,-8.086425 -5.357633 0.3675145,-8.113324 -4.713729 0.3951074,-8.113935 -4.307817 0.4790899,-8.084531 -3.945245 0.5549862,0.88333,0 0 0 0 0 0 False
-2.1108 -7.306558 -0.510604,-2.623284 -7.02683 -0.1424104,-3.043361 -6.247591 0.00151515,-3.293641 -5.503183 0.1630121,-3.587004 -4.96524 0.3043868,-2.927339 -5.10783 -0.3668487,-3.120255 -4.304065 0.007591784,-3.217315 -3.742086 0.2884401,-3.28216 -3.178737 0.5182085,-2.588198 -4.967483 -0.3464661,-2.631917 -4.287956 0.3093007,-2.596187 -5.184461 0.5610502,-2.548638 -5.811698 0.5750697,-2.232816 -4.995691 -0.2563894,-2.25263 -4.438289 0.3354129,-2.291763 -5.364673 0.4143813,-2.288796 -5.951578 0.3193587,-1.865418 -5.191032 -0.129459,-1.844319 -4.655177 0.3141142,-1.938254 -5.278235 0.3919317,-1.98984 -5.790641 0.3182427,-7.776523 -7.683213 0.1949119,-7.244539 -7.345124 0.3743435,-6.821161 -6.545394 0.4482867,-6.529181 -5.850206 0.5665944,-6.254889 -5.359923 0.7059429,-7.192917 -5.143763 -0.01903889,-7.042941 -4.284935 -0.02495869,-6.990443 -3.707744 0.07917777,-6.933816 -3.185954 0.1609081,-7.512737 -5.048446 0.008839473,-7.457052 -4.22693 -0.06353319,-7.437843 -3.823457 0.04962248,-7.412437 -3.549682 0.1364788,-7.805217 -5.138313 0.08961283,-7.792746 -4.362212 0.04819405,-7.764928 -3.955025 0.1572932,-7.718505 -3.666126 0.2381898,-8.086576 -5.378591 0.2121279,-8.127393 -4.771304 0.2145348,-8.132362 -4.383283 0.3010306,-8.096428 -4.036842 0.3792836,0.91667,0 0 0 0 0 0 False
-2.1108 -7.306558 -0.510604,-2.623284 -7.02683 -0.1424104,-3.043361 -6.247591 0.00151515,-3.293641 -5.503183 0.1630121,-3.587004 -4.96524 0.3043868,-2.927339 -5.10783 -0.3668487,-3.120255 -4.304065 0.007591784,-3.217315 -3.742086 0.2884401,-3.28216 -3.178737 0.5182085,-2.588198 -4.967483 -0.3464661,-2.631917 -4.287956 0.3093007,-2.596187 -5.184461 0.5610502,-2.548638 -5.811698 0.5750697,-2.232816 -4.995691 -0.2563894,-2.25263 -4.438289 0.3354129,-2.291763 -5.364673 0.4143813,-2.288796 -5.951578 0.3193587,-1.865418 -5.191032 -0.129459,-1.844319 -4.655177 0.3141142,-1.938254 -5.278235 0.3919317,-1.98984 -5.790641 0.3182427,-7.776523 -7.683213 0.1949119,-7.244539 -7.345124 0.3743435,-6.821161 -6.545394 0.4482867,-6.529181 -5.850206 0.5665944,-6.254889 -5.359923 0.7059429,-7.192917 -5.143763 -0.01903889,-7.042941 -4.284935 -0.02495869,-6.990443 -3.707744 0.07917777,-6.933816 -3.185954 0.1609081,-7.512737 -5.048446 0.008839473,-7.457052 -4.22693 -0.06353319,-7.437843 -3.823457 0.04962248,-7.412437 -3.549682 0.1364788,-7.805217 -5.138313 0.08961283,-7.792746 -4.362212 0.04819405,-7.764928 -3.955025 0.1572932,-7.718505 -3.666126 0.2381898,-8.086576 -5.378591 0.2121279,-8.127393 -4.771304 0.2145348,-8.132362 -4.383283 0.3010306,-8.096428 -4.036842 0.3792836,0.95000,0 0 0 0 0 0 False
-2.162939 -7.182748 -0.4534563,-2.668596 -6.948896 -0.0765996,-3.104662 -6.180864 0.08494699,-3.346972 -5.451711 0.2680147,-3.649298 -4.967453 0.4421001,-3.014318 -5.008672 -0.2070889,-3.220486 -4.215673 0.233584,-3.310335 -3.673171 0.5261786,-3.375243 -3.146434 0.7286654,-2.668351 -4.842666 -0.183336,-2.71106 -4.269699 0.521283,-2.65589 -5.182148 0.7614046,-2.610859 -5.804359 0.735884,-2.295844 -4.868349 -0.08708608,-2.31705 -4.427314 0.5560987,-2.328701 -5.349565 0.6281728,-2.318967 -5.910476 0.5097231,-1.908173 -5.058965 0.04063675,-1.872898 -4.583049 0.5069791,-1.944948 -5.214592 0.580987,-2.004115 -5.714897 0.4978341,-7.799484 -7.647327 0.06159079,-7.265048 -7.333644 0.2854442,-6.822414 -6.55371 0.3793397,-6.516097 -5.872095 0.5025578,-6.24539 -5.406585 0.6472114,-7.184515 -5.151521 -0.09947462,-7.032103 -4.284225 -0.1066694,-6.983272 -3.697889 -0.01718587,-6.938758 -3.173843 0.05889491,-7.510209 -5.052846 -0.1125883,-7.447601 -4.245421 -0.2065879,-7.433451 -3.833768 -0.1158312,-7.413269 -3.53181 -0.03980724,-7.806391 -5.133464 -0.07493339,-7.787068 -4.36721 -0.1334888,-7.764315 -3.962145 -0.04592107,-7.722087 -3.676375 0.02303292,-8.091545 -5.355232 0.008263871,-8.134314 -4.773092 -0.01142535,-8.144022 -4.402515 0.06317724,-8.114635 -4.073766 0.1416153,0.98333,0 0 0 0 0 0 False
-2.162939 -7.182748 -0.4534563,-2.668596 -6.948896 -0.0765996,-3.104662 -6.180864 0.08494699,-3.346972 -5.451711 0.2680147,-3.649298 -4.967453 0.4421001,-3.014318 -5.008672 -0.2070889,-3.220486 -4.215673 0.233584,-3.310335 -3.673171 0.5261786,-3.375243 -3.146434 0.7286654,-2.668351 -4.842666 -0.183336,-2.71106 -4.269699 0.521283,-2.65589 -5.182148 0.7614046,-2.610859 -5.804359 0.735884,-2.295844 -4.868349 -0.08708608,-2.31705 -4.427314 0.5560987,-2.328701 -5.349565 0.6281728,-2.318967 -5.910476 0.5097231,-1.908173 -5.058965 0.04063675,-1.872898 -4.583049 0.5069791,-1.944948 -5.214592 0.580987,-2.004115 -5.714897 0.4978341,-7.799484 -7.647327 0.06159079,-7.265048 -7.333644 0.2854442,-6.822414 -6.55371 0.3793397,-6.516097 -5.872095 0.5025578,-6.24539 -5.406585 0.6472114,-7.184515 -5.151521 -0.09947462,-7.032103 -4.284225 -0.1066694,-6.983272 -3.697889 -0.01718587,-6.938758 -3.173843 0.05889491,-7.510209 -5.052846 -0.1125883,-7.447601 -4.245421 -0.2065879,-7.433451 -3.833768 -0.1158312,-7.413269 -3.53181 -0.03980724,-7.806391 -5.133464 -0.07493339,-7.787068 -4.36721 -0.1334888,-7.764315 -3.962145 -0.04592107,-7.722087 -3.676375 0.02303292,-8.091545 -5.355232 0.008263871,-8.134314 -4.773092 -0.01142535,-8.144022 -4.402515 0.06317724,-8.114635 -4.073766 0.1416153,1.01667,0 0 0 0 0 0 False
-2.222888 -7.113048 -0.4426695,-2.711064 -6.901895 -0.06168658,-3.164689 -6.124627 0.08372611,-3.409718 -5.432717 0.2611693,-3.731403 -5.028662 0.4438913,-3.054334 -4.956202 -0.1005125,-3.30248 -4.176668 0.3586152,-3.410475 -3.671052 0.6507894,-3.488764 -3.200352 0.8488082,-2.700578 -4.778027 -0.07064831,-2.778439 -4.33922 0.6363593,-2.711604 -5.262927 0.8550127,-2.655871 -5.917072 0.8115296,-2.318521 -4.801641 0.03098267,-2.373741 -4.451007 0.6892774,-2.36572 -5.337409 0.7652348,-2.344039 -5.915371 0.6605035,-1.918197 -4.974066 0.158436,-1.910827 -4.518547 0.6335869,-1.981781 -5.122047 0.7071439,-2.031271 -5.628446 0.6402019,-7.795989 -7.662972 0.02788226,-7.260593 -7.32233 0.2381619,-6.82103 -6.538229 0.318738,-6.511724 -5.866213 0.4403926,-6.249759 -5.393581 0.5913247,-7.182652 -5.171123 -0.1709485,-7.031872 -4.302597 -0.1740897,-6.978697 -3.713234 -0.07998469,-6.92872 -3.187461 0.002323261,-7.500773 -5.080087 -0.1636557,-7.432878 -4.290781 -0.24958,-7.410058 -3.870636 -0.1450377,-7.382786 -3.540874 -0.05920085,-7.795558 -5.16266 -0.1068104,-7.772538 -4.388944 -0.1482252,-7.742951 -3.969562 -0.05037411,-7.696628 -3.655427 0.02199184,-8.08056 -5.391374 -0.004586071,-8.135285 -4.788233 -0.00930959,-8.150587 -4.400819 0.06560147,-8.123513 -4.040922 0.1410526,1.05000,0 0 0 0 0 0 False
-2.284609 -7.033905 -0.4851135,-2.762544 -6.838784 -0.09004,-3.249474 -6.056352 0.07887208,-3.519672 -5.373494 0.2745643,-3.839399 -4.958702 0.481862,-3.104481 -4.895927 -0.08645386,-3.359166 -4.154295 0.4095293,-3.472374 -3.657453 0.7123919,-3.564154 -3.207803 0.9204398,-2.744488 -4.718116 -0.0534206,-2.832383 -4.363914 0.6881078,-2.756083 -5.311313 0.8884529,-2.690905 -5.984528 0.8333281,-2.353927 -4.744655 0.05863374,-2.414574 -4.47233 0.7522527,-2.401677 -5.369628 0.8219726,-2.38425 -5.967033 0.7150673,-1.944623 -4.913676 0.1955237,-1.942413 -4.496658 0.6913316,-2.01428 -5.087866 0.7704095,-2.070389 -5.591971 0.7174444,-7.795989 -7.662972 0.02788226,-7.260593 -7.32233 0.2381619,-6.82103 -6.538229 0.318738,-6.511724 -5.866213 0.4403926,-6.249759 -5.393581 0.5913247,-7.182652 -5.171123 -0.1709485,-7.031872 -4.302597 -0.1740897,-6.978697 -3.713234 -0.07998469,-6.92872 -3.187461 0.002323261,-7.500773 -5.080087 -0.1636557,-7.432878 -4.290781 -0.24958,-7.410058 -3.870636 -0.1450377,-7.382786 -3.540874 -0.05920085,-7.795558 -5.16266 -0.1068104,-7.772538 -4.388944 -0.1482252,-7.742951 -3.969562 -0.05037411,-7.696628 -3.655427 0.02199184,-8.08056 -5.391374 -0.004586071,-8.135285 -4.788233 -0.00930959,-8.150587 -4.400819 0.06560147,-8.123513 -4.040922 0.1410526,1.08333,0 0 0 0 0 0 False
-2.284609 -7.033905 -0.4851135,-2.762544 -6.838784 -0.09004,-3.249474 -6.056352 0.07887208,-3.519672 -5.373494 0.2745643,-3.839399 -4.958702 0.481862,-3.104481 -4.895927 -0.08645386,-3.359166 -4.154295 0.4095293,-3.472374 -3.657453 0.7123919,-3.564154 -3.207803 0.9204398,-2.744488 -4.718116 -0.0534206,-2.832383 -4.363914 0.6881078,-2.756083 -5.311313 0.8884529,-2.690905 -5.984528 0.8333281,-2.353927 -4.744655 0.05863374,-2.414574 -4.47233 0.7522527,-2.401677 -5.369628 0.8219726,-2.38425 -5.967033 0.7150673,-1.944623 -4.913676 0.1955237,-1.942413 -4.496658 0.6913316,-2.01428 -5.087866 0.7704095,-2.070389 -5.591971 0.7174444,-7.788822 -7.666976 -0.01089531,-7.248672 -7.319772 0.2035081,-6.819096 -6.535368 0.2940162,-6.514776 -5.86685 0.4246634,-6.246863 -5.370721 0.5869908,-7.176367 -5.173643 -0.184726,-7.027413 -4.303247 -0.1809273,-6.972468 -3.70962 -0.08239803,-6.918121 -3.173904 0.003579447,-7.498518 -5.092758 -0.1739281,-7.435149 -4.320852 -0.241295,-7.399957 -3.913603 -0.1242751,-7.350768 -3.594919 -0.03474183,-7.797194 -5.179904 -0.1187875,-7.783903 -4.410699 -0.1500622,-7.746796 -3.996059 -0.04285984,-7.684192 -3.685258 0.03038722,-8.081891 -5.410677 -0.01662446,-8.14465 -4.811611 -0.0171266,-8.152768 -4.421158 0.05706846,-8.111509 -4.05884 0.1245973,1.11667,0 0 0 0 0 0 False
-2.34116 -6.919682 -0.3979955,-2.832467 -6.740961 0.002723306,-3.335768 -5.984456 0.2068877,-3.625955 -5.296628 0.4264252,-3.951045 -4.879381 0.6744341,-3.180105 -4.799959 0.0793865,-3.429837 -4.104042 0.6170851,-3.532429 -3.622442 0.9461089,-3.613796 -3.186519 1.163366,-2.812051 -4.595119 0.1077021,-2.895514 -4.362964 0.852854,-2.800184 -5.326184 1.054343,-2.719749 -5.965692 1.014055,-2.41007 -4.604488 0.2061702,-2.466708 -4.480703 0.8930308,-2.43642 -5.425472 0.9541049,-2.410493 -5.995724 0.8542653,-1.991496 -4.751867 0.3251864,-2.002536 -4.418897 0.8119035,-2.067287 -5.084646 0.8706416,-2.123776 -5.589841 0.8100621,-7.793832 -7.660797 -0.08871464,-7.274817 -7.332876 0.1607547,-6.843489 -6.553754 0.2622432,-6.536016 -5.876773 0.3877356,-6.260483 -5.388708 0.5243003,-7.181635 -5.182018 -0.2087178,-7.024933 -4.307447 -0.2171999,-6.979459 -3.712022 -0.130551,-6.936473 -3.171379 -0.05476564,-7.506472 -5.106939 -0.2217721,-7.447306 -4.311548 -0.2319128,-7.442799 -4.00699 -0.07504197,-7.424352 -3.840889 0.03503605,-7.80333 -5.205577 -0.1951812,-7.797746 -4.459409 -0.2024051,-7.778881 -4.092346 -0.05997124,-7.729278 -3.868288 0.04422966,-8.091371 -5.44545 -0.1232698,-8.147544 -4.872083 -0.1102288,-8.159623 -4.518713 -0.01100492,-8.123549 -4.235397 0.07978962,1.15000,0 0 0 0 0 0 False
-2.34116 -6.919682 -0.3979955,-2.832467 -6.740961 0.002723306,-3.335768 -5.984456 0.2068877,-3.625955 -5.296628 0.4264252,-3.951045 -4.879381 0.6744341,-3.180105 -4.799959 0.0793865,-3.429837 -4.104042 0.6170851,-3.532429 -3.622442 0.9461089,-3.613796 -3.186519 1.163366,-2.812051 -4.595119 0.1077021,-2.895514 -4.362964 0.852854,-2.800184 -5.326184 1.054343,-2.719749 -5.965692 1.014055,-2.41007 -4.604488 0.2061702,-2.466708 -4.480703 0.8930308,-2.43642 -5.425472 0.9541049,-2.410493 -5.995724 0.8542653,-1.991496 -4.751867 0.3251864,-2.002536 -4.418897 0.8119035,-2.067287 -5.084646 0.8706416,-2.123776 -5.589841 0.8100621,-7.793832 -7.660797 -0.08871464,-7.274817 -7.332876 0.1607547,-6.843489 -6.553754 0.2622432,-6.536016 -5.876773 0.3877356,-6.260483 -5.388708 0.5243003,-7.181635 -5.182018 -0.2087178,-7.024933 -4.307447 -0.2171999,-6.979459 -3.712022 -0.130551,-6.936473 -3.171379 -0.05476564,-7.506472 -5.106939 -0.2217721,-7.447306 -4.311548 -0.2319128,-7.442799 -4.00699 -0.07504197,-7.424352 -3.840889 0.03503605,-7.80333 -5.205577 -0.1951812,-7.797746 -4.459409 -0.2024051,-7.778881 -4.092346 -0.05997124,-7.729278 -3.868288 0.04422966,-8.091371 -5.44545 -0.1232698,-8.147544 -4.872083 -0.1102288,-8.159623 -4.518713 -0.01100492,-8.123549 -4.235397 0.07978962,1.18333,0 0 0 0 0 0 False
-2.386545 -6.783436 -0.2942825,-2.88164 -6.616223 0.116408,-3.386165 -5.863605 0.3250596,-3.676429 -5.176317 0.5260841,-3.982162 -4.77731 0.7533884,-3.215647 -4.673486 0.3004219,-3.454924 -4.043501 0.8972118,-3.538263 -3.593313 1.258849,-3.597542 -3.153038 1.487691,-2.842014 -4.448764 0.3122302,-2.873806 -4.379068 1.081478,-2.785728 -5.3822 1.243233,-2.735837 -5.953878 1.186054,-2.42258 -4.471065 0.3917018,-2.440378 -4.49134 1.106765,-2.42942 -5.487111 1.099538,-2.431301 -6.018071 0.9687099,-1.997569 -4.638332 0.4896614,-1.980336 -4.453864 0.9944593,-2.056027 -5.193218 1.011659,-2.130498 -5.662638 0.9224133,-7.802855 -7.640157 -0.08710962,-7.290334 -7.329536 0.1883298,-6.873697 -6.555996 0.3119994,-6.567026 -5.881157 0.4502144,-6.284488 -5.401914 0.5875573,-7.217165 -5.162091 -0.1454652,-7.049698 -4.277908 -0.1285699,-7.002199 -3.669982 -0.01842632,-6.968426 -3.136531 0.09352365,-7.5376 -5.080526 -0.1382051,-7.481708 -4.196243 0.02064597,-7.492983 -4.025749 0.3275033,-7.503466 -4.119368 0.5373955,-7.826803 -5.197121 -0.09407229,-7.84116 -4.375661 0.05072469,-7.841385 -4.171379 0.3215044,-7.829107 -4.233896 0.502076,-8.107237 -5.474053 -0.01637416,-8.169655 -4.840372 0.1184262,-8.173625 -4.550361 0.3099948,-8.143806 -4.458646 0.4724564,1.21667,0 0 0 0 0 0 False
-2.386545 -6.783436 -0.2942825,-2.88164 -6.616223 0.116408,-3.386165 -5.863605 0.3250596,-3.676429 -5.176317 0.5260841,-3.982162 -4.77731 0.7533884,-3.215647 -4.673486 0.3004219,-3.454924 -4.043501 0.8972118,-3.538263 -3.593313 1.258849,-3.597542 -3.153038 1.487691,-2.842014 -4.448764 0.3122302,-2.873806 -4.379068 1.081478,-2.785728 -5.3822 1.243233,-2.735837 -5.953878 1.186054,-2.42258 -4.471065 0.3917018,-2.440378 -4.49134 1.106765,-2.42942 -5.487111 1.099538,-2.431301 -6.018071 0.9687099,-1.997569 -4.638332 0.4896614,-1.980336 -4.453864 0.9944593,-2.056027 -5.193218 1.011659,-2.130498 -5.662638 0.9224133,-7.802855 -7.640157 -0.08710962,-7.290334 -7.329536 0.1883298,-6.873697 -6.555996 0.3119994,-6.567026 -5.881157 0.4502144,-6.284488 -5.401914 0.5875573,-7.217165 -5.162091 -0.1454652,-7.049698 -4.277908 -0.1285699,-7.002199 -3.669982 -0.01842632,-6.968426 -3.136531 0.09352365,-7.5376 -5.080526 -0.1382051,-7.481708 -4.196243 0.02064597,-7.492983 -4.025749 0.3275033,-7.503466 -4.119368 0.5373955,-7.826803 -5.197121 -0.09407229,-7.84116 -4.375661 0.05072469,-7.841385 -4.171379 0.3215044,-7.829107 -4.233896 0.502076,-8.107237 -5.474053 -0.01637416,-8.169655 -4.840372 0.1184262,-8.173625 -4.550361 0.3099948,-8.143806 -4.458646 0.4724564,1.25000,0 0 0 0 0 0 False
-2.379453 -6.636995 -0.2885375,-2.887008 -6.531181 0.2300448,-3.405258 -5.826286 0.5033073,-3.710697 -5.136594 0.7500585,-4.058601 -4.719419 1.050708,-3.261917 -4.579509 0.4381756,-3.475754 -3.981771 1.051965,-3.537676 -3.527158 1.437337,-3.577509 -3.119807 1.698038,-2.883157 -4.341254 0.4255124,-2.904861 -4.297271 1.23896,-2.82503 -5.285833 1.418386,-2.781149 -5.893135 1.377963,-2.457129 -4.353508 0.4872673,-2.459986 -4.437459 1.251409,-2.447954 -5.435249 1.267155,-2.455807 -5.990073 1.147606,-2.02714 -4.508056 0.5748432,-2.010309 -4.441677 1.15643,-2.071185 -5.212547 1.198966,-2.14584 -5.686183 1.135655,-7.81377 -7.633213 -0.1269714,-7.290097 -7.330667 0.1336774,-6.891314 -6.565939 0.2602022,-6.581144 -5.907438 0.4025641,-6.290496 -5.427898 0.5384795,-7.238631 -5.160022 -0.2311141,-7.077967 -4.274694 -0.1636273,-7.02857 -3.639217 -0.01901361,-6.99354 -3.084711 0.1205015,-7.552547 -5.084779 -0.1869733,-7.537305 -4.123755 0.06388782,-7.527045 -4.169878 0.3946003,-7.507874 -4.459404 0.5779311,-7.842878 -5.219202 -0.09433497,-7.886313 -4.330062 0.159641,-7.872057 -4.386507 0.4695409,-7.848443 -4.713516 0.6405694,-8.128208 -5.525449 0.02393404,-8.21927 -4.835561 0.2616885,-8.205612 -4.672758 0.47069,-8.159374 -4.787136 0.6136421,1.28333,0 0 0 0 0 0 False
-2.379453 -6.636995 -0.2885375,-2.887008 -6.531181 0.2300448,-3.405258 -5.826286 0.5033073,-3.710697 -5.136594 0.7500585,-4.058601 -4.719419 1.050708,-3.261917 -4.579509 0.4381756,-3.475754 -3.981771 1.051965,-3.537676 -3.527158 1.437337,-3.577509 -3.119807 1.698038,-2.883157 -4.341254 0.4255124,-2.904861 -4.297271 1.23896,-2.82503 -5.285833 1.418386,-2.781149 -5.893135 1.377963,-2.457129 -4.353508 0.4872673,-2.459986 -4.437459 1.251409,-2.447954 -5.435249 1.267155,-2.455807 -5.990073 1.147606,-2.02714 -4.508056 0.5748432,-2.010309 -4.441677 1.15643,-2.071185 -5.212547 1.198966,-2.14584 -5.686183 1.135655,-7.81377 -7.633213 -0.1269714,-7.290097 -7.330667 0.1336774,-6.891314 -6.565939 0.2602022,-6.581144 -5.907438 0.4025641,-6.290496 -5.427898 0.5384795,-7.238631 -5.160022 -0.2311141,-7.077967 -4.274694 -0.1636273,-7.02857 -3.639217 -0.01901361,-6.99354 -3.084711 0.1205015,-7.552547 -5.084779 -0.1869733,-7.537305 -4.123755 0.06388782,-7.527045 -4.169878 0.3946003,-7.507874 -4.459404 0.5779311,-7.842878 -5.219202 -0.09433497,-7.886313 -4.330062 0.159641,-7.872057 -4.386507 0.4695409,-7.848443 -4.713516 0.6405694,-8.128208 -5.525449 0.02393404,-8.21927 -4.835561 0.2616885,-8.205612 -4.672758 0.47069,-8.159374 -4.787136 0.6136421,1.31667,0 0 0 0 0 0 False
-2.402815 -6.509795 -0.01520223,-2.90948 -6.452188 0.5482791,-3.401629 -5.742408 0.8467553,-3.683159 -5.048549 1.105733,-4.048998 -4.643615 1.437845,-3.308052 -4.436532 0.7777617,-3.510262 -3.905864 1.371594,-3.549103 -3.464164 1.722263,-3.555338 -3.068141 1.960649,-2.928562 -4.14644 0.7344647,-2.897194 -4.287364 1.516923,-2.819177 -5.277203 1.695,-2.790537 -5.869791 1.658325,-2.500057 -4.14678 0.7697201,-2.457827 -4.408721 1.488744,-2.451554 -5.396987 1.499123,-2.477829 -5.933841 1.390875,-2.086257 -4.313997 0.8355365,-2.027976 -4.429307 1.39075,-2.079706 -5.205448 1.425374,-2.167942 -5.658353 1.361284,-7.832227 -7.616208 -0.2489829,-7.321523 -7.326014 0.02281234,-6.914958 -6.561056 0.1630332,-6.601298 -5.927082 0.3127556,-6.299417 -5.45894 0.4531429,-7.255891 -5.172155 -0.3149747,-7.105549 -4.269792 -0.2266419,-7.048683 -3.626873 -0.07017303,-7.008893 -3.062529 0.0739539,-7.558363 -5.103611 -0.2764558,-7.544369 -4.122373 0.002092451,-7.521664 -4.232248 0.3233779,-7.498771 -4.568799 0.4861324,-7.847756 -5.238697 -0.1893435,-7.884487 -4.371647 0.08484748,-7.842605 -4.517131 0.4087264,-7.796469 -4.910605 0.5774198,-8.146405 -5.539758 -0.07983287,-8.236654 -4.87635 0.2021892,-8.19528 -4.812905 0.4466292,-8.125272 -5.034691 0.6042621,1.35000,0 0 0 0 0 0 False
-2.402815 -6.509795 -0.01520223,-2.90948 -6.452188 0.5482791,-3.401629 -5.742408 0.8467553,-3.683159 -5.048549 1.105733,-4.048998 -4.643615 1.437845,-3.308052 -4.436532 0.7777617,-3.510262 -3.905864 1.371594,-3.549103 -3.464164 1.722263,-3.555338 -3.068141 1.960649,-2.928562 -4.14644 0.7344647,-2.897194 -4.287364 1.516923,-2.819177 -5.277203 1.695,-2.790537 -5.869791 1.658325,-2.500057 -4.14678 0.7697201,-2.457827 -4.408721 1.488744,-2.451554 -5.396987 1.499123,-2.477829 -5.933841 1.390875,-2.086257 -4.313997 0.8355365,-2.027976 -4.429307 1.39075,-2.079706 -5.205448 1.425374,-2.167942 -5.658353 1.361284,-7.832227 -7.616208 -0.2489829,-7.321523 -7.326014 0.02281234,-6.914958 -6.561056 0.1630332,-6.601298 -5.927082 0.3127556,-6.299417 -5.45894 0.4531429,-7.255891 -5.172155 -0.3149747,-7.105549 -4.269792 -0.2266419,-7.048683 -3.626873 -0.07017303,-7.008893 -3.062529 0.0739539,-7.558363 -5.103611 -0.2764558,-7.544369 -4.122373 0.002092451,-7.521664 -4.232248 0.3233779,-7.498771 -4.568799 0.4861324,-7.847756 -5.238697 -0.1893435,-7.884487 -4.371647 0.08484748,-7.842605 -4.517131 0.4087264,-7.796469 -4.910605 0.5774198,-8.146405 -5.539758 -0.07983287,-8.236654 -4.87635 0.2021892,-8.19528 -4.812905 0.4466292,-8.125272 -5.034691 0.6042621,1.38333,0 0 0 0 0 0 False
-2.440694 -6.410915 0.005734464,-2.956928 -6.349121 0.5691188,-3.451912 -5.631851 0.8743479,-3.733004 -4.932312 1.128051,-4.111975 -4.531479 1.466561,-3.333205 -4.337492 0.8615009,-3.522812 -3.814721 1.448145,-3.547962 -3.389308 1.795581,-3.532978 -3.0615 2.032327,-2.940974 -4.060249 0.8293548,-2.902232 -4.193854 1.606945,-2.830169 -5.155061 1.799348,-2.795915 -5.808816 1.78735,-2.505943 -4.074248 0.8699359,-2.456286 -4.380716 1.605949,-2.443607 -5.351535 1.641466,-2.465408 -5.948315 1.555304,-2.086032 -4.251008 0.9388369,-2.028389 -4.416513 1.523513,-2.077052 -5.188888 1.598859,-2.163362 -5.675779 1.571872,-7.827422 -7.649976 -0.3214577,-7.321383 -7.357204 -0.01079154,-6.931938 -6.577034 0.1451174,-6.62601 -5.923423 0.3049027,-6.329053 -5.454039 0.4505035,-7.26214 -5.20784 -0.3354794,-7.126957 -4.281682 -0.1959795,-7.068623 -3.622596 -0.02502507,-7.02289 -3.049638 0.1205038,-7.564276 -5.157068 -0.2915093,-7.577891 -4.117399 0.09443527,-7.541809 -4.411621 0.4222081,-7.508944 -4.850458 0.5251492,-7.860236 -5.301231 -0.1899564,-7.912374 -4.367746 0.1780773,-7.84516 -4.730588 0.4752008,-7.790327 -5.246766 0.5671815,-8.166624 -5.619215 -0.06782532,-8.263429 -4.934177 0.2862193,-8.196725 -5.0128 0.5279624,-8.122219 -5.34584 0.6385481,1.41667,0 0 0 0 0 0 False
-2.426929 -6.300159 -0.09616709,-2.953416 -6.244247 0.5102795,-3.461626 -5.529931 0.8199714,-3.76043 -4.823389 1.082551,-4.156208 -4.421697 1.421076,-3.319818 -4.28845 0.8138466,-3.507564 -3.747867 1.41001,-3.528723 -3.320999 1.75433,-3.507376 -2.989391 1.994262,-2.937345 -3.998085 0.7681744,-2.895097 -4.134479 1.567869,-2.818419 -5.085727 1.745407,-2.777837 -5.71574 1.714276,-2.512217 -3.993655 0.8017454,-2.449456 -4.315408 1.55898,-2.433069 -5.290518 1.618454,-2.456494 -5.901374 1.534304,-2.099231 -4.141359 0.8694,-2.017292 -4.283735 1.477751,-2.056623 -5.051006 1.58192,-2.140545 -5.571666 1.569595,-7.858745 -7.658362 -0.3816198,-7.323921 -7.369123 -0.04855701,-6.933465 -6.603214 0.1187784,-6.646692 -5.935943 0.2920898,-6.365398 -5.452861 0.4318599,-7.266153 -5.226114 -0.3588499,-7.140788 -4.28998 -0.1941669,-7.082295 -3.664846 -0.01807946,-7.037721 -3.100233 0.1242829,-7.567864 -5.18638 -0.3193338,-7.585346 -4.169067 0.1152281,-7.559589 -4.666435 0.4643306,-7.539627 -5.207826 0.5610915,-7.860236 -5.301231 -0.2498835,-7.912374 -4.367746 0.1181502,-7.84516 -4.730588 0.4152737,-7.790327 -5.246766 0.5072544,-8.166624 -5.619215 -0.1277524,-8.263429 -4.934177 0.2262922,-8.196725 -5.0128 0.4680353,-8.122219 -5.34584 0.578621,1.45000,0 0 0 0 0 0 False
-2.426929 -6.300159 -0.09616709,-2.953416 -6.244247 0.5102795,-3.461626 -5.529931 0.8199714,-3.76043 -4.823389 1.082551,-4.156208 -4.421697 1.421076,-3.319818 -4.28845 0.8138466,-3.507564 -3.747867 1.41001,-3.528723 -3.320999 1.75433,-3.507376 -2.989391 1.994262,-2.937345 -3.998085 0.7681744,-2.895097 -4.134479 1.567869,-2.818419 -5.085727 1.745407,-2.777837 -5.71574 1.714276,-2.512217 -3.993655 0.8017454,-2.449456 -4.315408 1.55898,-2.433069 -5.290518 1.618454,-2.456494 -5.901374 1.534304,-2.099231 -4.141359 0.8694,-2.017292 -4.283735 1.477751,-2.056623 -5.051006 1.58192,-2.140545 -5.571666 1.569595,-7.858745 -7.658362 -0.3816198,-7.323921 -7.369123 -0.04855701,-6.933465 -6.603214 0.1187784,-6.646692 -5.935943 0.2920898,-6.365398 -5.452861 0.4318599,-7.266153 -5.226114 -0.3588499,-7.140788 -4.28998 -0.1941669,-7.082295 -3.664846 -0.01807946,-7.037721 -3.100233 0.1242829,-7.567864 -5.18638 -0.3193338,-7.585346 -4.169067 0.1152281,-7.559589 -4.666435 0.4643306,-7.539627 -5.207826 0.5610915,-7.871109 -5.312612 -0.2205878,-7.916167 -4.404986 0.1899317,-7.854401 -4.954516 0.4955376,-7.815948 -5.544219 0.5612693,-8.191981 -5.611681 -0.1084089,-8.261428 -4.908641 0.2678896,-8.166502 -5.144939 0.5008401,-8.081614 -5.570642 0.5791496,1.48333,0 0 0 0 0 0 False
-2.430693 -6.22648 0.1105646,-2.961289 -6.179317 0.7325484,-3.464231 -5.477317 1.077426,-3.759084 -4.766941 1.368393,-4.162454 -4.356315 1.736097,-3.308867 -4.162338 1.046715,-3.483515 -3.693736 1.674556,-3.496279 -3.311014 2.035094,-3.462149 -3.00207 2.271971,-2.928258 -3.8663 0.9990226,-2.87774 -4.087652 1.833719,-2.816994 -5.047163 2.027519,-2.782726 -5.623102 2.015491,-2.501349 -3.874881 1.030392,-2.43099 -4.280279 1.818953,-2.426737 -5.259744 1.876647,-2.448261 -5.838818 1.775828,-2.086147 -4.044399 1.102396,-1.995084 -4.276155 1.721057,-2.047087 -5.051101 1.826102,-2.135381 -5.549213 1.803941,-7.863273 -7.692832 -0.3721147,-7.328961 -7.375465 -0.08562633,-6.943009 -6.583555 0.05566597,-6.655634 -5.929157 0.22306,-6.362351 -5.468465 0.3577804,-7.28263 -5.24154 -0.4315002,-7.17205 -4.317762 -0.2552599,-7.106474 -3.728407 -0.1004217,-7.066012 -3.172736 0.01447555,-7.581095 -5.216269 -0.3618313,-7.58753 -4.305776 0.1171162,-7.558385 -4.988571 0.4619784,-7.555701 -5.592392 0.5183799,-7.884686 -5.327861 -0.2383571,-7.915502 -4.464928 0.2189496,-7.834121 -5.147951 0.5289065,-7.797172 -5.7722 0.5564482,-8.207787 -5.605789 -0.1017205,-8.249499 -4.919335 0.2864764,-8.141712 -5.262418 0.4973978,-8.063601 -5.737152 0.5298285,1.51667,0 0 0 0 0 0 False
-2.430693 -6.22648 0.1105646,-2.961289 -6.179317 0.7325484,-3.464231 -5.477317 1.077426,-3.759084 -4.766941 1.368393,-4.162454 -4.356315 1.736097,-3.308867 -4.162338 1.046715,-3.483515 -3.693736 1.674556,-3.496279 -3.311014 2.035094,-3.462149 -3.00207 2.271971,-2.928258 -3.8663 0.9990226,-2.87774 -4.087652 1.833719,-2.816994 -5.047163 2.027519,-2.782726 -5.623102 2.015491,-2.501349 -3.874881 1.030392,-2.43099 -4.280279 1.818953,-2.426737 -5.259744 1.876647,-2.448261 -5.838818 1.775828,-2.086147 -4.044399 1.102396,-1.995084 -4.276155 1.721057,-2.047087 -5.051101 1.826102,-2.135381 -5.549213 1.803941,-7.863273 -7.692832 -0.3721147,-7.328961 -7.375465 -0.08562633,-6.943009 -6.583555 0.05566597,-6.655634 -5.929157 0.22306,-6.362351 -5.468465 0.3577804,-7.28263 -5.24154 -0.4315002,-7.17205 -4.317762 -0.2552599,-7.106474 -3.728407 -0.1004217,-7.066012 -3.172736 0.01447555,-7.581095 -5.216269 -0.3618313,-7.58753 -4.305776 0.1171162,-7.558385 -4.988571 0.4619784,-7.555701 -5.592392 0.5183799,-7.884686 -5.327861 -0.2383571,-7.915502 -4.464928 0.2189496,-7.834121 -5.147951 0.5289065,-7.797172 -5.7722 0.5564482,-8.207787 -5.605789 -0.1017205,-8.249499 -4.919335 0.2864764,-8.141712 -5.262418 0.4973978,-8.063601 -5.737152 0.5298285,1.55000,0 0 0 0 0 0 False
-2.351651 -6.16327 0.1508256,-2.897735 -6.146831 0.7428092,-3.418834 -5.449008 1.066748,-3.730519 -4.739183 1.342641,-4.135767 -4.31292 1.701259,-3.271784 -4.108329 1.046451,-3.455376 -3.63464 1.652416,-3.461495 -3.270465 2.013349,-3.413603 -3.004035 2.256227,-2.890748 -3.79269 1.020493,-2.858842 -4.012771 1.829618,-2.794979 -4.959682 2.040102,-2.749247 -5.569579 2.042367,-2.464561 -3.78732 1.064932,-2.409279 -4.238733 1.835954,-2.392408 -5.201265 1.931049,-2.402766 -5.812047 1.856745,-2.043458 -3.941391 1.151027,-1.969461 -4.229195 1.762794,-2.012722 -5.002555 1.889156,-2.094249 -5.523839 1.885926,-7.864105 -7.701248 -0.4696564,-7.335772 -7.405279 -0.1228763,-6.950389 -6.611684 0.03576362,-6.660028 -5.940217 0.2109453,-6.354886 -5.482335 0.3556889,-7.273835 -5.270216 -0.4323672,-7.177319 -4.330219 -0.176534,-7.119008 -3.782883 0.005570084,-7.096043 -3.263779 0.1121311,-7.57948 -5.254566 -0.3816049,-7.589417 -4.402924 0.2114258,-7.549199 -5.199079 0.5419029,-7.534229 -5.845377 0.5488813,-7.889543 -5.373958 -0.2664896,-7.927153 -4.597782 0.3046927,-7.833146 -5.367143 0.6037697,-7.778738 -6.005336 0.5710442,-8.212777 -5.648453 -0.1353206,-8.275552 -4.974977 0.3444077,-8.154783 -5.381136 0.5793782,-8.056021 -5.872797 0.5809734,1.58333,0 0 0 0 0 0 False
-2.351651 -6.16327 0.1508256,-2.897735 -6.146831 0.7428092,-3.418834 -5.449008 1.066748,-3.730519 -4.739183 1.342641,-4.135767 -4.31292 1.701259,-3.271784 -4.108329 1.046451,-3.455376 -3.63464 1.652416,-3.461495 -3.270465 2.013349,-3.413603 -3.004035 2.256227,-2.890748 -3.79269 1.020493,-2.858842 -4.012771 1.829618,-2.794979 -4.959682 2.040102,-2.749247 -5.569579 2.042367,-2.464561 -3.78732 1.064932,-2.409279 -4.238733 1.835954,-2.392408 -5.201265 1.931049,-2.402766 -5.812047 1.856745,-2.043458 -3.941391 1.151027,-1.969461 -4.229195 1.762794,-2.012722 -5.002555 1.889156,-2.094249 -5.523839 1.885926,-7.864105 -7.701248 -0.4696564,-7.335772 -7.405279 -0.1228763,-6.950389 -6.611684 0.03576362,-6.660028 -5.940217 0.2109453,-6.354886 -5.482335 0.3556889,-7.273835 -5.270216 -0.4323672,-7.177319 -4.330219 -0.176534,-7.119008 -3.782883 0.005570084,-7.096043 -3.263779 0.1121311,-7.57948 -5.254566 -0.3816049,-7.589417 -4.402924 0.2114258,-7.549199 -5.199079 0.5419029,-7.534229 -5.845377 0.5488813,-7.889543 -5.373958 -0.2664896,-7.927153 -4.597782 0.3046927,-7.833146 -5.367143 0.6037697,-7.778738 -6.005336 0.5710442,-8.212777 -5.648453 -0.1353206,-8.275552 -4.974977 0.3444077,-8.154783 -5.381136 0.5793782,-8.056021 -5.872797 0.5809734,1.61667,0 0 0 0 0 0 False
-2.402726 -6.154275 0.1875566,-2.931215 -6.12227 0.7282596,-3.416911 -5.393014 1.077182,-3.698242 -4.694896 1.385314,-4.090014 -4.271301 1.772291,-3.23315 -4.064641 1.091714,-3.393425 -3.603586 1.746208,-3.409773 -3.245206 2.129633,-3.384352 -2.948258 2.376815,-2.844139 -3.766391 1.095291,-2.805916 -4.055727 1.929019,-2.772079 -4.993682 2.123235,-2.753725 -5.53849 2.116422,-2.408025 -3.784153 1.157801,-2.363943 -4.323059 1.920919,-2.387102 -5.268896 1.957261,-2.425917 -5.797816 1.846263,-1.991876 -3.969863 1.258514,-1.924543 -4.329316 1.825914,-2.002655 -5.090895 1.871009,-2.108352 -5.536542 1.81849,-7.849473 -7.684066 -0.578332,-7.332225 -7.375543 -0.2350267,-6.950027 -6.598288 -0.08550882,-6.652795 -5.933918 0.07565999,-6.335819 -5.496528 0.2117928,-7.280252 -5.271054 -0.5116559,-7.189631 -4.334826 -0.2375232,-7.136154 -3.792541 -0.04102188,-7.115245 -3.290012 0.07005322,-7.592594 -5.266469 -0.468553,-7.609623 -4.453893 0.1241228,-7.551485 -5.249248 0.4607972,-7.51727 -5.911205 0.4836196,-7.90387 -5.401432 -0.3642818,-7.95156 -4.693805 0.2134792,-7.837448 -5.465134 0.5158376,-7.759482 -6.102695 0.4896783,-8.22147 -5.68501 -0.2446011,-8.288689 -5.05266 0.2617689,-8.152867 -5.470976 0.5181551,-8.033529 -5.963286 0.5348235,1.65000,0 0 0 0 0 0 False
-2.402726 -6.154275 0.1875566,-2.931215 -6.12227 0.7282596,-3.416911 -5.393014 1.077182,-3.698242 -4.694896 1.385314,-4.090014 -4.271301 1.772291,-3.23315 -4.064641 1.091714,-3.393425 -3.603586 1.746208,-3.409773 -3.245206 2.129633,-3.384352 -2.948258 2.376815,-2.844139 -3.766391 1.095291,-2.805916 -4.055727 1.929019,-2.772079 -4.993682 2.123235,-2.753725 -5.53849 2.116422,-2.408025 -3.784153 1.157801,-2.363943 -4.323059 1.920919,-2.387102 -5.268896 1.957261,-2.425917 -5.797816 1.846263,-1.991876 -3.969863 1.258514,-1.924543 -4.329316 1.825914,-2.002655 -5.090895 1.871009,-2.108352 -5.536542 1.81849,-7.849473 -7.684066 -0.578332,-7.332225 -7.375543 -0.2350267,-6.950027 -6.598288 -0.08550882,-6.652795 -5.933918 0.07565999,-6.335819 -5.496528 0.2117928,-7.280252 -5.271054 -0.5116559,-7.189631 -4.334826 -0.2375232,-7.136154 -3.792541 -0.04102188,-7.115245 -3.290012 0.07005322,-7.592594 -5.266469 -0.468553,-7.609623 -4.453893 0.1241228,-7.551485 -5.249248 0.4607972,-7.51727 -5.911205 0.4836196,-7.90387 -5.401432 -0.3642818,-7.95156 -4.693805 0.2134792,-7.837448 -5.465134 0.5158376,-7.759482 -6.102695 0.4896783,-8.22147 -5.68501 -0.2446011,-8.288689 -5.05266 0.2617689,-8.152867 -5.470976 0.5181551,-8.033529 -5.963286 0.5348235,1.68333,0 0 0 0 0 0 False
-2.350156 -6.174557 0.3805087,-2.862122 -6.142623 0.9644068,-3.37159 -5.4101 1.283485,-3.662785 -4.683132 1.562066,-4.048901 -4.214544 1.932014,-3.212002 -4.019985 1.232229,-3.383659 -3.555286 1.828114,-3.390071 -3.206708 2.194981,-3.336117 -2.96927 2.448686,-2.82946 -3.701351 1.195056,-2.792922 -4.043109 1.965794,-2.743813 -4.981237 2.147821,-2.706183 -5.563115 2.155917,-2.403635 -3.730911 1.238073,-2.349526 -4.226779 1.980046,-2.352117 -5.186975 2.053507,-2.370368 -5.783166 1.980791,-1.983765 -3.91412 1.320018,-1.907447 -4.157243 1.921436,-1.964785 -4.92041 2.026843,-2.049276 -5.442861 2.023638,-7.87122 -7.642871 -0.6211071,-7.350152 -7.340223 -0.2718015,-6.966461 -6.575968 -0.1315712,-6.6573 -5.915733 0.01762635,-6.330989 -5.489685 0.1422923,-7.287447 -5.245764 -0.5652956,-7.188327 -4.323036 -0.28119,-7.146694 -3.773396 -0.09033549,-7.14295 -3.249585 0.009964287,-7.609899 -5.237121 -0.5336121,-7.637903 -4.481019 0.0662719,-7.577692 -5.305492 0.356487,-7.528097 -5.948352 0.3385666,-7.925442 -5.376569 -0.437156,-7.992362 -4.743736 0.1628534,-7.87152 -5.55134 0.4400551,-7.774927 -6.160585 0.3848864,-8.241457 -5.654079 -0.3232705,-8.306156 -5.05828 0.1813928,-8.175118 -5.516896 0.4120233,-8.05378 -5.985267 0.4009567,1.71667,0 0 0 0 0 0 False
-2.350156 -6.174557 0.3805087,-2.862122 -6.142623 0.9644068,-3.37159 -5.4101 1.283485,-3.662785 -4.683132 1.562066,-4.048901 -4.214544 1.932014,-3.212002 -4.019985 1.232229,-3.383659 -3.555286 1.828114,-3.390071 -3.206708 2.194981,-3.336117 -2.96927 2.448686,-2.82946 -3.701351 1.195056,-2.792922 -4.043109 1.965794,-2.743813 -4.981237 2.147821,-2.706183 -5.563115 2.155917,-2.403635 -3.730911 1.238073,-2.349526 -4.226779 1.980046,-2.352117 -5.186975 2.053507,-2.370368 -5.783166 1.980791,-1.983765 -3.91412 1.320018,-1.907447 -4.157243 1.921436,-1.964785 -4.92041 2.026843,-2.049276 -5.442861 2.023638,-7.87122 -7.642871 -0.6211071,-7.350152 -7.340223 -0.2718015,-6.966461 -6.575968 -0.1315712,-6.6573 -5.915733 0.01762635,-6.330989 -5.489685 0.1422923,-7.287447 -5.245764 -0.5652956,-7.188327 -4.323036 -0.28119,-7.146694 -3.773396 -0.09033549,-7.14295 -3.249585 0.009964287,-7.609899 -5.237121 -0.5336121,-7.637903 -4.481019 0.0662719,-7.577692 -5.305492 0.356487,-7.528097 -5.948352 0.3385666,-7.925442 -5.376569 -0.437156,-7.992362 -4.743736 0.1628534,-7.87152 -5.55134 0.4400551,-7.774927 -6.160585 0.3848864,-8.241457 -5.654079 -0.3232705,-8.306156 -5.05828 0.1813928,-8.175118 -5.516896 0.4120233,-8.05378 -5.985267 0.4009567,1.75000,0 0 0 0 0 0 False
-2.31687 -6.211538 0.1084531,-2.831696 -6.164627 0.5708653,-3.34177 -5.414051 0.8286976,-3.634583 -4.70791 1.066775,-4.006049 -4.292074 1.387357,-3.145601 -4.0972 0.8313038,-3.334618 -3.603756 1.371441,-3.359074 -3.246054 1.705788,-3.327641 -3.009058 1.926855,-2.767204 -3.78799 0.8346008,-2.768819 -4.154935 1.51714,-2.727686 -5.05368 1.665557,-2.689845 -5.633178 1.671323,-2.351258 -3.825962 0.9017713,-2.331676 -4.356363 1.579888,-2.329827 -5.280702 1.658267,-2.338855 -5.880122 1.590584,-1.940021 -4.004851 1.004661,-1.89431 -4.235164 1.553236,-1.939881 -4.956756 1.643118,-2.005745 -5.479769 1.640101,-7.885921 -7.639842 -0.6714407,-7.376697 -7.329296 -0.3231594,-6.992892 -6.553762 -0.196838,-6.678657 -5.881793 -0.06921768,-6.351554 -5.462305 0.03369427,-7.321466 -5.262995 -0.6026155,-7.223818 -4.333724 -0.3380124,-7.182461 -3.770627 -0.1606097,-7.179765 -3.243628 -0.0583145,-7.646047 -5.246458 -0.5805567,-7.673264 -4.489038 -0.01156849,-7.599817 -5.304065 0.2367775,-7.540548 -5.941532 0.2053634,-7.964666 -5.386199 -0.4973915,-8.034083 -4.741903 0.08472431,-7.902076 -5.542568 0.3622932,-7.797782 -6.144198 0.3198584,-8.276002 -5.659804 -0.3956602,-8.347494 -5.052114 0.09866571,-8.216864 -5.501819 0.3318875,-8.092486 -5.961832 0.337031,1.78333,0 0 0 0 0 0 False
-2.31687 -6.211538 0.1084531,-2.831696 -6.164627 0.5708653,-3.34177 -5.414051 0.8286976,-3.634583 -4.70791 1.066775,-4.006049 -4.292074 1.387357,-3.145601 -4.0972 0.8313038,-3.334618 -3.603756 1.371441,-3.359074 -3.246054 1.705788,-3.327641 -3.009058 1.926855,-2.767204 -3.78799 0.8346008,-2.768819 -4.154935 1.51714,-2.727686 -5.05368 1.665557,-2.689845 -5.633178 1.671323,-2.351258 -3.825962 0.9017713,-2.331676 -4.356363 1.579888,-2.329827 -5.280702 1.658267,-2.338855 -5.880122 1.590584,-1.940021 -4.004851 1.004661,-1.89431 -4.235164 1.553236,-1.939881 -4.956756 1.643118,-2.005745 -5.479769 1.640101,-7.885921 -7.639842 -0.6714407,-7.376697 -7.329296 -0.3231594,-6.992892 -6.553762 -0.196838,-6.678657 -5.881793 -0.06921768,-6.351554 -5.462305 0.03369427,-7.321466 -5.262995 -0.6026155,-7.223818 -4.333724 -0.3380124,-7.182461 -3.770627 -0.1606097,-7.179765 -3.243628 -0.0583145,-7.646047 -5.246458 -0.5805567,-7.673264 -4.489038 -0.01156849,-7.599817 -5.304065 0.2367775,-7.540548 -5.941532 0.2053634,-7.964666 -5.386199 -0.4973915,-8.034083 -4.741903 0.08472431,-7.902076 -5.542568 0.3622932,-7.797782 -6.144198 0.3198584,-8.276002 -5.659804 -0.3956602,-8.347494 -5.052114 0.09866571,-8.216864 -5.501819 0.3318875,-8.092486 -5.961832 0.337031,1.81667,0 0 0 0 0 0 False
-2.208433 -6.237108 -0.05854435,-2.727284 -6.213886 0.4008827,-3.247234 -5.485086 0.6629879,-3.549461 -4.776636 0.9129784,-3.914377 -4.361354 1.235299,-3.057901 -4.199859 0.6766002,-3.249052 -3.640769 1.198509,-3.269927 -3.28432 1.507287,-3.236796 -3.048108 1.711152,-2.684458 -3.876552 0.6912823,-2.656889 -4.199295 1.395259,-2.608722 -5.09519 1.546761,-2.576693 -5.669527 1.530964,-2.27766 -3.889802 0.7629207,-2.231372 -4.4363 1.446859,-2.221704 -5.361234 1.559904,-2.228878 -5.968354 1.504098,-1.878302 -4.052959 0.8682995,-1.814671 -4.322139 1.399137,-1.8519 -5.032 1.519819,-1.913452 -5.543109 1.526372,-7.915621 -7.633643 -0.7074913,-7.399611 -7.327702 -0.3354724,-7.015889 -6.555532 -0.1906409,-6.707093 -5.879484 -0.04549694,-6.379122 -5.457359 0.08507204,-7.344695 -5.258865 -0.5906274,-7.244801 -4.337808 -0.3033753,-7.207953 -3.772241 -0.109046,-7.210345 -3.237063 0.005413771,-7.674387 -5.252873 -0.5718098,-7.709284 -4.508175 0.02013886,-7.646919 -5.32608 0.2863477,-7.58934 -5.969848 0.2661732,-7.994657 -5.395565 -0.4898457,-8.070336 -4.77829 0.1247094,-7.945291 -5.582282 0.4060655,-7.840481 -6.187473 0.3584733,-8.3078 -5.671085 -0.3892797,-8.378472 -5.074337 0.1230639,-8.250602 -5.535284 0.3508981,-8.128005 -5.996 0.3457167,1.85000,0 0 0 0 0 0 False
-2.139338 -6.311926 0.1056806,-2.661022 -6.237406 0.5598968,-3.17905 -5.49846 0.8447366,-3.481818 -4.808227 1.107712,-3.814417 -4.413052 1.436073,-2.937263 -4.224186 0.9292611,-3.103521 -3.701095 1.455264,-3.13925 -3.363061 1.743637,-3.126556 -3.137884 1.938861,-2.556765 -3.920986 0.9479108,-2.541228 -4.296344 1.639284,-2.504291 -5.188321 1.744889,-2.46391 -5.741197 1.708677,-2.151177 -3.96341 1.016382,-2.116625 -4.500782 1.697157,-2.107665 -5.404008 1.771413,-2.105275 -5.983085 1.69118,-1.755817 -4.168083 1.122747,-1.705394 -4.328158 1.647799,-1.745145 -4.980796 1.7596,-1.793434 -5.454364 1.75986,-7.921078 -7.6189 -0.7256767,-7.413668 -7.308197 -0.3614935,-7.037279 -6.533794 -0.2247329,-6.727928 -5.850187 -0.08870149,-6.39059 -5.433994 0.03293324,-7.366522 -5.249002 -0.641323,-7.273206 -4.329905 -0.3524453,-7.244558 -3.773033 -0.1583799,-7.256824 -3.239269 -0.04611152,-7.698587 -5.239952 -0.6224401,-7.729351 -4.515968 -0.02857679,-7.670277 -5.348714 0.2214646,-7.618437 -5.988891 0.1882576,-8.020218 -5.384367 -0.5391166,-8.087931 -4.79538 0.08591205,-7.962676 -5.614112 0.3558354,-7.863547 -6.213889 0.2976754,-8.336908 -5.663888 -0.436133,-8.398886 -5.065166 0.08511943,-8.265508 -5.544603 0.3149878,-8.143748 -6.012924 0.3056159,1.88333,0 0 0 0 0 0 False
-2.139338 -6.311926 0.1056806,-2.661022 -6.237406 0.5598968,-3.17905 -5.49846 0.8447366,-3.481818 -4.808227 1.107712,-3.814417 -4.413052 1.436073,-2.937263 -4.224186 0.9292611,-3.103521 -3.701095 1.455264,-3.13925 -3.363061 1.743637,-3.126556 -3.137884 1.938861,-2.556765 -3.920986 0.9479108,-2.541228 -4.296344 1.639284,-2.504291 -5.188321 1.744889,-2.46391 -5.741197 1.708677,-2.151177 -3.96341 1.016382,-2.116625 -4.500782 1.697157,-2.107665 -5.404008 1.771413,-2.105275 -5.983085 1.69118,-1.755817 -4.168083 1.122747,-1.705394 -4.328158 1.647799,-1.745145 -4.980796 1.7596,-1.793434 -5.454364 1.75986,-7.921078 -7.6189 -0.7256767,-7.413668 -7.308197 -0.3614935,-7.037279 -6.533794 -0.2247329,-6.727928 -5.850187 -0.08870149,-6.39059 -5.433994 0.03293324,-7.366522 -5.249002 -0.641323,-7.273206 -4.329905 -0.3524453,-7.244558 -3.773033 -0.1583799,-7.256824 -3.239269 -0.04611152,-7.698587 -5.239952 -0.6224401,-7.729351 -4.515968 -0.02857679,-7.670277 -5.348714 0.2214646,-7.618437 -5.988891 0.1882576,-8.020218 -5.384367 -0.5391166,-8.087931 -4.79538 0.08591205,-7.962676 -5.614112 0.3558354,-7.863547 -6.213889 0.2976754,-8.336908 -5.663888 -0.436133,-8.398886 -5.065166 0.08511943,-8.265508 -5.544603 0.3149878,-8.143748 -6.012924 0.3056159,1.91667,0 0 0 0 0 0 False
-2.045858 -6.399826 0.4511635,-2.568556 -6.30799 0.9217011,-3.089226 -5.555559 1.192747,-3.380674 -4.845872 1.444288,-3.735109 -4.424156 1.774704,-2.880237 -4.225307 1.249135,-3.019229 -3.694489 1.778632,-3.03097 -3.366786 2.080732,-2.996667 -3.16954 2.285306,-2.498175 -3.893878 1.246444,-2.45785 -4.316907 1.947499,-2.414908 -5.221205 2.079474,-2.369431 -5.80034 2.058224,-2.08721 -3.914235 1.304077,-2.034245 -4.51415 1.986906,-2.029221 -5.426589 2.068568,-2.029211 -6.02796 1.998929,-1.681186 -4.114898 1.395796,-1.610314 -4.316775 1.930972,-1.649251 -5.010451 2.040612,-1.698717 -5.530162 2.039202,-7.936768 -7.617994 -0.7715949,-7.429569 -7.305131 -0.3831331,-7.051524 -6.542734 -0.2385433,-6.747024 -5.852821 -0.1011469,-6.410047 -5.428806 0.02891636,-7.378158 -5.267951 -0.6459716,-7.29276 -4.338041 -0.3264957,-7.265726 -3.767609 -0.09615302,-7.279544 -3.217533 0.03998369,-7.713229 -5.253725 -0.6403038,-7.751807 -4.539094 -0.0265879,-7.701372 -5.37652 0.2305874,-7.652356 -6.024927 0.2039692,-8.035173 -5.391117 -0.5648643,-8.108685 -4.819476 0.07991743,-7.989469 -5.641784 0.3607796,-7.888734 -6.247784 0.3062946,-8.353788 -5.65748 -0.4699924,-8.416576 -5.067701 0.06613082,-8.286193 -5.555154 0.3044748,-8.164574 -6.028425 0.2988218,1.95000,0 0 0 0 0 0 False
-2.045858 -6.399826 0.4511635,-2.568556 -6.30799 0.9217011,-3.089226 -5.555559 1.192747,-3.380674 -4.845872 1.444288,-3.735109 -4.424156 1.774704,-2.880237 -4.225307 1.249135,-3.019229 -3.694489 1.778632,-3.03097 -3.366786 2.080732,-2.996667 -3.16954 2.285306,-2.498175 -3.893878 1.246444,-2.45785 -4.316907 1.947499,-2.414908 -5.221205 2.079474,-2.369431 -5.80034 2.058224,-2.08721 -3.914235 1.304077,-2.034245 -4.51415 1.986906,-2.029221 -5.426589 2.068568,-2.029211 -6.02796 1.998929,-1.681186 -4.114898 1.395796,-1.610314 -4.316775 1.930972,-1.649251 -5.010451 2.040612,-1.698717 -5.530162 2.039202,-7.936768 -7.617994 -0.7715949,-7.429569 -7.305131 -0.3831331,-7.051524 -6.542734 -0.2385433,-6.747024 -5.852821 -0.1011469,-6.410047 -5.428806 0.02891636,-7.378158 -5.267951 -0.6459716,-7.29276 -4.338041 -0.3264957,-7.265726 -3.767609 -0.09615302,-7.279544 -3.217533 0.03998369,-7.713229 -5.253725 -0.6403038,-7.751807 -4.539094 -0.0265879,-7.701372 -5.37652 0.2305874,-7.652356 -6.024927 0.2039692,-8.035173 -5.391117 -0.5648643,-8.108685 -4.819476 0.07991743,-7.989469 -5.641784 0.3607796,-7.888734 -6.247784 0.3062946,-8.353788 -5.65748 -0.4699924,-8.416576 -5.067701 0.06613082,-8.286193 -5.555154 0.3044748,-8.164574 -6.028425 0.2988218,1.98333,0 0 0 0 0 0 False
-1.977721 -6.460734 0.4387679,-2.506764 -6.338224 0.9451703,-3.006702 -5.604736 1.241667,-3.295706 -4.936996 1.509935,-3.656056 -4.534356 1.859936,-2.765405 -4.27548 1.292563,-2.90658 -3.786581 1.822513,-2.914237 -3.499151 2.148271,-2.86611 -3.352663 2.374119,-2.382914 -3.964315 1.276337,-2.339261 -4.427003 1.960227,-2.311129 -5.328222 2.076147,-2.275236 -5.920368 2.055702,-1.983986 -4.015977 1.318391,-1.926573 -4.627586 2.000694,-1.928474 -5.530324 2.075034,-1.935882 -6.142755 1.99268,-1.594483 -4.240345 1.398613,-1.515499 -4.399396 1.944178,-1.560034 -5.058773 2.046888,-1.611533 -5.586282 2.037718,-7.943633 -7.614158 -0.7634161,-7.439049 -7.306598 -0.3531438,-7.055931 -6.536607 -0.2020069,-6.750422 -5.842021 -0.06551516,-6.4145 -5.417495 0.06093633,-7.38657 -5.265953 -0.6141417,-7.305332 -4.345675 -0.2858905,-7.278676 -3.77761 -0.05249047,-7.291392 -3.227395 0.08631355,-7.725785 -5.247813 -0.618459,-7.76831 -4.559808 0.01498407,-7.719902 -5.409553 0.2706516,-7.672115 -6.047385 0.2380389,-8.052448 -5.386022 -0.5519289,-8.126645 -4.829124 0.110364,-8.007122 -5.658491 0.3906814,-7.907397 -6.257704 0.3357363,-8.374495 -5.652477 -0.462339,-8.431706 -5.069663 0.07764238,-8.304708 -5.562133 0.3170676,-8.187806 -6.029663 0.311635,2.01667,0 0 0 0 0 0 False
-1.977721 -6.460734 0.4387679,-2.506764 -6.338224 0.9451703,-3.006702 -5.604736 1.241667,-3.295706 -4.936996 1.509935,-3.656056 -4.534356 1.859936,-2.765405 -4.27548 1.292563,-2.90658 -3.786581 1.822513,-2.914237 -3.499151 2.148271,-2.86611 -3.352663 2.374119,-2.382914 -3.964315 1.276337,-2.339261 -4.427003 1.960227,-2.311129 -5.328222 2.076147,-2.275236 -5.920368 2.055702,-1.983986 -4.015977 1.318391,-1.926573 -4.627586 2.000694,-1.928474 -5.530324 2.075034,-1.935882 -6.142755 1.99268,-1.594483 -4.240345 1.398613,-1.515499 -4.399396 1.944178,-1.560034 -5.058773 2.046888,-1.611533 -5.586282 2.037718,-7.943633 -7.614158 -0.7634161,-7.439049 -7.306598 -0.3531438,-7.055931 -6.536607 -0.2020069,-6.750422 -5.842021 -0.06551516,-6.4145 -5.417495 0.06093633,-7.38657 -5.265953 -0.6141417,-7.305332 -4.345675 -0.2858905,-7.278676 -3.77761 -0.05249047,-7.291392 -3.227395 0.08631355,-7.725785 -5.247813 -0.618459,-7.76831 -4.559808 0.01498407,-7.719902 -5.409553 0.2706516,-7.672115 -6.047385 0.2380389,-8.052448 -5.386022 -0.5519289,-8.126645 -4.829124 0.110364,-8.007122 -5.658491 0.3906814,-7.907397 -6.257704 0.3357363,-8.374495 -5.652477 -0.462339,-8.431706 -5.069663 0.07764238,-8.304708 -5.562133 0.3170676,-8.187806 -6.029663 0.311635,2.05000,0 0 0 0 0 0 False
-1.949069 -6.58603 0.650349,-2.462312 -6.448394 1.126179,-2.957879 -5.688226 1.451278,-3.241982 -5.013933 1.746316,-3.610033 -4.612016 2.158505,-2.724601 -4.368589 1.588541,-2.861582 -3.866865 2.142545,-2.853759 -3.604967 2.513108,-2.781832 -3.534025 2.765026,-2.324327 -4.055954 1.588992,-2.276189 -4.490575 2.272034,-2.248321 -5.363615 2.431389,-2.211439 -5.973985 2.451777,-1.914437 -4.12405 1.63137,-1.864703 -4.711666 2.286622,-1.866816 -5.591833 2.367159,-1.872386 -6.209894 2.304552,-1.523502 -4.364107 1.706476,-1.460613 -4.600958 2.248614,-1.507867 -5.302178 2.338597,-1.562302 -5.846234 2.332802,-7.934 -7.601455 -0.8514829,-7.436195 -7.307173 -0.4434061,-7.060433 -6.551846 -0.2907932,-6.757773 -5.858808 -0.1503953,-6.425959 -5.428125 -0.0172621,-7.389362 -5.28063 -0.7224045,-7.312146 -4.347137 -0.3987663,-7.288082 -3.781666 -0.1758005,-7.300724 -3.233763 -0.04606616,-7.723003 -5.258739 -0.7247562,-7.763518 -4.562644 -0.09007102,-7.70846 -5.395296 0.1831732,-7.65537 -6.040183 0.1650227,-8.045848 -5.393604 -0.6576144,-8.119599 -4.838247 0.007293165,-7.998735 -5.658044 0.3012042,-7.894623 -6.268318 0.2505988,-8.36658 -5.654331 -0.5693333,-8.425129 -5.058293 -0.0228104,-8.289626 -5.537767 0.2210289,-8.16118 -6.012946 0.2143247,2.08333,0 0 0 0 0 0 False
-1.949069 -6.58603 0.650349,-2.462312 -6.448394 1.126179,-2.957879 -5.688226 1.451278,-3.241982 -5.013933 1.746316,-3.610033 -4.612016 2.158505,-2.724601 -4.368589 1.588541,-2.861582 -3.866865 2.142545,-2.853759 -3.604967 2.513108,-2.781832 -3.534025 2.765026,-2.324327 -4.055954 1.588992,-2.276189 -4.490575 2.272034,-2.248321 -5.363615 2.431389,-2.211439 -5.973985 2.451777,-1.914437 -4.12405 1.63137,-1.864703 -4.711666 2.286622,-1.866816 -5.591833 2.367159,-1.872386 -6.209894 2.304552,-1.523502 -4.364107 1.706476,-1.460613 -4.600958 2.248614,-1.507867 -5.302178 2.338597,-1.562302 -5.846234 2.332802,-7.934 -7.601455 -0.8514829,-7.436195 -7.307173 -0.4434061,-7.060433 -6.551846 -0.2907932,-6.757773 -5.858808 -0.1503953,-6.425959 -5.428125 -0.0172621,-7.389362 -5.28063 -0.7224045,-7.312146 -4.347137 -0.3987663,-7.288082 -3.781666 -0.1758005,-7.300724 -3.233763 -0.04606616,-7.723003 -5.258739 -0.7247562,-7.763518 -4.562644 -0.09007102,-7.70846 -5.395296 0.1831732,-7.65537 -6.040183 0.1650227,-8.045848 -5.393604 -0.6576144,-8.119599 -4.838247 0.007293165,-7.998735 -5.658044 0.3012042,-7.894623 -6.268318 0.2505988,-8.36658 -5.654331 -0.5693333,-8.425129 -5.058293 -0.0228104,-8.289626 -5.537767 0.2210289,-8.16118 -6.012946 0.2143247,2.11667,0 0 0 0 0 0 False
-1.875664 -6.685077 0.7898173,-2.410664 -6.595796 1.305301,-2.906372 -5.870895 1.674019,-3.179262 -5.209746 1.992027,-3.563043 -4.795507 2.425767,-2.694397 -4.500791 1.851672,-2.797904 -4.018978 2.427376,-2.771505 -3.76715 2.818598,-2.689242 -3.696952 3.095161,-2.279953 -4.158403 1.835997,-2.222657 -4.650532 2.534768,-2.197718 -5.497846 2.687857,-2.170139 -6.078912 2.711414,-1.860788 -4.218584 1.854928,-1.813956 -4.91892 2.508658,-1.812479 -5.781941 2.601419,-1.817335 -6.385519 2.570872,-1.467496 -4.443973 1.903927,-1.404771 -4.789409 2.44527,-1.44474 -5.489364 2.542681,-1.495378 -6.018365 2.563486,-7.917686 -7.57945 -0.9204986,-7.420208 -7.285798 -0.5225344,-7.043516 -6.535073 -0.3746329,-6.739396 -5.84575 -0.237004,-6.409917 -5.401197 -0.1088543,-7.389641 -5.270904 -0.7949151,-7.311133 -4.322149 -0.4796952,-7.282311 -3.750812 -0.2684684,-7.291738 -3.200868 -0.1483152,-7.720469 -5.255275 -0.7953939,-7.754733 -4.563575 -0.1596252,-7.69257 -5.396673 0.1107749,-7.639021 -6.042905 0.08750629,-8.04144 -5.392732 -0.7258795,-8.108081 -4.84778 -0.05953145,-7.982772 -5.668928 0.2303431,-7.877946 -6.280068 0.1744316,-8.360801 -5.64922 -0.6400698,-8.421293 -5.060184 -0.09595311,-8.279473 -5.538822 0.1424263,-8.146293 -6.015842 0.1277369,2.15000,0 0 0 0 0 0 False
-1.875664 -6.685077 0.7898173,-2.410664 -6.595796 1.305301,-2.906372 -5.870895 1.674019,-3.179262 -5.209746 1.992027,-3.563043 -4.795507 2.425767,-2.694397 -4.500791 1.851672,-2.797904 -4.018978 2.427376,-2.771505 -3.76715 2.818598,-2.689242 -3.696952 3.095161,-2.279953 -4.158403 1.835997,-2.222657 -4.650532 2.534768,-2.197718 -5.497846 2.687857,-2.170139 -6.078912 2.711414,-1.860788 -4.218584 1.854928,-1.813956 -4.91892 2.508658,-1.812479 -5.781941 2.601419,-1.817335 -6.385519 2.570872,-1.467496 -4.443973 1.903927,-1.404771 -4.789409 2.44527,-1.44474 -5.489364 2.542681,-1.495378 -6.018365 2.563486,-7.917686 -7.57945 -0.9204986,-7.420208 -7.285798 -0.5225344,-7.043516 -6.535073 -0.3746329,-6.739396 -5.84575 -0.237004,-6.409917 -5.401197 -0.1088543,-7.389641 -5.270904 -0.7949151,-7.311133 -4.322149 -0.4796952,-7.282311 -3.750812 -0.2684684,-7.291738 -3.200868 -0.1483152,-7.720469 -5.255275 -0.7953939,-7.754733 -4.563575 -0.1596252,-7.69257 -5.396673 0.1107749,-7.639021 -6.042905 0.08750629,-8.04144 -5.392732 -0.7258795,-8.108081 -4.84778 -0.05953145,-7.982772 -5.668928 0.2303431,-7.877946 -6.280068 0.1744316,-8.360801 -5.64922 -0.6400698,-8.421293 -5.060184 -0.09595311,-8.279473 -5.538822 0.1424263,-8.146293 -6.015842 0.1277369,2.18333,0 0 0 0 0 0 False
-1.842578 -6.770717 0.9331853,-2.391326 -6.732664 1.510186,-2.882628 -6.035167 1.961228,-3.134823 -5.393788 2.331978,-3.522554 -4.968936 2.797853,-2.668447 -4.653162 2.187122,-2.74441 -4.190097 2.840121,-2.720296 -3.952932 3.269179,-2.645027 -3.886339 3.578633,-2.24025 -4.279987 2.161399,-2.169756 -4.879322 2.900168,-2.176397 -5.744133 3.007244,-2.172765 -6.268327 3.015346,-1.800719 -4.349994 2.17731,-1.755792 -5.132734 2.817268,-1.792974 -5.971187 2.837893,-1.822577 -6.460956 2.789653,-1.392054 -4.593277 2.230571,-1.347297 -4.997016 2.738992,-1.425 -5.683723 2.778556,-1.498402 -6.141804 2.790793,-7.914556 -7.573474 -0.9701553,-7.410546 -7.295055 -0.560156,-7.031781 -6.55513 -0.4153406,-6.732985 -5.866903 -0.2831191,-6.407763 -5.420932 -0.1584042,-7.388778 -5.279367 -0.8414975,-7.302532 -4.311389 -0.5300341,-7.262713 -3.729545 -0.3137815,-7.261697 -3.168495 -0.1879389,-7.713923 -5.263868 -0.8446481,-7.743868 -4.550528 -0.2087821,-7.678133 -5.376525 0.07813072,-7.623416 -6.03853 0.07478356,-8.029072 -5.395792 -0.776208,-8.092699 -4.850108 -0.09985948,-7.964808 -5.666186 0.2049148,-7.859231 -6.289913 0.1573268,-8.345687 -5.645634 -0.6919357,-8.404409 -5.060078 -0.137298,-8.259948 -5.528156 0.1044559,-8.126126 -6.006305 0.0932256,2.21667,0 0 0 0 0 0 False
-1.841174 -6.907078 1.380933,-2.380459 -6.85925 1.996665,-2.880218 -6.142377 2.489844,-3.129257 -5.502324 2.879474,-3.511766 -5.03622 3.311579,-2.650537 -4.747941 2.738395,-2.688385 -4.364325 3.470778,-2.674057 -4.148278 3.897134,-2.622764 -4.041465 4.18694,-2.206051 -4.308121 2.69141,-2.09251 -5.182542 3.443734,-2.128354 -6.059394 3.457253,-2.15725 -6.436866 3.428851,-1.752848 -4.381704 2.703654,-1.693151 -5.362936 3.342851,-1.772034 -6.16313 3.204546,-1.831401 -6.489904 3.082688,-1.341303 -4.645656 2.759595,-1.286878 -5.177742 3.206525,-1.396824 -5.846424 3.125607,-1.487906 -6.204601 3.075922,-7.858091 -7.4108 -1.448454,-7.400649 -7.302093 -0.8866889,-6.992882 -6.515676 -0.630889,-6.699722 -5.847227 -0.412307,-6.344979 -5.416538 -0.1445967,-7.348119 -5.333297 -1.070356,-7.293367 -4.530561 -0.7286284,-7.276444 -3.908978 -0.4913099,-7.264236 -3.265544 -0.3333248,-7.671867 -5.258993 -1.117288,-7.682865 -4.607574 -0.3412405,-7.635672 -5.405035 -0.03414977,-7.607696 -6.051522 -0.01950932,-8.011484 -5.366629 -1.086774,-8.051096 -4.811067 -0.3128489,-7.950541 -5.650568 -0.007778049,-7.869589 -6.299961 -0.03218257,-8.36133 -5.59362 -1.04046,-8.378298 -5.098658 -0.5042565,-8.284406 -5.578216 -0.3495138,-8.214353 -6.050078 -0.375988,2.25000,0 0 0 0 0 0 False
-1.841174 -6.907078 1.380933,-2.380459 -6.85925 1.996665,-2.880218 -6.142377 2.489844,-3.129257 -5.502324 2.879474,-3.511766 -5.03622 3.311579,-2.650537 -4.747941 2.738395,-2.688385 -4.364325 3.470778,-2.674057 -4.148278 3.897134,-2.622764 -4.041465 4.18694,-2.206051 -4.308121 2.69141,-2.09251 -5.182542 3.443734,-2.128354 -6.059394 3.457253,-2.15725 -6.436866 3.428851,-1.752848 -4.381704 2.703654,-1.693151 -5.362936 3.342851,-1.772034 -6.16313 3.204546,-1.831401 -6.489904 3.082688,-1.341303 -4.645656 2.759595,-1.286878 -5.177742 3.206525,-1.396824 -5.846424 3.125607,-1.487906 -6.204601 3.075922,-7.858091 -7.4108 -1.448454,-7.400649 -7.302093 -0.8866889,-6.992882 -6.515676 -0.630889,-6.699722 -5.847227 -0.412307,-6.344979 -5.416538 -0.1445967,-7.348119 -5.333297 -1.070356,-7.293367 -4.530561 -0.7286284,-7.276444 -3.908978 -0.4913099,-7.264236 -3.265544 -0.3333248,-7.671867 -5.258993 -1.117288,-7.682865 -4.607574 -0.3412405,-7.635672 -5.405035 -0.03414977,-7.607696 -6.051522 -0.01950932,-8.011484 -5.366629 -1.086774,-8.051096 -4.811067 -0.3128489,-7.950541 -5.650568 -0.007778049,-7.869589 -6.299961 -0.03218257,-8.36133 -5.59362 -1.04046,-8.378298 -5.098658 -0.5042565,-8.284406 -5.578216 -0.3495138,-8.214353 -6.050078 -0.375988,2.28333,0 1 0 1 0 1 False
-1.818544 -7.043651 1.56314,-2.35238 -6.960983 2.177332,-2.85731 -6.239221 2.694436,-3.114077 -5.581123 3.128336,-3.497766 -5.105254 3.625887,-2.623396 -4.851652 2.959809,-2.680867 -4.47183 3.724724,-2.667096 -4.278125 4.177557,-2.617867 -4.18011 4.478253,-2.174508 -4.413441 2.929987,-2.062394 -5.281103 3.727706,-2.116459 -6.178616 3.776288,-2.162817 -6.538151 3.773752,-1.713423 -4.495092 2.963117,-1.643339 -5.43711 3.634418,-1.742269 -6.226392 3.501157,-1.818607 -6.500679 3.36929,-1.283567 -4.761093 3.036955,-1.217961 -5.24664 3.494059,-1.364492 -5.88675 3.421163,-1.482128 -6.187566 3.372295,-7.89261 -7.427101 -1.370821,-7.409994 -7.273361 -0.8771719,-7.004639 -6.533836 -0.6622942,-6.710804 -5.88529 -0.488156,-6.379696 -5.404231 -0.275074,-7.358969 -5.294448 -1.034367,-7.283426 -4.415704 -0.7140706,-7.260922 -3.798122 -0.4561414,-7.259211 -3.207254 -0.2800142,-7.689972 -5.248472 -1.08094,-7.714697 -4.570915 -0.4416192,-7.660181 -5.367671 -0.1491157,-7.615487 -6.058353 -0.1247505,-8.034006 -5.368579 -1.057712,-8.076782 -4.840226 -0.3850223,-7.94726 -5.664056 -0.08067656,-7.838958 -6.318132 -0.1104735,-8.371531 -5.602327 -1.02316,-8.39303 -5.109706 -0.4791143,-8.2598 -5.622584 -0.2821153,-8.145145 -6.112171 -0.3008119,2.31667,0 1 0 1 0 1 False
-1.818544 -7.043651 1.56314,-2.35238 -6.960983 2.177332,-2.85731 -6.239221 2.694436,-3.114077 -5.581123 3.128336,-3.497766 -5.105254 3.625887,-2.623396 -4.851652 2.959809,-2.680867 -4.47183 3.724724,-2.667096 -4.278125 4.177557,-2.617867 -4.18011 4.478253,-2.174508 -4.413441 2.929987,-2.062394 -5.281103 3.727706,-2.116459 -6.178616 3.776288,-2.162817 -6.538151 3.773752,-1.713423 -4.495092 2.963117,-1.643339 -5.43711 3.634418,-1.742269 -6.226392 3.501157,-1.818607 -6.500679 3.36929,-1.283567 -4.761093 3.036955,-1.217961 -5.24664 3.494059,-1.364492 -5.88675 3.421163,-1.482128 -6.187566 3.372295,-7.89261 -7.427101 -1.370821,-7.409994 -7.273361 -0.8771719,-7.004639 -6.533836 -0.6622942,-6.710804 -5.88529 -0.488156,-6.379696 -5.404231 -0.275074,-7.358969 -5.294448 -1.034367,-7.283426 -4.415704 -0.7140706,-7.260922 -3.798122 -0.4561414,-7.259211 -3.207254 -0.2800142,-7.689972 -5.248472 -1.08094,-7.714697 -4.570915 -0.4416192,-7.660181 -5.367671 -0.1491157,-7.615487 -6.058353 -0.1247505,-8.034006 -5.368579 -1.057712,-8.076782 -4.840226 -0.3850223,-7.94726 -5.664056 -0.08067656,-7.838958 -6.318132 -0.1104735,-8.371531 -5.602327 -1.02316,-8.39303 -5.109706 -0.4791143,-8.2598 -5.622584 -0.2821153,-8.145145 -6.112171 -0.3008119,2.35000,0 1 0 1 0 1 False
-1.8262 -7.122082 1.788709,-2.369439 -7.043105 2.364754,-2.87769 -6.315443 2.889478,-3.144525 -5.666273 3.326503,-3.531444 -5.199034 3.841763,-2.657583 -4.897645 3.189033,-2.717629 -4.533843 3.968589,-2.7095 -4.328611 4.444458,-2.671015 -4.229429 4.769361,-2.203311 -4.433365 3.178164,-2.105782 -5.266426 3.950525,-2.150993 -6.204447 3.9951,-2.198261 -6.64873 3.975305,-1.733359 -4.490486 3.212722,-1.671647 -5.474061 3.864593,-1.75533 -6.325712 3.728453,-1.83625 -6.661415 3.60569,-1.298209 -4.738843 3.288221,-1.224684 -5.393331 3.708689,-1.355788 -6.107044 3.609502,-1.480488 -6.405448 3.555313,-7.926215 -7.431653 -1.229233,-7.432302 -7.280902 -0.7370117,-7.029896 -6.538038 -0.5325238,-6.735164 -5.879621 -0.366408,-6.405198 -5.431488 -0.1635725,-7.367129 -5.248691 -0.9033289,-7.298118 -4.350585 -0.5759304,-7.276188 -3.754059 -0.3316583,-7.277103 -3.186292 -0.164674,-7.704334 -5.213447 -0.9425298,-7.734729 -4.550041 -0.2930234,-7.700224 -5.359229 -0.02070832,-7.670697 -6.03209 -0.01513326,-8.046411 -5.341299 -0.9132671,-8.092857 -4.82699 -0.2296519,-7.97843 -5.641437 0.07025588,-7.882098 -6.270202 0.0357765,-8.384531 -5.587682 -0.8693609,-8.408722 -5.087951 -0.3047487,-8.282711 -5.592643 -0.07796979,-8.172246 -6.06828 -0.0781002,2.38333,0 1 0 1 0 1 False
-1.8262 -7.122082 1.788709,-2.369439 -7.043105 2.364754,-2.87769 -6.315443 2.889478,-3.144525 -5.666273 3.326503,-3.531444 -5.199034 3.841763,-2.657583 -4.897645 3.189033,-2.717629 -4.533843 3.968589,-2.7095 -4.328611 4.444458,-2.671015 -4.229429 4.769361,-2.203311 -4.433365 3.178164,-2.105782 -5.266426 3.950525,-2.150993 -6.204447 3.9951,-2.198261 -6.64873 3.975305,-1.733359 -4.490486 3.212722,-1.671647 -5.474061 3.864593,-1.75533 -6.325712 3.728453,-1.83625 -6.661415 3.60569,-1.298209 -4.738843 3.288221,-1.224684 -5.393331 3.708689,-1.355788 -6.107044 3.609502,-1.480488 -6.405448 3.555313,-7.926215 -7.431653 -1.229233,-7.432302 -7.280902 -0.7370117,-7.029896 -6.538038 -0.5325238,-6.735164 -5.879621 -0.366408,-6.405198 -5.431488 -0.1635725,-7.367129 -5.248691 -0.9033289,-7.298118 -4.350585 -0.5759304,-7.276188 -3.754059 -0.3316583,-7.277103 -3.186292 -0.164674,-7.704334 -5.213447 -0.9425298,-7.734729 -4.550041 -0.2930234,-7.700224 -5.359229 -0.02070832,-7.670697 -6.03209 -0.01513326,-8.046411 -5.341299 -0.9132671,-8.092857 -4.82699 -0.2296519,-7.97843 -5.641437 0.07025588,-7.882098 -6.270202 0.0357765,-8.384531 -5.587682 -0.8693609,-8.408722 -5.087951 -0.3047487,-8.282711 -5.592643 -0.07796979,-8.172246 -6.06828 -0.0781002,2.41667,0 1 0 1 0 1 False
-1.895919 -7.109998 1.443372,-2.45657 -6.988077 1.958028,-2.956031 -6.247285 2.447563,-3.226561 -5.599866 2.88151,-3.60219 -5.177499 3.406962,-2.701069 -4.890842 2.73789,-2.791577 -4.555711 3.48397,-2.794764 -4.323187 3.947163,-2.751369 -4.212947 4.247013,-2.258021 -4.490503 2.753509,-2.192818 -5.203161 3.519107,-2.222499 -6.136669 3.59585,-2.246198 -6.654478 3.565792,-1.801772 -4.575334 2.803923,-1.741164 -5.448774 3.446872,-1.811989 -6.2978 3.332747,-1.875731 -6.684194 3.210865,-1.368249 -4.829786 2.894608,-1.292231 -5.346096 3.330767,-1.420423 -6.063832 3.274532,-1.546087 -6.42037 3.22785,-7.965888 -7.502794 -1.164625,-7.471494 -7.318035 -0.7098272,-7.066163 -6.542926 -0.5248846,-6.766582 -5.880571 -0.3715411,-6.43565 -5.474439 -0.1839082,-7.417703 -5.29989 -0.8455341,-7.330268 -4.395291 -0.5195551,-7.302918 -3.825607 -0.2876846,-7.306551 -3.28531 -0.1285847,-7.760625 -5.26686 -0.8584445,-7.783424 -4.61211 -0.2158982,-7.743902 -5.412755 0.02567947,-7.711421 -6.068195 0.02605629,-8.09933 -5.400962 -0.804408,-8.138414 -4.883861 -0.1027818,-8.018737 -5.687564 0.1987767,-7.926749 -6.319545 0.180041,-8.431649 -5.655197 -0.7408796,-8.470366 -5.122778 -0.1563165,-8.336383 -5.60708 0.08170485,-8.215597 -6.084796 0.1012216,2.45000,0 1 0 1 0 1 False
-1.895919 -7.109998 1.443372,-2.45657 -6.988077 1.958028,-2.956031 -6.247285 2.447563,-3.226561 -5.599866 2.88151,-3.60219 -5.177499 3.406962,-2.701069 -4.890842 2.73789,-2.791577 -4.555711 3.48397,-2.794764 -4.323187 3.947163,-2.751369 -4.212947 4.247013,-2.258021 -4.490503 2.753509,-2.192818 -5.203161 3.519107,-2.222499 -6.136669 3.59585,-2.246198 -6.654478 3.565792,-1.801772 -4.575334 2.803923,-1.741164 -5.448774 3.446872,-1.811989 -6.2978 3.332747,-1.875731 -6.684194 3.210865,-1.368249 -4.829786 2.894608,-1.292231 -5.346096 3.330767,-1.420423 -6.063832 3.274532,-1.546087 -6.42037 3.22785,-7.965888 -7.502794 -1.164625,-7.471494 -7.318035 -0.7098272,-7.066163 -6.542926 -0.5248846,-6.766582 -5.880571 -0.3715411,-6.43565 -5.474439 -0.1839082,-7.417703 -5.29989 -0.8455341,-7.330268 -4.395291 -0.5195551,-7.302918 -3.825607 -0.2876846,-7.306551 -3.28531 -0.1285847,-7.760625 -5.26686 -0.8584445,-7.783424 -4.61211 -0.2158982,-7.743902 -5.412755 0.02567947,-7.711421 -6.068195 0.02605629,-8.09933 -5.400962 -0.804408,-8.138414 -4.883861 -0.1027818,-8.018737 -5.687564 0.1987767,-7.926749 -6.319545 0.180041,-8.431649 -5.655197 -0.7408796,-8.470366 -5.122778 -0.1563165,-8.336383 -5.60708 0.08170485,-8.215597 -6.084796 0.1012216,2.48333,0 1 0 1 0 1 False
-1.909948 -7.125742 1.225508,-2.453986 -6.952438 1.650862,-2.973157 -6.151103 2.041594,-3.275787 -5.504782 2.401145,-3.645746 -5.13936 2.873929,-2.693202 -4.859014 2.305549,-2.806658 -4.458179 2.9846,-2.819071 -4.229536 3.388822,-2.785435 -4.159915 3.651429,-2.276387 -4.480915 2.328437,-2.205761 -5.220054 3.015793,-2.21636 -6.085862 3.087665,-2.223101 -6.586729 3.073763,-1.842613 -4.558828 2.39359,-1.793616 -5.443519 2.973713,-1.846726 -6.251772 2.899142,-1.893708 -6.664675 2.816213,-1.425054 -4.807151 2.486405,-1.375359 -5.334093 2.885533,-1.479788 -6.016586 2.864259,-1.58191 -6.37455 2.84619,-8.001875 -7.556169 -1.13113,-7.501122 -7.34617 -0.6747338,-7.092652 -6.561801 -0.4904148,-6.792675 -5.894107 -0.3360437,-6.455082 -5.472921 -0.1544014,-7.447634 -5.32753 -0.8232207,-7.370742 -4.40975 -0.509935,-7.34315 -3.832565 -0.2788587,-7.344712 -3.280789 -0.1179069,-7.789824 -5.309719 -0.8360022,-7.820192 -4.624177 -0.1945028,-7.782813 -5.433286 0.06614137,-7.749962 -6.095141 0.07751954,-8.127433 -5.445079 -0.7828811,-8.173141 -4.896956 -0.08241975,-8.052339 -5.704572 0.2250758,-7.957342 -6.34011 0.2030225,-8.459985 -5.696615 -0.7173657,-8.498391 -5.14851 -0.1320751,-8.368298 -5.637012 0.1144618,-8.252188 -6.114598 0.1355466,2.51667,0 1 0 1 0 1 False
-1.898672 -7.136345 0.9512804,-2.414217 -6.967515 1.336656,-2.939226 -6.158893 1.666147,-3.280474 -5.522233 1.984459,-3.660398 -5.176742 2.410881,-2.703029 -4.894748 1.875549,-2.839629 -4.439496 2.505317,-2.870187 -4.190143 2.883093,-2.855134 -4.086724 3.131585,-2.303929 -4.523639 1.904592,-2.24634 -5.164019 2.568853,-2.242055 -6.026234 2.641087,-2.245047 -6.498458 2.607611,-1.884143 -4.593696 1.977386,-1.837657 -5.389305 2.5427,-1.878769 -6.201029 2.488595,-1.917743 -6.601224 2.40978,-1.485032 -4.821117 2.075605,-1.438667 -5.321748 2.465586,-1.529441 -6.007307 2.447907,-1.624903 -6.355365 2.417627,-8.038022 -7.604587 -1.108146,-7.526829 -7.385345 -0.6562771,-7.11376 -6.61727 -0.4820178,-6.808567 -5.925807 -0.3395501,-6.481367 -5.479455 -0.175038,-7.463455 -5.374556 -0.8553089,-7.383133 -4.443237 -0.526014,-7.36346 -3.857787 -0.2690635,-7.37608 -3.305269 -0.09204686,-7.805014 -5.346447 -0.8734089,-7.835479 -4.623542 -0.2352195,-7.79852 -5.437871 0.03841352,-7.764252 -6.130357 0.0553236,-8.140299 -5.468462 -0.8231054,-8.192415 -4.904447 -0.1237126,-8.074191 -5.72581 0.1928998,-7.976751 -6.380224 0.1678994,-8.470353 -5.713544 -0.760087,-8.507658 -5.158649 -0.1685506,-8.379975 -5.661392 0.08198071,-8.263962 -6.15354 0.09599912,2.55000,0 1 0 1 0 1 False
