TiagoOliveira98/Thesis-Project/Difficulty_2_NEW/Dual_Task/Unity_Project/DataLogging/JointData/Logs(1651332272)_dd_Dual_Difficulty0.csv
WRIST,THUMB_CMC,THUMB_MCP,THUMB_IP,THUMB_TIP,INDEX_FINGER_MCP,INDEX_FINGER_PIP,INDEX_FINGER_DIP,INDEX_FINGER_TIP,MIDDLE_FINGER_MCP,MIDDLE_FINGER_PIP,MIDDLE_FINGER_DIP,MIDDLE_FINGER_TIP,RING_FINGER_MCP,RING_FINGER_PIP,RING_FINGER_DIP,RING_FINGER_TIP,PINKY_MCP,PINKY_PIP,PINKY_DIP,PINKY_TIP,WRIST2,THUMB_CMC2,THUMB_MCP2,THUMB_IP2,THUMB_TIP2,INDEX_FINGER_MCP2,INDEX_FINGER_PIP2,INDEX_FINGER_DIP2,INDEX_FINGER_TIP2,MIDDLE_FINGER_MCP2,MIDDLE_FINGER_PIP2,MIDDLE_FINGER_DIP2,MIDDLE_FINGER_TIP2,RING_FINGER_MCP2,RING_FINGER_PIP2,RING_FINGER_DIP2,RING_FINGER_TIP2,PINKY_MCP2,PINKY_PIP2,PINKY_DIP2,PINKY_TIP2,Timestamp,Event
-1.66466 -7.260749 0.0006788601,-2.260932 -7.052108 0.2597529,-2.800513 -6.379789 0.386838,-3.155668 -5.694158 0.5172731,-3.510664 -5.275669 0.677284,-2.447729 -4.847381 0.1274174,-2.643991 -3.859651 0.2930583,-2.743052 -3.263011 0.4176022,-2.820268 -2.682434 0.5214233,-2.106726 -4.608305 0.1603476,-2.229882 -3.455984 0.3678876,-2.301843 -2.697269 0.565682,-2.352175 -1.997691 0.7324673,-1.770243 -4.59975 0.2509586,-1.849434 -3.505198 0.4558431,-1.928749 -2.806169 0.6521242,-1.990499 -2.174884 0.8066402,-1.417781 -4.783723 0.3667013,-1.39447 -3.89871 0.5421446,-1.402523 -3.344239 0.7188435,-1.420435 -2.80473 0.873057,-7.99213 -7.355048 0.0004016941,-7.383634 -7.123023 0.268481,-6.851293 -6.49484 0.4483036,-6.469549 -5.842402 0.6646037,-6.132729 -5.450994 0.8956448,-7.179832 -4.82159 0.1723586,-6.996617 -3.746197 0.3242061,-6.921083 -3.055868 0.4865105,-6.865328 -2.456182 0.6226209,-7.503947 -4.58706 0.2123839,-7.317522 -3.388381 0.3133824,-7.220309 -2.608102 0.5268382,-7.150387 -1.924635 0.7334996,-7.838786 -4.620331 0.2876592,-7.708412 -3.470389 0.3836818,-7.616263 -2.763349 0.5445268,-7.538551 -2.147517 0.6980173,-8.198622 -4.874609 0.3964376,-8.208563 -3.997165 0.5282787,-8.183536 -3.435354 0.6778097,-8.13905 -2.875444 0.811693,0.01667,0 0 0 0 0 0 False
-1.669112 -7.263915 -0.0123387,-2.267563 -7.05306 0.2429634,-2.806961 -6.386749 0.367489,-3.161232 -5.702357 0.4939507,-3.509714 -5.278679 0.6474373,-2.44318 -4.85209 0.1161076,-2.638816 -3.858208 0.2800611,-2.739729 -3.261226 0.4052818,-2.818558 -2.677375 0.510944,-2.100621 -4.613744 0.151205,-2.220276 -3.455863 0.365857,-2.293261 -2.696141 0.5640925,-2.345888 -1.9959 0.7347229,-1.763997 -4.603992 0.243964,-1.843772 -3.505118 0.450901,-1.923419 -2.807524 0.6509703,-1.984478 -2.177419 0.807613,-1.41322 -4.786237 0.360347,-1.388805 -3.894422 0.5391067,-1.396006 -3.335929 0.7187346,-1.41363 -2.791484 0.8779871,-8.00054 -7.349353 -0.005503821,-7.389009 -7.127014 0.2591332,-6.853313 -6.499639 0.4409619,-6.468511 -5.850303 0.656139,-6.132145 -5.459979 0.8861101,-7.180269 -4.821303 0.1825003,-7.001536 -3.741278 0.3393085,-6.925545 -3.049645 0.5024305,-6.868794 -2.450493 0.6384251,-7.505003 -4.585872 0.224947,-7.318985 -3.387011 0.336252,-7.220123 -2.606483 0.5526333,-7.147702 -1.922419 0.76041,-7.840413 -4.619102 0.2990044,-7.704937 -3.464418 0.3986329,-7.608533 -2.7567 0.5572819,-7.527802 -2.143894 0.7102644,-8.201803 -4.872555 0.4055186,-8.19957 -3.99237 0.5398685,-8.168533 -3.43008 0.6859831,-8.122541 -2.873434 0.8184898,0.05000,0 0 0 0 0 0 False
-1.669112 -7.263915 -0.0123387,-2.267563 -7.05306 0.2429634,-2.806961 -6.386749 0.367489,-3.161232 -5.702357 0.4939507,-3.509714 -5.278679 0.6474373,-2.44318 -4.85209 0.1161076,-2.638816 -3.858208 0.2800611,-2.739729 -3.261226 0.4052818,-2.818558 -2.677375 0.510944,-2.100621 -4.613744 0.151205,-2.220276 -3.455863 0.365857,-2.293261 -2.696141 0.5640925,-2.345888 -1.9959 0.7347229,-1.763997 -4.603992 0.243964,-1.843772 -3.505118 0.450901,-1.923419 -2.807524 0.6509703,-1.984478 -2.177419 0.807613,-1.41322 -4.786237 0.360347,-1.388805 -3.894422 0.5391067,-1.396006 -3.335929 0.7187346,-1.41363 -2.791484 0.8779871,-8.00054 -7.349353 -0.005503821,-7.389009 -7.127014 0.2591332,-6.853313 -6.499639 0.4409619,-6.468511 -5.850303 0.656139,-6.132145 -5.459979 0.8861101,-7.180269 -4.821303 0.1825003,-7.001536 -3.741278 0.3393085,-6.925545 -3.049645 0.5024305,-6.868794 -2.450493 0.6384251,-7.505003 -4.585872 0.224947,-7.318985 -3.387011 0.336252,-7.220123 -2.606483 0.5526333,-7.147702 -1.922419 0.76041,-7.840413 -4.619102 0.2990044,-7.704937 -3.464418 0.3986329,-7.608533 -2.7567 0.5572819,-7.527802 -2.143894 0.7102644,-8.201803 -4.872555 0.4055186,-8.19957 -3.99237 0.5398685,-8.168533 -3.43008 0.6859831,-8.122541 -2.873434 0.8184898,0.08333,0 0 0 0 0 0 False
-1.658969 -7.272254 -0.02882155,-2.250638 -7.062333 0.2446183,-2.79339 -6.408044 0.3766483,-3.153544 -5.727062 0.5079495,-3.501661 -5.291754 0.6685199,-2.437616 -4.870594 0.09236422,-2.632415 -3.869218 0.2530005,-2.733284 -3.26877 0.3791234,-2.81353 -2.689245 0.4865298,-2.095785 -4.626835 0.1197128,-2.214519 -3.457963 0.3250052,-2.285273 -2.695714 0.5237861,-2.33861 -1.998158 0.6914545,-1.760859 -4.612894 0.2090773,-1.841059 -3.505406 0.4112909,-1.920067 -2.803943 0.6149216,-1.984396 -2.17137 0.7727939,-1.411967 -4.792221 0.324232,-1.389201 -3.899065 0.5020763,-1.395349 -3.338799 0.6847359,-1.412421 -2.793233 0.843581,-7.99882 -7.368556 0.02137098,-7.388289 -7.146907 0.2894107,-6.857233 -6.510183 0.4760705,-6.477693 -5.8532 0.7004136,-6.138293 -5.458126 0.9424284,-7.175623 -4.838048 0.2020248,-7.00086 -3.763027 0.3571408,-6.931327 -3.071222 0.5209045,-6.88054 -2.468282 0.6578233,-7.503069 -4.59666 0.2440115,-7.319619 -3.404134 0.3493849,-7.219765 -2.62443 0.5677444,-7.145403 -1.938468 0.7789476,-7.840418 -4.621706 0.3202929,-7.709005 -3.475804 0.4212459,-7.611903 -2.767231 0.5894311,-7.527182 -2.150293 0.7504979,-8.203053 -4.870153 0.4288022,-8.209907 -3.989928 0.5682744,-8.18164 -3.428361 0.7187783,-8.133183 -2.869651 0.8554862,0.11667,0 0 0 0 0 0 False
-1.658969 -7.272254 -0.02882155,-2.250638 -7.062333 0.2446183,-2.79339 -6.408044 0.3766483,-3.153544 -5.727062 0.5079495,-3.501661 -5.291754 0.6685199,-2.437616 -4.870594 0.09236422,-2.632415 -3.869218 0.2530005,-2.733284 -3.26877 0.3791234,-2.81353 -2.689245 0.4865298,-2.095785 -4.626835 0.1197128,-2.214519 -3.457963 0.3250052,-2.285273 -2.695714 0.5237861,-2.33861 -1.998158 0.6914545,-1.760859 -4.612894 0.2090773,-1.841059 -3.505406 0.4112909,-1.920067 -2.803943 0.6149216,-1.984396 -2.17137 0.7727939,-1.411967 -4.792221 0.324232,-1.389201 -3.899065 0.5020763,-1.395349 -3.338799 0.6847359,-1.412421 -2.793233 0.843581,-7.99882 -7.368556 0.02137098,-7.388289 -7.146907 0.2894107,-6.857233 -6.510183 0.4760705,-6.477693 -5.8532 0.7004136,-6.138293 -5.458126 0.9424284,-7.175623 -4.838048 0.2020248,-7.00086 -3.763027 0.3571408,-6.931327 -3.071222 0.5209045,-6.88054 -2.468282 0.6578233,-7.503069 -4.59666 0.2440115,-7.319619 -3.404134 0.3493849,-7.219765 -2.62443 0.5677444,-7.145403 -1.938468 0.7789476,-7.840418 -4.621706 0.3202929,-7.709005 -3.475804 0.4212459,-7.611903 -2.767231 0.5894311,-7.527182 -2.150293 0.7504979,-8.203053 -4.870153 0.4288022,-8.209907 -3.989928 0.5682744,-8.18164 -3.428361 0.7187783,-8.133183 -2.869651 0.8554862,0.15000,0 0 0 0 0 0 False
-1.646175 -7.289598 0.008917332,-2.239617 -7.082041 0.2970163,-2.780723 -6.417995 0.44015,-3.137278 -5.726816 0.5780337,-3.495753 -5.290114 0.7494512,-2.437588 -4.882615 0.1674616,-2.631034 -3.88246 0.3332121,-2.728654 -3.28338 0.4597205,-2.804626 -2.699089 0.5719995,-2.092083 -4.636371 0.1838742,-2.213174 -3.473514 0.3920354,-2.280777 -2.710254 0.5914743,-2.327032 -2.007542 0.7620251,-1.752197 -4.625966 0.2582422,-1.834461 -3.525837 0.4591207,-1.914032 -2.823274 0.6604165,-1.97521 -2.188877 0.8205891,-1.396525 -4.811924 0.3607312,-1.376644 -3.919588 0.5395702,-1.385124 -3.360202 0.7239231,-1.400741 -2.817035 0.8873914,-7.990517 -7.369775 0.01800677,-7.386883 -7.136701 0.2678491,-6.855636 -6.494116 0.4420569,-6.474007 -5.845892 0.6566707,-6.132065 -5.468355 0.8911732,-7.183478 -4.827756 0.1817044,-7.002837 -3.754047 0.3317508,-6.928905 -3.062294 0.495199,-6.873766 -2.465496 0.6288114,-7.509448 -4.595445 0.2304713,-7.323809 -3.394028 0.3345655,-7.226219 -2.610717 0.5452092,-7.155708 -1.927004 0.7437449,-7.844174 -4.628217 0.3127259,-7.712493 -3.473026 0.4070147,-7.61917 -2.764478 0.5594413,-7.540709 -2.151689 0.7062801,-8.203156 -4.880435 0.4265748,-8.210941 -3.992509 0.5545055,-8.181478 -3.432217 0.694572,-8.135653 -2.878124 0.818561,0.18333,0 0 0 0 0 0 False
-1.646175 -7.289598 0.008917332,-2.239617 -7.082041 0.2970163,-2.780723 -6.417995 0.44015,-3.137278 -5.726816 0.5780337,-3.495753 -5.290114 0.7494512,-2.437588 -4.882615 0.1674616,-2.631034 -3.88246 0.3332121,-2.728654 -3.28338 0.4597205,-2.804626 -2.699089 0.5719995,-2.092083 -4.636371 0.1838742,-2.213174 -3.473514 0.3920354,-2.280777 -2.710254 0.5914743,-2.327032 -2.007542 0.7620251,-1.752197 -4.625966 0.2582422,-1.834461 -3.525837 0.4591207,-1.914032 -2.823274 0.6604165,-1.97521 -2.188877 0.8205891,-1.396525 -4.811924 0.3607312,-1.376644 -3.919588 0.5395702,-1.385124 -3.360202 0.7239231,-1.400741 -2.817035 0.8873914,-7.990517 -7.369775 0.01800677,-7.386883 -7.136701 0.2678491,-6.855636 -6.494116 0.4420569,-6.474007 -5.845892 0.6566707,-6.132065 -5.468355 0.8911732,-7.183478 -4.827756 0.1817044,-7.002837 -3.754047 0.3317508,-6.928905 -3.062294 0.495199,-6.873766 -2.465496 0.6288114,-7.509448 -4.595445 0.2304713,-7.323809 -3.394028 0.3345655,-7.226219 -2.610717 0.5452092,-7.155708 -1.927004 0.7437449,-7.844174 -4.628217 0.3127259,-7.712493 -3.473026 0.4070147,-7.61917 -2.764478 0.5594413,-7.540709 -2.151689 0.7062801,-8.203156 -4.880435 0.4265748,-8.210941 -3.992509 0.5545055,-8.181478 -3.432217 0.694572,-8.135653 -2.878124 0.818561,0.21667,0 0 0 0 0 0 False
-1.663077 -7.311124 0.03430779,-2.251633 -7.081725 0.315013,-2.78512 -6.414276 0.4680522,-3.145849 -5.724243 0.6189463,-3.502904 -5.276759 0.8041135,-2.42353 -4.882145 0.1989638,-2.618752 -3.876209 0.3685963,-2.721103 -3.273466 0.4992953,-2.800948 -2.688831 0.6138867,-2.078084 -4.646684 0.2260043,-2.19679 -3.473792 0.4345819,-2.268242 -2.700952 0.6308921,-2.317496 -1.99858 0.801158,-1.74187 -4.637754 0.3080189,-1.820819 -3.523328 0.5094452,-1.903586 -2.806852 0.7040854,-1.966022 -2.169378 0.8591141,-1.391265 -4.822822 0.4183264,-1.365111 -3.91879 0.5930897,-1.371033 -3.346845 0.7659714,-1.384833 -2.800127 0.9214619,-7.981639 -7.400821 0.05895814,-7.388663 -7.148326 0.3302181,-6.864403 -6.506643 0.5212719,-6.483416 -5.8706 0.7524111,-6.136801 -5.486384 1.006419,-7.190268 -4.843091 0.2327105,-7.016158 -3.761316 0.3891569,-6.944833 -3.065538 0.5560429,-6.893518 -2.465791 0.6921109,-7.511174 -4.61327 0.2776528,-7.331635 -3.41248 0.398164,-7.234944 -2.629831 0.6192933,-7.164785 -1.942811 0.8253098,-7.843246 -4.644339 0.3584955,-7.713514 -3.492313 0.4653408,-7.617627 -2.779535 0.6302052,-7.538699 -2.166919 0.78539,-8.203545 -4.895597 0.4747777,-8.213031 -4.020745 0.6154584,-8.185269 -3.458746 0.7612947,-8.14412 -2.900794 0.8929694,0.25000,0 0 0 0 0 0 False
-1.663077 -7.311124 0.03430779,-2.251633 -7.081725 0.315013,-2.78512 -6.414276 0.4680522,-3.145849 -5.724243 0.6189463,-3.502904 -5.276759 0.8041135,-2.42353 -4.882145 0.1989638,-2.618752 -3.876209 0.3685963,-2.721103 -3.273466 0.4992953,-2.800948 -2.688831 0.6138867,-2.078084 -4.646684 0.2260043,-2.19679 -3.473792 0.4345819,-2.268242 -2.700952 0.6308921,-2.317496 -1.99858 0.801158,-1.74187 -4.637754 0.3080189,-1.820819 -3.523328 0.5094452,-1.903586 -2.806852 0.7040854,-1.966022 -2.169378 0.8591141,-1.391265 -4.822822 0.4183264,-1.365111 -3.91879 0.5930897,-1.371033 -3.346845 0.7659714,-1.384833 -2.800127 0.9214619,-7.981639 -7.400821 0.05895814,-7.388663 -7.148326 0.3302181,-6.864403 -6.506643 0.5212719,-6.483416 -5.8706 0.7524111,-6.136801 -5.486384 1.006419,-7.190268 -4.843091 0.2327105,-7.016158 -3.761316 0.3891569,-6.944833 -3.065538 0.5560429,-6.893518 -2.465791 0.6921109,-7.511174 -4.61327 0.2776528,-7.331635 -3.41248 0.398164,-7.234944 -2.629831 0.6192933,-7.164785 -1.942811 0.8253098,-7.843246 -4.644339 0.3584955,-7.713514 -3.492313 0.4653408,-7.617627 -2.779535 0.6302052,-7.538699 -2.166919 0.78539,-8.203545 -4.895597 0.4747777,-8.213031 -4.020745 0.6154584,-8.185269 -3.458746 0.7612947,-8.14412 -2.900794 0.8929694,0.28333,0 0 0 0 0 0 False
-1.654472 -7.308702 0.03372915,-2.243638 -7.091682 0.3227014,-2.776497 -6.420879 0.4677017,-3.13209 -5.730316 0.6076368,-3.4922 -5.287559 0.7855709,-2.406741 -4.880157 0.1988683,-2.608239 -3.868339 0.3641051,-2.715804 -3.251258 0.4913113,-2.799778 -2.659658 0.6016117,-2.063591 -4.643075 0.2194557,-2.183825 -3.465715 0.4302828,-2.259333 -2.690557 0.6265659,-2.313105 -1.995194 0.7902722,-1.728418 -4.638168 0.2995948,-1.805971 -3.514766 0.5036137,-1.887153 -2.794326 0.7134621,-1.949557 -2.157213 0.8797562,-1.37892 -4.829736 0.4046738,-1.351132 -3.936887 0.5870987,-1.353786 -3.366026 0.775429,-1.362895 -2.817667 0.9408576,-8.000423 -7.421211 0.06505766,-7.404785 -7.175242 0.3367555,-6.871058 -6.537305 0.5225739,-6.481799 -5.90069 0.746555,-6.140346 -5.529564 0.985689,-7.194873 -4.876085 0.2369304,-7.024528 -3.800821 0.392805,-6.951167 -3.105268 0.5659639,-6.894397 -2.513303 0.7122501,-7.515856 -4.633829 0.2775195,-7.33347 -3.43925 0.3987332,-7.235681 -2.65381 0.6253272,-7.162974 -1.964313 0.8384575,-7.849044 -4.65488 0.3506126,-7.713159 -3.506076 0.4532488,-7.614789 -2.7922 0.6181467,-7.528822 -2.177655 0.769627,-8.20997 -4.902992 0.4603839,-8.212889 -4.037344 0.6031079,-8.182687 -3.479459 0.7434354,-8.136995 -2.928694 0.8730079,0.31667,0 0 0 0 0 0 False
-1.637125 -7.318496 0.05148664,-2.229704 -7.105196 0.3302368,-2.767309 -6.437631 0.4677189,-3.126674 -5.740903 0.5993317,-3.484735 -5.290859 0.7668676,-2.39667 -4.886739 0.199328,-2.601584 -3.871853 0.3530345,-2.712223 -3.257579 0.4749356,-2.798238 -2.669235 0.5832176,-2.051528 -4.647489 0.22126,-2.16825 -3.463218 0.4230317,-2.244724 -2.69182 0.6125426,-2.299231 -1.998724 0.775886,-1.716973 -4.640155 0.3034365,-1.792599 -3.516145 0.4959337,-1.876448 -2.804278 0.6941904,-1.940645 -2.174139 0.8510156,-1.370371 -4.827562 0.4084945,-1.345222 -3.932981 0.5820163,-1.352155 -3.363327 0.7621748,-1.364486 -2.813545 0.9204946,-7.985881 -7.466684 0.1039717,-7.398286 -7.217742 0.3399956,-6.87325 -6.546912 0.5086898,-6.488553 -5.89762 0.7234443,-6.142897 -5.517036 0.960075,-7.199819 -4.890693 0.2271495,-7.034792 -3.811806 0.360238,-6.96252 -3.115532 0.5211906,-6.907639 -2.510363 0.6599567,-7.52231 -4.66207 0.2827645,-7.350638 -3.461223 0.3759688,-7.24818 -2.667764 0.5916697,-7.172634 -1.976255 0.7972417,-7.855433 -4.696791 0.3723457,-7.736517 -3.537738 0.4604669,-7.640388 -2.819907 0.6229237,-7.557498 -2.201015 0.7757866,-8.215091 -4.953023 0.4945517,-8.231612 -4.065892 0.6301466,-8.203974 -3.500931 0.7702696,-8.15982 -2.947559 0.895799,0.35000,0 0 0 0 0 0 False
-1.637125 -7.318496 0.05148664,-2.229704 -7.105196 0.3302368,-2.767309 -6.437631 0.4677189,-3.126674 -5.740903 0.5993317,-3.484735 -5.290859 0.7668676,-2.39667 -4.886739 0.199328,-2.601584 -3.871853 0.3530345,-2.712223 -3.257579 0.4749356,-2.798238 -2.669235 0.5832176,-2.051528 -4.647489 0.22126,-2.16825 -3.463218 0.4230317,-2.244724 -2.69182 0.6125426,-2.299231 -1.998724 0.775886,-1.716973 -4.640155 0.3034365,-1.792599 -3.516145 0.4959337,-1.876448 -2.804278 0.6941904,-1.940645 -2.174139 0.8510156,-1.370371 -4.827562 0.4084945,-1.345222 -3.932981 0.5820163,-1.352155 -3.363327 0.7621748,-1.364486 -2.813545 0.9204946,-7.985881 -7.466684 0.1039717,-7.398286 -7.217742 0.3399956,-6.87325 -6.546912 0.5086898,-6.488553 -5.89762 0.7234443,-6.142897 -5.517036 0.960075,-7.199819 -4.890693 0.2271495,-7.034792 -3.811806 0.360238,-6.96252 -3.115532 0.5211906,-6.907639 -2.510363 0.6599567,-7.52231 -4.66207 0.2827645,-7.350638 -3.461223 0.3759688,-7.24818 -2.667764 0.5916697,-7.172634 -1.976255 0.7972417,-7.855433 -4.696791 0.3723457,-7.736517 -3.537738 0.4604669,-7.640388 -2.819907 0.6229237,-7.557498 -2.201015 0.7757866,-8.215091 -4.953023 0.4945517,-8.231612 -4.065892 0.6301466,-8.203974 -3.500931 0.7702696,-8.15982 -2.947559 0.895799,0.38333,0 0 0 0 0 0 False
-1.641698 -7.336273 0.07247885,-2.236153 -7.106862 0.347652,-2.771596 -6.431713 0.4875185,-3.126542 -5.734635 0.6227789,-3.482416 -5.288133 0.7944312,-2.398659 -4.895271 0.2358345,-2.597105 -3.877127 0.3988409,-2.702837 -3.261936 0.5211985,-2.785229 -2.6714 0.6284075,-2.052571 -4.660155 0.2646477,-2.164863 -3.479063 0.4826409,-2.235312 -2.707414 0.6755455,-2.283894 -2.01448 0.8409549,-1.716459 -4.65649 0.3521427,-1.789633 -3.532412 0.560634,-1.868766 -2.815948 0.763915,-1.928366 -2.182643 0.9245829,-1.368217 -4.849386 0.4637672,-1.338911 -3.950527 0.6474834,-1.340368 -3.379751 0.8325256,-1.347939 -2.82721 0.9965448,-8.0158 -7.474161 0.1589951,-7.423981 -7.233369 0.4228638,-6.88604 -6.572612 0.6076602,-6.4956 -5.923258 0.8343141,-6.147738 -5.552537 1.078309,-7.2117 -4.890745 0.3230652,-7.044638 -3.819829 0.4676526,-6.971443 -3.128017 0.6314312,-6.916434 -2.533802 0.7768289,-7.534686 -4.659133 0.3751476,-7.354772 -3.468882 0.486135,-7.255029 -2.682 0.7034428,-7.182753 -1.995989 0.9135054,-7.871689 -4.696935 0.4627901,-7.737089 -3.536016 0.5666452,-7.639996 -2.814846 0.7319105,-7.55548 -2.192425 0.8885754,-8.239666 -4.959899 0.5863447,-8.237291 -4.077182 0.7287098,-8.204102 -3.510276 0.8698477,-8.155252 -2.952746 1.002702,0.41667,0 0 0 0 0 0 False
-1.641698 -7.336273 0.07247885,-2.236153 -7.106862 0.347652,-2.771596 -6.431713 0.4875185,-3.126542 -5.734635 0.6227789,-3.482416 -5.288133 0.7944312,-2.398659 -4.895271 0.2358345,-2.597105 -3.877127 0.3988409,-2.702837 -3.261936 0.5211985,-2.785229 -2.6714 0.6284075,-2.052571 -4.660155 0.2646477,-2.164863 -3.479063 0.4826409,-2.235312 -2.707414 0.6755455,-2.283894 -2.01448 0.8409549,-1.716459 -4.65649 0.3521427,-1.789633 -3.532412 0.560634,-1.868766 -2.815948 0.763915,-1.928366 -2.182643 0.9245829,-1.368217 -4.849386 0.4637672,-1.338911 -3.950527 0.6474834,-1.340368 -3.379751 0.8325256,-1.347939 -2.82721 0.9965448,-8.0158 -7.474161 0.1589951,-7.423981 -7.233369 0.4228638,-6.88604 -6.572612 0.6076602,-6.4956 -5.923258 0.8343141,-6.147738 -5.552537 1.078309,-7.2117 -4.890745 0.3230652,-7.044638 -3.819829 0.4676526,-6.971443 -3.128017 0.6314312,-6.916434 -2.533802 0.7768289,-7.534686 -4.659133 0.3751476,-7.354772 -3.468882 0.486135,-7.255029 -2.682 0.7034428,-7.182753 -1.995989 0.9135054,-7.871689 -4.696935 0.4627901,-7.737089 -3.536016 0.5666452,-7.639996 -2.814846 0.7319105,-7.55548 -2.192425 0.8885754,-8.239666 -4.959899 0.5863447,-8.237291 -4.077182 0.7287098,-8.204102 -3.510276 0.8698477,-8.155252 -2.952746 1.002702,0.45000,0 0 0 0 0 0 False
-1.640841 -7.347007 0.08013834,-2.23357 -7.120794 0.3636026,-2.765084 -6.44495 0.5079006,-3.12137 -5.746391 0.6472362,-3.480703 -5.294851 0.8238138,-2.392361 -4.901372 0.2407739,-2.595058 -3.882897 0.3966884,-2.701894 -3.264302 0.5159341,-2.783628 -2.670618 0.6216429,-2.044703 -4.666744 0.2598317,-2.158255 -3.487216 0.4629078,-2.231856 -2.715 0.6483708,-2.282165 -2.022836 0.8078553,-1.708837 -4.659616 0.3386848,-1.779216 -3.536463 0.5326773,-1.861517 -2.81879 0.7324512,-1.923436 -2.18272 0.8906071,-1.36138 -4.847528 0.4408795,-1.33445 -3.947214 0.6179777,-1.340268 -3.371728 0.8030319,-1.352527 -2.814792 0.9666892,-8.011655 -7.503354 0.1488039,-7.418792 -7.235111 0.3911996,-6.892206 -6.576232 0.5651487,-6.508943 -5.926744 0.785952,-6.169465 -5.536661 1.023801,-7.221197 -4.909883 0.2794315,-7.056375 -3.829568 0.4131736,-6.983403 -3.132306 0.5715007,-6.925863 -2.537031 0.7084907,-7.54802 -4.685569 0.3249962,-7.376405 -3.47652 0.4170276,-7.274933 -2.684968 0.6283656,-7.199987 -1.99494 0.8293453,-7.883417 -4.723402 0.4024293,-7.759531 -3.554085 0.4834249,-7.662354 -2.839794 0.641246,-7.578754 -2.2224 0.7905651,-8.243825 -4.982457 0.5147356,-8.254649 -4.096567 0.6374608,-8.223482 -3.538023 0.7722558,-8.175993 -2.984572 0.8973203,0.48333,0 0 0 0 0 0 False
-1.640841 -7.347007 0.08013834,-2.23357 -7.120794 0.3636026,-2.765084 -6.44495 0.5079006,-3.12137 -5.746391 0.6472362,-3.480703 -5.294851 0.8238138,-2.392361 -4.901372 0.2407739,-2.595058 -3.882897 0.3966884,-2.701894 -3.264302 0.5159341,-2.783628 -2.670618 0.6216429,-2.044703 -4.666744 0.2598317,-2.158255 -3.487216 0.4629078,-2.231856 -2.715 0.6483708,-2.282165 -2.022836 0.8078553,-1.708837 -4.659616 0.3386848,-1.779216 -3.536463 0.5326773,-1.861517 -2.81879 0.7324512,-1.923436 -2.18272 0.8906071,-1.36138 -4.847528 0.4408795,-1.33445 -3.947214 0.6179777,-1.340268 -3.371728 0.8030319,-1.352527 -2.814792 0.9666892,-8.011655 -7.503354 0.1488039,-7.418792 -7.235111 0.3911996,-6.892206 -6.576232 0.5651487,-6.508943 -5.926744 0.785952,-6.169465 -5.536661 1.023801,-7.221197 -4.909883 0.2794315,-7.056375 -3.829568 0.4131736,-6.983403 -3.132306 0.5715007,-6.925863 -2.537031 0.7084907,-7.54802 -4.685569 0.3249962,-7.376405 -3.47652 0.4170276,-7.274933 -2.684968 0.6283656,-7.199987 -1.99494 0.8293453,-7.883417 -4.723402 0.4024293,-7.759531 -3.554085 0.4834249,-7.662354 -2.839794 0.641246,-7.578754 -2.2224 0.7905651,-8.243825 -4.982457 0.5147356,-8.254649 -4.096567 0.6374608,-8.223482 -3.538023 0.7722558,-8.175993 -2.984572 0.8973203,0.51667,0 0 0 0 0 0 False
-1.635528 -7.360735 0.04378627,-2.226432 -7.115473 0.3305849,-2.756869 -6.446979 0.4851254,-3.113644 -5.753608 0.6370021,-3.468527 -5.288017 0.8270305,-2.379032 -4.917482 0.2317162,-2.584932 -3.890387 0.3934177,-2.693111 -3.271752 0.5134132,-2.77493 -2.682265 0.6188638,-2.035711 -4.692553 0.2524476,-2.15375 -3.506176 0.4629268,-2.231836 -2.735876 0.6508119,-2.289477 -2.047185 0.8138008,-1.701501 -4.690114 0.3336852,-1.776689 -3.560516 0.5336913,-1.861664 -2.841259 0.7352142,-1.928548 -2.202523 0.8966165,-1.355176 -4.882653 0.4365397,-1.327008 -3.974215 0.614819,-1.329628 -3.396328 0.7994521,-1.338735 -2.837301 0.9651448,-8.027857 -7.512682 0.189261,-7.441057 -7.255811 0.445549,-6.908385 -6.601652 0.6248114,-6.525718 -5.954499 0.8499402,-6.184673 -5.580989 1.091076,-7.235256 -4.912054 0.3423671,-7.065369 -3.837463 0.4808419,-6.993813 -3.142999 0.6442646,-6.938216 -2.54978 0.7876073,-7.558513 -4.686043 0.3943082,-7.38131 -3.485532 0.5016719,-7.285781 -2.698578 0.7172434,-7.216478 -2.008155 0.9231634,-7.892294 -4.726434 0.4810905,-7.761614 -3.55946 0.5736296,-7.668949 -2.839304 0.7351034,-7.587823 -2.214183 0.8894479,-8.255481 -4.991008 0.6032426,-8.257874 -4.109146 0.7354359,-8.226805 -3.548269 0.872668,-8.180376 -2.99381 1.001749,0.55000,0 0 0 0 0 0 False
-1.635528 -7.360735 0.04378627,-2.226432 -7.115473 0.3305849,-2.756869 -6.446979 0.4851254,-3.113644 -5.753608 0.6370021,-3.468527 -5.288017 0.8270305,-2.379032 -4.917482 0.2317162,-2.584932 -3.890387 0.3934177,-2.693111 -3.271752 0.5134132,-2.77493 -2.682265 0.6188638,-2.035711 -4.692553 0.2524476,-2.15375 -3.506176 0.4629268,-2.231836 -2.735876 0.6508119,-2.289477 -2.047185 0.8138008,-1.701501 -4.690114 0.3336852,-1.776689 -3.560516 0.5336913,-1.861664 -2.841259 0.7352142,-1.928548 -2.202523 0.8966165,-1.355176 -4.882653 0.4365397,-1.327008 -3.974215 0.614819,-1.329628 -3.396328 0.7994521,-1.338735 -2.837301 0.9651448,-8.027857 -7.512682 0.189261,-7.441057 -7.255811 0.445549,-6.908385 -6.601652 0.6248114,-6.525718 -5.954499 0.8499402,-6.184673 -5.580989 1.091076,-7.235256 -4.912054 0.3423671,-7.065369 -3.837463 0.4808419,-6.993813 -3.142999 0.6442646,-6.938216 -2.54978 0.7876073,-7.558513 -4.686043 0.3943082,-7.38131 -3.485532 0.5016719,-7.285781 -2.698578 0.7172434,-7.216478 -2.008155 0.9231634,-7.892294 -4.726434 0.4810905,-7.761614 -3.55946 0.5736296,-7.668949 -2.839304 0.7351034,-7.587823 -2.214183 0.8894479,-8.255481 -4.991008 0.6032426,-8.257874 -4.109146 0.7354359,-8.226805 -3.548269 0.872668,-8.180376 -2.99381 1.001749,0.58333,0 0 0 0 0 0 False
-1.616708 -7.384494 0.08758188,-2.207816 -7.150832 0.380401,-2.735102 -6.470531 0.5270226,-3.083372 -5.767196 0.665551,-3.442153 -5.306942 0.8457853,-2.366255 -4.937402 0.2646704,-2.562947 -3.920415 0.4204551,-2.667407 -3.302179 0.5434463,-2.746909 -2.706252 0.6559073,-2.019472 -4.702819 0.2807084,-2.135031 -3.516773 0.4817858,-2.206306 -2.743559 0.6757834,-2.254035 -2.049285 0.8389251,-1.683427 -4.695367 0.3566147,-1.754786 -3.565616 0.5515179,-1.836186 -2.837875 0.7567691,-1.897199 -2.19584 0.9189419,-1.335032 -4.885228 0.4573137,-1.307734 -3.975646 0.6344643,-1.314154 -3.3948 0.8192877,-1.324426 -2.84059 0.9854622,-8.035108 -7.537803 0.2015454,-7.444955 -7.270912 0.4391131,-6.916845 -6.610336 0.605813,-6.538888 -5.962784 0.8218729,-6.202365 -5.579362 1.048901,-7.250342 -4.926202 0.3273649,-7.078121 -3.853498 0.4560224,-7.001266 -3.163774 0.6088544,-6.940042 -2.573552 0.7415437,-7.575182 -4.70408 0.3773509,-7.402074 -3.496757 0.4702088,-7.304077 -2.709932 0.6802229,-7.233975 -2.023572 0.877659,-7.908193 -4.744707 0.4589873,-7.783357 -3.581481 0.532824,-7.691167 -2.866735 0.6836218,-7.612964 -2.250351 0.8277764,-8.267303 -5.005064 0.5740795,-8.276283 -4.133853 0.6895199,-8.247683 -3.584018 0.8216163,-8.20415 -3.047636 0.9407948,0.61667,0 0 0 0 0 0 False
-1.616708 -7.384494 0.08758188,-2.207816 -7.150832 0.380401,-2.735102 -6.470531 0.5270226,-3.083372 -5.767196 0.665551,-3.442153 -5.306942 0.8457853,-2.366255 -4.937402 0.2646704,-2.562947 -3.920415 0.4204551,-2.667407 -3.302179 0.5434463,-2.746909 -2.706252 0.6559073,-2.019472 -4.702819 0.2807084,-2.135031 -3.516773 0.4817858,-2.206306 -2.743559 0.6757834,-2.254035 -2.049285 0.8389251,-1.683427 -4.695367 0.3566147,-1.754786 -3.565616 0.5515179,-1.836186 -2.837875 0.7567691,-1.897199 -2.19584 0.9189419,-1.335032 -4.885228 0.4573137,-1.307734 -3.975646 0.6344643,-1.314154 -3.3948 0.8192877,-1.324426 -2.84059 0.9854622,-8.035108 -7.537803 0.2015454,-7.444955 -7.270912 0.4391131,-6.916845 -6.610336 0.605813,-6.538888 -5.962784 0.8218729,-6.202365 -5.579362 1.048901,-7.250342 -4.926202 0.3273649,-7.078121 -3.853498 0.4560224,-7.001266 -3.163774 0.6088544,-6.940042 -2.573552 0.7415437,-7.575182 -4.70408 0.3773509,-7.402074 -3.496757 0.4702088,-7.304077 -2.709932 0.6802229,-7.233975 -2.023572 0.877659,-7.908193 -4.744707 0.4589873,-7.783357 -3.581481 0.532824,-7.691167 -2.866735 0.6836218,-7.612964 -2.250351 0.8277764,-8.267303 -5.005064 0.5740795,-8.276283 -4.133853 0.6895199,-8.247683 -3.584018 0.8216163,-8.20415 -3.047636 0.9407948,0.65000,0 0 0 0 0 0 False
-1.590377 -7.416305 0.1485265,-2.179009 -7.167547 0.4566958,-2.695823 -6.481517 0.6160631,-3.040255 -5.774301 0.767529,-3.39938 -5.302185 0.9599035,-2.328264 -4.951519 0.3553252,-2.523293 -3.940096 0.5303022,-2.626748 -3.324532 0.6712599,-2.707887 -2.729016 0.7962376,-1.981923 -4.717344 0.368074,-2.099041 -3.537586 0.5878913,-2.172026 -2.763864 0.7949734,-2.22313 -2.060328 0.9679608,-1.645098 -4.715165 0.4410326,-1.718799 -3.585327 0.6468679,-1.805285 -2.859434 0.8543175,-1.870764 -2.215909 1.017041,-1.294706 -4.91324 0.5402181,-1.269277 -3.998433 0.7240233,-1.27693 -3.415101 0.9073124,-1.288185 -2.859746 1.075325,-8.079398 -7.547382 0.1633372,-7.476416 -7.283942 0.38781,-6.944235 -6.626266 0.5458169,-6.564112 -5.97138 0.7546754,-6.232268 -5.580566 0.9749672,-7.272984 -4.958381 0.2676524,-7.101035 -3.883125 0.3931882,-7.026151 -3.195302 0.5460743,-6.967915 -2.607854 0.6773434,-7.598578 -4.72701 0.3182966,-7.421647 -3.522618 0.4041835,-7.325902 -2.734861 0.6140141,-7.259253 -2.052145 0.8157173,-7.933312 -4.757532 0.4012873,-7.805723 -3.597482 0.4714176,-7.714009 -2.886182 0.620806,-7.634897 -2.276145 0.766855,-8.295477 -5.007246 0.5156476,-8.301075 -4.135599 0.6279527,-8.269083 -3.584692 0.7596743,-8.217987 -3.046053 0.8820632,0.68333,0 0 0 0 0 0 False
-1.590377 -7.416305 0.1485265,-2.179009 -7.167547 0.4566958,-2.695823 -6.481517 0.6160631,-3.040255 -5.774301 0.767529,-3.39938 -5.302185 0.9599035,-2.328264 -4.951519 0.3553252,-2.523293 -3.940096 0.5303022,-2.626748 -3.324532 0.6712599,-2.707887 -2.729016 0.7962376,-1.981923 -4.717344 0.368074,-2.099041 -3.537586 0.5878913,-2.172026 -2.763864 0.7949734,-2.22313 -2.060328 0.9679608,-1.645098 -4.715165 0.4410326,-1.718799 -3.585327 0.6468679,-1.805285 -2.859434 0.8543175,-1.870764 -2.215909 1.017041,-1.294706 -4.91324 0.5402181,-1.269277 -3.998433 0.7240233,-1.27693 -3.415101 0.9073124,-1.288185 -2.859746 1.075325,-8.079398 -7.547382 0.1633372,-7.476416 -7.283942 0.38781,-6.944235 -6.626266 0.5458169,-6.564112 -5.97138 0.7546754,-6.232268 -5.580566 0.9749672,-7.272984 -4.958381 0.2676524,-7.101035 -3.883125 0.3931882,-7.026151 -3.195302 0.5460743,-6.967915 -2.607854 0.6773434,-7.598578 -4.72701 0.3182966,-7.421647 -3.522618 0.4041835,-7.325902 -2.734861 0.6140141,-7.259253 -2.052145 0.8157173,-7.933312 -4.757532 0.4012873,-7.805723 -3.597482 0.4714176,-7.714009 -2.886182 0.620806,-7.634897 -2.276145 0.766855,-8.295477 -5.007246 0.5156476,-8.301075 -4.135599 0.6279527,-8.269083 -3.584692 0.7596743,-8.217987 -3.046053 0.8820632,0.71667,0 0 0 0 0 0 False
-1.555873 -7.442636 0.1674284,-2.146927 -7.192592 0.4469177,-2.662649 -6.503284 0.5909265,-3.000801 -5.793661 0.7290807,-3.356992 -5.322665 0.9119626,-2.287947 -4.967342 0.3460494,-2.482278 -3.945495 0.5054147,-2.587663 -3.323452 0.6327224,-2.666177 -2.724333 0.7504337,-1.94093 -4.735963 0.3702037,-2.054149 -3.547858 0.581961,-2.123143 -2.771997 0.7763284,-2.168484 -2.070783 0.9395448,-1.603358 -4.73447 0.4531154,-1.672933 -3.597314 0.6486716,-1.753896 -2.862905 0.8497265,-1.813284 -2.218033 1.008917,-1.252385 -4.932189 0.5613267,-1.226674 -4.010367 0.7413357,-1.230888 -3.414644 0.9255726,-1.23666 -2.852134 1.093649,-8.084191 -7.58411 0.2039518,-7.496858 -7.294398 0.4374492,-6.971748 -6.650558 0.6042451,-6.601584 -6.002182 0.8271593,-6.270918 -5.595066 1.061964,-7.305786 -4.976667 0.2995623,-7.141998 -3.907525 0.4275743,-7.076787 -3.226984 0.5860556,-7.028647 -2.633331 0.7258426,-7.633124 -4.746801 0.3543802,-7.458911 -3.548878 0.4410813,-7.358899 -2.764402 0.6573023,-7.284294 -2.083423 0.8647484,-7.968217 -4.775572 0.4467981,-7.848487 -3.629455 0.5263755,-7.753906 -2.912208 0.690276,-7.6661 -2.293474 0.8396007,-8.334311 -5.022777 0.5708857,-8.349504 -4.150587 0.6921697,-8.317808 -3.591228 0.8299476,-8.262341 -3.047151 0.9498645,0.75000,0 0 0 0 0 0 False
-1.514495 -7.479475 0.2013496,-2.100309 -7.218187 0.4992891,-2.612117 -6.524091 0.6525499,-2.947641 -5.819574 0.7996758,-3.305099 -5.355184 0.9896958,-2.249023 -5.000387 0.4072707,-2.444053 -3.971622 0.5852885,-2.54496 -3.337628 0.7285264,-2.618727 -2.726776 0.8621742,-1.90209 -4.765134 0.4267696,-2.010696 -3.568279 0.6487281,-2.071236 -2.782393 0.8581249,-2.109448 -2.07665 1.028971,-1.562912 -4.76725 0.5084132,-1.624183 -3.630206 0.7135195,-1.697166 -2.890437 0.9265047,-1.751936 -2.240993 1.094477,-1.208405 -4.97499 0.6183745,-1.172984 -4.059358 0.8112202,-1.169369 -3.469539 1.003955,-1.168677 -2.91382 1.175919,-8.139921 -7.588867 0.1633837,-7.541789 -7.318762 0.423397,-7.013061 -6.668992 0.6058822,-6.635761 -6.010772 0.8334744,-6.314559 -5.598094 1.063114,-7.340997 -5.001882 0.3331058,-7.166739 -3.923044 0.5002036,-7.09273 -3.2283 0.6747251,-7.038132 -2.620161 0.8188103,-7.668819 -4.770885 0.3799534,-7.491734 -3.564491 0.5172771,-7.39802 -2.767052 0.7463449,-7.331868 -2.064691 0.9635008,-8.006797 -4.800113 0.4618084,-7.880722 -3.641111 0.5768198,-7.791951 -2.922359 0.7385705,-7.715904 -2.299999 0.8843439,-8.374283 -5.042303 0.577137,-8.370058 -4.166183 0.718863,-8.34015 -3.602844 0.8568479,-8.292603 -3.047726 0.9757735,0.78333,0 0 0 0 0 0 False
-1.514495 -7.479475 0.2013496,-2.100309 -7.218187 0.4992891,-2.612117 -6.524091 0.6525499,-2.947641 -5.819574 0.7996758,-3.305099 -5.355184 0.9896958,-2.249023 -5.000387 0.4072707,-2.444053 -3.971622 0.5852885,-2.54496 -3.337628 0.7285264,-2.618727 -2.726776 0.8621742,-1.90209 -4.765134 0.4267696,-2.010696 -3.568279 0.6487281,-2.071236 -2.782393 0.8581249,-2.109448 -2.07665 1.028971,-1.562912 -4.76725 0.5084132,-1.624183 -3.630206 0.7135195,-1.697166 -2.890437 0.9265047,-1.751936 -2.240993 1.094477,-1.208405 -4.97499 0.6183745,-1.172984 -4.059358 0.8112202,-1.169369 -3.469539 1.003955,-1.168677 -2.91382 1.175919,-8.139921 -7.588867 0.1633837,-7.541789 -7.318762 0.423397,-7.013061 -6.668992 0.6058822,-6.635761 -6.010772 0.8334744,-6.314559 -5.598094 1.063114,-7.340997 -5.001882 0.3331058,-7.166739 -3.923044 0.5002036,-7.09273 -3.2283 0.6747251,-7.038132 -2.620161 0.8188103,-7.668819 -4.770885 0.3799534,-7.491734 -3.564491 0.5172771,-7.39802 -2.767052 0.7463449,-7.331868 -2.064691 0.9635008,-8.006797 -4.800113 0.4618084,-7.880722 -3.641111 0.5768198,-7.791951 -2.922359 0.7385705,-7.715904 -2.299999 0.8843439,-8.374283 -5.042303 0.577137,-8.370058 -4.166183 0.718863,-8.34015 -3.602844 0.8568479,-8.292603 -3.047726 0.9757735,0.81667,0 0 0 0 0 0 False
-1.482678 -7.483249 0.2683622,-2.072166 -7.202751 0.5601169,-2.585752 -6.51654 0.7157639,-2.921134 -5.815711 0.8684979,-3.266958 -5.336859 1.060505,-2.21226 -4.971625 0.4628265,-2.401014 -3.95015 0.6319291,-2.500605 -3.328194 0.7595853,-2.573299 -2.731363 0.8765856,-1.861324 -4.747675 0.4867153,-1.969271 -3.557764 0.7026599,-2.029008 -2.779948 0.9033863,-2.065471 -2.074472 1.071965,-1.519219 -4.763667 0.5723608,-1.584151 -3.639808 0.7727392,-1.658072 -2.911135 0.9750084,-1.710911 -2.270406 1.133281,-1.161998 -4.980257 0.6843613,-1.126267 -4.072189 0.8643737,-1.122647 -3.488447 1.050265,-1.123488 -2.931394 1.214292,-8.164558 -7.613912 0.233786,-7.57188 -7.327661 0.4701484,-7.04839 -6.675842 0.6477823,-6.674079 -6.033937 0.8842067,-6.344795 -5.629964 1.13075,-7.367779 -4.988876 0.3464692,-7.210755 -3.911408 0.4908956,-7.153827 -3.224927 0.656466,-7.112133 -2.622426 0.7924504,-7.703675 -4.771127 0.4116959,-7.542124 -3.562539 0.5233829,-7.451771 -2.768945 0.7391667,-7.383027 -2.074323 0.9445377,-8.046452 -4.81491 0.5110589,-7.934434 -3.654487 0.613543,-7.844682 -2.924753 0.7829019,-7.760874 -2.287972 0.9342582,-8.417143 -5.073204 0.6408306,-8.424033 -4.193687 0.7743932,-8.391962 -3.624394 0.9114982,-8.33787 -3.06429 1.02896,0.85000,0 0 0 0 0 0 False
-1.482678 -7.483249 0.2683622,-2.072166 -7.202751 0.5601169,-2.585752 -6.51654 0.7157639,-2.921134 -5.815711 0.8684979,-3.266958 -5.336859 1.060505,-2.21226 -4.971625 0.4628265,-2.401014 -3.95015 0.6319291,-2.500605 -3.328194 0.7595853,-2.573299 -2.731363 0.8765856,-1.861324 -4.747675 0.4867153,-1.969271 -3.557764 0.7026599,-2.029008 -2.779948 0.9033863,-2.065471 -2.074472 1.071965,-1.519219 -4.763667 0.5723608,-1.584151 -3.639808 0.7727392,-1.658072 -2.911135 0.9750084,-1.710911 -2.270406 1.133281,-1.161998 -4.980257 0.6843613,-1.126267 -4.072189 0.8643737,-1.122647 -3.488447 1.050265,-1.123488 -2.931394 1.214292,-8.164558 -7.613912 0.233786,-7.57188 -7.327661 0.4701484,-7.04839 -6.675842 0.6477823,-6.674079 -6.033937 0.8842067,-6.344795 -5.629964 1.13075,-7.367779 -4.988876 0.3464692,-7.210755 -3.911408 0.4908956,-7.153827 -3.224927 0.656466,-7.112133 -2.622426 0.7924504,-7.703675 -4.771127 0.4116959,-7.542124 -3.562539 0.5233829,-7.451771 -2.768945 0.7391667,-7.383027 -2.074323 0.9445377,-8.046452 -4.81491 0.5110589,-7.934434 -3.654487 0.613543,-7.844682 -2.924753 0.7829019,-7.760874 -2.287972 0.9342582,-8.417143 -5.073204 0.6408306,-8.424033 -4.193687 0.7743932,-8.391962 -3.624394 0.9114982,-8.33787 -3.06429 1.02896,0.88333,0 0 0 0 0 0 False
-1.421881 -7.490186 0.279302,-2.017613 -7.220678 0.5590056,-2.541443 -6.526363 0.702815,-2.883648 -5.818522 0.849521,-3.233616 -5.344682 1.041194,-2.185414 -4.983181 0.4219072,-2.378661 -3.947444 0.5796678,-2.478651 -3.312637 0.7103899,-2.544928 -2.708179 0.8348006,-1.836201 -4.753224 0.4501185,-1.942363 -3.558147 0.6441658,-2.002619 -2.773567 0.8392608,-2.033948 -2.062331 1.007277,-1.493463 -4.763919 0.5438154,-1.555075 -3.643185 0.7273113,-1.62721 -2.916004 0.9218985,-1.67495 -2.27761 1.076769,-1.136232 -4.973402 0.6641055,-1.099564 -4.066116 0.8309216,-1.097949 -3.484862 1.00891,-1.098517 -2.928136 1.170755,-8.197831 -7.633771 0.2604736,-7.609325 -7.336576 0.5087506,-7.083069 -6.68529 0.6861019,-6.706377 -6.037214 0.9202326,-6.376904 -5.640743 1.163407,-7.404414 -5.001398 0.3846904,-7.248981 -3.919604 0.5394323,-7.191422 -3.23195 0.7126076,-7.148513 -2.625014 0.8551996,-7.737111 -4.783318 0.4401335,-7.580528 -3.577154 0.5681803,-7.49288 -2.78906 0.7987324,-7.429106 -2.090332 1.012611,-8.079764 -4.820315 0.5306917,-7.959209 -3.667898 0.6399699,-7.868834 -2.955761 0.8033043,-7.79096 -2.334601 0.9483551,-8.454038 -5.066582 0.6537277,-8.446753 -4.191932 0.7907899,-8.413301 -3.631269 0.9249928,-8.364511 -3.07705 1.042536,0.91667,0 0 0 0 0 0 False
-1.421881 -7.490186 0.279302,-2.017613 -7.220678 0.5590056,-2.541443 -6.526363 0.702815,-2.883648 -5.818522 0.849521,-3.233616 -5.344682 1.041194,-2.185414 -4.983181 0.4219072,-2.378661 -3.947444 0.5796678,-2.478651 -3.312637 0.7103899,-2.544928 -2.708179 0.8348006,-1.836201 -4.753224 0.4501185,-1.942363 -3.558147 0.6441658,-2.002619 -2.773567 0.8392608,-2.033948 -2.062331 1.007277,-1.493463 -4.763919 0.5438154,-1.555075 -3.643185 0.7273113,-1.62721 -2.916004 0.9218985,-1.67495 -2.27761 1.076769,-1.136232 -4.973402 0.6641055,-1.099564 -4.066116 0.8309216,-1.097949 -3.484862 1.00891,-1.098517 -2.928136 1.170755,-8.197831 -7.633771 0.2604736,-7.609325 -7.336576 0.5087506,-7.083069 -6.68529 0.6861019,-6.706377 -6.037214 0.9202326,-6.376904 -5.640743 1.163407,-7.404414 -5.001398 0.3846904,-7.248981 -3.919604 0.5394323,-7.191422 -3.23195 0.7126076,-7.148513 -2.625014 0.8551996,-7.737111 -4.783318 0.4401335,-7.580528 -3.577154 0.5681803,-7.49288 -2.78906 0.7987324,-7.429106 -2.090332 1.012611,-8.079764 -4.820315 0.5306917,-7.959209 -3.667898 0.6399699,-7.868834 -2.955761 0.8033043,-7.79096 -2.334601 0.9483551,-8.454038 -5.066582 0.6537277,-8.446753 -4.191932 0.7907899,-8.413301 -3.631269 0.9249928,-8.364511 -3.07705 1.042536,0.95000,0 0 0 0 0 0 False
-1.406411 -7.483509 0.2640041,-2.013371 -7.221357 0.5338541,-2.541615 -6.521657 0.6772951,-2.883465 -5.807569 0.8264115,-3.231863 -5.340951 1.009499,-2.173546 -4.979743 0.4340701,-2.371646 -3.942928 0.6024078,-2.470798 -3.320431 0.7289783,-2.539009 -2.726127 0.8405762,-1.820562 -4.752946 0.4642891,-1.931927 -3.558958 0.6759024,-1.992382 -2.766922 0.8783949,-2.027428 -2.048482 1.055118,-1.47531 -4.762109 0.5552628,-1.54509 -3.638171 0.7535386,-1.616625 -2.914463 0.9468437,-1.66559 -2.279274 1.10099,-1.113626 -4.96648 0.6696393,-1.075203 -4.054803 0.839589,-1.069359 -3.474097 1.013729,-1.068959 -2.912967 1.168739,-8.22624 -7.656972 0.2815602,-7.644658 -7.353278 0.5285043,-7.11867 -6.68724 0.7114075,-6.740137 -6.037698 0.9521909,-6.412372 -5.642305 1.20734,-7.439777 -5.013158 0.4236849,-7.283218 -3.92332 0.5803723,-7.231327 -3.228081 0.7507352,-7.196796 -2.609943 0.8932902,-7.768491 -4.802269 0.4950587,-7.612002 -3.603492 0.6251196,-7.528805 -2.80336 0.8522321,-7.47313 -2.09592 1.065068,-8.107574 -4.84938 0.6013079,-7.990619 -3.712626 0.7261988,-7.899861 -2.990803 0.9037637,-7.824044 -2.359262 1.059499,-8.47858 -5.107792 0.7396883,-8.485566 -4.242248 0.891688,-8.462049 -3.67947 1.038882,-8.42237 -3.117102 1.168207,0.98333,0 0 0 0 0 0 False
-1.406411 -7.483509 0.2640041,-2.013371 -7.221357 0.5338541,-2.541615 -6.521657 0.6772951,-2.883465 -5.807569 0.8264115,-3.231863 -5.340951 1.009499,-2.173546 -4.979743 0.4340701,-2.371646 -3.942928 0.6024078,-2.470798 -3.320431 0.7289783,-2.539009 -2.726127 0.8405762,-1.820562 -4.752946 0.4642891,-1.931927 -3.558958 0.6759024,-1.992382 -2.766922 0.8783949,-2.027428 -2.048482 1.055118,-1.47531 -4.762109 0.5552628,-1.54509 -3.638171 0.7535386,-1.616625 -2.914463 0.9468437,-1.66559 -2.279274 1.10099,-1.113626 -4.96648 0.6696393,-1.075203 -4.054803 0.839589,-1.069359 -3.474097 1.013729,-1.068959 -2.912967 1.168739,-8.22624 -7.656972 0.2815602,-7.644658 -7.353278 0.5285043,-7.11867 -6.68724 0.7114075,-6.740137 -6.037698 0.9521909,-6.412372 -5.642305 1.20734,-7.439777 -5.013158 0.4236849,-7.283218 -3.92332 0.5803723,-7.231327 -3.228081 0.7507352,-7.196796 -2.609943 0.8932902,-7.768491 -4.802269 0.4950587,-7.612002 -3.603492 0.6251196,-7.528805 -2.80336 0.8522321,-7.47313 -2.09592 1.065068,-8.107574 -4.84938 0.6013079,-7.990619 -3.712626 0.7261988,-7.899861 -2.990803 0.9037637,-7.824044 -2.359262 1.059499,-8.47858 -5.107792 0.7396883,-8.485566 -4.242248 0.891688,-8.462049 -3.67947 1.038882,-8.42237 -3.117102 1.168207,1.01667,0 0 0 0 0 0 False
-1.401361 -7.491027 0.2424057,-2.009297 -7.211551 0.5069855,-2.538555 -6.517623 0.6518877,-2.88426 -5.808649 0.8031611,-3.226521 -5.339183 0.9829097,-2.168316 -4.990199 0.4200479,-2.373205 -3.949145 0.5880522,-2.474583 -3.320594 0.7144698,-2.544766 -2.724559 0.8287398,-1.818618 -4.76753 0.4471285,-1.931403 -3.57378 0.6590247,-1.993823 -2.781069 0.8577145,-2.030836 -2.069395 1.033619,-1.475026 -4.776756 0.5328346,-1.543266 -3.653158 0.7252728,-1.613914 -2.930824 0.9152942,-1.662407 -2.299552 1.069047,-1.11539 -4.982174 0.6406938,-1.074051 -4.07024 0.805881,-1.064554 -3.488708 0.9799619,-1.059492 -2.926774 1.133571,-8.248526 -7.676775 0.3339175,-7.687165 -7.347454 0.5980361,-7.166457 -6.684251 0.8006936,-6.788891 -6.04714 1.062128,-6.450263 -5.663643 1.343257,-7.486559 -5.00784 0.4922115,-7.334676 -3.930728 0.6532435,-7.285887 -3.239859 0.8246058,-7.253333 -2.619027 0.9687114,-7.818291 -4.803471 0.5587565,-7.666978 -3.616106 0.7013562,-7.580462 -2.821183 0.9305526,-7.517108 -2.109487 1.139639,-8.157021 -4.855517 0.6631626,-8.045116 -3.729034 0.80018,-7.953292 -3.010366 0.9806367,-7.871951 -2.372708 1.132134,-8.525839 -5.119382 0.7985579,-8.529147 -4.259645 0.9570442,-8.50368 -3.702096 1.100628,-8.461901 -3.149205 1.222166,1.05000,0 0 0 0 0 0 False
-1.401361 -7.491027 0.2424057,-2.009297 -7.211551 0.5069855,-2.538555 -6.517623 0.6518877,-2.88426 -5.808649 0.8031611,-3.226521 -5.339183 0.9829097,-2.168316 -4.990199 0.4200479,-2.373205 -3.949145 0.5880522,-2.474583 -3.320594 0.7144698,-2.544766 -2.724559 0.8287398,-1.818618 -4.76753 0.4471285,-1.931403 -3.57378 0.6590247,-1.993823 -2.781069 0.8577145,-2.030836 -2.069395 1.033619,-1.475026 -4.776756 0.5328346,-1.543266 -3.653158 0.7252728,-1.613914 -2.930824 0.9152942,-1.662407 -2.299552 1.069047,-1.11539 -4.982174 0.6406938,-1.074051 -4.07024 0.805881,-1.064554 -3.488708 0.9799619,-1.059492 -2.926774 1.133571,-8.248526 -7.676775 0.3339175,-7.687165 -7.347454 0.5980361,-7.166457 -6.684251 0.8006936,-6.788891 -6.04714 1.062128,-6.450263 -5.663643 1.343257,-7.486559 -5.00784 0.4922115,-7.334676 -3.930728 0.6532435,-7.285887 -3.239859 0.8246058,-7.253333 -2.619027 0.9687114,-7.818291 -4.803471 0.5587565,-7.666978 -3.616106 0.7013562,-7.580462 -2.821183 0.9305526,-7.517108 -2.109487 1.139639,-8.157021 -4.855517 0.6631626,-8.045116 -3.729034 0.80018,-7.953292 -3.010366 0.9806367,-7.871951 -2.372708 1.132134,-8.525839 -5.119382 0.7985579,-8.529147 -4.259645 0.9570442,-8.50368 -3.702096 1.100628,-8.461901 -3.149205 1.222166,1.08333,0 0 0 0 0 0 False
-1.409428 -7.470827 0.200777,-2.015191 -7.212158 0.4735374,-2.542571 -6.518186 0.6236755,-2.882179 -5.808248 0.7760628,-3.22098 -5.334833 0.9546452,-2.169984 -4.983854 0.3998136,-2.372692 -3.935352 0.5684602,-2.47029 -3.304292 0.6914113,-2.535934 -2.710534 0.8025606,-1.818959 -4.759702 0.424287,-1.929828 -3.554748 0.6385148,-1.988056 -2.758334 0.832415,-2.020733 -2.050477 1.001979,-1.474988 -4.766683 0.505993,-1.540141 -3.635991 0.702329,-1.606296 -2.908076 0.8885533,-1.651997 -2.271855 1.039751,-1.116497 -4.967857 0.610695,-1.073873 -4.050601 0.781168,-1.061962 -3.465395 0.953486,-1.056208 -2.904299 1.103896,-8.271403 -7.634422 0.237187,-7.708523 -7.342205 0.4922302,-7.186147 -6.686956 0.6887167,-6.811262 -6.055952 0.9411417,-6.476326 -5.68087 1.208264,-7.510213 -4.99536 0.4020201,-7.340503 -3.916264 0.5690312,-7.281245 -3.227317 0.7532239,-7.241776 -2.608515 0.9122721,-7.838879 -4.79054 0.4749768,-7.675522 -3.601664 0.6222938,-7.601088 -2.81006 0.8602962,-7.55125 -2.095645 1.077926,-8.17714 -4.840837 0.5836965,-8.044609 -3.696357 0.7164688,-7.965038 -2.97154 0.8908371,-7.900887 -2.327117 1.043625,-8.547371 -5.100528 0.7252948,-8.524777 -4.223634 0.8760663,-8.496487 -3.663545 1.014168,-8.45779 -3.098488 1.132709,1.11667,0 0 0 0 0 0 False
-1.409428 -7.470827 0.200777,-2.015191 -7.212158 0.4735374,-2.542571 -6.518186 0.6236755,-2.882179 -5.808248 0.7760628,-3.22098 -5.334833 0.9546452,-2.169984 -4.983854 0.3998136,-2.372692 -3.935352 0.5684602,-2.47029 -3.304292 0.6914113,-2.535934 -2.710534 0.8025606,-1.818959 -4.759702 0.424287,-1.929828 -3.554748 0.6385148,-1.988056 -2.758334 0.832415,-2.020733 -2.050477 1.001979,-1.474988 -4.766683 0.505993,-1.540141 -3.635991 0.702329,-1.606296 -2.908076 0.8885533,-1.651997 -2.271855 1.039751,-1.116497 -4.967857 0.610695,-1.073873 -4.050601 0.781168,-1.061962 -3.465395 0.953486,-1.056208 -2.904299 1.103896,-8.271403 -7.634422 0.237187,-7.708523 -7.342205 0.4922302,-7.186147 -6.686956 0.6887167,-6.811262 -6.055952 0.9411417,-6.476326 -5.68087 1.208264,-7.510213 -4.99536 0.4020201,-7.340503 -3.916264 0.5690312,-7.281245 -3.227317 0.7532239,-7.241776 -2.608515 0.9122721,-7.838879 -4.79054 0.4749768,-7.675522 -3.601664 0.6222938,-7.601088 -2.81006 0.8602962,-7.55125 -2.095645 1.077926,-8.17714 -4.840837 0.5836965,-8.044609 -3.696357 0.7164688,-7.965038 -2.97154 0.8908371,-7.900887 -2.327117 1.043625,-8.547371 -5.100528 0.7252948,-8.524777 -4.223634 0.8760663,-8.496487 -3.663545 1.014168,-8.45779 -3.098488 1.132709,1.15000,0 0 0 0 0 0 False
-1.413678 -7.468725 0.2023251,-2.031176 -7.201944 0.4373909,-2.555761 -6.498825 0.5623752,-2.898353 -5.792804 0.6960361,-3.239282 -5.334089 0.8544933,-2.179 -4.971735 0.3330933,-2.383655 -3.937098 0.4827715,-2.483613 -3.301373 0.5983826,-2.547582 -2.701549 0.7010385,-1.82994 -4.754153 0.3696246,-1.939861 -3.570577 0.5650246,-2.002494 -2.785297 0.7543179,-2.0374 -2.077096 0.9269046,-1.487347 -4.761631 0.4638038,-1.555357 -3.647924 0.647951,-1.625032 -2.925319 0.8337982,-1.673268 -2.286442 0.9862301,-1.12902 -4.960214 0.5774986,-1.088181 -4.057967 0.7283621,-1.080021 -3.485596 0.8937213,-1.076422 -2.930235 1.043284,-8.311148 -7.652503 0.2022341,-7.735594 -7.342041 0.4562121,-7.207891 -6.697734 0.6458827,-6.826056 -6.067924 0.8942931,-6.494526 -5.680887 1.160287,-7.5355 -5.028991 0.3516434,-7.366804 -3.958139 0.5198271,-7.309338 -3.280539 0.7000262,-7.27278 -2.669674 0.8526626,-7.864982 -4.818912 0.4151547,-7.699168 -3.63473 0.5496802,-7.619703 -2.848943 0.7832633,-7.570368 -2.143988 0.9974884,-8.203312 -4.863893 0.5159271,-8.071313 -3.730052 0.6429499,-7.98099 -3.010442 0.816617,-7.911006 -2.376278 0.9693745,-8.572725 -5.118603 0.6470696,-8.562036 -4.254879 0.7970791,-8.532689 -3.70718 0.9410798,-8.49243 -3.156854 1.062948,1.18333,0 0 0 0 0 0 False
-1.413678 -7.468725 0.2023251,-2.031176 -7.201944 0.4373909,-2.555761 -6.498825 0.5623752,-2.898353 -5.792804 0.6960361,-3.239282 -5.334089 0.8544933,-2.179 -4.971735 0.3330933,-2.383655 -3.937098 0.4827715,-2.483613 -3.301373 0.5983826,-2.547582 -2.701549 0.7010385,-1.82994 -4.754153 0.3696246,-1.939861 -3.570577 0.5650246,-2.002494 -2.785297 0.7543179,-2.0374 -2.077096 0.9269046,-1.487347 -4.761631 0.4638038,-1.555357 -3.647924 0.647951,-1.625032 -2.925319 0.8337982,-1.673268 -2.286442 0.9862301,-1.12902 -4.960214 0.5774986,-1.088181 -4.057967 0.7283621,-1.080021 -3.485596 0.8937213,-1.076422 -2.930235 1.043284,-8.311148 -7.652503 0.2022341,-7.735594 -7.342041 0.4562121,-7.207891 -6.697734 0.6458827,-6.826056 -6.067924 0.8942931,-6.494526 -5.680887 1.160287,-7.5355 -5.028991 0.3516434,-7.366804 -3.958139 0.5198271,-7.309338 -3.280539 0.7000262,-7.27278 -2.669674 0.8526626,-7.864982 -4.818912 0.4151547,-7.699168 -3.63473 0.5496802,-7.619703 -2.848943 0.7832633,-7.570368 -2.143988 0.9974884,-8.203312 -4.863893 0.5159271,-8.071313 -3.730052 0.6429499,-7.98099 -3.010442 0.816617,-7.911006 -2.376278 0.9693745,-8.572725 -5.118603 0.6470696,-8.562036 -4.254879 0.7970791,-8.532689 -3.70718 0.9410798,-8.49243 -3.156854 1.062948,1.21667,0 0 0 0 0 0 False
-1.429388 -7.445307 0.1545195,-2.035777 -7.186342 0.4115435,-2.561693 -6.500711 0.5564141,-2.905364 -5.802147 0.71063,-3.244379 -5.328965 0.8894651,-2.189633 -4.965272 0.3220467,-2.396986 -3.924023 0.4897613,-2.496602 -3.290493 0.6139063,-2.558997 -2.697536 0.7191809,-1.840399 -4.746116 0.3562728,-1.955106 -3.549921 0.5647487,-2.018101 -2.754081 0.7592487,-2.053945 -2.047914 0.932842,-1.497026 -4.755269 0.4473407,-1.563355 -3.625155 0.6410602,-1.630055 -2.894195 0.8334163,-1.676196 -2.255607 0.9875771,-1.140044 -4.95611 0.5579578,-1.097568 -4.042833 0.7231178,-1.088729 -3.46088 0.8909792,-1.086993 -2.903566 1.039202,-8.315802 -7.640785 0.1830945,-7.748693 -7.341821 0.4277856,-7.228377 -6.694425 0.6169041,-6.849219 -6.065759 0.8698462,-6.52029 -5.670766 1.138024,-7.560477 -5.01773 0.286961,-7.39146 -3.959898 0.4428239,-7.335554 -3.279977 0.6205972,-7.301124 -2.66266 0.7779214,-7.880248 -4.808786 0.3636405,-7.717543 -3.636714 0.4877694,-7.639195 -2.847414 0.7155504,-7.590204 -2.141638 0.9273952,-8.211296 -4.850877 0.4844001,-8.084528 -3.728891 0.6051165,-7.995952 -3.008971 0.7816112,-7.926302 -2.373823 0.9377882,-8.578899 -5.097923 0.6382619,-8.56666 -4.231059 0.7875764,-8.5333 -3.676648 0.9247549,-8.490775 -3.123068 1.040976,1.25000,0 0 0 0 0 0 False
-1.429388 -7.445307 0.1545195,-2.035777 -7.186342 0.4115435,-2.561693 -6.500711 0.5564141,-2.905364 -5.802147 0.71063,-3.244379 -5.328965 0.8894651,-2.189633 -4.965272 0.3220467,-2.396986 -3.924023 0.4897613,-2.496602 -3.290493 0.6139063,-2.558997 -2.697536 0.7191809,-1.840399 -4.746116 0.3562728,-1.955106 -3.549921 0.5647487,-2.018101 -2.754081 0.7592487,-2.053945 -2.047914 0.932842,-1.497026 -4.755269 0.4473407,-1.563355 -3.625155 0.6410602,-1.630055 -2.894195 0.8334163,-1.676196 -2.255607 0.9875771,-1.140044 -4.95611 0.5579578,-1.097568 -4.042833 0.7231178,-1.088729 -3.46088 0.8909792,-1.086993 -2.903566 1.039202,-8.315802 -7.640785 0.1830945,-7.748693 -7.341821 0.4277856,-7.228377 -6.694425 0.6169041,-6.849219 -6.065759 0.8698462,-6.52029 -5.670766 1.138024,-7.560477 -5.01773 0.286961,-7.39146 -3.959898 0.4428239,-7.335554 -3.279977 0.6205972,-7.301124 -2.66266 0.7779214,-7.880248 -4.808786 0.3636405,-7.717543 -3.636714 0.4877694,-7.639195 -2.847414 0.7155504,-7.590204 -2.141638 0.9273952,-8.211296 -4.850877 0.4844001,-8.084528 -3.728891 0.6051165,-7.995952 -3.008971 0.7816112,-7.926302 -2.373823 0.9377882,-8.578899 -5.097923 0.6382619,-8.56666 -4.231059 0.7875764,-8.5333 -3.676648 0.9247549,-8.490775 -3.123068 1.040976,1.28333,0 0 0 0 0 0 False
-1.432056 -7.463563 0.1985411,-2.041173 -7.194667 0.442752,-2.570124 -6.505126 0.5754537,-2.919748 -5.800153 0.7160439,-3.263349 -5.338169 0.88308,-2.194773 -4.972337 0.3324965,-2.396 -3.930056 0.4839503,-2.498922 -3.295207 0.59935,-2.56897 -2.70024 0.7039636,-1.844542 -4.749485 0.3656359,-1.953589 -3.563484 0.557357,-2.023972 -2.776041 0.7452129,-2.069656 -2.070768 0.9148961,-1.500284 -4.755262 0.4562764,-1.569291 -3.637851 0.6335542,-1.645054 -2.918712 0.8152878,-1.699486 -2.289633 0.9630455,-1.141296 -4.951326 0.5664344,-1.101489 -4.043394 0.7191275,-1.098705 -3.464286 0.8823813,-1.103528 -2.906452 1.029891,-8.343971 -7.622444 0.1059484,-7.776411 -7.306848 0.3646474,-7.260083 -6.671358 0.5699614,-6.883053 -6.047064 0.8373581,-6.544227 -5.659265 1.123129,-7.577165 -5.026248 0.2650312,-7.412838 -3.972595 0.4395215,-7.358017 -3.290771 0.6240793,-7.323594 -2.671784 0.7827815,-7.90109 -4.817718 0.3376642,-7.735882 -3.638082 0.4827978,-7.65587 -2.843857 0.7153034,-7.60397 -2.133735 0.9284025,-8.233209 -4.858848 0.4518649,-8.109055 -3.728833 0.5848374,-8.020674 -3.001709 0.7670223,-7.950176 -2.358035 0.9236861,-8.600389 -5.105492 0.5975186,-8.584719 -4.227958 0.7544659,-8.548619 -3.671894 0.8964216,-8.504454 -3.116213 1.013026,1.31667,0 0 0 0 0 0 False
-1.432056 -7.463563 0.1985411,-2.041173 -7.194667 0.442752,-2.570124 -6.505126 0.5754537,-2.919748 -5.800153 0.7160439,-3.263349 -5.338169 0.88308,-2.194773 -4.972337 0.3324965,-2.396 -3.930056 0.4839503,-2.498922 -3.295207 0.59935,-2.56897 -2.70024 0.7039636,-1.844542 -4.749485 0.3656359,-1.953589 -3.563484 0.557357,-2.023972 -2.776041 0.7452129,-2.069656 -2.070768 0.9148961,-1.500284 -4.755262 0.4562764,-1.569291 -3.637851 0.6335542,-1.645054 -2.918712 0.8152878,-1.699486 -2.289633 0.9630455,-1.141296 -4.951326 0.5664344,-1.101489 -4.043394 0.7191275,-1.098705 -3.464286 0.8823813,-1.103528 -2.906452 1.029891,-8.343971 -7.622444 0.1059484,-7.776411 -7.306848 0.3646474,-7.260083 -6.671358 0.5699614,-6.883053 -6.047064 0.8373581,-6.544227 -5.659265 1.123129,-7.577165 -5.026248 0.2650312,-7.412838 -3.972595 0.4395215,-7.358017 -3.290771 0.6240793,-7.323594 -2.671784 0.7827815,-7.90109 -4.817718 0.3376642,-7.735882 -3.638082 0.4827978,-7.65587 -2.843857 0.7153034,-7.60397 -2.133735 0.9284025,-8.233209 -4.858848 0.4518649,-8.109055 -3.728833 0.5848374,-8.020674 -3.001709 0.7670223,-7.950176 -2.358035 0.9236861,-8.600389 -5.105492 0.5975186,-8.584719 -4.227958 0.7544659,-8.548619 -3.671894 0.8964216,-8.504454 -3.116213 1.013026,1.35000,0 0 0 0 0 0 False
-1.456962 -7.463136 0.2135046,-2.061571 -7.193278 0.4630119,-2.588195 -6.500385 0.5980827,-2.937414 -5.801252 0.7419518,-3.276879 -5.331174 0.9109657,-2.201499 -4.96009 0.3499038,-2.406797 -3.920124 0.5037103,-2.513163 -3.283733 0.6202685,-2.58706 -2.686538 0.7222031,-1.851899 -4.742205 0.3818497,-1.96134 -3.557069 0.5769585,-2.033166 -2.765083 0.7632441,-2.079507 -2.062896 0.9321108,-1.510096 -4.749042 0.4715658,-1.573684 -3.631494 0.6519402,-1.646746 -2.90361 0.8365027,-1.69875 -2.270013 0.9845828,-1.155581 -4.945713 0.5809765,-1.114858 -4.03454 0.7372423,-1.111899 -3.448208 0.9022911,-1.115957 -2.886538 1.049988,-8.353563 -7.62317 0.04281824,-7.790253 -7.314918 0.2830893,-7.275271 -6.665848 0.4631935,-6.906458 -6.034301 0.7071691,-6.57555 -5.645315 0.9670826,-7.599932 -5.036932 0.1236165,-7.436397 -3.977228 0.2692091,-7.379746 -3.289447 0.4421333,-7.343948 -2.677863 0.5909027,-7.920321 -4.829654 0.1921109,-7.759562 -3.63963 0.3030405,-7.673657 -2.834282 0.5261627,-7.618023 -2.1246 0.7352675,-8.247678 -4.866529 0.3048028,-8.133426 -3.729127 0.4146673,-8.047935 -2.993755 0.590183,-7.979357 -2.349473 0.745653,-8.609324 -5.102573 0.446371,-8.606696 -4.212508 0.5865547,-8.573043 -3.656661 0.7190742,-8.531987 -3.105049 0.8285987,1.38333,0 0 0 0 0 0 False
-1.477706 -7.455637 0.2061568,-2.075146 -7.187938 0.4737795,-2.601056 -6.499206 0.62396,-2.949618 -5.800574 0.7772777,-3.290082 -5.331512 0.9592894,-2.217221 -4.959413 0.3926167,-2.419529 -3.921718 0.5539968,-2.52399 -3.282993 0.6731461,-2.597061 -2.676911 0.7767854,-1.867988 -4.739206 0.4175963,-1.977397 -3.556213 0.6274483,-2.046361 -2.776202 0.8176836,-2.089937 -2.077474 0.9869336,-1.528819 -4.745054 0.5006788,-1.588905 -3.62947 0.6931393,-1.659449 -2.907427 0.8857877,-1.710855 -2.271001 1.039073,-1.17626 -4.942244 0.6033729,-1.136594 -4.03618 0.7707958,-1.131574 -3.453575 0.9493138,-1.134888 -2.891875 1.107509,-8.372865 -7.584344 -0.08057982,-7.80699 -7.293584 0.1634053,-7.292827 -6.644865 0.3530008,-6.922565 -6.017316 0.604319,-6.589948 -5.620891 0.8735321,-7.614986 -5.003284 0.01424534,-7.445786 -3.942602 0.1696148,-7.392073 -3.259897 0.356132,-7.358607 -2.652968 0.5130297,-7.934181 -4.799961 0.09177245,-7.759562 -3.63963 0.1796823,-7.673657 -2.834282 0.4028046,-7.618023 -2.1246 0.6119093,-8.247678 -4.866529 0.1814447,-8.133426 -3.729127 0.2913092,-8.047935 -2.993755 0.4668248,-7.979357 -2.349473 0.6222949,-8.609324 -5.102573 0.3230129,-8.606696 -4.212508 0.4631966,-8.573043 -3.656661 0.5957161,-8.531987 -3.105049 0.7052406,1.41667,0 0 0 0 0 0 False
-1.477706 -7.455637 0.2061568,-2.075146 -7.187938 0.4737795,-2.601056 -6.499206 0.62396,-2.949618 -5.800574 0.7772777,-3.290082 -5.331512 0.9592894,-2.217221 -4.959413 0.3926167,-2.419529 -3.921718 0.5539968,-2.52399 -3.282993 0.6731461,-2.597061 -2.676911 0.7767854,-1.867988 -4.739206 0.4175963,-1.977397 -3.556213 0.6274483,-2.046361 -2.776202 0.8176836,-2.089937 -2.077474 0.9869336,-1.528819 -4.745054 0.5006788,-1.588905 -3.62947 0.6931393,-1.659449 -2.907427 0.8857877,-1.710855 -2.271001 1.039073,-1.17626 -4.942244 0.6033729,-1.136594 -4.03618 0.7707958,-1.131574 -3.453575 0.9493138,-1.134888 -2.891875 1.107509,-8.372865 -7.584344 0.01877743,-7.80699 -7.293584 0.2627625,-7.292827 -6.644865 0.4523581,-6.922565 -6.017316 0.7036762,-6.589948 -5.620891 0.9728894,-7.614986 -5.003284 0.1136026,-7.445786 -3.942602 0.268972,-7.392073 -3.259897 0.4554892,-7.358607 -2.652968 0.6123869,-7.934181 -4.799961 0.1911297,-7.775668 -3.605587 0.3133003,-7.695728 -2.810514 0.5432355,-7.640317 -2.108032 0.7534016,-8.262221 -4.842192 0.3123265,-8.147373 -3.688661 0.4313746,-8.071638 -2.944654 0.6216642,-8.008083 -2.285223 0.7843627,-8.626114 -5.08487 0.4640258,-8.620413 -4.192022 0.6149654,-8.588549 -3.625805 0.7537113,-8.545727 -3.058795 0.8666908,1.45000,0 0 0 0 0 0 False
-1.481835 -7.46113 0.21225,-2.078976 -7.184816 0.4948939,-2.608953 -6.501908 0.6540005,-2.967681 -5.804519 0.8154142,-3.311136 -5.327919 1.007148,-2.230296 -4.964918 0.408475,-2.432992 -3.927216 0.5748975,-2.538074 -3.286503 0.6992699,-2.613073 -2.677217 0.8104248,-1.879422 -4.744594 0.4311401,-1.989331 -3.55953 0.6424095,-2.061253 -2.78049 0.8350872,-2.107579 -2.080634 1.007727,-1.539201 -4.750198 0.5137593,-1.602183 -3.629473 0.7058439,-1.677906 -2.906772 0.9037307,-1.733036 -2.269231 1.060296,-1.186342 -4.947605 0.6155409,-1.148444 -4.035036 0.7827815,-1.145867 -3.449693 0.9616795,-1.151053 -2.885273 1.121841,-8.378409 -7.590358 0.05036443,-7.810876 -7.294499 0.2972384,-7.296062 -6.649461 0.4864721,-6.9306 -6.019197 0.7313964,-6.603885 -5.630632 0.9921816,-7.624466 -5.004995 0.15616,-7.453702 -3.941926 0.3099094,-7.398771 -3.249774 0.4977593,-7.367109 -2.635767 0.6600958,-7.948774 -4.795228 0.2196011,-7.787004 -3.606266 0.3427394,-7.708502 -2.8086 0.5829617,-7.66039 -2.105769 0.804272,-8.281114 -4.832265 0.32292,-8.15589 -3.689477 0.43356,-8.074731 -2.958705 0.6104773,-8.014752 -2.323461 0.7668822,-8.647313 -5.068372 0.4586985,-8.633434 -4.179804 0.5938625,-8.59935 -3.621728 0.7237561,-8.560906 -3.067271 0.8355758,1.48333,0 0 0 0 0 0 False
-1.481835 -7.46113 0.21225,-2.078976 -7.184816 0.4948939,-2.608953 -6.501908 0.6540005,-2.967681 -5.804519 0.8154142,-3.311136 -5.327919 1.007148,-2.230296 -4.964918 0.408475,-2.432992 -3.927216 0.5748975,-2.538074 -3.286503 0.6992699,-2.613073 -2.677217 0.8104248,-1.879422 -4.744594 0.4311401,-1.989331 -3.55953 0.6424095,-2.061253 -2.78049 0.8350872,-2.107579 -2.080634 1.007727,-1.539201 -4.750198 0.5137593,-1.602183 -3.629473 0.7058439,-1.677906 -2.906772 0.9037307,-1.733036 -2.269231 1.060296,-1.186342 -4.947605 0.6155409,-1.148444 -4.035036 0.7827815,-1.145867 -3.449693 0.9616795,-1.151053 -2.885273 1.121841,-8.378409 -7.590358 0.05036443,-7.810876 -7.294499 0.2972384,-7.296062 -6.649461 0.4864721,-6.9306 -6.019197 0.7313964,-6.603885 -5.630632 0.9921816,-7.624466 -5.004995 0.15616,-7.453702 -3.941926 0.3099094,-7.398771 -3.249774 0.4977593,-7.367109 -2.635767 0.6600958,-7.948774 -4.795228 0.2196011,-7.787004 -3.606266 0.3427394,-7.708502 -2.8086 0.5829617,-7.66039 -2.105769 0.804272,-8.281114 -4.832265 0.32292,-8.15589 -3.689477 0.43356,-8.074731 -2.958705 0.6104773,-8.014752 -2.323461 0.7668822,-8.647313 -5.068372 0.4586985,-8.633434 -4.179804 0.5938625,-8.59935 -3.621728 0.7237561,-8.560906 -3.067271 0.8355758,1.51667,0 0 0 0 0 0 False
-1.506202 -7.461692 0.2280932,-2.104947 -7.194311 0.4871559,-2.631806 -6.503383 0.6295315,-2.980147 -5.800754 0.7763899,-3.319107 -5.327543 0.9524819,-2.245481 -4.962986 0.4063937,-2.449215 -3.92476 0.5657682,-2.553981 -3.282458 0.6838403,-2.628147 -2.670747 0.7898814,-1.89586 -4.738494 0.4352228,-2.003709 -3.550628 0.6412302,-2.073592 -2.766295 0.8283085,-2.117858 -2.06814 0.9942778,-1.556347 -4.740596 0.5215857,-1.614837 -3.612945 0.7107897,-1.687206 -2.884875 0.9040828,-1.738484 -2.246821 1.055561,-1.203121 -4.936899 0.6266282,-1.165635 -4.024388 0.794655,-1.164223 -3.433676 0.971001,-1.169206 -2.866421 1.123579,-8.395822 -7.580905 0.09875883,-7.830749 -7.293642 0.3564642,-7.313695 -6.647851 0.5504629,-6.945497 -6.016462 0.8020408,-6.619247 -5.618268 1.073096,-7.641164 -4.981473 0.2025058,-7.466765 -3.918767 0.3496476,-7.415267 -3.22495 0.5338154,-7.385803 -2.61162 0.6940801,-7.966471 -4.771369 0.2623075,-7.800247 -3.588614 0.3776479,-7.724099 -2.790097 0.6149377,-7.677227 -2.08742 0.8349059,-8.300708 -4.81031 0.3640155,-8.17254 -3.670791 0.4708621,-8.094527 -2.938727 0.6483732,-8.033929 -2.303605 0.8040578,-8.66954 -5.050521 0.4998345,-8.654719 -4.165444 0.6330243,-8.621498 -3.606504 0.7613664,-8.579978 -3.048896 0.8716237,1.55000,0 0 0 0 0 0 False
-1.506202 -7.461692 0.2280932,-2.104947 -7.194311 0.4871559,-2.631806 -6.503383 0.6295315,-2.980147 -5.800754 0.7763899,-3.319107 -5.327543 0.9524819,-2.245481 -4.962986 0.4063937,-2.449215 -3.92476 0.5657682,-2.553981 -3.282458 0.6838403,-2.628147 -2.670747 0.7898814,-1.89586 -4.738494 0.4352228,-2.003709 -3.550628 0.6412302,-2.073592 -2.766295 0.8283085,-2.117858 -2.06814 0.9942778,-1.556347 -4.740596 0.5215857,-1.614837 -3.612945 0.7107897,-1.687206 -2.884875 0.9040828,-1.738484 -2.246821 1.055561,-1.203121 -4.936899 0.6266282,-1.165635 -4.024388 0.794655,-1.164223 -3.433676 0.971001,-1.169206 -2.866421 1.123579,-8.395822 -7.580905 0.09875883,-7.830749 -7.293642 0.3564642,-7.313695 -6.647851 0.5504629,-6.945497 -6.016462 0.8020408,-6.619247 -5.618268 1.073096,-7.641164 -4.981473 0.2025058,-7.466765 -3.918767 0.3496476,-7.415267 -3.22495 0.5338154,-7.385803 -2.61162 0.6940801,-7.966471 -4.771369 0.2623075,-7.800247 -3.588614 0.3776479,-7.724099 -2.790097 0.6149377,-7.677227 -2.08742 0.8349059,-8.300708 -4.81031 0.3640155,-8.17254 -3.670791 0.4708621,-8.094527 -2.938727 0.6483732,-8.033929 -2.303605 0.8040578,-8.66954 -5.050521 0.4998345,-8.654719 -4.165444 0.6330243,-8.621498 -3.606504 0.7613664,-8.579978 -3.048896 0.8716237,1.58333,0 0 0 0 0 0 False
-1.513453 -7.443077 0.2073236,-2.119142 -7.180036 0.4660627,-2.648065 -6.49281 0.6072351,-2.995501 -5.78964 0.7521198,-3.334805 -5.314567 0.9219657,-2.26227 -4.951969 0.3856884,-2.467504 -3.910612 0.5427866,-2.571006 -3.269251 0.6565843,-2.643977 -2.656802 0.759013,-1.910533 -4.726779 0.4119637,-2.017123 -3.542464 0.6162006,-2.084588 -2.762651 0.8018053,-2.12788 -2.063952 0.9686895,-1.570252 -4.725577 0.4957699,-1.63133 -3.601784 0.6871985,-1.704695 -2.876931 0.8789677,-1.758324 -2.239655 1.03301,-1.217569 -4.916583 0.5964943,-1.183301 -4.003308 0.7638896,-1.179733 -3.415151 0.9440898,-1.18416 -2.847603 1.103208,-8.408731 -7.5816 0.0962125,-7.845117 -7.300714 0.3660032,-7.327274 -6.657166 0.5701197,-6.956017 -6.018234 0.8280951,-6.630957 -5.615285 1.10767,-7.651434 -4.994827 0.2175482,-7.468245 -3.934743 0.3657199,-7.412037 -3.237392 0.5527935,-7.380359 -2.61749 0.713764,-7.970549 -4.775192 0.2765988,-7.801123 -3.588562 0.391292,-7.727303 -2.785011 0.628185,-7.686074 -2.078073 0.8461719,-8.301413 -4.80772 0.3776208,-8.174103 -3.665855 0.482513,-8.095472 -2.928822 0.6609651,-8.036255 -2.293252 0.8183261,-8.667685 -5.045251 0.5161245,-8.655567 -4.152439 0.6551566,-8.626825 -3.584249 0.790419,-8.590176 -3.020051 0.9046665,1.61667,0 0 0 0 0 0 False
-1.513453 -7.443077 0.2073236,-2.119142 -7.180036 0.4660627,-2.648065 -6.49281 0.6072351,-2.995501 -5.78964 0.7521198,-3.334805 -5.314567 0.9219657,-2.26227 -4.951969 0.3856884,-2.467504 -3.910612 0.5427866,-2.571006 -3.269251 0.6565843,-2.643977 -2.656802 0.759013,-1.910533 -4.726779 0.4119637,-2.017123 -3.542464 0.6162006,-2.084588 -2.762651 0.8018053,-2.12788 -2.063952 0.9686895,-1.570252 -4.725577 0.4957699,-1.63133 -3.601784 0.6871985,-1.704695 -2.876931 0.8789677,-1.758324 -2.239655 1.03301,-1.217569 -4.916583 0.5964943,-1.183301 -4.003308 0.7638896,-1.179733 -3.415151 0.9440898,-1.18416 -2.847603 1.103208,-8.408731 -7.5816 0.0962125,-7.845117 -7.300714 0.3660032,-7.327274 -6.657166 0.5701197,-6.956017 -6.018234 0.8280951,-6.630957 -5.615285 1.10767,-7.651434 -4.994827 0.2175482,-7.468245 -3.934743 0.3657199,-7.412037 -3.237392 0.5527935,-7.380359 -2.61749 0.713764,-7.970549 -4.775192 0.2765988,-7.801123 -3.588562 0.391292,-7.727303 -2.785011 0.628185,-7.686074 -2.078073 0.8461719,-8.301413 -4.80772 0.3776208,-8.174103 -3.665855 0.482513,-8.095472 -2.928822 0.6609651,-8.036255 -2.293252 0.8183261,-8.667685 -5.045251 0.5161245,-8.655567 -4.152439 0.6551566,-8.626825 -3.584249 0.790419,-8.590176 -3.020051 0.9046665,1.65000,0 0 0 0 0 0 False
-1.522639 -7.438812 0.2101271,-2.122623 -7.183057 0.4668589,-2.65071 -6.493202 0.6021408,-2.997276 -5.785173 0.7425464,-3.340393 -5.310901 0.9130477,-2.27535 -4.948717 0.3772592,-2.478133 -3.911244 0.5330445,-2.584914 -3.27107 0.6475323,-2.662475 -2.664135 0.7510131,-1.926014 -4.722141 0.4083021,-2.03886 -3.540254 0.6145446,-2.111286 -2.761237 0.8019938,-2.155908 -2.062227 0.9694905,-1.583839 -4.724859 0.4969235,-1.652786 -3.600259 0.6969696,-1.727812 -2.869738 0.8928822,-1.779789 -2.224221 1.048285,-1.224982 -4.924076 0.6032096,-1.194244 -4.014987 0.7756374,-1.193893 -3.428348 0.9559639,-1.198258 -2.862349 1.116605,-8.419531 -7.592086 0.143827,-7.849148 -7.299604 0.4074002,-7.328308 -6.650299 0.6028428,-6.955938 -6.007869 0.8498778,-6.629243 -5.607332 1.116181,-7.657063 -4.989604 0.2596733,-7.482461 -3.930957 0.4103808,-7.428767 -3.234753 0.5985172,-7.398854 -2.615551 0.7627286,-7.98092 -4.771243 0.3123962,-7.812593 -3.589845 0.4244623,-7.733602 -2.789114 0.6652091,-7.689504 -2.082224 0.8916424,-8.314603 -4.806929 0.4077231,-8.188036 -3.673289 0.508597,-8.104811 -2.942523 0.6876333,-8.046072 -2.310905 0.849962,-8.682652 -5.046432 0.5384858,-8.666395 -4.160043 0.6702819,-8.632123 -3.598549 0.8062833,-8.595116 -3.040121 0.9266654,1.68333,0 0 0 0 0 0 False
-1.522639 -7.438812 0.2101271,-2.122623 -7.183057 0.4668589,-2.65071 -6.493202 0.6021408,-2.997276 -5.785173 0.7425464,-3.340393 -5.310901 0.9130477,-2.27535 -4.948717 0.3772592,-2.478133 -3.911244 0.5330445,-2.584914 -3.27107 0.6475323,-2.662475 -2.664135 0.7510131,-1.926014 -4.722141 0.4083021,-2.03886 -3.540254 0.6145446,-2.111286 -2.761237 0.8019938,-2.155908 -2.062227 0.9694905,-1.583839 -4.724859 0.4969235,-1.652786 -3.600259 0.6969696,-1.727812 -2.869738 0.8928822,-1.779789 -2.224221 1.048285,-1.224982 -4.924076 0.6032096,-1.194244 -4.014987 0.7756374,-1.193893 -3.428348 0.9559639,-1.198258 -2.862349 1.116605,-8.419531 -7.592086 0.143827,-7.849148 -7.299604 0.4074002,-7.328308 -6.650299 0.6028428,-6.955938 -6.007869 0.8498778,-6.629243 -5.607332 1.116181,-7.657063 -4.989604 0.2596733,-7.482461 -3.930957 0.4103808,-7.428767 -3.234753 0.5985172,-7.398854 -2.615551 0.7627286,-7.98092 -4.771243 0.3123962,-7.812593 -3.589845 0.4244623,-7.733602 -2.789114 0.6652091,-7.689504 -2.082224 0.8916424,-8.314603 -4.806929 0.4077231,-8.188036 -3.673289 0.508597,-8.104811 -2.942523 0.6876333,-8.046072 -2.310905 0.849962,-8.682652 -5.046432 0.5384858,-8.666395 -4.160043 0.6702819,-8.632123 -3.598549 0.8062833,-8.595116 -3.040121 0.9266654,1.71667,0 0 0 0 0 0 False
-1.532326 -7.42369 0.2040051,-2.133374 -7.171822 0.4588853,-2.662611 -6.489795 0.5949364,-3.010464 -5.784311 0.7345256,-3.351091 -5.314411 0.9040536,-2.288062 -4.938438 0.3684191,-2.493798 -3.897991 0.5234686,-2.600048 -3.254848 0.6411599,-2.674688 -2.646829 0.7476134,-1.937472 -4.708969 0.4010236,-2.049799 -3.523527 0.6004876,-2.121246 -2.740804 0.7888739,-2.165373 -2.04248 0.9607781,-1.595191 -4.707473 0.4899997,-1.662047 -3.584129 0.6830663,-1.737775 -2.855899 0.8786212,-1.792366 -2.215728 1.035361,-1.23775 -4.899944 0.5981011,-1.20254 -3.992399 0.7669545,-1.198682 -3.405223 0.9442648,-1.201013 -2.84067 1.104783,-8.410137 -7.583295 0.1572413,-7.846413 -7.272245 0.4206177,-7.330532 -6.633799 0.6236786,-6.96344 -5.991535 0.8788253,-6.637119 -5.59279 1.151823,-7.656714 -4.973535 0.2819905,-7.485303 -3.914743 0.431889,-7.435732 -3.21708 0.6200296,-7.408145 -2.601501 0.7839076,-7.983524 -4.757385 0.3367005,-7.814349 -3.568147 0.4494755,-7.739086 -2.762094 0.6902102,-7.695496 -2.056476 0.9212995,-8.31942 -4.792743 0.4327587,-8.190517 -3.651859 0.5294363,-8.112877 -2.918987 0.7050427,-8.055875 -2.28957 0.8656705,-8.689977 -5.032905 0.5657722,-8.670741 -4.143025 0.6901748,-8.637775 -3.582562 0.8173006,-8.599024 -3.029153 0.9317166,1.75000,0 0 0 0 0 0 False
-1.53298 -7.439931 0.2597615,-2.133374 -7.171822 0.5146242,-2.662611 -6.489795 0.6506753,-3.010464 -5.784311 0.7902645,-3.351091 -5.314411 0.9597925,-2.288062 -4.938438 0.4241581,-2.493798 -3.897991 0.5792075,-2.600048 -3.254848 0.6968988,-2.674688 -2.646829 0.8033523,-1.937472 -4.708969 0.4567626,-2.049799 -3.523527 0.6562266,-2.121246 -2.740804 0.8446128,-2.165373 -2.04248 1.016517,-1.595191 -4.707473 0.5457387,-1.662047 -3.584129 0.7388052,-1.737775 -2.855899 0.9343601,-1.792366 -2.215728 1.0911,-1.23775 -4.899944 0.6538401,-1.20254 -3.992399 0.8226934,-1.198682 -3.405223 1.000004,-1.201013 -2.84067 1.160522,-8.410137 -7.583295 0.1572413,-7.846413 -7.272245 0.4206177,-7.330532 -6.633799 0.6236786,-6.96344 -5.991535 0.8788253,-6.637119 -5.59279 1.151823,-7.656714 -4.973535 0.2819905,-7.485303 -3.914743 0.431889,-7.435732 -3.21708 0.6200296,-7.408145 -2.601501 0.7839076,-7.983524 -4.757385 0.3367005,-7.814349 -3.568147 0.4494755,-7.739086 -2.762094 0.6902102,-7.695496 -2.056476 0.9212995,-8.31942 -4.792743 0.4327587,-8.190517 -3.651859 0.5294363,-8.112877 -2.918987 0.7050427,-8.055875 -2.28957 0.8656705,-8.689977 -5.032905 0.5657722,-8.670741 -4.143025 0.6901748,-8.637775 -3.582562 0.8173006,-8.599024 -3.029153 0.9317166,1.78333,0 0 0 0 0 0 False
-1.53298 -7.439931 0.2048012,-2.133277 -7.176115 0.462184,-2.664047 -6.488897 0.5978981,-3.020915 -5.783019 0.7388145,-3.367056 -5.308528 0.9102118,-2.285148 -4.949525 0.3502966,-2.492483 -3.911098 0.4998442,-2.602679 -3.2654 0.6167457,-2.68093 -2.658878 0.7267861,-1.937507 -4.723532 0.3821079,-2.054067 -3.538125 0.5771754,-2.131011 -2.747896 0.7677615,-2.180659 -2.047781 0.9412076,-1.597384 -4.723534 0.4736935,-1.666603 -3.594112 0.6619879,-1.747183 -2.854733 0.8580576,-1.807035 -2.210187 1.016784,-1.243794 -4.919308 0.5854717,-1.205664 -3.9986 0.7520345,-1.202886 -3.400801 0.9302707,-1.205695 -2.830266 1.093474,-8.413601 -7.578321 0.08938659,-7.855353 -7.262405 0.3560619,-7.336094 -6.618261 0.5543621,-6.959387 -5.970434 0.8040712,-6.632865 -5.580632 1.073563,-7.658215 -4.993057 0.2234564,-7.484798 -3.932956 0.3826619,-7.430696 -3.23603 0.5789424,-7.402895 -2.620681 0.7531636,-7.977731 -4.774553 0.2848881,-7.803565 -3.581355 0.4136758,-7.723825 -2.769271 0.6663653,-7.680594 -2.050231 0.9007591,-8.309557 -4.8024 0.3879714,-8.182209 -3.661507 0.5053089,-8.102922 -2.925035 0.692907,-8.043081 -2.283533 0.8595353,-8.679168 -5.035783 0.5281142,-8.668283 -4.138119 0.6710067,-8.640449 -3.571706 0.8059822,-8.604179 -3.002756 0.9259493,1.81667,0 0 0 0 0 0 False
-1.551837 -7.437857 0.2019616,-2.151756 -7.180187 0.46087,-2.679146 -6.495943 0.605881,-3.029573 -5.795658 0.755192,-3.370436 -5.319375 0.9345154,-2.295219 -4.946397 0.3842295,-2.505235 -3.907514 0.5411011,-2.616143 -3.265399 0.6582955,-2.69624 -2.657029 0.7628765,-1.948895 -4.724058 0.4188815,-2.063004 -3.538046 0.6329269,-2.138651 -2.754673 0.8242903,-2.188175 -2.055582 0.9968686,-1.610418 -4.728235 0.5101413,-1.676039 -3.593719 0.7133518,-1.756134 -2.857097 0.9154058,-1.815698 -2.208877 1.078556,-1.258031 -4.931006 0.619496,-1.221327 -4.01066 0.7942246,-1.219893 -3.413837 0.9761133,-1.224577 -2.84088 1.141146,-8.418833 -7.574691 0.07971123,-7.851787 -7.2639 0.3629295,-7.33579 -6.621448 0.5762932,-6.964521 -5.971537 0.8375701,-6.632362 -5.567647 1.116767,-7.658215 -4.993057 0.2137499,-7.484798 -3.932956 0.3729554,-7.430696 -3.23603 0.5692359,-7.402895 -2.620681 0.7434571,-7.977731 -4.774553 0.2751816,-7.803565 -3.581355 0.4039693,-7.723825 -2.769271 0.6566588,-7.680594 -2.050231 0.8910526,-8.309557 -4.8024 0.3782649,-8.182209 -3.661507 0.4956024,-8.102922 -2.925035 0.6832005,-8.043081 -2.283533 0.8498288,-8.679168 -5.035783 0.5184077,-8.668283 -4.138119 0.6613002,-8.640449 -3.571706 0.7962757,-8.604179 -3.002756 0.9162428,1.85000,0 0 0 0 0 0 False
-1.551837 -7.437857 0.2019616,-2.151756 -7.180187 0.46087,-2.679146 -6.495943 0.605881,-3.029573 -5.795658 0.755192,-3.370436 -5.319375 0.9345154,-2.295219 -4.946397 0.3842295,-2.505235 -3.907514 0.5411011,-2.616143 -3.265399 0.6582955,-2.69624 -2.657029 0.7628765,-1.948895 -4.724058 0.4188815,-2.063004 -3.538046 0.6329269,-2.138651 -2.754673 0.8242903,-2.188175 -2.055582 0.9968686,-1.610418 -4.728235 0.5101413,-1.676039 -3.593719 0.7133518,-1.756134 -2.857097 0.9154058,-1.815698 -2.208877 1.078556,-1.258031 -4.931006 0.619496,-1.221327 -4.01066 0.7942246,-1.219893 -3.413837 0.9761133,-1.224577 -2.84088 1.141146,-8.418833 -7.574691 0.1675737,-7.851787 -7.2639 0.450792,-7.33579 -6.621448 0.6641557,-6.964521 -5.971537 0.9254326,-6.632362 -5.567647 1.204629,-7.658194 -4.969163 0.3267244,-7.489142 -3.918688 0.4920402,-7.443002 -3.228252 0.6901494,-7.422019 -2.616848 0.8627174,-7.98179 -4.749572 0.3786119,-7.815473 -3.566854 0.5082713,-7.739424 -2.763237 0.7586084,-7.697828 -2.052058 0.9929821,-8.315948 -4.784479 0.4736045,-8.194569 -3.647887 0.5905068,-8.116161 -2.913037 0.779556,-8.060159 -2.274602 0.9484376,-8.68669 -5.025409 0.6059049,-8.670902 -4.136679 0.7502794,-8.639091 -3.572166 0.8891836,-8.602859 -3.007959 1.01094,1.88333,0 0 0 0 0 0 False
-1.549928 -7.445749 0.1792637,-2.146411 -7.18474 0.4733326,-2.676963 -6.51424 0.6378897,-3.027924 -5.811617 0.79715,-3.369547 -5.32268 0.9864078,-2.299669 -4.966272 0.4041806,-2.50392 -3.921356 0.5728185,-2.612423 -3.27905 0.7001753,-2.69255 -2.669837 0.8162743,-1.94634 -4.740745 0.4234854,-2.061679 -3.546382 0.6455567,-2.13847 -2.759602 0.8454722,-2.19191 -2.055698 1.026516,-1.604273 -4.742929 0.5018444,-1.674035 -3.607412 0.7103675,-1.755367 -2.867622 0.9193422,-1.817756 -2.215312 1.087548,-1.251064 -4.940328 0.5992959,-1.21651 -4.019986 0.7810679,-1.217009 -3.425133 0.9694152,-1.225829 -2.855134 1.140495,-8.417085 -7.584482 0.151653,-7.849132 -7.276399 0.4190635,-7.330881 -6.622994 0.6197339,-6.958548 -5.97104 0.8707601,-6.632167 -5.569139 1.140552,-7.658545 -4.979575 0.2825724,-7.491652 -3.914277 0.4376991,-7.447405 -3.216164 0.6293513,-7.42767 -2.601337 0.7962267,-7.979445 -4.76236 0.3383926,-7.813917 -3.570199 0.4584703,-7.738813 -2.765453 0.7013335,-7.696897 -2.052172 0.9271734,-8.312654 -4.796222 0.4382175,-8.192612 -3.649509 0.5495722,-8.117537 -2.908315 0.7383149,-8.064325 -2.26111 0.9063439,-8.681835 -5.037639 0.5739763,-8.67088 -4.139656 0.7132933,-8.641264 -3.567459 0.8538919,-8.606662 -2.995993 0.9781249,1.91667,0 0 0 0 0 0 False
-1.549928 -7.445749 0.1792637,-2.146411 -7.18474 0.4733326,-2.676963 -6.51424 0.6378897,-3.027924 -5.811617 0.79715,-3.369547 -5.32268 0.9864078,-2.299669 -4.966272 0.4041806,-2.50392 -3.921356 0.5728185,-2.612423 -3.27905 0.7001753,-2.69255 -2.669837 0.8162743,-1.94634 -4.740745 0.4234854,-2.061679 -3.546382 0.6455567,-2.13847 -2.759602 0.8454722,-2.19191 -2.055698 1.026516,-1.604273 -4.742929 0.5018444,-1.674035 -3.607412 0.7103675,-1.755367 -2.867622 0.9193422,-1.817756 -2.215312 1.087548,-1.251064 -4.940328 0.5992959,-1.21651 -4.019986 0.7810679,-1.217009 -3.425133 0.9694152,-1.225829 -2.855134 1.140495,-8.417085 -7.584482 0.151653,-7.849132 -7.276399 0.4190635,-7.330881 -6.622994 0.6197339,-6.958548 -5.97104 0.8707601,-6.632167 -5.569139 1.140552,-7.658545 -4.979575 0.2825724,-7.491652 -3.914277 0.4376991,-7.447405 -3.216164 0.6293513,-7.42767 -2.601337 0.7962267,-7.979445 -4.76236 0.3383926,-7.813917 -3.570199 0.4584703,-7.738813 -2.765453 0.7013335,-7.696897 -2.052172 0.9271734,-8.312654 -4.796222 0.4382175,-8.192612 -3.649509 0.5495722,-8.117537 -2.908315 0.7383149,-8.064325 -2.26111 0.9063439,-8.681835 -5.037639 0.5739763,-8.67088 -4.139656 0.7132933,-8.641264 -3.567459 0.8538919,-8.606662 -2.995993 0.9781249,1.95000,0 0 0 0 0 0 False
-1.540177 -7.438323 0.1737215,-2.137665 -7.191041 0.4638288,-2.668302 -6.520761 0.6219773,-3.023405 -5.817878 0.7755888,-3.370293 -5.332658 0.962318,-2.301128 -4.964839 0.3730929,-2.509073 -3.922282 0.5311687,-2.617377 -3.278757 0.6520457,-2.696401 -2.669455 0.7649122,-1.948036 -4.734374 0.3915098,-2.062308 -3.541641 0.6002401,-2.13587 -2.757976 0.7923129,-2.185442 -2.056407 0.9652689,-1.605861 -4.734041 0.4692344,-1.673532 -3.600807 0.6663021,-1.755653 -2.86516 0.8719351,-1.817377 -2.213065 1.036833,-1.251431 -4.930677 0.5668759,-1.21929 -4.016983 0.7424756,-1.220308 -3.429023 0.9297391,-1.227931 -2.861077 1.098724,-8.423402 -7.586843 0.1638271,-7.851419 -7.274564 0.4335616,-7.332591 -6.62874 0.6382035,-6.959369 -5.978254 0.8925701,-6.629143 -5.575977 1.165449,-7.65696 -4.98034 0.3081084,-7.489926 -3.921733 0.4722681,-7.44191 -3.230103 0.668033,-7.418877 -2.619453 0.8356311,-7.980614 -4.762878 0.3635356,-7.818121 -3.571407 0.4900673,-7.741824 -2.767806 0.7358701,-7.698282 -2.055264 0.9645451,-8.314486 -4.797517 0.4612385,-8.197939 -3.65113 0.5767868,-8.121089 -2.910544 0.7635263,-8.065215 -2.262364 0.9290099,-8.684111 -5.037121 0.5940034,-8.673644 -4.14133 0.7345352,-8.644321 -3.574819 0.8700279,-8.610178 -3.009025 0.9892955,1.98333,0 0 0 0 0 0 False
-1.540177 -7.438323 0.1737215,-2.137665 -7.191041 0.4638288,-2.668302 -6.520761 0.6219773,-3.023405 -5.817878 0.7755888,-3.370293 -5.332658 0.962318,-2.301128 -4.964839 0.3730929,-2.509073 -3.922282 0.5311687,-2.617377 -3.278757 0.6520457,-2.696401 -2.669455 0.7649122,-1.948036 -4.734374 0.3915098,-2.062308 -3.541641 0.6002401,-2.13587 -2.757976 0.7923129,-2.185442 -2.056407 0.9652689,-1.605861 -4.734041 0.4692344,-1.673532 -3.600807 0.6663021,-1.755653 -2.86516 0.8719351,-1.817377 -2.213065 1.036833,-1.251431 -4.930677 0.5668759,-1.21929 -4.016983 0.7424756,-1.220308 -3.429023 0.9297391,-1.227931 -2.861077 1.098724,-8.423402 -7.586843 0.1638271,-7.851419 -7.274564 0.4335616,-7.332591 -6.62874 0.6382035,-6.959369 -5.978254 0.8925701,-6.629143 -5.575977 1.165449,-7.65696 -4.98034 0.3081084,-7.489926 -3.921733 0.4722681,-7.44191 -3.230103 0.668033,-7.418877 -2.619453 0.8356311,-7.980614 -4.762878 0.3635356,-7.818121 -3.571407 0.4900673,-7.741824 -2.767806 0.7358701,-7.698282 -2.055264 0.9645451,-8.314486 -4.797517 0.4612385,-8.197939 -3.65113 0.5767868,-8.121089 -2.910544 0.7635263,-8.065215 -2.262364 0.9290099,-8.684111 -5.037121 0.5940034,-8.673644 -4.14133 0.7345352,-8.644321 -3.574819 0.8700279,-8.610178 -3.009025 0.9892955,2.01667,0 0 0 0 0 0 False
-1.545157 -7.458114 0.2090062,-2.140497 -7.197298 0.4765272,-2.669014 -6.517583 0.6304498,-3.02206 -5.812664 0.7865148,-3.369381 -5.325894 0.977418,-2.296254 -4.969768 0.3963406,-2.502925 -3.927368 0.5563895,-2.613265 -3.282318 0.678275,-2.692236 -2.675591 0.7912396,-1.947524 -4.743023 0.4257936,-2.065435 -3.5515 0.6325642,-2.143683 -2.759326 0.8238249,-2.195871 -2.057222 0.9955898,-1.60651 -4.745927 0.5115389,-1.675047 -3.609098 0.7028863,-1.758254 -2.86672 0.8975196,-1.819046 -2.220426 1.05691,-1.252126 -4.946926 0.617455,-1.216904 -4.022624 0.7866477,-1.215826 -3.423394 0.9660674,-1.219747 -2.852582 1.129691,-8.418628 -7.591388 0.2020131,-7.84571 -7.275358 0.4811036,-7.33363 -6.620258 0.6896712,-6.966558 -5.96619 0.9434692,-6.632653 -5.561918 1.212318,-7.658649 -4.969378 0.3560585,-7.494513 -3.909734 0.5192598,-7.44776 -3.217087 0.7142926,-7.421075 -2.604528 0.8821058,-7.984453 -4.755163 0.4036614,-7.827803 -3.566055 0.5325225,-7.751805 -2.763931 0.7782065,-7.70681 -2.052671 1.009611,-8.318113 -4.791961 0.4949153,-8.204349 -3.648507 0.6079268,-8.127292 -2.909282 0.7923888,-8.072039 -2.262718 0.9566543,-8.687365 -5.032701 0.6209657,-8.674958 -4.141733 0.7588958,-8.644712 -3.575852 0.8923611,-8.612048 -3.007923 1.010754,2.05000,0 0 0 0 0 0 False
-1.545157 -7.458114 0.2090062,-2.140497 -7.197298 0.4765272,-2.669014 -6.517583 0.6304498,-3.02206 -5.812664 0.7865148,-3.369381 -5.325894 0.977418,-2.296254 -4.969768 0.3963406,-2.502925 -3.927368 0.5563895,-2.613265 -3.282318 0.678275,-2.692236 -2.675591 0.7912396,-1.947524 -4.743023 0.4257936,-2.065435 -3.5515 0.6325642,-2.143683 -2.759326 0.8238249,-2.195871 -2.057222 0.9955898,-1.60651 -4.745927 0.5115389,-1.675047 -3.609098 0.7028863,-1.758254 -2.86672 0.8975196,-1.819046 -2.220426 1.05691,-1.252126 -4.946926 0.617455,-1.216904 -4.022624 0.7866477,-1.215826 -3.423394 0.9660674,-1.219747 -2.852582 1.129691,-8.418628 -7.591388 0.2020131,-7.84571 -7.275358 0.4811036,-7.33363 -6.620258 0.6896712,-6.966558 -5.96619 0.9434692,-6.632653 -5.561918 1.212318,-7.658649 -4.969378 0.3560585,-7.494513 -3.909734 0.5192598,-7.44776 -3.217087 0.7142926,-7.421075 -2.604528 0.8821058,-7.984453 -4.755163 0.4036614,-7.827803 -3.566055 0.5325225,-7.751805 -2.763931 0.7782065,-7.70681 -2.052671 1.009611,-8.318113 -4.791961 0.4949153,-8.204349 -3.648507 0.6079268,-8.127292 -2.909282 0.7923888,-8.072039 -2.262718 0.9566543,-8.687365 -5.032701 0.6209657,-8.674958 -4.141733 0.7588958,-8.644712 -3.575852 0.8923611,-8.612048 -3.007923 1.010754,2.08333,0 0 0 0 0 0 False
-1.54409 -7.44729 0.2229198,-2.139415 -7.199328 0.5069847,-2.664123 -6.512905 0.661271,-3.014476 -5.806417 0.8162285,-3.366683 -5.329681 1.007367,-2.295451 -4.957468 0.421926,-2.506218 -3.913942 0.5821406,-2.616146 -3.271852 0.7016438,-2.696379 -2.663168 0.810797,-1.946041 -4.728452 0.4438986,-2.061786 -3.535621 0.655815,-2.136174 -2.751368 0.8476193,-2.184589 -2.048696 1.017726,-1.604765 -4.728915 0.5248238,-1.670935 -3.592075 0.724961,-1.751467 -2.852081 0.9297714,-1.81049 -2.197079 1.094544,-1.250521 -4.927211 0.6253195,-1.218592 -4.011529 0.8048702,-1.218586 -3.420223 0.9917594,-1.223656 -2.850968 1.159297,-8.408559 -7.572477 0.1355024,-7.843184 -7.255247 0.3913454,-7.328105 -6.607509 0.5909252,-6.956011 -5.958963 0.8418574,-6.625783 -5.563659 1.111449,-7.661224 -4.967214 0.2718165,-7.487262 -3.897682 0.4333452,-7.440317 -3.203364 0.6338341,-7.416606 -2.588542 0.805951,-7.982543 -4.754179 0.3358517,-7.817605 -3.551229 0.4668858,-7.745982 -2.744735 0.7150567,-7.704168 -2.027061 0.9455187,-8.314352 -4.789856 0.4412866,-8.19426 -3.637549 0.553916,-8.122808 -2.89989 0.7412037,-8.070661 -2.251742 0.9066504,-8.681931 -5.0296 0.5819964,-8.668225 -4.131371 0.7212269,-8.64018 -3.563592 0.8588908,-8.605622 -2.992731 0.9802041,2.11667,0 0 0 0 0 0 False
-1.54409 -7.44729 0.2229198,-2.139415 -7.199328 0.5069847,-2.664123 -6.512905 0.661271,-3.014476 -5.806417 0.8162285,-3.366683 -5.329681 1.007367,-2.295451 -4.957468 0.421926,-2.506218 -3.913942 0.5821406,-2.616146 -3.271852 0.7016438,-2.696379 -2.663168 0.810797,-1.946041 -4.728452 0.4438986,-2.061786 -3.535621 0.655815,-2.136174 -2.751368 0.8476193,-2.184589 -2.048696 1.017726,-1.604765 -4.728915 0.5248238,-1.670935 -3.592075 0.724961,-1.751467 -2.852081 0.9297714,-1.81049 -2.197079 1.094544,-1.250521 -4.927211 0.6253195,-1.218592 -4.011529 0.8048702,-1.218586 -3.420223 0.9917594,-1.223656 -2.850968 1.159297,-8.408559 -7.572477 0.1355024,-7.843184 -7.255247 0.3913454,-7.328105 -6.607509 0.5909252,-6.956011 -5.958963 0.8418574,-6.625783 -5.563659 1.111449,-7.661224 -4.967214 0.2718165,-7.487262 -3.897682 0.4333452,-7.440317 -3.203364 0.6338341,-7.416606 -2.588542 0.805951,-7.982543 -4.754179 0.3358517,-7.817605 -3.551229 0.4668858,-7.745982 -2.744735 0.7150567,-7.704168 -2.027061 0.9455187,-8.314352 -4.789856 0.4412866,-8.19426 -3.637549 0.553916,-8.122808 -2.89989 0.7412037,-8.070661 -2.251742 0.9066504,-8.681931 -5.0296 0.5819964,-8.668225 -4.131371 0.7212269,-8.64018 -3.563592 0.8588908,-8.605622 -2.992731 0.9802041,2.15000,0 0 0 0 0 0 False
-1.545101 -7.451648 0.2477509,-2.144059 -7.193502 0.5009189,-2.671796 -6.497606 0.6371485,-3.024117 -5.788525 0.7801968,-3.372534 -5.319912 0.9579597,-2.299182 -4.952038 0.3975103,-2.504527 -3.912608 0.5443696,-2.613207 -3.269843 0.6559535,-2.69178 -2.659279 0.7615295,-1.951618 -4.723916 0.4371873,-2.067091 -3.539449 0.638211,-2.143099 -2.751641 0.8241058,-2.194522 -2.046767 0.9901512,-1.611407 -4.723616 0.5359343,-1.68162 -3.59394 0.7300469,-1.763711 -2.853277 0.9252262,-1.825655 -2.201775 1.082517,-1.256751 -4.922409 0.6533607,-1.22393 -3.999088 0.8250266,-1.224508 -3.398244 1.004079,-1.233088 -2.82153 1.16855,-8.400354 -7.574566 0.1346819,-7.831612 -7.267288 0.3953209,-7.313211 -6.616011 0.5948353,-6.94063 -5.962844 0.8455231,-6.615528 -5.564681 1.112362,-7.655655 -4.966276 0.2609988,-7.480145 -3.895787 0.4224184,-7.429626 -3.196964 0.6242527,-7.404824 -2.581088 0.7961332,-7.977039 -4.755081 0.3200035,-7.813951 -3.548769 0.4469817,-7.744322 -2.737852 0.6959968,-7.709808 -2.019458 0.9256772,-8.306748 -4.795546 0.4223405,-8.189119 -3.64175 0.5334749,-8.116424 -2.904531 0.7171382,-8.06805 -2.261314 0.8805396,-8.671944 -5.041708 0.559884,-8.658921 -4.139741 0.6969993,-8.630843 -3.56971 0.8332032,-8.598459 -2.998811 0.9542807,2.18333,0 0 0 0 0 0 False
-1.545101 -7.451648 0.2477509,-2.144059 -7.193502 0.5009189,-2.671796 -6.497606 0.6371485,-3.024117 -5.788525 0.7801968,-3.372534 -5.319912 0.9579597,-2.299182 -4.952038 0.3975103,-2.504527 -3.912608 0.5443696,-2.613207 -3.269843 0.6559535,-2.69178 -2.659279 0.7615295,-1.951618 -4.723916 0.4371873,-2.067091 -3.539449 0.638211,-2.143099 -2.751641 0.8241058,-2.194522 -2.046767 0.9901512,-1.611407 -4.723616 0.5359343,-1.68162 -3.59394 0.7300469,-1.763711 -2.853277 0.9252262,-1.825655 -2.201775 1.082517,-1.256751 -4.922409 0.6533607,-1.22393 -3.999088 0.8250266,-1.224508 -3.398244 1.004079,-1.233088 -2.82153 1.16855,-8.400354 -7.574566 0.1346819,-7.831612 -7.267288 0.3953209,-7.313211 -6.616011 0.5948353,-6.94063 -5.962844 0.8455231,-6.615528 -5.564681 1.112362,-7.655655 -4.966276 0.2609988,-7.480145 -3.895787 0.4224184,-7.429626 -3.196964 0.6242527,-7.404824 -2.581088 0.7961332,-7.977039 -4.755081 0.3200035,-7.813951 -3.548769 0.4469817,-7.744322 -2.737852 0.6959968,-7.709808 -2.019458 0.9256772,-8.306748 -4.795546 0.4223405,-8.189119 -3.64175 0.5334749,-8.116424 -2.904531 0.7171382,-8.06805 -2.261314 0.8805396,-8.671944 -5.041708 0.559884,-8.658921 -4.139741 0.6969993,-8.630843 -3.56971 0.8332032,-8.598459 -2.998811 0.9542807,2.21667,0 0 0 0 0 0 False
-1.556242 -7.463586 0.2302743,-2.154443 -7.195432 0.4925281,-2.678055 -6.512327 0.6399744,-3.030874 -5.814945 0.7930008,-3.383546 -5.347228 0.97813,-2.307543 -4.963848 0.3961587,-2.519102 -3.923781 0.5488704,-2.629525 -3.27629 0.6673588,-2.707138 -2.66007 0.7770832,-1.959675 -4.741181 0.4296142,-2.074506 -3.548254 0.6344439,-2.148788 -2.760079 0.8298358,-2.197527 -2.054677 1.006835,-1.620456 -4.743589 0.5211524,-1.686384 -3.606082 0.7116033,-1.766258 -2.86296 0.9183605,-1.826895 -2.21098 1.08469,-1.268663 -4.941453 0.6317946,-1.231319 -4.019761 0.8028597,-1.230295 -3.42394 0.9870515,-1.237114 -2.855828 1.153913,-8.398728 -7.583416 0.1320672,-7.829666 -7.299097 0.3941326,-7.306129 -6.634954 0.5807755,-6.931325 -5.987123 0.820336,-6.600337 -5.623626 1.074731,-7.644957 -4.986851 0.2428026,-7.463455 -3.926535 0.3897593,-7.408191 -3.228318 0.5843647,-7.378156 -2.612689 0.7521827,-7.968826 -4.764009 0.2903036,-7.806067 -3.562774 0.3952568,-7.732292 -2.754472 0.6377441,-7.694923 -2.036563 0.8655803,-8.300381 -4.791952 0.3821158,-8.185009 -3.649657 0.4778266,-8.108882 -2.917262 0.6519703,-8.054619 -2.277118 0.8107276,-8.665162 -5.025303 0.5098875,-8.656247 -4.131959 0.6354501,-8.628713 -3.567123 0.7639637,-8.593181 -2.998235 0.879893,2.25000,0 0 0 0 0 0 False
-1.551711 -7.468721 0.2624156,-2.147541 -7.208808 0.530962,-2.677876 -6.516605 0.6808468,-3.032766 -5.809816 0.8343565,-3.385923 -5.33854 1.022787,-2.310078 -4.967323 0.4458467,-2.515656 -3.932301 0.6063257,-2.628392 -3.293825 0.7271688,-2.714017 -2.685396 0.8377299,-1.959798 -4.739035 0.4796427,-2.074406 -3.558486 0.692536,-2.154722 -2.77439 0.8872826,-2.210443 -2.067161 1.061178,-1.617528 -4.739718 0.5710974,-1.687259 -3.610695 0.7696948,-1.77192 -2.874367 0.9720646,-1.826895 -2.21098 1.116929,-1.268663 -4.941453 0.6640334,-1.231319 -4.019761 0.8350984,-1.230295 -3.42394 1.01929,-1.237114 -2.855828 1.186151,-8.398728 -7.583416 0.1320672,-7.829666 -7.299097 0.3941326,-7.306129 -6.634954 0.5807755,-6.931325 -5.987123 0.820336,-6.600337 -5.623626 1.074731,-7.644957 -4.986851 0.2428026,-7.463455 -3.926535 0.3897593,-7.408191 -3.228318 0.5843647,-7.378156 -2.612689 0.7521827,-7.968826 -4.764009 0.2903036,-7.806067 -3.562774 0.3952568,-7.732292 -2.754472 0.6377441,-7.694923 -2.036563 0.8655803,-8.300381 -4.791952 0.3821158,-8.185009 -3.649657 0.4778266,-8.108882 -2.917262 0.6519703,-8.054619 -2.277118 0.8107276,-8.665162 -5.025303 0.5098875,-8.656247 -4.131959 0.6354501,-8.628713 -3.567123 0.7639637,-8.593181 -2.998235 0.879893,2.28333,0 0 0 0 0 0 False
-1.551711 -7.468721 0.2624156,-2.147541 -7.208808 0.530962,-2.677876 -6.516605 0.6808468,-3.032766 -5.809816 0.8343565,-3.385923 -5.33854 1.022787,-2.310078 -4.967323 0.4458467,-2.515656 -3.932301 0.6063257,-2.628392 -3.293825 0.7271688,-2.714017 -2.685396 0.8377299,-1.959798 -4.739035 0.4796427,-2.074406 -3.558486 0.692536,-2.154722 -2.77439 0.8872826,-2.210443 -2.067161 1.061178,-1.617528 -4.739718 0.5710974,-1.687259 -3.610695 0.7696948,-1.77192 -2.874367 0.9720646,-1.835327 -2.226029 1.134187,-1.263122 -4.938335 0.6821871,-1.231728 -4.020652 0.8567215,-1.235324 -3.426425 1.039462,-1.246565 -2.856643 1.2071,-8.393625 -7.609255 0.1848588,-7.824823 -7.320504 0.4377333,-7.307827 -6.651721 0.63177,-6.939824 -5.996924 0.8808025,-6.607856 -5.600474 1.146762,-7.640046 -4.992448 0.2849098,-7.473406 -3.938114 0.4348024,-7.422957 -3.242651 0.6221332,-7.39273 -2.626934 0.781449,-7.962202 -4.775201 0.3496668,-7.808565 -3.583459 0.4609499,-7.734795 -2.780726 0.6982365,-7.692128 -2.069994 0.9154853,-8.292063 -4.809723 0.459851,-8.182063 -3.666335 0.5670276,-8.103744 -2.930426 0.7468256,-8.044846 -2.287649 0.9061238,-8.657351 -5.050271 0.6031377,-8.649903 -4.152198 0.7434451,-8.620907 -3.58103 0.8800516,-8.585329 -3.010296 0.9983903,2.31667,0 0 0 0 0 0 False
-1.551711 -7.468721 0.2624156,-2.147541 -7.208808 0.530962,-2.677876 -6.516605 0.6808468,-3.032766 -5.809816 0.8343565,-3.385923 -5.33854 1.022787,-2.310078 -4.967323 0.4458467,-2.515656 -3.932301 0.6063257,-2.628392 -3.293825 0.7271688,-2.714017 -2.685396 0.8377299,-1.959798 -4.739035 0.4796427,-2.074406 -3.558486 0.692536,-2.154722 -2.77439 0.8872826,-2.210443 -2.067161 1.061178,-1.617528 -4.739718 0.5710974,-1.687259 -3.610695 0.7696948,-1.77192 -2.874367 0.9720646,-1.835327 -2.226029 1.134187,-1.263122 -4.938335 0.6821871,-1.231728 -4.020652 0.8567215,-1.235324 -3.426425 1.039462,-1.246565 -2.856643 1.2071,-8.393625 -7.609255 0.1848588,-7.824823 -7.320504 0.4377333,-7.307827 -6.651721 0.63177,-6.939824 -5.996924 0.8808025,-6.607856 -5.600474 1.146762,-7.640046 -4.992448 0.2849098,-7.473406 -3.938114 0.4348024,-7.422957 -3.242651 0.6221332,-7.39273 -2.626934 0.781449,-7.962202 -4.775201 0.3496668,-7.808565 -3.583459 0.4609499,-7.734795 -2.780726 0.6982365,-7.692128 -2.069994 0.9154853,-8.292063 -4.809723 0.459851,-8.182063 -3.666335 0.5670276,-8.103744 -2.930426 0.7468256,-8.044846 -2.287649 0.9061238,-8.657351 -5.050271 0.6031377,-8.649903 -4.152198 0.7434451,-8.620907 -3.58103 0.8800516,-8.585329 -3.010296 0.9983903,2.35000,0 0 0 0 0 0 False
-1.557758 -7.460442 0.2306312,-2.151996 -7.201825 0.4991601,-2.677704 -6.508482 0.6458746,-3.027811 -5.798935 0.7971668,-3.378784 -5.326303 0.9844214,-2.313134 -4.962237 0.4066752,-2.520093 -3.919794 0.5591817,-2.626929 -3.278389 0.6718452,-2.704626 -2.668828 0.7759593,-1.963423 -4.738782 0.4372588,-2.078384 -3.549728 0.6409674,-2.152146 -2.761538 0.8302334,-2.200446 -2.054847 1.000757,-1.620599 -4.743804 0.5260284,-1.68924 -3.604322 0.7204171,-1.770221 -2.863071 0.9202814,-1.829315 -2.208139 1.08181,-1.262903 -4.947521 0.6345429,-1.231337 -4.025516 0.8068889,-1.232829 -3.434282 0.9908419,-1.239598 -2.865752 1.158109,-8.394351 -7.610673 0.1728639,-7.828629 -7.314384 0.441331,-7.312718 -6.655111 0.6418681,-6.943672 -6.004247 0.8954198,-6.60921 -5.606883 1.164302,-7.640435 -4.995677 0.3021914,-7.476147 -3.935471 0.4659708,-7.429924 -3.240499 0.6598293,-7.405055 -2.619549 0.8258998,-7.965046 -4.781366 0.3631562,-7.813236 -3.588655 0.4911235,-7.739698 -2.783504 0.7393272,-7.696521 -2.065547 0.9680731,-8.297472 -4.817922 0.468663,-8.189338 -3.67511 0.5902046,-8.111938 -2.935104 0.7825407,-8.054252 -2.284998 0.9511033,-8.664834 -5.058822 0.6077958,-8.659127 -4.168178 0.7558661,-8.632033 -3.600429 0.8983202,-8.599983 -3.025592 1.019531,2.38333,0 0 0 0 0 0 False
-1.556035 -7.465592 0.2420053,-2.150917 -7.200109 0.5004973,-2.675541 -6.506277 0.6412446,-3.027664 -5.799512 0.787967,-3.377737 -5.329941 0.9682274,-2.310114 -4.963127 0.4052388,-2.515992 -3.92538 0.5557303,-2.625852 -3.281839 0.6691183,-2.706339 -2.669496 0.7742739,-1.961677 -4.739963 0.4394946,-2.076332 -3.554893 0.6404131,-2.153025 -2.767168 0.8300085,-2.205413 -2.059428 1.002816,-1.620801 -4.743288 0.5320247,-1.689544 -3.608233 0.7230884,-1.7717 -2.868249 0.9214563,-1.833706 -2.215258 1.082557,-1.265394 -4.945058 0.6441652,-1.232769 -4.022712 0.8133911,-1.234679 -3.429933 0.993947,-1.243638 -2.862019 1.158753,-8.398759 -7.604592 0.1399536,-7.83177 -7.309485 0.4084055,-7.313107 -6.652992 0.6099423,-6.945569 -6.004869 0.8648995,-6.612004 -5.612424 1.138126,-7.637876 -5.001873 0.2725073,-7.467532 -3.942326 0.4351013,-7.420405 -3.250034 0.6335445,-7.396859 -2.636754 0.8020405,-7.965281 -4.78556 0.3318515,-7.806801 -3.588891 0.4546757,-7.734585 -2.781474 0.7031987,-7.694734 -2.063772 0.9306798,-8.299747 -4.819488 0.4343827,-8.188223 -3.673827 0.5480324,-8.113853 -2.929661 0.7388301,-8.05916 -2.275491 0.9075974,-8.669106 -5.055473 0.5713325,-8.656878 -4.161521 0.7125171,-8.628235 -3.593776 0.8510227,-8.59465 -3.019089 0.9706825,2.41667,0 0 0 0 0 0 False
-1.556035 -7.465592 0.2420053,-2.150917 -7.200109 0.5004973,-2.675541 -6.506277 0.6412446,-3.027664 -5.799512 0.787967,-3.377737 -5.329941 0.9682274,-2.310114 -4.963127 0.4052388,-2.515992 -3.92538 0.5557303,-2.625852 -3.281839 0.6691183,-2.706339 -2.669496 0.7742739,-1.961677 -4.739963 0.4394946,-2.076332 -3.554893 0.6404131,-2.153025 -2.767168 0.8300085,-2.205413 -2.059428 1.002816,-1.620801 -4.743288 0.5320247,-1.689544 -3.608233 0.7230884,-1.7717 -2.868249 0.9214563,-1.833706 -2.215258 1.082557,-1.265394 -4.945058 0.6441652,-1.232769 -4.022712 0.8133911,-1.234679 -3.429933 0.993947,-1.243638 -2.862019 1.158753,-8.398759 -7.604592 0.1399536,-7.83177 -7.309485 0.4084055,-7.313107 -6.652992 0.6099423,-6.945569 -6.004869 0.8648995,-6.612004 -5.612424 1.138126,-7.637876 -5.001873 0.2725073,-7.467532 -3.942326 0.4351013,-7.420405 -3.250034 0.6335445,-7.396859 -2.636754 0.8020405,-7.965281 -4.78556 0.3318515,-7.806801 -3.588891 0.4546757,-7.734585 -2.781474 0.7031987,-7.694734 -2.063772 0.9306798,-8.299747 -4.819488 0.4343827,-8.188223 -3.673827 0.5480324,-8.113853 -2.929661 0.7388301,-8.05916 -2.275491 0.9075974,-8.669106 -5.055473 0.5713325,-8.656878 -4.161521 0.7125171,-8.628235 -3.593776 0.8510227,-8.59465 -3.019089 0.9706825,2.45000,0 0 0 0 0 0 False
-1.566711 -7.452549 0.2280844,-2.162049 -7.203964 0.4871624,-2.68692 -6.517225 0.6281534,-3.037573 -5.814067 0.7754307,-3.385834 -5.345258 0.9539185,-2.32009 -4.956386 0.3822612,-2.524886 -3.916584 0.5357342,-2.632982 -3.274032 0.6512109,-2.709798 -2.664185 0.7556212,-1.970404 -4.730283 0.4202902,-2.083902 -3.540537 0.6262994,-2.15909 -2.753543 0.8174366,-2.20859 -2.046951 0.9894636,-1.62882 -4.732103 0.517303,-1.695458 -3.598672 0.7129158,-1.776041 -2.861383 0.9121998,-1.836217 -2.211822 1.070336,-1.273868 -4.930835 0.633443,-1.236802 -4.011827 0.8071887,-1.237449 -3.419154 0.9879252,-1.245335 -2.851264 1.151328,-8.404465 -7.624151 0.1655013,-7.836127 -7.334958 0.4110304,-7.320104 -6.668983 0.5993618,-6.953581 -6.020101 0.8455561,-6.627219 -5.618459 1.105761,-7.651886 -5.010019 0.2557405,-7.486852 -3.949511 0.4018127,-7.436316 -3.259755 0.5853884,-7.405976 -2.646833 0.7410493,-7.974883 -4.794902 0.321018,-7.825712 -3.602758 0.4289239,-7.749838 -2.800159 0.6668016,-7.703049 -2.088159 0.887799,-8.306647 -4.833761 0.4311781,-8.200375 -3.68528 0.5375203,-8.121308 -2.941181 0.7253659,-8.059001 -2.289361 0.8908023,-8.671992 -5.076314 0.5708846,-8.672562 -4.171737 0.7099872,-8.645302 -3.598504 0.8525126,-8.61058 -3.026449 0.9735578,2.48333,0 0 0 0 0 0 False
-1.566711 -7.452549 0.2280844,-2.162049 -7.203964 0.4871624,-2.68692 -6.517225 0.6281534,-3.037573 -5.814067 0.7754307,-3.385834 -5.345258 0.9539185,-2.32009 -4.956386 0.3822612,-2.524886 -3.916584 0.5357342,-2.632982 -3.274032 0.6512109,-2.709798 -2.664185 0.7556212,-1.970404 -4.730283 0.4202902,-2.083902 -3.540537 0.6262994,-2.15909 -2.753543 0.8174366,-2.20859 -2.046951 0.9894636,-1.62882 -4.732103 0.517303,-1.695458 -3.598672 0.7129158,-1.776041 -2.861383 0.9121998,-1.836217 -2.211822 1.070336,-1.273868 -4.930835 0.633443,-1.236802 -4.011827 0.8071887,-1.237449 -3.419154 0.9879252,-1.245335 -2.851264 1.151328,-8.404465 -7.624151 0.1655013,-7.836127 -7.334958 0.4110304,-7.320104 -6.668983 0.5993618,-6.953581 -6.020101 0.8455561,-6.627219 -5.618459 1.105761,-7.651886 -5.010019 0.2557405,-7.486852 -3.949511 0.4018127,-7.436316 -3.259755 0.5853884,-7.405976 -2.646833 0.7410493,-7.974883 -4.794902 0.321018,-7.825712 -3.602758 0.4289239,-7.749838 -2.800159 0.6668016,-7.703049 -2.088159 0.887799,-8.306647 -4.833761 0.4311781,-8.200375 -3.68528 0.5375203,-8.121308 -2.941181 0.7253659,-8.059001 -2.289361 0.8908023,-8.671992 -5.076314 0.5708846,-8.672562 -4.171737 0.7099872,-8.645302 -3.598504 0.8525126,-8.61058 -3.026449 0.9735578,2.51667,0 0 0 0 0 0 False
-1.565043 -7.464881 0.2263765,-2.161632 -7.211833 0.5036908,-2.691957 -6.532155 0.6559991,-3.048674 -5.828031 0.8082664,-3.396461 -5.349434 0.9923225,-2.327948 -4.974222 0.405859,-2.534165 -3.929139 0.5640403,-2.641574 -3.28003 0.6813158,-2.719203 -2.667322 0.7878516,-1.975661 -4.745273 0.4339042,-2.090208 -3.550445 0.6444247,-2.165836 -2.761681 0.8350008,-2.219598 -2.05594 1.005013,-1.633424 -4.744453 0.5227805,-1.705195 -3.605603 0.7204124,-1.790771 -2.866254 0.9209781,-1.858777 -2.211919 1.080215,-1.277565 -4.941002 0.6328097,-1.247603 -4.017789 0.8090831,-1.25114 -3.423553 0.9934684,-1.264082 -2.854959 1.158997,-8.408413 -7.631073 0.1330192,-7.833583 -7.334552 0.3704475,-7.312015 -6.666799 0.5486751,-6.943149 -6.010907 0.7825765,-6.618697 -5.6198 1.028385,-7.65713 -5.023092 0.2213626,-7.489714 -3.962041 0.3654625,-7.438609 -3.268215 0.5578499,-7.40921 -2.655413 0.7215429,-7.980844 -4.810523 0.281628,-7.824007 -3.608993 0.3805625,-7.752905 -2.802881 0.6208127,-7.715963 -2.091965 0.8476715,-8.311517 -4.842948 0.384727,-8.200298 -3.697297 0.4739054,-8.127845 -2.961708 0.6467503,-8.077332 -2.321085 0.8060523,-8.675858 -5.078052 0.5208503,-8.66454 -4.176897 0.6402405,-8.636737 -3.610935 0.7661424,-8.604978 -3.046369 0.8802714,2.55000,0 0 0 0 0 0 False
-1.565043 -7.464881 0.2263765,-2.161632 -7.211833 0.5036908,-2.691957 -6.532155 0.6559991,-3.048674 -5.828031 0.8082664,-3.396461 -5.349434 0.9923225,-2.327948 -4.974222 0.405859,-2.534165 -3.929139 0.5640403,-2.641574 -3.28003 0.6813158,-2.719203 -2.667322 0.7878516,-1.975661 -4.745273 0.4339042,-2.090208 -3.550445 0.6444247,-2.165836 -2.761681 0.8350008,-2.219598 -2.05594 1.005013,-1.633424 -4.744453 0.5227805,-1.705195 -3.605603 0.7204124,-1.790771 -2.866254 0.9209781,-1.858777 -2.211919 1.080215,-1.277565 -4.941002 0.6328097,-1.247603 -4.017789 0.8090831,-1.25114 -3.423553 0.9934684,-1.264082 -2.854959 1.158997,-8.408413 -7.631073 0.1330192,-7.833583 -7.334552 0.3704475,-7.312015 -6.666799 0.5486751,-6.943149 -6.010907 0.7825765,-6.618697 -5.6198 1.028385,-7.65713 -5.023092 0.2213626,-7.489714 -3.962041 0.3654625,-7.438609 -3.268215 0.5578499,-7.40921 -2.655413 0.7215429,-7.980844 -4.810523 0.281628,-7.824007 -3.608993 0.3805625,-7.752905 -2.802881 0.6208127,-7.715963 -2.091965 0.8476715,-8.311517 -4.842948 0.384727,-8.200298 -3.697297 0.4739054,-8.127845 -2.961708 0.6467503,-8.077332 -2.321085 0.8060523,-8.675858 -5.078052 0.5208503,-8.66454 -4.176897 0.6402405,-8.636737 -3.610935 0.7661424,-8.604978 -3.046369 0.8802714,2.58333,0 0 0 0 0 0 False
