TiagoOliveira98/Thesis-Project/Difficulty_0/Cognitive_Task/Unity_Project/DataLogging/JointData/Logs(1647224651)_Tiago_Cognitive.csv
WRIST,THUMB_CMC,THUMB_MCP,THUMB_IP,THUMB_TIP,INDEX_FINGER_MCP,INDEX_FINGER_PIP,INDEX_FINGER_DIP,INDEX_FINGER_TIP,MIDDLE_FINGER_MCP,MIDDLE_FINGER_PIP,MIDDLE_FINGER_DIP,MIDDLE_FINGER_TIP,RING_FINGER_MCP,RING_FINGER_PIP,RING_FINGER_DIP,RING_FINGER_TIP,PINKY_MCP,PINKY_PIP,PINKY_DIP,PINKY_TIP,WRIST2,THUMB_CMC2,THUMB_MCP2,THUMB_IP2,THUMB_TIP2,INDEX_FINGER_MCP2,INDEX_FINGER_PIP2,INDEX_FINGER_DIP2,INDEX_FINGER_TIP2,MIDDLE_FINGER_MCP2,MIDDLE_FINGER_PIP2,MIDDLE_FINGER_DIP2,MIDDLE_FINGER_TIP2,RING_FINGER_MCP2,RING_FINGER_PIP2,RING_FINGER_DIP2,RING_FINGER_TIP2,PINKY_MCP2,PINKY_PIP2,PINKY_DIP2,PINKY_TIP2,Timestamp,Event
-1.954166 -6.446134 0.0003314261,-2.53522 -6.229307 0.3428676,-3.065192 -5.665691 0.5399067,-3.474922 -5.150104 0.7193531,-3.810795 -4.891904 0.9137919,-2.637301 -3.984626 0.3474385,-2.843372 -2.930537 0.5678508,-2.962895 -2.269208 0.7398683,-3.040426 -1.659255 0.9014234,-2.298835 -3.764461 0.3706711,-2.41726 -2.522863 0.5908279,-2.41726 -2.522863 0.5908279,-2.53588 -1.015442 0.9924777,-1.955091 -3.787899 0.4403996,-1.969286 -2.615582 0.656244,-2.009469 -1.858621 0.848289,-2.049819 -1.216217 1.01289,-1.601353 -4.021633 0.5437359,-1.428146 -3.156593 0.7360447,-1.323762 -2.577046 0.8978792,-1.243246 -2.008702 1.042342,-8.551397 -6.269034 0.0006967205,-7.972914 -5.969429 0.2028178,-7.452323 -5.381925 0.4132136,-7.062385 -4.858036 0.6808911,-6.690183 -4.64184 0.9763775,-7.843347 -3.593151 0.09539808,-7.715759 -2.478209 0.206755,-7.666245 -1.790445 0.3570854,-7.626008 -1.19972 0.4732611,-8.189655 -3.420374 0.1835496,-8.070372 -2.140796 0.2783441,-7.990205 -1.300909 0.4895398,-7.930204 -0.6048856 0.6787017,-8.537333 -3.47156 0.2963123,-8.473542 -2.272443 0.3878231,-8.412703 -1.505809 0.5322793,-8.340289 -0.8790898 0.6446946,-8.889259 -3.738384 0.441197,-8.96094 -2.802069 0.5519077,-8.970171 -2.200128 0.6568693,-8.949775 -1.63869 0.7223739,0.010,1 0
-1.947537 -6.446229 0.02879416,-2.531077 -6.228115 0.3794881,-3.062135 -5.645749 0.5758813,-3.475657 -5.133438 0.7454881,-3.817944 -4.900392 0.9311901,-2.630609 -3.976712 0.3949855,-2.840442 -2.922191 0.6126848,-2.957237 -2.260606 0.7808222,-3.032187 -1.651621 0.9390436,-2.291245 -3.75743 0.4083034,-2.410676 -2.512606 0.6327426,-2.410676 -2.512606 0.6327426,-2.519889 -1.002092 1.033206,-1.947834 -3.783128 0.4672921,-1.967105 -2.602781 0.6936518,-2.007467 -1.842878 0.8886904,-2.046827 -1.195946 1.058925,-1.596826 -4.022903 0.5598947,-1.428509 -3.152874 0.763007,-1.32199 -2.57561 0.927912,-1.238673 -2.008508 1.080272,-8.538095 -6.243707 -0.03402031,-7.961996 -5.955255 0.1612671,-7.437943 -5.356767 0.3628849,-7.046534 -4.837289 0.6258076,-6.681351 -4.619503 0.9179488,-7.84355 -3.559355 0.05397268,-7.708377 -2.458246 0.1763401,-7.657673 -1.783785 0.341146,-7.616789 -1.201335 0.4652141,-8.187757 -3.404351 0.1597813,-8.072251 -2.123597 0.2539999,-7.998686 -1.286449 0.4793667,-7.943107 -0.5864244 0.6746639,-8.532378 -3.472413 0.2879719,-8.467785 -2.279249 0.3969438,-8.407158 -1.522971 0.5524548,-8.334945 -0.9002509 0.6723572,-8.880942 -3.751098 0.4499947,-8.953469 -2.822139 0.5793141,-8.967548 -2.221508 0.6871735,-8.947463 -1.652473 0.7533552,0.110,1 0
-1.948263 -6.443317 0.007067208,-2.535091 -6.211452 0.3965641,-3.067385 -5.658492 0.6296943,-3.479012 -5.148858 0.8257208,-3.811541 -4.88681 1.042056,-2.638628 -3.988718 0.4467418,-2.845814 -2.924535 0.6824475,-2.956171 -2.260425 0.8685899,-3.024565 -1.643292 1.037497,-2.295268 -3.77011 0.4445664,-2.414226 -2.521091 0.6843083,-2.414226 -2.521091 0.6843083,-2.512883 -1.011516 1.102719,-1.949415 -3.798311 0.4902201,-1.970455 -2.621998 0.7249981,-2.006399 -1.868621 0.9360937,-2.044334 -1.219223 1.117017,-1.598389 -4.035293 0.571408,-1.430845 -3.170291 0.7761145,-1.319865 -2.596492 0.9512719,-1.233794 -2.019863 1.11523,-8.551395 -6.248859 -0.0465534,-7.961992 -5.990032 0.1527953,-7.438155 -5.415271 0.3562268,-7.045901 -4.882733 0.613497,-6.67935 -4.677494 0.8937659,-7.833683 -3.597206 0.05662508,-7.698017 -2.481757 0.1642954,-7.647254 -1.803833 0.3122174,-7.606221 -1.211943 0.4266313,-8.180713 -3.415267 0.1402196,-8.067289 -2.133008 0.2324011,-7.995209 -1.292232 0.4518449,-7.938777 -0.5833545 0.649789,-8.530763 -3.464933 0.2417198,-8.465466 -2.263523 0.3327621,-8.406237 -1.503703 0.4854285,-8.337827 -0.8731618 0.6061444,-8.885031 -3.729448 0.3736957,-8.947347 -2.791184 0.4882889,-8.9539 -2.181261 0.5959147,-8.932874 -1.60437 0.6684572,0.210,1 0
-1.922753 -6.445792 0.02779898,-2.505078 -6.242279 0.4508565,-3.045349 -5.67774 0.6909875,-3.456318 -5.146009 0.8971623,-3.800448 -4.864262 1.12796,-2.631921 -3.994496 0.4770137,-2.837997 -2.925782 0.7108185,-2.952662 -2.267496 0.8944573,-3.029818 -1.663483 1.063258,-2.286703 -3.768619 0.4640009,-2.406073 -2.525299 0.6998178,-2.406073 -2.525299 0.6998178,-2.513992 -1.010319 1.113532,-1.940909 -3.791474 0.5021124,-1.969303 -2.628536 0.7361422,-2.014394 -1.885408 0.9435754,-2.060952 -1.234575 1.124337,-1.586928 -4.023822 0.5797511,-1.428997 -3.157244 0.7843909,-1.324578 -2.587654 0.9648019,-1.245587 -2.015814 1.131242,-8.536456 -6.298156 0.06975779,-7.964554 -6.01356 0.3198297,-7.435795 -5.412471 0.543049,-7.039023 -4.874715 0.8160932,-6.668837 -4.63516 1.106115,-7.845547 -3.595316 0.2030445,-7.709203 -2.476919 0.3311349,-7.657836 -1.789449 0.4848364,-7.61862 -1.197457 0.6000389,-8.191774 -3.428837 0.2733452,-8.068552 -2.143363 0.3897026,-7.987988 -1.303315 0.6196507,-7.928244 -0.598392 0.8172525,-8.538189 -3.501438 0.3726827,-8.470072 -2.300319 0.4873552,-8.406776 -1.532987 0.6455678,-8.331747 -0.8956151 0.7686561,-8.888595 -3.792571 0.5086847,-8.953976 -2.864439 0.6463585,-8.954281 -2.258511 0.7647238,-8.925018 -1.683725 0.8464218,0.310,1 0
-1.929517 -6.454441 -0.008009735,-2.512816 -6.258156 0.3848305,-3.040189 -5.687292 0.6049843,-3.445013 -5.164072 0.797783,-3.785371 -4.911005 1.010258,-2.628176 -4.001552 0.382974,-2.838505 -2.943315 0.5979963,-2.950866 -2.278316 0.7798141,-3.019945 -1.657995 0.9514067,-2.28646 -3.779191 0.3791015,-2.399811 -2.531597 0.6008245,-2.399811 -2.531597 0.6008245,-2.488499 -1.002763 1.020846,-1.943843 -3.804141 0.4232493,-1.96234 -2.62724 0.6339306,-2.005135 -1.868293 0.8378206,-2.046088 -1.211311 1.019508,-1.593192 -4.039273 0.504246,-1.426438 -3.174248 0.6994125,-1.32544 -2.603021 0.8701541,-1.248529 -2.035279 1.030518,-8.541121 -6.294396 0.05461086,-7.963435 -6.009039 0.2952378,-7.438199 -5.41486 0.5205185,-7.046528 -4.865096 0.7930619,-6.682495 -4.625705 1.078085,-7.84062 -3.596948 0.2112688,-7.712705 -2.474034 0.3419494,-7.669095 -1.779428 0.5008726,-7.636431 -1.17382 0.6259605,-8.193886 -3.431261 0.2780735,-8.082894 -2.140734 0.3995061,-8.011089 -1.29986 0.6359363,-7.955477 -0.5863738 0.8376609,-8.545751 -3.49497 0.3660714,-8.484118 -2.285808 0.4775949,-8.426125 -1.531822 0.6267489,-8.353428 -0.9081721 0.7360268,-8.897966 -3.769048 0.4881543,-8.959279 -2.837408 0.6154762,-8.960068 -2.235132 0.715295,-8.92992 -1.664784 0.7782135,0.410,1 0
-1.924829 -6.464649 0.04593329,-2.505684 -6.268956 0.4600434,-3.040068 -5.690098 0.6923685,-3.444617 -5.159041 0.8909147,-3.786604 -4.907745 1.103671,-2.623445 -4.002637 0.4752868,-2.830157 -2.939352 0.6969233,-2.939972 -2.279447 0.8764197,-3.009004 -1.67168 1.046314,-2.277854 -3.777706 0.4634671,-2.396595 -2.522622 0.6898024,-2.396595 -2.522622 0.6898024,-2.494512 -1.005338 1.09109,-1.932775 -3.803284 0.5002234,-1.957773 -2.626042 0.7209244,-1.999818 -1.871514 0.9184456,-2.042232 -1.214266 1.094163,-1.581492 -4.040104 0.5772239,-1.420064 -3.175948 0.7775213,-1.314903 -2.611545 0.9447387,-1.23319 -2.046542 1.105868,-8.557993 -6.304873 0.03400411,-7.976291 -6.015371 0.2637099,-7.448121 -5.412593 0.4746456,-7.049994 -4.869604 0.7331556,-6.682555 -4.647878 1.009864,-7.853631 -3.616315 0.1620366,-7.717387 -2.498522 0.286006,-7.666079 -1.818144 0.437706,-7.626025 -1.226555 0.555548,-8.20303 -3.447398 0.2410859,-8.078776 -2.154912 0.3486341,-8.004803 -1.319833 0.5753318,-7.946276 -0.6079774 0.7722136,-8.549682 -3.508311 0.3422258,-8.473511 -2.290831 0.4506342,-8.414896 -1.530952 0.6059229,-8.344959 -0.8949752 0.725237,-8.898788 -3.780966 0.4786106,-8.957225 -2.840344 0.6092381,-8.957313 -2.229735 0.7193707,-8.931159 -1.651186 0.7919583,0.510,1 0
-1.927142 -6.453046 0.008412629,-2.520646 -6.23471 0.3605821,-3.060291 -5.669597 0.5639868,-3.466469 -5.151669 0.7467186,-3.79719 -4.89652 0.9409447,-2.629789 -3.980463 0.3456007,-2.830428 -2.913262 0.5423146,-2.939305 -2.25802 0.7040181,-3.006557 -1.661084 0.8608025,-2.288072 -3.76858 0.3592763,-2.399835 -2.519517 0.5672805,-2.399835 -2.519517 0.5672805,-2.491652 -1.024853 0.9796646,-1.945277 -3.795858 0.420277,-1.971182 -2.623754 0.6282665,-2.011847 -1.870539 0.8221021,-2.049195 -1.225565 0.9974321,-1.592262 -4.028961 0.5162962,-1.428082 -3.161762 0.7059631,-1.319743 -2.594429 0.8650532,-1.23373 -2.035797 1.019844,-8.557339 -6.293367 0.008610143,-7.969185 -6.021213 0.2274132,-7.440454 -5.41292 0.4294762,-7.045953 -4.867768 0.6839969,-6.678961 -4.639665 0.9535033,-7.844607 -3.606164 0.1254527,-7.714633 -2.469637 0.2447142,-7.664244 -1.784755 0.3945596,-7.622203 -1.197225 0.5083634,-8.198437 -3.442716 0.201732,-8.084161 -2.135468 0.3088517,-8.011814 -1.300392 0.5330298,-7.952601 -0.5912309 0.725895,-8.550817 -3.504243 0.3007569,-8.484369 -2.282946 0.4117046,-8.423887 -1.527488 0.5678407,-8.354265 -0.895247 0.6890156,-8.902779 -3.772662 0.4280878,-8.962832 -2.834491 0.5537416,-8.966009 -2.232294 0.6595976,-8.941073 -1.656334 0.7295135,0.610,1 0
-1.924262 -6.445024 -0.008355667,-2.515155 -6.231697 0.3978933,-3.052414 -5.676877 0.631614,-3.452708 -5.165603 0.8346118,-3.793901 -4.914571 1.053263,-2.638915 -3.992948 0.4204941,-2.84089 -2.928589 0.6535589,-2.942833 -2.265319 0.8518087,-3.005063 -1.649897 1.03208,-2.289835 -3.776243 0.4131986,-2.403602 -2.534244 0.6514397,-2.403602 -2.534244 0.6514397,-2.47865 -1.017297 1.092733,-1.940852 -3.800939 0.4558564,-1.969622 -2.636098 0.6837079,-2.009308 -1.88218 0.8943772,-2.047133 -1.231501 1.080046,-1.581638 -4.033698 0.5347195,-1.4298 -3.166627 0.7448083,-1.333784 -2.601703 0.9214475,-1.26394 -2.036267 1.087418,-8.566513 -6.303171 0.04611637,-7.982903 -6.032964 0.2554157,-7.453594 -5.422033 0.4592899,-7.058553 -4.870899 0.7139309,-6.68574 -4.656779 0.990416,-7.849594 -3.614478 0.1496435,-7.716071 -2.484488 0.2587671,-7.662912 -1.79535 0.4032597,-7.619428 -1.207338 0.5113665,-8.20307 -3.440886 0.2176392,-8.082192 -2.137942 0.31488,-8.004179 -1.295982 0.5235212,-7.944121 -0.5962195 0.7056899,-8.556495 -3.496175 0.3102981,-8.491765 -2.280881 0.4013993,-8.431045 -1.522884 0.5358983,-8.361061 -0.9040856 0.6409749,-8.911043 -3.761778 0.4337896,-8.973016 -2.822378 0.5422543,-8.978312 -2.219312 0.6396881,-8.953546 -1.6509 0.7026654,0.710,1 0
-1.908377 -6.486977 -0.02705264,-2.494864 -6.296445 0.3765235,-3.029539 -5.741178 0.5985606,-3.42738 -5.202468 0.7934653,-3.763265 -4.899985 1.009987,-2.633409 -4.042943 0.3773278,-2.836643 -2.986635 0.6062362,-2.939846 -2.317618 0.7973735,-2.996442 -1.705145 0.9748296,-2.287748 -3.822371 0.3737853,-2.402854 -2.577699 0.5991599,-2.402854 -2.577699 0.5991599,-2.483438 -1.05832 1.032769,-1.938707 -3.847726 0.4209262,-1.964978 -2.6665 0.6405931,-2.00285 -1.908634 0.8598981,-2.037408 -1.253327 1.047868,-1.578007 -4.085224 0.5053798,-1.421413 -3.217896 0.7166412,-1.325273 -2.65328 0.896634,-1.254938 -2.092869 1.059767,-8.604589 -6.333429 0.02921916,-8.014596 -6.05297 0.2513889,-7.479342 -5.457275 0.4577771,-7.08579 -4.907456 0.7115901,-6.719513 -4.6659 0.9894904,-7.866754 -3.653978 0.1456272,-7.737164 -2.517931 0.2488659,-7.688142 -1.825893 0.388033,-7.649857 -1.24764 0.4904556,-8.220541 -3.478704 0.2003201,-8.097998 -2.177404 0.2916841,-8.015976 -1.34303 0.4963771,-7.954151 -0.6486382 0.674326,-8.573473 -3.525972 0.2798303,-8.506802 -2.307572 0.3630265,-8.442042 -1.552409 0.5011029,-8.367185 -0.9358993 0.6087575,-8.929957 -3.78057 0.3880025,-9.001719 -2.848178 0.4809944,-9.008379 -2.25617 0.5733545,-8.983108 -1.693202 0.631966,0.810,1 0
-1.900232 -6.631287 0.05400234,-2.48939 -6.456333 0.4969147,-3.021201 -5.900438 0.7313056,-3.415653 -5.338399 0.9335199,-3.743881 -4.984822 1.156989,-2.604018 -4.165399 0.4825065,-2.797868 -3.10595 0.7020019,-2.896294 -2.427703 0.8907224,-2.958031 -1.800044 1.07563,-2.25504 -3.940549 0.460835,-2.361716 -2.692171 0.6754102,-2.361716 -2.692171 0.6754102,-2.450147 -1.198422 1.100779,-1.90474 -3.964522 0.4896536,-1.933445 -2.780591 0.6981975,-1.98193 -2.023199 0.9173811,-2.029078 -1.36792 1.114782,-1.544182 -4.203923 0.5601328,-1.384952 -3.32254 0.7793603,-1.292861 -2.752531 0.9669511,-1.22814 -2.195709 1.141694,-8.606579 -6.421829 0.04865703,-8.01135 -6.141355 0.231739,-7.486099 -5.546701 0.4206203,-7.105604 -4.977799 0.6562149,-6.737795 -4.723731 0.9095804,-7.886151 -3.741201 0.1691008,-7.757728 -2.615665 0.2697816,-7.700379 -1.924734 0.4029244,-7.651999 -1.339373 0.5115304,-8.243649 -3.559832 0.2373599,-8.129672 -2.272974 0.3567325,-8.03979 -1.421288 0.5778454,-7.972224 -0.7267022 0.77044,-8.600104 -3.609472 0.3220993,-8.539201 -2.417989 0.4281985,-8.465571 -1.639462 0.5696642,-8.382117 -1.022289 0.6745297,-8.958199 -3.873325 0.4247344,-9.025501 -2.940993 0.545547,-9.027886 -2.331007 0.6546865,-8.995697 -1.765993 0.7258695,0.910,1 0
-1.815945 -7.071435 -0.07385927,-2.399445 -6.952144 0.4709554,-2.907531 -6.419656 0.7629096,-3.283839 -5.901433 1.00108,-3.632071 -5.605334 1.278042,-2.520615 -4.663547 0.4593664,-2.704105 -3.599986 0.6750039,-2.79429 -2.916214 0.87216,-2.853916 -2.289174 1.07108,-2.154069 -4.426805 0.3996218,-2.256679 -3.146677 0.6185834,-2.256679 -3.146677 0.6185834,-2.340902 -1.663805 1.080475,-1.799913 -4.448637 0.3961637,-1.821536 -3.25123 0.6103661,-1.868611 -2.510971 0.8504231,-1.920993 -1.847676 1.072822,-1.4459 -4.689037 0.4327909,-1.269525 -3.81384 0.6626429,-1.173241 -3.286286 0.8366425,-1.114532 -2.756831 1.011707,-8.681196 -6.709777 -0.06033809,-8.090415 -6.456728 0.1212008,-7.580013 -5.844689 0.3109164,-7.201663 -5.251208 0.5493039,-6.819311 -5.003763 0.8082377,-7.983904 -4.052883 0.09307906,-7.863137 -2.881917 0.1995832,-7.789511 -2.187461 0.3242331,-7.73057 -1.601079 0.4204457,-8.342573 -3.878982 0.1659722,-8.245257 -2.530434 0.3054631,-8.156425 -1.675753 0.520498,-8.088278 -0.975141 0.6932855,-8.697857 -3.940811 0.2515802,-8.646967 -2.694982 0.3668749,-8.572639 -1.913399 0.5112325,-8.489158 -1.288389 0.6195775,-9.051723 -4.214971 0.3492346,-9.121024 -3.227434 0.4810314,-9.12422 -2.60449 0.6073339,-9.096274 -2.029348 0.6932722,1.010,1 0
-1.756751 -7.342539 -0.01881966,-2.36208 -7.239301 0.4892841,-2.879082 -6.668207 0.7447066,-3.265339 -6.134437 0.9472219,-3.609613 -5.833352 1.177173,-2.483431 -4.926244 0.4840792,-2.667798 -3.856086 0.7012895,-2.7641 -3.173957 0.9018805,-2.833197 -2.539442 1.094633,-2.110147 -4.680543 0.4359014,-2.213149 -3.421077 0.6513082,-2.213149 -3.421077 0.6513082,-2.306604 -1.921532 1.125686,-1.745811 -4.704387 0.4425685,-1.769914 -3.527748 0.6471134,-1.812675 -2.781847 0.8970555,-1.860762 -2.114301 1.135147,-1.382647 -4.952573 0.4829043,-1.221616 -4.076318 0.7014776,-1.131299 -3.54756 0.88332,-1.082414 -3.006653 1.06307,-8.690706 -6.874476 -0.07433848,-8.092085 -6.609514 0.09251067,-7.57853 -6.008204 0.2816303,-7.192079 -5.421283 0.5176103,-6.813235 -5.169343 0.7628924,-7.990287 -4.221326 0.0888688,-7.875566 -3.043894 0.2023523,-7.804845 -2.352553 0.3274759,-7.750248 -1.770835 0.4182289,-8.353077 -4.048648 0.1642813,-8.263625 -2.685932 0.2953668,-8.192403 -1.840401 0.4993723,-8.139956 -1.1574 0.6640015,-8.707551 -4.11224 0.2490877,-8.658353 -2.858387 0.357796,-8.591249 -2.090041 0.4822447,-8.522833 -1.490393 0.5743132,-9.057969 -4.37918 0.3464361,-9.121951 -3.383898 0.4759938,-9.127545 -2.758739 0.5867671,-9.108758 -2.198972 0.6490632,1.110,1 0
-1.697257 -7.62449 0.3245247,-2.296433 -7.411691 0.7206414,-2.84037 -6.745655 0.9017207,-3.24571 -6.171313 1.046878,-3.580152 -5.900064 1.2049,-2.409805 -5.072532 0.6992356,-2.593947 -4.009944 0.9259648,-2.674046 -3.334592 1.116546,-2.719166 -2.700215 1.279657,-2.046402 -4.84806 0.6870056,-2.138601 -3.626378 0.918889,-2.138601 -3.626378 0.918889,-2.20625 -2.122821 1.337304,-1.68274 -4.882907 0.7239552,-1.696495 -3.730803 0.969673,-1.726164 -2.989745 1.185284,-1.760983 -2.346476 1.361696,-1.314426 -5.142677 0.7988917,-1.144351 -4.300622 1.022519,-1.032909 -3.76213 1.193069,-0.9524355 -3.22086 1.346099,-8.73684 -7.088026 0.01928676,-8.146271 -6.761142 0.2236661,-7.623734 -6.14871 0.4322474,-7.251468 -5.562164 0.6834128,-6.899105 -5.239715 0.949588,-8.059997 -4.40648 0.1926848,-7.952719 -3.273085 0.3237968,-7.890716 -2.600514 0.4667037,-7.839055 -2.012362 0.5776147,-8.413128 -4.235026 0.2740786,-8.320822 -2.925806 0.4145089,-8.242062 -2.094359 0.6276494,-8.178135 -1.401029 0.8121619,-8.758415 -4.299375 0.3725651,-8.714035 -3.080961 0.4981478,-8.646662 -2.301258 0.6417217,-8.567775 -1.667244 0.7502303,-9.108216 -4.579365 0.4899888,-9.181139 -3.625638 0.6282657,-9.185055 -3.000137 0.7467293,-9.15904 -2.434793 0.8175622,1.210,1 0
-1.703744 -7.618089 0.3937632,-2.299492 -7.404188 0.7825099,-2.836293 -6.730772 0.9785954,-3.234715 -6.158024 1.141328,-3.571917 -5.887964 1.32366,-2.407016 -5.038549 0.765492,-2.589984 -3.976005 0.9839943,-2.676312 -3.30726 1.170892,-2.727248 -2.673465 1.33656,-2.038886 -4.819274 0.7515028,-2.124083 -3.593811 0.9729414,-2.124083 -3.593811 0.9729414,-2.184826 -2.070154 1.389851,-1.673615 -4.85765 0.7916498,-1.676269 -3.711456 1.017022,-1.706457 -2.960698 1.218476,-1.739109 -2.314019 1.391381,-1.302476 -5.11832 0.8654902,-1.130058 -4.271333 1.063051,-1.018094 -3.713507 1.227214,-0.9367361 -3.156479 1.378454,-8.800988 -7.152501 -0.1346195,-8.201745 -6.858585 0.06767717,-7.686129 -6.242706 0.2749262,-7.314631 -5.647686 0.5209423,-6.94761 -5.322149 0.7822395,-8.120885 -4.498531 0.03683892,-8.019327 -3.338684 0.1744186,-7.968269 -2.64714 0.320471,-7.926508 -2.041786 0.4326299,-8.481367 -4.343027 0.115858,-8.395295 -3.0253 0.2635578,-8.331457 -2.194435 0.4706711,-8.280943 -1.497322 0.6508054,-8.833225 -4.416296 0.2094746,-8.780309 -3.165631 0.35272,-8.72285 -2.392224 0.5039163,-8.658625 -1.749203 0.6142941,-9.185506 -4.695813 0.3203631,-9.255299 -3.732401 0.4614894,-9.267653 -3.114717 0.568176,-9.256301 -2.536906 0.63801,1.310,1 0
-1.706407 -7.555135 0.2939994,-2.307344 -7.347023 0.6769056,-2.845446 -6.697811 0.8748685,-3.242121 -6.130203 1.038647,-3.569141 -5.857971 1.214468,-2.412151 -5.005426 0.6772919,-2.596973 -3.947694 0.8961182,-2.680487 -3.290973 1.082082,-2.732259 -2.667202 1.238509,-2.04477 -4.786627 0.658951,-2.130232 -3.564081 0.8887765,-2.130232 -3.564081 0.8887765,-2.189297 -2.064888 1.308337,-1.67976 -4.815206 0.694693,-1.687246 -3.681517 0.9201365,-1.716257 -2.94575 1.117452,-1.746436 -2.315255 1.287886,-1.306255 -5.055334 0.7602423,-1.137971 -4.206543 0.952061,-1.024856 -3.651413 1.114449,-0.9415894 -3.09936 1.266492,-8.808896 -7.185997 -0.09294701,-8.204766 -6.899969 0.1059498,-7.689253 -6.262532 0.2956088,-7.325667 -5.655421 0.5282819,-6.967382 -5.33184 0.7772735,-8.136022 -4.512321 0.03404628,-8.034674 -3.367212 0.1566221,-7.983256 -2.669695 0.3018447,-7.943081 -2.065113 0.4153632,-8.495143 -4.36052 0.1170713,-8.409801 -3.048433 0.2416184,-8.348613 -2.200464 0.4480488,-8.303113 -1.491045 0.6333061,-8.845896 -4.443387 0.2190885,-8.794083 -3.19919 0.3433228,-8.736193 -2.417984 0.4950387,-8.674349 -1.772185 0.6092122,-9.198472 -4.734834 0.3398983,-9.271519 -3.771457 0.4741462,-9.290375 -3.147283 0.5878927,-9.289882 -2.56314 0.6618575,1.410,1 0
-1.706 -7.551824 0.2629773,-2.299499 -7.346158 0.6639104,-2.834713 -6.693363 0.8722308,-3.232062 -6.126245 1.042104,-3.567371 -5.858646 1.228851,-2.413187 -5.013735 0.682086,-2.600522 -3.943734 0.9242772,-2.684468 -3.265595 1.127766,-2.73023 -2.624696 1.299429,-2.046982 -4.79775 0.6649522,-2.134903 -3.560507 0.9125813,-2.134903 -3.560507 0.9125813,-2.188278 -2.042785 1.337728,-1.683634 -4.830257 0.6991863,-1.686748 -3.675721 0.9439934,-1.714261 -2.923883 1.153514,-1.743566 -2.274934 1.329632,-1.315849 -5.079772 0.7676496,-1.141093 -4.226478 0.9799743,-1.028535 -3.671583 1.147976,-0.9473896 -3.117063 1.299973,-8.818395 -7.201133 -0.04513595,-8.222343 -6.895254 0.1582066,-7.705972 -6.270841 0.3698536,-7.33415 -5.684004 0.6213402,-6.958408 -5.367893 0.8965651,-8.143893 -4.521085 0.1275541,-8.043127 -3.380182 0.2646652,-7.993242 -2.681899 0.4150984,-7.951879 -2.070086 0.5298864,-8.51004 -4.364744 0.207533,-8.425945 -3.059192 0.3444191,-8.362835 -2.210885 0.5524759,-8.313362 -1.502431 0.7402014,-8.867861 -4.446488 0.3025283,-8.817169 -3.206798 0.4301173,-8.757036 -2.433747 0.5704206,-8.687885 -1.796555 0.6738557,-9.226724 -4.735841 0.4200633,-9.289691 -3.775817 0.5520124,-9.298473 -3.15428 0.6486695,-9.283672 -2.57484 0.7084854,1.510,1 0
-1.693557 -7.555968 0.2520654,-2.29754 -7.35674 0.6534725,-2.841475 -6.704465 0.849261,-3.236744 -6.12821 1.009278,-3.561802 -5.847028 1.181636,-2.419685 -5.030735 0.639798,-2.602624 -3.966729 0.8746771,-2.682636 -3.292644 1.071865,-2.728127 -2.657015 1.239917,-2.050145 -4.802232 0.6194759,-2.137291 -3.573111 0.8487507,-2.137291 -3.573111 0.8487507,-2.196491 -2.05431 1.280661,-1.684921 -4.833446 0.652509,-1.695152 -3.681416 0.8861592,-1.724412 -2.938066 1.100268,-1.75601 -2.298264 1.279774,-1.313074 -5.085643 0.7201453,-1.147521 -4.239852 0.9261093,-1.038821 -3.691099 1.098655,-0.9599009 -3.145092 1.252677,-8.824985 -7.193941 -0.07739404,-8.229297 -6.912431 0.1455938,-7.714089 -6.274087 0.3584067,-7.345152 -5.682969 0.6115068,-6.969119 -5.369596 0.8889968,-8.143579 -4.519081 0.1051325,-8.041915 -3.370842 0.2492402,-7.993628 -2.674839 0.4013176,-7.956578 -2.061206 0.5156516,-8.50928 -4.369342 0.193154,-8.433062 -3.052365 0.3354893,-8.374206 -2.205051 0.5493392,-8.32732 -1.498393 0.7373073,-8.865512 -4.451076 0.2985819,-8.819283 -3.198242 0.4439057,-8.76125 -2.420105 0.6035253,-8.695877 -1.777339 0.7203663,-9.224678 -4.733896 0.4286875,-9.290431 -3.760793 0.5812648,-9.30548 -3.129753 0.6916797,-9.298811 -2.538578 0.7609331,1.610,1 0
-1.719264 -7.582668 0.2451273,-2.323288 -7.386882 0.651915,-2.866552 -6.738258 0.8441596,-3.261942 -6.16551 0.9959689,-3.580631 -5.885492 1.157343,-2.438453 -5.061824 0.6426226,-2.624545 -4.000105 0.8733294,-2.710541 -3.328845 1.068545,-2.766954 -2.695188 1.23583,-2.068775 -4.829952 0.6116872,-2.155996 -3.601268 0.8446398,-2.155996 -3.601268 0.8446398,-2.214933 -2.084852 1.276777,-1.703405 -4.855009 0.6340691,-1.714092 -3.71054 0.8695463,-1.743187 -2.96708 1.081498,-1.776038 -2.330567 1.257286,-1.331605 -5.098442 0.6907145,-1.168327 -4.254783 0.8934019,-1.060274 -3.707397 1.061539,-0.9835329 -3.164451 1.214432,-8.808642 -7.188417 -0.09883773,-8.211205 -6.888814 0.1160869,-7.702342 -6.255985 0.3247901,-7.33655 -5.663124 0.5725836,-6.968922 -5.345805 0.8446703,-8.144684 -4.514307 0.08085093,-8.044998 -3.376899 0.2292392,-7.994493 -2.680945 0.3862541,-7.948857 -2.061192 0.5105677,-8.5106 -4.368358 0.1748272,-8.432683 -3.060745 0.3231074,-8.373451 -2.214037 0.5479456,-8.325717 -1.502932 0.7450052,-8.868752 -4.456655 0.2874585,-8.818302 -3.215295 0.438739,-8.763025 -2.434482 0.6147141,-8.698938 -1.784428 0.7411803,-9.22969 -4.752237 0.4224386,-9.293289 -3.794967 0.5947127,-9.305787 -3.168301 0.7246343,-9.295932 -2.581196 0.8066935,1.710,1 0
-1.726659 -7.561491 0.2592464,-2.324117 -7.371068 0.6546954,-2.866128 -6.724068 0.8566632,-3.259848 -6.159566 1.021858,-3.584122 -5.875669 1.199353,-2.446152 -5.023757 0.6665269,-2.631624 -3.954341 0.9018186,-2.720636 -3.291224 1.095103,-2.776402 -2.663488 1.258986,-2.078627 -4.808403 0.650955,-2.165087 -3.575743 0.8960685,-2.165087 -3.575743 0.8960685,-2.221905 -2.066288 1.316556,-1.715005 -4.845338 0.6872087,-1.720104 -3.703474 0.9288859,-1.743472 -2.958076 1.134935,-1.769625 -2.323001 1.309818,-1.345635 -5.096395 0.758038,-1.178609 -4.256107 0.9623954,-1.067719 -3.701365 1.133771,-0.988554 -3.149816 1.287652,-8.789945 -7.196799 -0.08687644,-8.197466 -6.90431 0.141993,-7.694346 -6.285861 0.3615988,-7.335711 -5.692317 0.6182516,-6.977526 -5.368339 0.8987991,-8.132124 -4.525774 0.1123982,-8.038166 -3.378747 0.2652715,-7.996641 -2.691824 0.4260218,-7.959108 -2.075226 0.5455381,-8.49889 -4.373807 0.1992638,-8.43017 -3.061013 0.3488286,-8.376846 -2.211441 0.5765128,-8.330164 -1.49336 0.7713126,-8.858691 -4.461851 0.3027937,-8.816033 -3.209411 0.4532678,-8.764406 -2.420385 0.6364357,-8.706556 -1.770823 0.7739772,-9.222101 -4.756031 0.4293844,-9.294685 -3.785203 0.5975614,-9.313413 -3.145741 0.7333264,-9.309827 -2.552011 0.8211202,1.810,1 0
-1.72862 -7.564901 0.2652374,-2.332389 -7.367746 0.6631812,-2.866476 -6.72011 0.8505818,-3.24955 -6.143499 0.9988987,-3.568748 -5.861809 1.154792,-2.437885 -5.02739 0.6687845,-2.628661 -3.965799 0.9019372,-2.719134 -3.303342 1.088545,-2.775679 -2.671517 1.246988,-2.07202 -4.807619 0.6472342,-2.158411 -3.581781 0.8899311,-2.158411 -3.581781 0.8899311,-2.222969 -2.073353 1.303532,-1.708878 -4.839784 0.6788136,-1.718039 -3.693773 0.9203173,-1.745922 -2.946033 1.126436,-1.774632 -2.306122 1.301062,-1.340841 -5.088953 0.7441843,-1.170169 -4.244902 0.9516056,-1.060378 -3.685567 1.123935,-0.9818115 -3.128398 1.279382,-8.799008 -7.199511 -0.1149784,-8.19695 -6.908082 0.07125659,-7.69053 -6.29043 0.2716173,-7.328717 -5.692996 0.51145,-6.970054 -5.380929 0.7746478,-8.133072 -4.539291 0.06318825,-8.036407 -3.397048 0.2014269,-7.993521 -2.705831 0.3535455,-7.959309 -2.089515 0.4657176,-8.499583 -4.383363 0.1491263,-8.428566 -3.0723 0.284918,-8.375932 -2.215251 0.5022745,-8.331924 -1.500498 0.6924719,-8.860112 -4.466648 0.2428133,-8.814119 -3.214461 0.3745418,-8.761296 -2.422046 0.5277337,-8.704874 -1.778627 0.6428977,-9.219918 -4.755445 0.3557862,-9.290719 -3.770113 0.4986856,-9.308857 -3.120854 0.6105347,-9.305868 -2.519803 0.6790707,1.910,1 0
-1.7116 -7.525877 0.2591724,-2.311892 -7.350273 0.6752113,-2.853915 -6.709359 0.8793713,-3.242682 -6.137844 1.044507,-3.566647 -5.847835 1.216234,-2.443537 -4.997337 0.6739239,-2.633763 -3.940172 0.9083968,-2.722872 -3.283671 1.101099,-2.780907 -2.659329 1.263483,-2.07483 -4.774253 0.650609,-2.16717 -3.553138 0.8945424,-2.16717 -3.553138 0.8945424,-2.232551 -2.057169 1.320237,-1.709291 -4.805856 0.6813928,-1.722965 -3.667018 0.9232376,-1.751126 -2.932107 1.132799,-1.781623 -2.295383 1.310004,-1.337552 -5.052282 0.7487564,-1.173141 -4.214672 0.9545867,-1.06439 -3.662975 1.127174,-0.9853611 -3.110575 1.281525,-8.800757 -7.181341 -0.1264807,-8.198819 -6.890462 0.09550431,-7.683877 -6.272882 0.3166997,-7.315767 -5.676284 0.5756442,-6.947682 -5.349342 0.855526,-8.122919 -4.530946 0.07056886,-8.023111 -3.390506 0.2146909,-7.981647 -2.695408 0.3673411,-7.946848 -2.086505 0.4810228,-8.490807 -4.370857 0.1502096,-8.415363 -3.064905 0.2863713,-8.362415 -2.216657 0.4960915,-8.320179 -1.505941 0.686578,-8.850146 -4.452748 0.2435261,-8.801281 -3.205476 0.3762416,-8.746965 -2.42284 0.5339394,-8.688827 -1.777244 0.6533316,-9.212982 -4.73946 0.3628401,-9.276383 -3.764621 0.5014375,-9.289137 -3.136611 0.610463,-9.282092 -2.552099 0.6798735,2.010,1 0
-1.708302 -7.506523 0.1849225,-2.310665 -7.326953 0.6027496,-2.853006 -6.713485 0.8156807,-3.245507 -6.142288 0.9885385,-3.564847 -5.838912 1.170431,-2.444584 -5.009262 0.6170583,-2.635342 -3.941242 0.8618339,-2.71905 -3.276526 1.062106,-2.769388 -2.646713 1.230461,-2.076726 -4.779455 0.5917798,-2.171936 -3.547282 0.842429,-2.171936 -3.547282 0.842429,-2.229392 -2.044342 1.283344,-1.710364 -4.807703 0.6198492,-1.721872 -3.658412 0.8634833,-1.749726 -2.922404 1.084909,-1.778952 -2.292506 1.269626,-1.3394 -5.052902 0.6824178,-1.176536 -4.20733 0.8909209,-1.070069 -3.659095 1.068636,-0.9938269 -3.116155 1.228085,-8.784492 -7.180689 -0.1501761,-8.189878 -6.884229 0.0786972,-7.681607 -6.262788 0.2973482,-7.31944 -5.665286 0.5519247,-6.957028 -5.327184 0.8276999,-8.123013 -4.523403 0.06121953,-8.019608 -3.37962 0.2210047,-7.970581 -2.685819 0.3820045,-7.92912 -2.072138 0.5043995,-8.489236 -4.377925 0.15024,-8.411402 -3.062811 0.3062231,-8.353691 -2.213826 0.5314674,-8.308088 -1.504653 0.7297046,-8.845111 -4.469415 0.2560301,-8.799809 -3.219993 0.4141951,-8.746258 -2.433426 0.5951879,-8.685589 -1.780046 0.7288417,-9.203628 -4.7679 0.3850675,-9.267034 -3.79944 0.5596151,-9.280083 -3.169433 0.6968001,-9.271257 -2.57986 0.7851368,2.110,1 0
-1.707151 -7.517447 0.1800671,-2.310924 -7.330592 0.5973414,-2.85353 -6.713787 0.805512,-3.244705 -6.14317 0.9719174,-3.573885 -5.844647 1.150215,-2.441545 -5.010709 0.59008,-2.627592 -3.936258 0.8324692,-2.715597 -3.261864 1.039718,-2.770267 -2.628452 1.214722,-2.071173 -4.788173 0.5662951,-2.161628 -3.554394 0.815401,-2.161628 -3.554394 0.815401,-2.221314 -2.041286 1.257469,-1.704431 -4.820653 0.5949277,-1.71222 -3.677956 0.8401583,-1.735869 -2.936238 1.065763,-1.763273 -2.29569 1.250281,-1.334889 -5.068563 0.6601664,-1.172031 -4.227262 0.8733962,-1.06757 -3.684589 1.048358,-0.9953337 -3.14159 1.20413,-8.78092 -7.175884 -0.1198037,-8.185749 -6.884965 0.1131384,-7.679626 -6.259131 0.3298265,-7.317671 -5.659388 0.586381,-6.956833 -5.323725 0.8658823,-8.112891 -4.512029 0.07417144,-8.014904 -3.375619 0.2303526,-7.970764 -2.685032 0.3919019,-7.931576 -2.068389 0.5151688,-8.479369 -4.363286 0.1643908,-8.406004 -3.058729 0.314414,-8.352566 -2.211401 0.5417206,-8.307901 -1.498576 0.7368249,-8.838156 -4.450316 0.2742833,-8.793734 -3.206873 0.428614,-8.741568 -2.423255 0.6112083,-8.68267 -1.772867 0.7450294,-9.200249 -4.740737 0.4096004,-9.26733 -3.775004 0.5768726,-9.283332 -3.142929 0.7087405,-9.278885 -2.550062 0.790153,2.210,1 0
-1.688328 -7.518661 0.2011642,-2.293315 -7.3497 0.6235917,-2.837581 -6.722841 0.8307916,-3.232225 -6.139125 0.9934115,-3.560003 -5.834741 1.168289,-2.43883 -5.016437 0.6123469,-2.625628 -3.952731 0.8447167,-2.713729 -3.284571 1.043447,-2.770145 -2.655774 1.212976,-2.067311 -4.784612 0.5825971,-2.159801 -3.558627 0.8226176,-2.159801 -3.558627 0.8226176,-2.224388 -2.048719 1.259057,-1.698715 -4.812953 0.6055406,-1.712913 -3.66999 0.8442457,-1.738551 -2.928012 1.066063,-1.768778 -2.283557 1.2545,-1.32764 -5.057619 0.6649351,-1.162062 -4.221544 0.8690717,-1.05543 -3.678367 1.042988,-0.9809713 -3.132915 1.200548,-8.781612 -7.190469 -0.1117843,-8.187068 -6.892658 0.1187845,-7.682212 -6.274724 0.3413344,-7.322567 -5.677006 0.6036431,-6.96382 -5.331957 0.8861554,-8.11842 -4.524004 0.07983153,-8.016476 -3.393165 0.2351786,-7.968733 -2.69333 0.4011425,-7.928399 -2.071483 0.5284892,-8.483573 -4.374552 0.1659155,-8.410025 -3.075788 0.3136188,-8.354819 -2.224652 0.5406513,-8.311277 -1.512404 0.7363699,-8.840124 -4.460407 0.2721786,-8.797022 -3.220562 0.4191138,-8.747612 -2.433229 0.5946591,-8.69325 -1.781576 0.7211391,-9.200998 -4.749588 0.4021646,-9.269892 -3.780945 0.5586118,-9.284624 -3.146458 0.6845428,-9.27949 -2.552814 0.765788,2.310,1 0
-1.692118 -7.525654 0.2090124,-2.289218 -7.346385 0.615204,-2.836839 -6.712214 0.8154107,-3.233923 -6.133354 0.9794076,-3.557246 -5.829703 1.159185,-2.433686 -5.016813 0.6134903,-2.622403 -3.955677 0.8445164,-2.708612 -3.286869 1.035636,-2.760154 -2.658819 1.198922,-2.065771 -4.789106 0.5940303,-2.153258 -3.565176 0.8246187,-2.153258 -3.565176 0.8246187,-2.211949 -2.06134 1.253533,-1.700762 -4.815173 0.625935,-1.710948 -3.67465 0.8537971,-1.737915 -2.931999 1.064829,-1.765096 -2.294271 1.247332,-1.329725 -5.058892 0.6920655,-1.162995 -4.220829 0.8895602,-1.0549 -3.680357 1.053682,-0.975616 -3.143857 1.205593,-8.783674 -7.190925 -0.1442554,-8.184751 -6.912689 0.06981622,-7.682044 -6.278023 0.2814181,-7.322893 -5.668272 0.5292348,-6.959359 -5.339578 0.8003621,-8.119703 -4.537572 0.04889166,-8.018837 -3.399568 0.2049361,-7.969576 -2.714411 0.3674361,-7.93095 -2.099043 0.4927372,-8.48414 -4.385717 0.1449845,-8.416699 -3.069064 0.3008423,-8.359819 -2.216354 0.5305518,-8.310349 -1.495483 0.725122,-8.839208 -4.470426 0.2569121,-8.799953 -3.206609 0.4140931,-8.744699 -2.419337 0.5899195,-8.686927 -1.766517 0.7208248,-9.195673 -4.760942 0.3909173,-9.273278 -3.781582 0.5646225,-9.29453 -3.133216 0.6975395,-9.297505 -2.526185 0.7795537,2.410,1 0
-1.713827 -7.530264 0.1657972,-2.306694 -7.353828 0.5701343,-2.848543 -6.701879 0.768046,-3.239166 -6.115688 0.9247886,-3.554253 -5.812818 1.087051,-2.433368 -5.035678 0.589435,-2.624916 -3.974704 0.8340175,-2.713795 -3.300785 1.035002,-2.769744 -2.665617 1.205889,-2.064786 -4.805679 0.567497,-2.159322 -3.571281 0.8122753,-2.159322 -3.571281 0.8122753,-2.220212 -2.050292 1.253318,-1.700298 -4.829912 0.5955656,-1.711687 -3.679107 0.8390976,-1.735062 -2.931497 1.05191,-1.764804 -2.295593 1.232634,-1.331813 -5.071474 0.6565291,-1.16551 -4.226829 0.8674979,-1.054389 -3.678478 1.03542,-0.9774151 -3.134899 1.188295,-8.769766 -7.183495 -0.1092522,-8.170757 -6.893173 0.1318876,-7.666453 -6.266483 0.3502818,-7.307369 -5.658657 0.6069391,-6.943602 -5.318155 0.8875286,-8.102678 -4.524453 0.08334966,-8.005597 -3.393606 0.2387267,-7.959346 -2.697793 0.4025226,-7.919284 -2.079979 0.5259461,-8.468905 -4.366646 0.1634394,-8.400734 -3.067028 0.3055562,-8.342962 -2.221887 0.5221117,-8.292715 -1.507711 0.7100375,-8.824163 -4.442674 0.2644093,-8.782529 -3.194806 0.4073926,-8.729638 -2.412479 0.5754998,-8.67078 -1.76333 0.6959172,-9.183171 -4.722179 0.3917261,-9.256036 -3.756177 0.5432253,-9.277637 -3.116818 0.6619207,-9.27984 -2.516908 0.7344177,2.510,1 0
-1.703907 -7.512755 0.1515268,-2.304636 -7.333679 0.5630319,-2.850098 -6.716423 0.7753997,-3.243707 -6.146011 0.943442,-3.556511 -5.839277 1.121319,-2.437966 -5.023286 0.5841484,-2.624562 -3.967902 0.8221035,-2.71235 -3.310965 1.016845,-2.769086 -2.691147 1.182612,-2.068801 -4.794677 0.5565932,-2.159583 -3.573991 0.8003443,-2.159583 -3.573991 0.8003443,-2.225616 -2.071435 1.240436,-1.703585 -4.825692 0.5775446,-1.714571 -3.688987 0.8180225,-1.742197 -2.950988 1.033414,-1.772253 -2.319864 1.217868,-1.334834 -5.07636 0.632498,-1.164018 -4.243933 0.8370646,-1.051444 -3.704532 1.005737,-0.9703708 -3.168724 1.16099,-8.782312 -7.178325 -0.1089986,-8.176411 -6.895776 0.1143059,-7.670494 -6.269962 0.3216857,-7.313263 -5.658006 0.5611444,-6.954327 -5.319735 0.8162544,-8.107139 -4.524601 0.08679712,-8.006168 -3.391291 0.2364356,-7.956756 -2.69775 0.394582,-7.917353 -2.078363 0.5174259,-8.474816 -4.361865 0.1609214,-8.397954 -3.05978 0.3038789,-8.340079 -2.214873 0.5214685,-8.292558 -1.499576 0.7124819,-8.832467 -4.440687 0.2521435,-8.786668 -3.200944 0.3937413,-8.731171 -2.423918 0.5590183,-8.670592 -1.776575 0.6822938,-9.190829 -4.724463 0.365895,-9.261428 -3.76556 0.5236045,-9.276602 -3.131856 0.6528013,-9.271308 -2.537265 0.7326416,2.610,1 0
-1.708034 -7.554296 0.2445109,-2.3024 -7.366664 0.6329885,-2.841926 -6.714605 0.8221871,-3.230722 -6.126964 0.9756671,-3.549076 -5.818489 1.139675,-2.424778 -5.028783 0.6047285,-2.610887 -3.977302 0.8235498,-2.69917 -3.310469 1.012295,-2.754349 -2.679544 1.178409,-2.056859 -4.799354 0.5935796,-2.141924 -3.578966 0.8175141,-2.141924 -3.578966 0.8175141,-2.206226 -2.065853 1.25471,-1.694244 -4.8281 0.6335243,-1.693317 -3.686719 0.8584014,-1.715395 -2.938901 1.07488,-1.743262 -2.298561 1.258261,-1.328406 -5.077621 0.7086888,-1.155332 -4.24127 0.9000776,-1.042074 -3.704646 1.060846,-0.9611354 -3.169683 1.210114,-8.787937 -7.170935 -0.1334305,-8.192067 -6.903389 0.1341424,-7.683078 -6.291675 0.369736,-7.326816 -5.688109 0.636915,-6.977008 -5.326011 0.92126,-8.112912 -4.528327 0.1050834,-8.004576 -3.401319 0.2847177,-7.962075 -2.710254 0.4613333,-7.928329 -2.091619 0.5880028,-8.483012 -4.365467 0.1773973,-8.403244 -3.069474 0.3398687,-8.346286 -2.228117 0.5713456,-8.300348 -1.509969 0.7627068,-8.84302 -4.442078 0.2722329,-8.795231 -3.19865 0.4384333,-8.742331 -2.419291 0.6273448,-8.681946 -1.769386 0.7604847,-9.204865 -4.727837 0.3943932,-9.2694 -3.764896 0.5731365,-9.281956 -3.125581 0.7104077,-9.27039 -2.521059 0.7950203,2.710,1 0
-1.687545 -7.544971 0.183799,-2.290673 -7.36518 0.6105144,-2.837183 -6.729564 0.8246389,-3.227091 -6.150419 0.9943399,-3.542255 -5.832529 1.174424,-2.427215 -5.051626 0.6427745,-2.617771 -3.982801 0.8921724,-2.702662 -3.310589 1.090521,-2.751266 -2.670274 1.256913,-2.056706 -4.822233 0.61595,-2.141432 -3.591142 0.871217,-2.141432 -3.591142 0.871217,-2.18971 -2.068389 1.318115,-1.689686 -4.848966 0.6414002,-1.698646 -3.704995 0.8909947,-1.721242 -2.954126 1.111089,-1.74719 -2.308443 1.302695,-1.315495 -5.094615 0.7003762,-1.147956 -4.251564 0.911779,-1.034465 -3.705576 1.085615,-0.9516945 -3.166586 1.245032,-8.778906 -7.169981 -0.1360625,-8.190324 -6.893131 0.1238112,-7.685106 -6.279862 0.3515711,-7.32195 -5.687674 0.6111016,-6.965249 -5.343303 0.8905082,-8.121175 -4.515739 0.08702292,-8.018516 -3.381554 0.2566816,-7.975321 -2.690283 0.4329476,-7.937406 -2.068157 0.5651841,-8.484782 -4.363515 0.1693442,-8.408566 -3.062783 0.3258789,-8.354874 -2.220826 0.5587425,-8.311707 -1.50947 0.7577536,-8.84042 -4.453238 0.272419,-8.798808 -3.21157 0.4353619,-8.749573 -2.425516 0.6363593,-8.690907 -1.766656 0.7829331,-9.200463 -4.755893 0.4011918,-9.267859 -3.795377 0.5875237,-9.281492 -3.160806 0.737482,-9.271014 -2.564411 0.831368,2.810,1 0
-1.6899 -7.545551 0.1791807,-2.287161 -7.370631 0.5863371,-2.828407 -6.748244 0.7905806,-3.211996 -6.164034 0.9538344,-3.524824 -5.848006 1.122302,-2.417083 -5.047906 0.6009779,-2.60753 -3.990343 0.8449358,-2.694246 -3.324493 1.039867,-2.747399 -2.695176 1.200058,-2.050747 -4.817909 0.5776378,-2.138774 -3.59026 0.8273106,-2.138774 -3.59026 0.8273106,-2.192389 -2.082638 1.259433,-1.685678 -4.846871 0.6065851,-1.695778 -3.700593 0.8505715,-1.721034 -2.955916 1.06512,-1.749278 -2.321222 1.247131,-1.313278 -5.097774 0.6698653,-1.148143 -4.25535 0.8772019,-1.038975 -3.705578 1.053149,-0.9606256 -3.167009 1.210099,-8.779776 -7.178057 -0.1105881,-8.177791 -6.889997 0.1375753,-7.672067 -6.273641 0.3642114,-7.315536 -5.678905 0.6264181,-6.962633 -5.331933 0.9083312,-8.114815 -4.511081 0.08788356,-8.012072 -3.381272 0.2513138,-7.965952 -2.683697 0.4268934,-7.927798 -2.060905 0.5627522,-8.482226 -4.362241 0.172217,-8.404324 -3.073266 0.3272921,-8.346663 -2.225758 0.5629523,-8.300722 -1.512188 0.7661708,-8.839686 -4.449018 0.2791933,-8.795422 -3.224417 0.4311165,-8.74359 -2.442979 0.6218343,-8.683815 -1.790497 0.7599996,-9.200172 -4.745382 0.4116994,-9.271736 -3.794843 0.5854823,-9.288091 -3.163096 0.7248507,-9.280506 -2.568279 0.8128228,2.910,1 0
-1.690369 -7.533355 0.1910446,-2.285804 -7.369434 0.6308331,-2.827561 -6.73932 0.8508139,-3.214634 -6.152804 1.024835,-3.528915 -5.829706 1.204816,-2.425853 -5.040967 0.6588855,-2.612863 -3.972476 0.9155201,-2.696079 -3.301948 1.119952,-2.746004 -2.663346 1.291081,-2.054281 -4.808757 0.6292925,-2.138881 -3.580465 0.8919454,-2.138881 -3.580465 0.8919454,-2.190022 -2.07223 1.346979,-1.684778 -4.839762 0.6520439,-1.696685 -3.691983 0.9120975,-1.723108 -2.944886 1.142567,-1.755804 -2.302851 1.340006,-1.309562 -5.092863 0.7082196,-1.140213 -4.257668 0.9305047,-1.026194 -3.707991 1.113686,-0.9451332 -3.164227 1.280505,-8.784038 -7.159982 -0.1505557,-8.188089 -6.87464 0.09636123,-7.683043 -6.272768 0.328197,-7.326924 -5.675323 0.5921332,-6.971765 -5.340215 0.8757391,-8.120508 -4.51625 0.08157876,-8.013067 -3.386356 0.2540953,-7.972383 -2.700619 0.4309204,-7.939223 -2.088275 0.5563295,-8.492506 -4.3577 0.1572661,-8.41077 -3.054706 0.311137,-8.356596 -2.215472 0.5352185,-8.31573 -1.505325 0.7269191,-8.852913 -4.436212 0.2516017,-8.802114 -3.184342 0.4029054,-8.751179 -2.402637 0.5793743,-8.696674 -1.75581 0.7101419,-9.217198 -4.722004 0.3703472,-9.276406 -3.751629 0.5285388,-9.290027 -3.111235 0.6543661,-9.283981 -2.508883 0.7369498,3.010,1 0
-1.694003 -7.52953 0.1948053,-2.28329 -7.350784 0.6022105,-2.824824 -6.733133 0.8084218,-3.210384 -6.158063 0.971619,-3.520761 -5.834081 1.139291,-2.420828 -5.027229 0.6136611,-2.610471 -3.971824 0.8532618,-2.697887 -3.310284 1.051888,-2.751902 -2.686623 1.218819,-2.052114 -4.796227 0.5883087,-2.139181 -3.576356 0.8230795,-2.139181 -3.576356 0.8230795,-2.196457 -2.080326 1.248894,-1.685647 -4.819044 0.6126645,-1.690653 -3.68613 0.8447656,-1.714838 -2.949035 1.053971,-1.743032 -2.31941 1.232079,-1.312304 -5.060398 0.6730508,-1.146471 -4.225099 0.8707653,-1.035676 -3.687748 1.034152,-0.9563637 -3.157766 1.184128,-8.79667 -7.168109 -0.1547469,-8.193654 -6.889707 0.09029756,-7.685933 -6.292333 0.3187488,-7.325054 -5.690316 0.577017,-6.970789 -5.347761 0.8474269,-8.122672 -4.527343 0.08119623,-8.019719 -3.381126 0.2448694,-7.975168 -2.683982 0.4116813,-7.936078 -2.063317 0.5337541,-8.494368 -4.367986 0.150777,-8.417015 -3.060175 0.305968,-8.363373 -2.220088 0.5314606,-8.320425 -1.517892 0.7268636,-8.856789 -4.445533 0.2385892,-8.81079 -3.196547 0.3928239,-8.761424 -2.410759 0.5741898,-8.703615 -1.760974 0.7040547,-9.220384 -4.734314 0.3475146,-9.285104 -3.767303 0.5129147,-9.299896 -3.132245 0.6428456,-9.291275 -2.538196 0.7265249,3.110,1 0
-1.699516 -7.504901 0.1842447,-2.286896 -7.339147 0.616203,-2.818734 -6.71182 0.8355066,-3.197094 -6.134246 1.013518,-3.514291 -5.803625 1.196938,-2.430158 -5.003318 0.6349776,-2.620575 -3.938755 0.883377,-2.70561 -3.268692 1.085036,-2.756492 -2.639092 1.255624,-2.057391 -4.779293 0.6088339,-2.145592 -3.553197 0.862483,-2.145592 -3.553197 0.862483,-2.197934 -2.044994 1.298261,-1.688273 -4.812477 0.6340021,-1.69832 -3.668734 0.8874444,-1.724792 -2.917683 1.109188,-1.755792 -2.273843 1.295064,-1.314 -5.067779 0.6935704,-1.149363 -4.233388 0.908027,-1.039718 -3.687128 1.082403,-0.9603605 -3.144076 1.239179,-8.788794 -7.187965 -0.07102209,-8.19173 -6.895113 0.1615911,-7.682428 -6.271165 0.3843608,-7.323386 -5.671329 0.6428131,-6.965769 -5.326892 0.9206311,-8.12329 -4.515705 0.1432369,-8.018224 -3.384964 0.3091302,-7.970008 -2.698156 0.473779,-7.930958 -2.076717 0.5947797,-8.492252 -4.362468 0.2295422,-8.419099 -3.073127 0.3830768,-8.366714 -2.241827 0.6070904,-8.322425 -1.537658 0.7930863,-8.854264 -4.446184 0.3330309,-8.808365 -3.203487 0.4927008,-8.760815 -2.427936 0.6752091,-8.705936 -1.782167 0.8035328,-9.219423 -4.738206 0.4592493,-9.287175 -3.773988 0.6294348,-9.303776 -3.13139 0.7595026,-9.297645 -2.524717 0.8410731,3.210,1 0
-1.69206 -7.516117 0.1655421,-2.281158 -7.333288 0.5912296,-2.815771 -6.702936 0.7992246,-3.195127 -6.122955 0.9627064,-3.508399 -5.806921 1.127549,-2.417214 -5.015441 0.6027991,-2.602717 -3.961577 0.8404713,-2.686827 -3.290641 1.039312,-2.740965 -2.656248 1.211152,-2.046974 -4.792864 0.5723225,-2.1318 -3.580162 0.815539,-2.1318 -3.580162 0.815539,-2.1927 -2.078334 1.26601,-1.682701 -4.822114 0.5927584,-1.687304 -3.690276 0.8363705,-1.70657 -2.951642 1.062915,-1.734451 -2.316618 1.254088,-1.314689 -5.069217 0.6481142,-1.151644 -4.235656 0.8529018,-1.040715 -3.69716 1.023508,-0.9636784 -3.161404 1.183511,-8.785135 -7.17929 -0.09907977,-8.18614 -6.903125 0.1111777,-7.681493 -6.278667 0.3261742,-7.325204 -5.671489 0.5776697,-6.968677 -5.33487 0.8487235,-8.126172 -4.515228 0.08904785,-8.019339 -3.381848 0.238156,-7.972798 -2.700538 0.3972562,-7.936674 -2.093112 0.514688,-8.495784 -4.358205 0.1725963,-8.419552 -3.059689 0.3086391,-8.366286 -2.230344 0.5205516,-8.323402 -1.530357 0.7025602,-8.856757 -4.441206 0.2718647,-8.810755 -3.193204 0.4097288,-8.758786 -2.419864 0.5711722,-8.704842 -1.777086 0.6915605,-9.218528 -4.731005 0.3915489,-9.283813 -3.768861 0.536418,-9.297774 -3.129495 0.6473995,-9.291998 -2.52725 0.7181352,3.310,1 0
-1.680164 -7.518608 0.1422656,-2.266582 -7.347837 0.5705714,-2.800889 -6.732658 0.7846625,-3.177622 -6.159469 0.9563999,-3.491348 -5.827678 1.134767,-2.409915 -5.024892 0.5839961,-2.595933 -3.974063 0.8391595,-2.678 -3.30496 1.050469,-2.725774 -2.666415 1.223093,-2.037161 -4.803903 0.5587585,-2.121353 -3.597106 0.8193058,-2.121353 -3.597106 0.8193058,-2.168664 -2.103386 1.257824,-1.668937 -4.839071 0.5853017,-1.672687 -3.714999 0.846738,-1.693669 -2.978384 1.079818,-1.718334 -2.343584 1.267842,-1.296225 -5.091104 0.6464883,-1.135916 -4.265257 0.8666687,-1.030047 -3.728691 1.046304,-0.9557657 -3.19478 1.204091,-8.791481 -7.193744 -0.03581293,-8.191678 -6.917391 0.2028065,-7.687247 -6.295011 0.4308982,-7.330873 -5.693519 0.696762,-6.969309 -5.349914 0.9816192,-8.124786 -4.516461 0.186581,-8.018293 -3.391609 0.3524868,-7.966244 -2.70767 0.5216873,-7.922169 -2.087373 0.641512,-8.489188 -4.360523 0.2814885,-8.421061 -3.071961 0.4396963,-8.368834 -2.236852 0.6669696,-8.321547 -1.529701 0.8521196,-8.846805 -4.44659 0.3952699,-8.806284 -3.209823 0.5544087,-8.755215 -2.423967 0.733683,-8.694937 -1.769959 0.8568077,-9.207194 -4.745405 0.5333074,-9.278689 -3.771408 0.7156298,-9.295984 -3.116747 0.8512085,-9.290588 -2.504102 0.9289101,3.410,1 0
-1.672936 -7.527141 0.1563567,-2.262542 -7.360157 0.5822659,-2.797964 -6.738258 0.7911934,-3.176601 -6.163607 0.9583176,-3.492071 -5.830003 1.132844,-2.409453 -5.031192 0.6102876,-2.595714 -3.972753 0.8540053,-2.680541 -3.300939 1.056694,-2.732064 -2.66246 1.223464,-2.036503 -4.810457 0.5810226,-2.118965 -3.603762 0.8307587,-2.118965 -3.603762 0.8307587,-2.164884 -2.120523 1.272618,-1.666368 -4.845342 0.601431,-1.672414 -3.723436 0.8507083,-1.692041 -2.994284 1.08301,-1.713316 -2.361942 1.276244,-1.292158 -5.098676 0.6539361,-1.129912 -4.278945 0.8664618,-1.021348 -3.749948 1.044084,-0.9403343 -3.219098 1.203973,-8.777929 -7.189312 -0.1008882,-8.180572 -6.897754 0.120738,-7.67869 -6.27087 0.3368121,-7.320541 -5.671472 0.590799,-6.955476 -5.341387 0.8696624,-8.117087 -4.521739 0.08367398,-8.016426 -3.399692 0.2407987,-7.969612 -2.715942 0.4116281,-7.932327 -2.104951 0.5391688,-8.48559 -4.369842 0.1789107,-8.415017 -3.078584 0.3250566,-8.36095 -2.248107 0.5526225,-8.314441 -1.542056 0.7455554,-8.842685 -4.453605 0.2910134,-8.807832 -3.213984 0.4448285,-8.759415 -2.441982 0.6255583,-8.702745 -1.790246 0.7560569,-9.201874 -4.745611 0.4252596,-9.276329 -3.786841 0.5921837,-9.293948 -3.145257 0.7149401,-9.288889 -2.535278 0.7906216,3.510,1 0
-1.672319 -7.515535 0.1515871,-2.260187 -7.348937 0.5712866,-2.796825 -6.726986 0.7843634,-3.180499 -6.14954 0.9543746,-3.499944 -5.829422 1.133297,-2.403622 -5.022624 0.5887845,-2.592242 -3.977142 0.8281229,-2.67728 -3.31185 1.029625,-2.730575 -2.677932 1.198672,-2.032518 -4.797502 0.5614583,-2.119701 -3.595033 0.8055359,-2.119701 -3.595033 0.8055359,-2.170898 -2.12283 1.229002,-1.665997 -4.829915 0.5845234,-1.671864 -3.710708 0.8326793,-1.690169 -2.983648 1.054667,-1.713066 -2.355616 1.233113,-1.294818 -5.082193 0.6439131,-1.131444 -4.258123 0.8554792,-1.023084 -3.731157 1.024416,-0.9453735 -3.206106 1.173999,-8.777286 -7.172256 -0.1300965,-8.180263 -6.900981 0.09245686,-7.678887 -6.298875 0.3090659,-7.323478 -5.708488 0.5626998,-6.964751 -5.366816 0.839468,-8.115269 -4.521877 0.0640842,-8.013455 -3.39804 0.2106538,-7.970595 -2.715669 0.3746257,-7.93851 -2.104124 0.4968896,-8.484817 -4.361747 0.1547395,-8.411167 -3.069946 0.2896976,-8.358675 -2.236714 0.5120356,-8.316422 -1.535108 0.7029749,-8.842806 -4.438489 0.2594738,-8.804661 -3.196904 0.3994051,-8.755491 -2.420949 0.5778334,-8.701554 -1.779221 0.7088036,-9.202291 -4.722436 0.3866001,-9.275476 -3.758935 0.547923,-9.292886 -3.1141 0.6703115,-9.286775 -2.512117 0.7467969,3.610,1 0
-1.679464 -7.512908 0.1480567,-2.270281 -7.359055 0.5792894,-2.805217 -6.738272 0.7947546,-3.181858 -6.158309 0.9682472,-3.492896 -5.817976 1.144386,-2.41347 -5.017808 0.5844992,-2.602684 -3.963003 0.8285781,-2.687452 -3.295235 1.030457,-2.735483 -2.669153 1.198915,-2.037719 -4.794945 0.5532665,-2.123016 -3.578355 0.8001127,-2.123016 -3.578355 0.8001127,-2.168071 -2.081481 1.233202,-1.668429 -4.829989 0.5731952,-1.672107 -3.692932 0.819823,-1.69302 -2.947032 1.047098,-1.715518 -2.314323 1.235465,-1.294864 -5.086333 0.6288525,-1.130535 -4.258705 0.8373089,-1.022903 -3.717205 1.011437,-0.9440699 -3.182292 1.166172,-8.777706 -7.153882 -0.141788,-8.175841 -6.870526 0.07136258,-7.66822 -6.261393 0.2800388,-7.303535 -5.671154 0.5263889,-6.940788 -5.336786 0.794628,-8.118046 -4.497701 0.04087628,-8.004282 -3.370685 0.1930867,-7.956003 -2.689495 0.355034,-7.918342 -2.075161 0.4759462,-8.485899 -4.34549 0.1310875,-8.404789 -3.051266 0.2691371,-8.353687 -2.218323 0.4909143,-8.312792 -1.517519 0.6799428,-8.845813 -4.430637 0.2352736,-8.799305 -3.194427 0.3802676,-8.749542 -2.419561 0.5609661,-8.692375 -1.774698 0.6888689,-9.206877 -4.724294 0.3608059,-9.273654 -3.77508 0.5223819,-9.286333 -3.146366 0.650889,-9.272721 -2.553639 0.7301124,3.710,1 0
-1.675905 -7.509493 0.1537817,-2.264833 -7.35112 0.5800018,-2.805871 -6.731754 0.7900928,-3.186277 -6.149214 0.9528098,-3.492889 -5.81208 1.112653,-2.411836 -5.014266 0.5998659,-2.600242 -3.963512 0.83627,-2.684823 -3.297383 1.030542,-2.736038 -2.669552 1.195028,-2.037488 -4.790409 0.5595587,-2.123733 -3.588973 0.801237,-2.123733 -3.588973 0.801237,-2.182026 -2.109788 1.227021,-1.668754 -4.8176 0.5720598,-1.67598 -3.69255 0.8166995,-1.698121 -2.957945 1.041019,-1.724259 -2.328266 1.225935,-1.295108 -5.063228 0.6181365,-1.133169 -4.238723 0.8214424,-1.025314 -3.706987 0.9934749,-0.947947 -3.17967 1.148527,-8.804338 -7.166721 -0.08622332,-8.201781 -6.901933 0.2012379,-7.686514 -6.30129 0.4392583,-7.321073 -5.713432 0.7041906,-6.958328 -5.358034 0.9849582,-8.116938 -4.512242 0.1671681,-8.011939 -3.380212 0.3457207,-7.965466 -2.691666 0.5213906,-7.926886 -2.070858 0.6432167,-8.487846 -4.349519 0.2303251,-8.410926 -3.05879 0.3883285,-8.354759 -2.227991 0.6116944,-8.305203 -1.523757 0.7981956,-8.847268 -4.430458 0.3180219,-8.808224 -3.200723 0.4854401,-8.761325 -2.427765 0.678901,-8.700795 -1.778062 0.8117424,-9.206676 -4.725954 0.4332189,-9.272623 -3.781957 0.6165599,-9.284054 -3.153058 0.7596773,-9.265538 -2.560728 0.8458064,3.810,1 0
-1.694077 -7.494012 0.09470495,-2.286 -7.332736 0.4948462,-2.817179 -6.715667 0.6924045,-3.194223 -6.133665 0.8499213,-3.495569 -5.788749 1.008447,-2.415876 -5.005294 0.493967,-2.606977 -3.948728 0.7160565,-2.699042 -3.275809 0.9040489,-2.752927 -2.649523 1.066319,-2.044865 -4.786014 0.4678729,-2.129639 -3.570978 0.6919487,-2.129639 -3.570978 0.6919487,-2.183456 -2.084663 1.105818,-1.678092 -4.82014 0.4913889,-1.677441 -3.692194 0.7181465,-1.699152 -2.949108 0.9364434,-1.72029 -2.323782 1.121863,-1.307778 -5.071338 0.5479671,-1.137231 -4.244051 0.7439552,-1.031009 -3.703603 0.9150461,-0.9539604 -3.176719 1.066625,-8.781654 -7.163726 -0.0961889,-8.183682 -6.878292 0.1638337,-7.674651 -6.262169 0.3904541,-7.314922 -5.666872 0.6508121,-6.95672 -5.320311 0.9287046,-8.115015 -4.498371 0.1315081,-8.010586 -3.376373 0.3016834,-7.961531 -2.689555 0.4735855,-7.920305 -2.070693 0.6003149,-8.484587 -4.345869 0.2073826,-8.408315 -3.061143 0.3595943,-8.351696 -2.229463 0.5810421,-8.30209 -1.526825 0.769501,-8.843433 -4.425792 0.3052077,-8.801933 -3.195972 0.4597127,-8.752675 -2.425483 0.6398382,-8.692566 -1.785378 0.7632887,-9.203349 -4.71334 0.4293692,-9.267909 -3.761003 0.5982894,-9.282398 -3.126283 0.7234728,-9.271464 -2.530447 0.7966118,3.910,1 0
-1.681227 -7.481912 0.09129706,-2.274543 -7.320211 0.5052329,-2.809155 -6.705974 0.7147433,-3.187067 -6.13471 0.8839815,-3.499496 -5.798401 1.058207,-2.421764 -4.99908 0.5113488,-2.615088 -3.941804 0.7482772,-2.701362 -3.275041 0.9452263,-2.753306 -2.641743 1.113191,-2.051777 -4.780846 0.4876954,-2.137634 -3.573196 0.733098,-2.137634 -3.573196 0.733098,-2.187972 -2.089119 1.163816,-1.686125 -4.812822 0.514835,-1.690634 -3.683984 0.7619999,-1.713112 -2.945307 0.9876951,-1.738897 -2.308729 1.175664,-1.315028 -5.061134 0.5757502,-1.147642 -4.230609 0.783725,-1.039124 -3.693847 0.9574893,-0.9622469 -3.15921 1.114028,-8.785295 -7.15336 -0.1173662,-8.17925 -6.875839 0.1458361,-7.670036 -6.263277 0.3762355,-7.31082 -5.662778 0.637009,-6.947925 -5.319911 0.9187654,-8.111827 -4.497932 0.1156783,-8.006506 -3.360101 0.2781567,-7.957967 -2.662971 0.4468467,-7.914908 -2.04167 0.5736431,-8.485945 -4.341117 0.1792681,-8.406529 -3.044195 0.3157483,-8.348845 -2.209283 0.5278828,-8.299561 -1.506486 0.7168639,-8.846806 -4.420305 0.2635588,-8.799796 -3.182226 0.4022859,-8.753166 -2.409391 0.5706145,-8.695723 -1.765418 0.6909243,-9.209915 -4.706787 0.3737201,-9.272512 -3.755699 0.5226304,-9.289305 -3.125357 0.6366463,-9.280349 -2.532842 0.7077399,4.010,1 0
-1.694079 -7.513908 0.1691189,-2.273599 -7.349565 0.6154583,-2.810393 -6.721646 0.839891,-3.185386 -6.134362 1.018862,-3.491716 -5.782009 1.196094,-2.416222 -5.021525 0.6509116,-2.605522 -3.961864 0.9097766,-2.691236 -3.284261 1.119043,-2.744819 -2.644639 1.290799,-2.044915 -4.795253 0.6152805,-2.133501 -3.58584 0.8718973,-2.133501 -3.58584 0.8718973,-2.188597 -2.085121 1.318018,-1.678116 -4.824905 0.6294185,-1.687055 -3.694426 0.8782645,-1.707426 -2.955492 1.104595,-1.734095 -2.317914 1.292509,-1.305276 -5.073123 0.679377,-1.147764 -4.239759 0.8865666,-1.042362 -3.705697 1.053489,-0.9663401 -3.175586 1.205684,-8.795008 -7.148894 -0.1324523,-8.184587 -6.863252 0.1350378,-7.670708 -6.268829 0.3706687,-7.308912 -5.680676 0.6327745,-6.945832 -5.34452 0.9089906,-8.117776 -4.505091 0.1313507,-8.010145 -3.363172 0.3179157,-7.96063 -2.669122 0.4948002,-7.920122 -2.05149 0.6212494,-8.491929 -4.344839 0.1948931,-8.408892 -3.040473 0.3610123,-8.352292 -2.205018 0.5877934,-8.305457 -1.497448 0.785066,-8.853525 -4.422904 0.2780594,-8.806626 -3.179678 0.4372841,-8.759711 -2.404537 0.6187055,-8.702078 -1.752841 0.7499668,-9.215616 -4.712497 0.3858798,-9.278802 -3.756884 0.5513316,-9.291763 -3.126799 0.6798357,-9.27808 -2.529496 0.7671462,4.110,1 0
-1.686675 -7.514637 0.1557446,-2.272314 -7.345127 0.6028802,-2.806481 -6.739469 0.8348236,-3.183442 -6.162687 1.019019,-3.491858 -5.811605 1.204298,-2.405675 -5.024173 0.6423699,-2.599093 -3.972123 0.8841959,-2.685974 -3.313144 1.086235,-2.740462 -2.683716 1.258946,-2.035073 -4.798976 0.598261,-2.123615 -3.594957 0.8464528,-2.123615 -3.594957 0.8464528,-2.182901 -2.124026 1.290744,-1.671426 -4.827959 0.6049993,-1.679765 -3.703092 0.8461943,-1.70137 -2.978776 1.075022,-1.72891 -2.350614 1.264945,-1.30368 -5.07578 0.6463007,-1.138884 -4.244474 0.84804,-1.031186 -3.709691 1.021353,-0.9555988 -3.178949 1.177961,-8.793575 -7.143298 -0.1438943,-8.19383 -6.860452 0.1096187,-7.681648 -6.267524 0.3449489,-7.315241 -5.691091 0.6103538,-6.955883 -5.351213 0.8921661,-8.124415 -4.494433 0.07719323,-8.018595 -3.359523 0.2457602,-7.969796 -2.670545 0.4191232,-7.926805 -2.061265 0.548944,-8.490524 -4.339269 0.1541526,-8.408892 -3.036973 0.3105608,-8.354135 -2.202648 0.5345507,-8.309678 -1.501784 0.7288586,-8.846903 -4.42184 0.2510686,-8.804597 -3.184848 0.4035724,-8.759858 -2.411151 0.5848957,-8.705344 -1.764381 0.7154735,-9.204117 -4.716231 0.3720171,-9.277087 -3.768366 0.5334547,-9.296535 -3.142198 0.6634482,-9.290205 -2.555895 0.7475726,4.210,1 0
-1.689383 -7.515876 0.1171685,-2.279724 -7.360582 0.5503653,-2.81323 -6.743732 0.7672807,-3.184801 -6.161024 0.938355,-3.492256 -5.825931 1.107208,-2.41458 -5.034546 0.5886045,-2.603532 -3.992521 0.8341563,-2.691115 -3.334145 1.031451,-2.748469 -2.71291 1.192121,-2.041532 -4.810752 0.5520095,-2.129834 -3.616739 0.8091331,-2.129834 -3.616739 0.8091331,-2.189798 -2.140909 1.244939,-1.674693 -4.841377 0.5656812,-1.679149 -3.721462 0.8183979,-1.700281 -2.988662 1.045338,-1.726555 -2.354481 1.234264,-1.302094 -5.087018 0.6134483,-1.147364 -4.259229 0.8264951,-1.043041 -3.721128 1.002076,-0.9683309 -3.184701 1.163576,-8.799176 -7.153883 -0.1549185,-8.197708 -6.883464 0.1205085,-7.676823 -6.283213 0.3510372,-7.305798 -5.697821 0.606687,-6.945026 -5.356569 0.8745403,-8.121348 -4.512998 0.1152479,-8.015436 -3.365463 0.2965793,-7.970454 -2.672222 0.4661771,-7.933808 -2.054856 0.5845933,-8.493599 -4.357481 0.1797918,-8.41325 -3.048182 0.3476046,-8.360038 -2.213386 0.5731585,-8.315867 -1.511976 0.7636908,-8.854795 -4.438436 0.2628875,-8.812428 -3.201656 0.4344006,-8.768862 -2.429183 0.6250255,-8.712639 -1.785684 0.7559983,-9.215555 -4.728008 0.3704622,-9.279643 -3.772147 0.5535317,-9.29639 -3.143421 0.6914422,-9.284318 -2.554084 0.7761699,4.310,1 0
-1.67996 -7.529638 0.1330771,-2.272172 -7.370063 0.570021,-2.805874 -6.759673 0.7932931,-3.178974 -6.181407 0.9690323,-3.486221 -5.826485 1.145083,-2.412509 -5.045528 0.604648,-2.596638 -3.996453 0.8485814,-2.685288 -3.332716 1.055412,-2.741487 -2.704937 1.229381,-2.040926 -4.821245 0.5693606,-2.125447 -3.633393 0.8256481,-2.125447 -3.633393 0.8256481,-2.187477 -2.145704 1.273517,-1.674317 -4.852531 0.5862243,-1.68197 -3.741206 0.8407097,-1.702933 -3.006072 1.081809,-1.729274 -2.370376 1.278892,-1.301632 -5.100931 0.6355181,-1.150065 -4.27817 0.848067,-1.047166 -3.735319 1.028649,-0.9744234 -3.196563 1.191133,-8.796473 -7.144186 -0.1783075,-8.190849 -6.869322 0.07216367,-7.672596 -6.278151 0.2949984,-7.306427 -5.694993 0.5498191,-6.95493 -5.343512 0.8166964,-8.12021 -4.509466 0.05197367,-8.007383 -3.369415 0.2273644,-7.953215 -2.674641 0.3982692,-7.908965 -2.052051 0.521783,-8.487804 -4.351659 0.1283462,-8.403181 -3.048339 0.2852115,-8.346094 -2.214801 0.5072188,-8.300776 -1.512185 0.696162,-8.84345 -4.429883 0.2242815,-8.799528 -3.18754 0.3816252,-8.750908 -2.414542 0.563978,-8.693847 -1.768726 0.6944321,-9.199499 -4.71639 0.344725,-9.26883 -3.759917 0.5143856,-9.283173 -3.126341 0.647343,-9.271304 -2.533309 0.7280923,4.410,1 0
-1.674932 -7.533916 0.1295718,-2.262892 -7.364337 0.5536144,-2.798642 -6.742708 0.769898,-3.174433 -6.159427 0.9467978,-3.482118 -5.803597 1.128183,-2.404462 -5.039089 0.5721171,-2.59093 -3.991761 0.8154461,-2.677926 -3.327369 1.015099,-2.732535 -2.70071 1.179802,-2.032895 -4.822865 0.5450046,-2.119028 -3.625978 0.7938381,-2.119028 -3.625978 0.7938381,-2.17336 -2.143405 1.220207,-1.668589 -4.857966 0.5713192,-1.677341 -3.735782 0.818649,-1.698327 -2.991767 1.048587,-1.722971 -2.352576 1.235252,-1.297959 -5.11112 0.63158,-1.145607 -4.280435 0.8364432,-1.045726 -3.740313 1.013664,-0.9748182 -3.203708 1.16957,-8.78565 -7.1484 -0.1563602,-8.187066 -6.874968 0.1051881,-7.670684 -6.272453 0.3361353,-7.305447 -5.680283 0.5969331,-6.937346 -5.339195 0.8740599,-8.115959 -4.505388 0.09259546,-8.005128 -3.363771 0.2747884,-7.949548 -2.677182 0.4458482,-7.905102 -2.062571 0.5687367,-8.484654 -4.349941 0.1615401,-8.403252 -3.048678 0.3262632,-8.345826 -2.209186 0.5538635,-8.299894 -1.49509 0.7466075,-8.841426 -4.428133 0.2496813,-8.801843 -3.189784 0.4104902,-8.75903 -2.413484 0.5902443,-8.70701 -1.760452 0.7185169,-9.199719 -4.711792 0.362847,-9.266516 -3.752033 0.5270021,-9.284679 -3.113945 0.6565729,-9.276973 -2.511614 0.7391921,4.510,1 0
-1.677723 -7.529886 0.1250752,-2.26506 -7.367309 0.5666167,-2.789649 -6.73694 0.7910951,-3.155039 -6.151038 0.9681598,-3.471607 -5.827641 1.151461,-2.406056 -5.045402 0.6198284,-2.590289 -3.99345 0.8798204,-2.674712 -3.329044 1.092505,-2.728695 -2.698698 1.2621,-2.030394 -4.826123 0.5819933,-2.11653 -3.621942 0.8549226,-2.11653 -3.621942 0.8549226,-2.179449 -2.138419 1.30254,-1.663124 -4.86326 0.5959505,-1.668745 -3.737726 0.8660832,-1.689296 -3.008655 1.101871,-1.715927 -2.373595 1.295315,-1.293665 -5.119321 0.6439813,-1.138503 -4.295867 0.8651135,-1.035459 -3.760829 1.04484,-0.963851 -3.221329 1.206114,-8.790012 -7.148792 -0.1391401,-8.193671 -6.874352 0.1163788,-7.676986 -6.276443 0.3387434,-7.312393 -5.690685 0.5940436,-6.95049 -5.349716 0.8668263,-8.114613 -4.501835 0.07651323,-8.006493 -3.369779 0.2543661,-7.958479 -2.679153 0.4286692,-7.917773 -2.061627 0.5547876,-8.486041 -4.342553 0.1499082,-8.403125 -3.048388 0.2996359,-8.346349 -2.215529 0.5208549,-8.297153 -1.508355 0.7128568,-8.845751 -4.419032 0.2445691,-8.802028 -3.189632 0.3928108,-8.758224 -2.422981 0.5661662,-8.703148 -1.779871 0.6896855,-9.207614 -4.705371 0.3670346,-9.269665 -3.752112 0.5279086,-9.282043 -3.119836 0.6527838,-9.266512 -2.523108 0.7291276,4.610,1 0
-1.679529 -7.534167 0.1705794,-2.259661 -7.38072 0.5911006,-2.782633 -6.728838 0.7995496,-3.141529 -6.128294 0.9724512,-3.46003 -5.768442 1.152219,-2.40448 -5.027086 0.595277,-2.586344 -3.977802 0.8344596,-2.673205 -3.316154 1.034195,-2.727777 -2.684971 1.199254,-2.03365 -4.808593 0.5719476,-2.111804 -3.618487 0.8152885,-2.111804 -3.618487 0.8152885,-2.169115 -2.150089 1.250761,-1.670045 -4.845447 0.6045252,-1.670875 -3.736216 0.844171,-1.694035 -3.005891 1.07812,-1.72072 -2.368322 1.277994,-1.30099 -5.102668 0.6712149,-1.155602 -4.278423 0.8756418,-1.062515 -3.738585 1.053349,-0.9966049 -3.202528 1.218406,-8.793278 -7.161685 -0.1232647,-8.188771 -6.889552 0.1264112,-7.676107 -6.2814 0.3440208,-7.31423 -5.681957 0.5907229,-6.949654 -5.34193 0.8539439,-8.115821 -4.507804 0.08506988,-8.009935 -3.377182 0.2459404,-7.958461 -2.68168 0.4144762,-7.916446 -2.063634 0.5419014,-8.483627 -4.350474 0.155784,-8.407137 -3.056839 0.2994289,-8.348991 -2.21821 0.5147389,-8.300919 -1.509853 0.7058288,-8.840632 -4.42584 0.2472166,-8.800429 -3.189593 0.3901061,-8.753411 -2.417212 0.5586296,-8.698325 -1.769989 0.68107,-9.199143 -4.709978 0.364985,-9.265053 -3.759592 0.515843,-9.281225 -3.124523 0.6367036,-9.274478 -2.526598 0.7162431,4.710,1 0
-1.676238 -7.543861 0.1845048,-2.262744 -7.352921 0.6340057,-2.769247 -6.695526 0.8630344,-3.085048 -6.034862 1.049417,-3.388767 -5.614454 1.235479,-2.398228 -5.01548 0.6263997,-2.580378 -3.964531 0.8589032,-2.658764 -3.307903 1.056438,-2.706507 -2.667706 1.221922,-2.021844 -4.813072 0.5854629,-2.101819 -3.621173 0.8248955,-2.101819 -3.621173 0.8248955,-2.132905 -2.187065 1.258001,-1.664006 -4.861484 0.6081235,-1.671137 -3.749565 0.8378319,-1.684229 -3.022198 1.088406,-1.703174 -2.378729 1.305193,-1.305275 -5.126901 0.6670682,-1.184375 -4.29323 0.8656681,-1.110795 -3.763576 1.058784,-1.069942 -3.241064 1.239148,-8.772424 -7.159373 -0.1286171,-8.175522 -6.882419 0.1082906,-7.667217 -6.275812 0.3265057,-7.312737 -5.684408 0.5784531,-6.958358 -5.333379 0.8437593,-8.120197 -4.501652 0.07912894,-8.017941 -3.372278 0.2457727,-7.969047 -2.681655 0.4197907,-7.929018 -2.070664 0.5497711,-8.490511 -4.347417 0.1566225,-8.409822 -3.052287 0.3011228,-8.355968 -2.212357 0.5235953,-8.309856 -1.511755 0.7156023,-8.848524 -4.431018 0.2517094,-8.804288 -3.192293 0.3926837,-8.763756 -2.412168 0.569,-8.711798 -1.762986 0.6981795,-9.206066 -4.725362 0.3695877,-9.274884 -3.769104 0.5220085,-9.293689 -3.131164 0.6459073,-9.286071 -2.539011 0.7250099,4.810,1 0
-1.66458 -7.577469 0.21706,-2.249485 -7.37372 0.6734527,-2.751924 -6.705347 0.9049827,-3.061966 -6.026774 1.095136,-3.358166 -5.578937 1.285121,-2.387207 -5.036352 0.647445,-2.576161 -3.973442 0.8653768,-2.655664 -3.309053 1.0504,-2.701657 -2.669137 1.207777,-2.016437 -4.83489 0.5958833,-2.099114 -3.644626 0.8112102,-2.099114 -3.644626 0.8112102,-2.123168 -2.229982 1.21295,-1.662529 -4.879031 0.613271,-1.674042 -3.775418 0.8271662,-1.685609 -3.049041 1.071474,-1.703196 -2.401348 1.280318,-1.308146 -5.1366 0.6673328,-1.194876 -4.316005 0.8550864,-1.119725 -3.801721 1.035834,-1.073113 -3.297922 1.199564,-8.807101 -7.175754 -0.0995271,-8.205475 -6.909121 0.1554581,-7.689289 -6.312961 0.3814821,-7.322096 -5.724244 0.6415407,-6.965693 -5.37281 0.9161838,-8.129624 -4.523571 0.1007496,-8.018044 -3.394626 0.2637007,-7.9694 -2.707588 0.4298729,-7.930385 -2.092001 0.5482206,-8.498035 -4.357143 0.1746909,-8.416723 -3.065299 0.321961,-8.361036 -2.237767 0.5471841,-8.315287 -1.539213 0.7342356,-8.858479 -4.43181 0.271181,-8.812411 -3.19526 0.4224368,-8.764677 -2.420026 0.6119382,-8.706523 -1.76942 0.7425813,-9.220695 -4.722045 0.3920629,-9.286767 -3.765849 0.5652589,-9.295513 -3.132595 0.704262,-9.275505 -2.540093 0.7901875,4.910,1 0
-1.656045 -7.628843 0.2782863,-2.243395 -7.394144 0.7978963,-2.736418 -6.710975 1.055141,-2.989878 -6.008588 1.291164,-3.280312 -5.48545 1.539937,-2.40293 -5.022884 0.6848029,-2.589282 -4.006538 0.9351013,-2.664059 -3.384306 1.144336,-2.716865 -2.738351 1.325978,-2.00545 -4.86503 0.6341115,-2.067008 -3.811496 0.8895265,-2.067008 -3.811496 0.8895265,-2.069952 -2.685483 1.318682,-1.646287 -4.934974 0.6666951,-1.635278 -3.943538 0.9320402,-1.636983 -3.333871 1.250641,-1.65466 -2.792996 1.485331,-1.300488 -5.204783 0.7448562,-1.214853 -4.458453 0.9940558,-1.186992 -4.006397 1.227699,-1.186573 -3.560005 1.415429,-8.792749 -7.201231 -0.04772433,-8.193731 -6.918993 0.1872192,-7.681626 -6.307926 0.4001313,-7.318095 -5.714551 0.6509714,-6.961323 -5.366051 0.9186409,-8.124213 -4.520552 0.121956,-8.013344 -3.396531 0.2640373,-7.963668 -2.711211 0.4250506,-7.923361 -2.098346 0.5469142,-8.491264 -4.364844 0.205007,-8.409174 -3.080812 0.324848,-8.354037 -2.249835 0.5384054,-8.308529 -1.552289 0.7240476,-8.848349 -4.446729 0.3097952,-8.804858 -3.219177 0.4393645,-8.757623 -2.445995 0.6215044,-8.699365 -1.795188 0.7531723,-9.206939 -4.739756 0.4385635,-9.275213 -3.788463 0.5975802,-9.286449 -3.155804 0.7257384,-9.271538 -2.562865 0.8045378,5.010,1 0
-1.611624 -7.604156 0.2441557,-2.224202 -7.373406 0.8270758,-2.722158 -6.678094 1.088997,-2.948027 -5.950387 1.325766,-3.17638 -5.317796 1.562351,-2.403919 -4.973444 0.5073884,-2.574533 -4.043051 0.6794291,-2.665654 -3.480327 0.9096815,-2.72155 -2.917763 1.140321,-2.008193 -4.838667 0.411091,-2.062378 -3.969682 0.6641948,-2.062378 -3.969682 0.6641948,-2.007355 -3.517296 1.249852,-1.644309 -4.928349 0.4011506,-1.65244 -4.153483 0.6307667,-1.639069 -3.796464 0.9984334,-1.635309 -3.668397 1.293824,-1.285659 -5.177675 0.4523502,-1.249123 -4.5459 0.694343,-1.243386 -4.294008 0.9681612,-1.252697 -4.190802 1.215929,-8.780284 -7.211492 -0.05184783,-8.179259 -6.926651 0.1737593,-7.671265 -6.322108 0.3894165,-7.315591 -5.727924 0.6428275,-6.958177 -5.387853 0.9159852,-8.113625 -4.536584 0.1290804,-8.006161 -3.410351 0.2808456,-7.959818 -2.72462 0.4417956,-7.920075 -2.106842 0.5600432,-8.485355 -4.376814 0.2140847,-8.403152 -3.09292 0.3524669,-8.351034 -2.260488 0.5769613,-8.307845 -1.561386 0.7696227,-8.847762 -4.459028 0.3188887,-8.800282 -3.229171 0.4561604,-8.753888 -2.453573 0.6378065,-8.698386 -1.807746 0.7672381,-9.211791 -4.756977 0.4454035,-9.275535 -3.802623 0.6076534,-9.287827 -3.16669 0.7370721,-9.274386 -2.571269 0.8181674,5.110,1 0
-1.632551 -7.605809 -0.1971209,-2.214205 -7.34066 0.3608893,-2.644185 -6.642663 0.7265459,-2.84134 -5.884228 1.05004,-2.936736 -5.213535 1.369015,-2.450518 -5.175735 0.4308728,-2.588026 -4.447809 0.9605325,-2.66099 -3.980197 1.349264,-2.719468 -3.479918 1.591063,-2.048885 -5.039339 0.4212661,-2.018871 -4.563472 1.204334,-2.018871 -4.563472 1.204334,-2.00388 -5.94795 1.513195,-1.647038 -5.111513 0.4691209,-1.568805 -4.685525 1.129803,-1.648197 -5.619833 1.157798,-1.685865 -6.059652 1.043671,-1.268011 -5.350309 0.5758492,-1.175081 -4.879175 1.021105,-1.280004 -5.512851 1.059696,-1.358099 -5.910281 0.996966,-8.779227 -7.235214 -0.1130221,-8.170073 -6.965314 0.1417107,-7.661364 -6.353189 0.3757469,-7.302624 -5.749071 0.6468456,-6.942729 -5.393724 0.9373544,-8.110806 -4.580506 0.09215592,-8.001872 -3.454533 0.2670872,-7.954902 -2.761216 0.449118,-7.918564 -2.13536 0.582424,-8.480868 -4.420875 0.1765546,-8.407242 -3.132534 0.3233578,-8.353597 -2.29163 0.55239,-8.308533 -1.584391 0.7499244,-8.841589 -4.497162 0.2850422,-8.798595 -3.256444 0.4345743,-8.750521 -2.471057 0.6253241,-8.695883 -1.82163 0.7622036,-9.209167 -4.785341 0.4195806,-9.274512 -3.816617 0.5878602,-9.29303 -3.159545 0.7156508,-9.289104 -2.549298 0.7981913,5.210,1 0
-1.649313 -7.501985 -0.5099542,-2.209104 -7.29914 0.08445871,-2.646581 -6.568299 0.4487615,-2.829481 -5.797384 0.7687572,-2.887963 -5.136968 1.076373,-2.457068 -5.167846 0.09069365,-2.623527 -4.483728 0.6685743,-2.70624 -4.030471 1.089405,-2.775898 -3.547695 1.350012,-2.061484 -5.019638 0.07382566,-2.053811 -4.560468 0.9236718,-2.053811 -4.560468 0.9236718,-2.030859 -6.073659 1.177614,-1.655906 -5.083889 0.135188,-1.605521 -4.669652 0.8648959,-1.685432 -5.671175 0.9062312,-1.716759 -6.180461 0.7860621,-1.26832 -5.309095 0.2482159,-1.188929 -4.852382 0.7257549,-1.307116 -5.546895 0.7579477,-1.395326 -6.005559 0.6941324,-8.785007 -7.226863 -0.1551356,-8.176593 -6.949638 0.07969676,-7.670078 -6.343902 0.298188,-7.310443 -5.748293 0.5495548,-6.952651 -5.402778 0.8229259,-8.119659 -4.580591 0.04297182,-8.006386 -3.44094 0.2035128,-7.95734 -2.747112 0.3663974,-7.922428 -2.132074 0.4855455,-8.489038 -4.423566 0.1259415,-8.404515 -3.116071 0.2691188,-8.348989 -2.268569 0.4814153,-8.303709 -1.5597 0.66597,-8.848307 -4.504898 0.2257138,-8.797707 -3.245965 0.3717114,-8.748216 -2.448377 0.5531377,-8.694262 -1.780599 0.6880089,-9.212819 -4.796714 0.3497859,-9.269218 -3.815777 0.5116893,-9.282427 -3.160312 0.6465526,-9.274144 -2.550045 0.7354181,5.310,1 0
-1.706709 -7.389266 -0.8742191,-2.217659 -7.245605 -0.23033,-2.64717 -6.534021 0.1548626,-2.821691 -5.800461 0.4825932,-2.921093 -5.117307 0.8068213,-2.460704 -5.166791 -0.1979329,-2.645158 -4.531524 0.4564028,-2.734036 -4.083997 0.9234964,-2.811714 -3.636771 1.235232,-2.0723 -5.02283 -0.2319157,-2.114455 -4.559075 0.6546626,-2.114455 -4.559075 0.6546626,-2.064909 -6.223762 0.879046,-1.663284 -5.081556 -0.1699321,-1.646517 -4.644643 0.6209687,-1.714969 -5.687116 0.6549788,-1.735817 -6.279505 0.5459163,-1.256436 -5.296869 -0.05641353,-1.197542 -4.852352 0.4639626,-1.326333 -5.575428 0.5050747,-1.420644 -6.074371 0.4608546,-8.797018 -7.229944 -0.1113403,-8.186183 -6.95018 0.1635569,-7.674535 -6.355299 0.4086012,-7.311958 -5.754165 0.6823121,-6.948074 -5.38898 0.9761133,-8.114604 -4.580738 0.1327233,-8.009596 -3.445852 0.3152336,-7.965474 -2.758021 0.4931734,-7.930449 -2.142553 0.6165693,-8.484921 -4.419473 0.2047659,-8.410493 -3.126476 0.3595892,-8.356278 -2.294675 0.5846986,-8.308497 -1.593462 0.7734123,-8.84653 -4.498128 0.3015969,-8.805589 -3.251181 0.4643252,-8.760637 -2.471796 0.6642863,-8.70546 -1.818811 0.8028405,-9.214094 -4.787957 0.4214503,-9.279963 -3.81605 0.6015527,-9.295871 -3.162766 0.7467324,-9.286171 -2.55359 0.8368803,5.410,1 0
-1.725923 -7.333038 -1.0016,-2.231387 -7.27362 -0.2233725,-2.671337 -6.589501 0.2246608,-2.852843 -5.869768 0.5743934,-2.992843 -5.146406 0.9333364,-2.489142 -5.225444 -0.08189857,-2.673385 -4.699024 0.7196894,-2.759901 -4.293398 1.277337,-2.839931 -3.874267 1.63559,-2.0882 -5.061597 -0.17888,-2.17366 -4.654951 0.7995348,-2.17366 -4.654951 0.7995348,-2.09797 -6.331937 0.9157798,-1.658629 -5.111424 -0.1576418,-1.679044 -4.776141 0.7622476,-1.735191 -5.86613 0.7239374,-1.757981 -6.42699 0.522613,-1.23256 -5.307477 -0.08285314,-1.219929 -4.90904 0.5303007,-1.348929 -5.67597 0.5392008,-1.435917 -6.147193 0.4260544,-8.819363 -7.25702 -0.1093089,-8.211683 -6.9978 0.1445248,-7.695459 -6.395536 0.3659911,-7.329358 -5.794796 0.6160832,-6.964991 -5.433215 0.8817707,-8.130209 -4.612388 0.1219296,-8.025588 -3.464014 0.2870269,-7.982324 -2.766002 0.4455344,-7.950888 -2.149959 0.5558413,-8.501689 -4.444045 0.1837109,-8.421894 -3.144704 0.3348987,-8.367462 -2.305805 0.5531352,-8.322627 -1.597697 0.742338,-8.865477 -4.519315 0.2643115,-8.815797 -3.275036 0.4172221,-8.766532 -2.493408 0.597679,-8.708481 -1.840165 0.7262794,-9.231039 -4.811479 0.3648852,-9.302694 -3.836347 0.5276564,-9.323304 -3.195645 0.662235,-9.316396 -2.593715 0.7499657,5.510,1 0
-1.724028 -7.34081 -1.227885,-2.230238 -7.313804 -0.4058293,-2.692631 -6.672414 0.06185865,-2.880387 -5.960336 0.4167454,-2.98098 -5.228555 0.7691482,-2.49613 -5.332052 -0.2473552,-2.682057 -4.802845 0.5867939,-2.780147 -4.418611 1.142177,-2.87657 -4.018512 1.488295,-2.094611 -5.158064 -0.3593754,-2.154531 -4.720014 0.6492593,-2.154531 -4.720014 0.6492593,-2.089873 -6.391232 0.716676,-1.663933 -5.193847 -0.3439831,-1.664577 -4.832693 0.599084,-1.712728 -5.927033 0.5449051,-1.739884 -6.492668 0.3272036,-1.238566 -5.376844 -0.2729932,-1.217769 -4.968835 0.3449004,-1.3329 -5.729908 0.3443989,-1.419361 -6.214437 0.2241244,-8.800244 -7.246327 -0.1276935,-8.197822 -6.960616 0.1262057,-7.691466 -6.351206 0.3541884,-7.3274 -5.758002 0.6114787,-6.949662 -5.419957 0.8916292,-8.145149 -4.592903 0.06560764,-8.026434 -3.454931 0.2177548,-7.976526 -2.760877 0.3760506,-7.938192 -2.144881 0.494487,-8.511583 -4.433162 0.1412157,-8.421776 -3.124767 0.2773832,-8.370855 -2.284057 0.4956342,-8.329995 -1.586066 0.6928135,-8.870699 -4.516809 0.2398531,-8.81631 -3.266554 0.3785452,-8.77351 -2.472515 0.5696042,-8.72488 -1.812255 0.7154552,-9.237495 -4.818763 0.3636383,-9.304587 -3.851299 0.5289166,-9.328834 -3.212105 0.6761959,-9.329386 -2.626396 0.7809139,5.610,1 0
-1.586895 -7.405751 -1.081676,-2.189687 -7.36464 -0.3839431,-2.714373 -6.76869 0.1357263,-2.90133 -6.06668 0.5074135,-2.926317 -5.388551 0.8496139,-2.485538 -5.771806 0.4777755,-2.621202 -5.257003 1.369662,-2.747801 -4.778907 1.878842,-2.891613 -4.278408 2.195676,-2.029028 -5.535945 0.3893143,-2.082628 -5.029079 1.267439,-2.082628 -5.029079 1.267439,-2.116652 -6.193212 1.206058,-1.559688 -5.496707 0.3595665,-1.567873 -5.10745 1.158949,-1.661664 -5.961986 0.8893234,-1.712153 -6.362554 0.60734,-1.115633 -5.587532 0.3830692,-1.13343 -5.228652 0.9182082,-1.27002 -5.881109 0.8066921,-1.353132 -6.254219 0.6566653,-8.80186 -7.27003 -0.0425596,-8.20318 -6.974236 0.227093,-7.697043 -6.354988 0.4767833,-7.331398 -5.758875 0.7593151,-6.959933 -5.409343 1.076018,-8.146846 -4.586835 0.1743429,-8.034839 -3.465616 0.3480703,-7.989433 -2.780869 0.5277128,-7.953777 -2.163599 0.656507,-8.514714 -4.435724 0.2617038,-8.440434 -3.141419 0.410998,-8.391615 -2.306562 0.6343085,-8.350954 -1.610691 0.8235511,-8.876287 -4.524663 0.3771678,-8.833426 -3.283262 0.5328572,-8.785419 -2.50286 0.7211539,-8.728163 -1.859094 0.8542092,-9.247675 -4.826938 0.5214623,-9.305999 -3.854064 0.7054718,-9.319271 -3.203351 0.8413316,-9.30959 -2.600286 0.9255601,5.710,1 0
-1.59977 -7.631179 -1.467276,-2.249664 -7.356807 -0.8989035,-2.740764 -6.809972 -0.3016056,-2.926233 -6.154565 0.1379743,-2.938073 -5.480127 0.5190253,-2.465632 -6.521335 0.4563197,-2.583841 -5.71623 1.361596,-2.760633 -5.080661 1.797144,-2.948195 -4.532262 2.087504,-1.985982 -6.34585 0.412215,-2.058317 -5.268569 1.233131,-2.058317 -5.268569 1.233131,-2.171618 -5.532793 1.168686,-1.521104 -6.227312 0.3879764,-1.546369 -5.162516 1.099128,-1.6921 -5.434333 0.8338287,-1.76983 -5.762926 0.6065464,-1.092996 -6.181396 0.4025947,-1.067104 -5.209987 0.8626165,-1.255699 -5.473071 0.8016789,-1.39242 -5.88166 0.7166867,-8.817707 -7.277836 -0.07837437,-8.206107 -6.982804 0.1728033,-7.695362 -6.368709 0.4008725,-7.327279 -5.765758 0.6624874,-6.950074 -5.417537 0.9547001,-8.14258 -4.612581 0.116949,-8.030029 -3.484057 0.2849803,-7.983202 -2.792676 0.4596864,-7.94805 -2.170202 0.5857122,-8.513072 -4.453189 0.2014597,-8.433921 -3.155612 0.3510918,-8.383989 -2.32367 0.5776389,-8.34308 -1.625452 0.7699323,-8.876133 -4.534095 0.3103468,-8.827856 -3.281991 0.4627051,-8.779419 -2.504056 0.6548272,-8.725493 -1.856452 0.7916358,-9.248279 -4.827896 0.4435729,-9.306495 -3.847784 0.6235605,-9.320654 -3.193326 0.7641988,-9.314281 -2.58533 0.8548431,5.810,1 0
-1.604948 -7.63988 -1.670432,-2.228216 -7.33777 -1.074951,-2.712875 -6.876031 -0.4453938,-2.920102 -6.281162 0.03031957,-2.936512 -5.651691 0.4414998,-2.409398 -6.66282 0.284531,-2.534252 -5.909936 1.202189,-2.731099 -5.294542 1.647921,-2.939548 -4.727529 1.948828,-1.945693 -6.506742 0.2451105,-1.998624 -5.497678 1.177913,-1.998624 -5.497678 1.177913,-2.171368 -5.246732 1.398148,-1.495802 -6.357076 0.2071179,-1.505102 -5.353742 0.9839557,-1.667459 -5.404703 0.8920928,-1.764563 -5.551013 0.7699236,-1.083904 -6.260786 0.20689,-1.055982 -5.349901 0.717564,-1.243173 -5.509878 0.7462238,-1.377302 -5.818017 0.7136303,-8.798609 -7.26744 -0.1001215,-8.194336 -6.979806 0.150762,-7.692124 -6.366898 0.3838682,-7.331935 -5.772783 0.6474205,-6.958106 -5.432108 0.9425436,-8.14181 -4.597307 0.1018677,-8.031416 -3.459444 0.2639495,-7.986164 -2.769243 0.4288688,-7.950676 -2.155622 0.5474029,-8.511667 -4.447893 0.1864783,-8.431153 -3.135542 0.3314362,-8.381207 -2.289538 0.5507944,-8.337669 -1.590017 0.7404132,-8.874066 -4.542298 0.293808,-8.826562 -3.282154 0.4444057,-8.7813 -2.48765 0.6388161,-8.729187 -1.830631 0.77854,-9.242626 -4.852695 0.4266749,-9.305906 -3.875874 0.6011086,-9.325658 -3.226347 0.7454578,-9.322945 -2.62726 0.8440409,5.910,1 0
-1.635085 -7.705986 -1.522066,-2.28466 -7.430215 -0.9570084,-2.772505 -6.944353 -0.3093078,-2.958105 -6.340707 0.1897035,-2.863019 -5.783052 0.611581,-2.397543 -6.69753 0.4625651,-2.481328 -5.931287 1.405353,-2.653331 -5.346698 1.817083,-2.835555 -4.893739 2.051548,-1.927812 -6.55894 0.4429398,-1.927887 -5.494442 1.363098,-1.927887 -5.494442 1.363098,-2.144546 -5.328802 1.39344,-1.470305 -6.439103 0.424296,-1.43652 -5.36691 1.152801,-1.628719 -5.410602 0.962876,-1.752494 -5.610749 0.7603403,-1.052542 -6.383852 0.4520235,-0.979373 -5.408691 0.9479834,-1.158625 -5.517052 0.9691745,-1.299455 -5.834213 0.9121493,-8.812342 -7.269496 -0.06677968,-8.206755 -7.00271 0.1672078,-7.694991 -6.3897 0.3906748,-7.333204 -5.791084 0.6505302,-6.974582 -5.440189 0.9313428,-8.148841 -4.595554 0.1135226,-8.044147 -3.456817 0.2701439,-7.999332 -2.763092 0.4380066,-7.964787 -2.147174 0.5597243,-8.519647 -4.439291 0.203168,-8.445708 -3.132187 0.3410019,-8.394512 -2.291451 0.5601599,-8.352457 -1.593143 0.7491824,-8.882122 -4.528938 0.3137354,-8.835922 -3.267636 0.4547608,-8.784835 -2.479501 0.6399084,-8.72765 -1.824283 0.7777054,-9.24815 -4.836419 0.4486563,-9.316693 -3.851073 0.6121532,-9.332571 -3.19908 0.7486029,-9.324265 -2.594118 0.839008,6.010,1 0
-1.612416 -7.799716 -1.064045,-2.238513 -7.48277 -0.5185096,-2.731853 -6.99462 0.134109,-2.915165 -6.424204 0.6300691,-2.76621 -5.904146 1.038443,-2.360982 -6.631061 0.9676253,-2.42492 -5.957763 1.91161,-2.574835 -5.422657 2.256455,-2.743037 -4.997027 2.453355,-1.871574 -6.491665 0.9613823,-1.804653 -5.57093 1.893053,-1.804653 -5.57093 1.893053,-2.06039 -5.472349 1.914769,-1.391787 -6.392704 0.9451891,-1.312867 -5.496812 1.662755,-1.518298 -5.685848 1.368308,-1.664244 -5.882337 1.101693,-0.9644542 -6.384704 0.971362,-0.871172 -5.576063 1.462572,-1.067049 -5.811901 1.408034,-1.232427 -6.111366 1.29085,-8.820625 -7.252693 -0.09659009,-8.210505 -6.986228 0.1403478,-7.699799 -6.383201 0.3675658,-7.337976 -5.789251 0.6271027,-6.980071 -5.453509 0.9064193,-8.156217 -4.579586 0.1098427,-8.045688 -3.430068 0.2692866,-8.002001 -2.740978 0.4310012,-7.960725 -2.14478 0.510823,-8.526041 -4.430089 0.1606755,-8.448637 -3.123699 0.2935837,-8.397121 -2.288634 0.5083075,-8.355598 -1.596319 0.6909033,-8.88683 -4.520203 0.2766157,-8.843306 -3.265075 0.4144642,-8.795838 -2.478938 0.6022875,-8.740764 -1.825853 0.7401256,-9.251925 -4.825605 0.414194,-9.322731 -3.846117 0.5795361,-9.33986 -3.193519 0.7206906,-9.331713 -2.588454 0.8146976,6.110,1 0
-1.535003 -7.730094 -0.9650558,-2.192202 -7.41875 -0.3820347,-2.737814 -6.952016 0.2849301,-2.920305 -6.365676 0.7904392,-2.695261 -5.837492 1.177619,-2.342247 -6.665302 1.178209,-2.407638 -5.984687 2.139003,-2.512612 -5.496742 2.441235,-2.629455 -5.162092 2.585631,-1.833481 -6.524987 1.150848,-1.697495 -5.689206 2.072427,-1.697495 -5.689206 2.072427,-1.956214 -5.830405 1.884894,-1.33466 -6.436116 1.126015,-1.200637 -5.667737 1.832491,-1.421767 -5.903488 1.410419,-1.610005 -6.006578 1.082502,-0.9180627 -6.417796 1.143504,-0.7824993 -5.739772 1.589102,-0.9817705 -5.97849 1.433511,-1.189208 -6.178202 1.260241,-8.821733 -7.272521 -0.03765764,-8.215131 -6.998643 0.2087613,-7.702868 -6.394041 0.4354675,-7.345545 -5.787971 0.6940388,-6.988456 -5.432054 0.9696465,-8.162138 -4.597301 0.1685259,-8.053623 -3.452665 0.3284129,-8.004717 -2.752951 0.4892969,-7.965374 -2.131116 0.6054857,-8.532286 -4.434639 0.243274,-8.454648 -3.131536 0.387482,-8.403492 -2.28944 0.60708,-8.361145 -1.589086 0.798416,-8.895251 -4.523148 0.3407949,-8.848508 -3.277763 0.4832869,-8.803769 -2.487136 0.6693546,-8.750004 -1.83008 0.8067805,-9.26249 -4.832338 0.4606007,-9.33438 -3.864079 0.6260455,-9.358882 -3.219359 0.7700461,-9.357007 -2.618249 0.8680676,6.210,1 0
-1.465862 -7.831394 0.4265188,-2.136486 -7.529916 1.117623,-2.716229 -7.017651 1.833418,-2.841913 -6.433439 2.331767,-2.523094 -6.020132 2.713339,-2.326595 -6.18637 2.657228,-2.313378 -5.74893 3.5615,-2.359646 -5.529064 3.736657,-2.40199 -5.379346 3.779563,-1.774756 -5.980892 2.573144,-1.598668 -5.756056 3.472008,-1.598668 -5.756056 3.472008,-1.851565 -6.190171 3.19774,-1.231973 -6.000439 2.512186,-1.05799 -5.829302 3.259146,-1.299518 -6.284963 2.736492,-1.490118 -6.22327 2.351609,-0.786027 -6.197378 2.48605,-0.6195536 -5.972771 3.000632,-0.8149519 -6.365242 2.847157,-0.9999123 -6.430568 2.661792,-8.824938 -7.272943 -0.03639293,-8.215301 -7.00178 0.2133616,-7.702036 -6.391387 0.4467269,-7.338571 -5.791299 0.7141617,-6.978374 -5.442409 1.003318,-8.164993 -4.594347 0.1542409,-8.053736 -3.454557 0.3183505,-8.007776 -2.760447 0.48773,-7.97351 -2.140451 0.610618,-8.536895 -4.434184 0.2406516,-8.459925 -3.123908 0.3877659,-8.411324 -2.285214 0.6102732,-8.373882 -1.587021 0.7968152,-8.901186 -4.520927 0.3508092,-8.853029 -3.258653 0.5010903,-8.807766 -2.465895 0.6950858,-8.75774 -1.807549 0.838049,-9.27122 -4.826832 0.4865663,-9.337427 -3.846257 0.6614246,-9.356165 -3.19282 0.8090504,-9.352462 -2.586927 0.910226,6.310,1 1
-1.394422 -7.892953 1.313998,-2.042874 -7.677339 1.940934,-2.625831 -7.152855 2.631143,-2.779581 -6.602542 3.17747,-2.452803 -6.26984 3.66046,-2.251958 -5.693453 3.212404,-2.246377 -5.462077 4.099321,-2.270146 -5.383453 4.329037,-2.307755 -5.35456 4.362187,-1.695783 -5.431055 3.181135,-1.524879 -5.797472 4.092124,-1.524879 -5.797472 4.092124,-1.756114 -6.589286 4.01726,-1.149444 -5.53569 3.194963,-0.9851532 -5.937274 3.967017,-1.201217 -6.624986 3.57241,-1.372551 -6.650027 3.241908,-0.6888542 -5.872668 3.241338,-0.5571404 -6.109796 3.687189,-0.769527 -6.687604 3.569221,-0.9468093 -6.775293 3.41226,-8.806355 -7.273349 -0.04284467,-8.20927 -6.977799 0.1988741,-7.703295 -6.359525 0.4215373,-7.339531 -5.769676 0.6812962,-6.975811 -5.429203 0.9639072,-8.170521 -4.586721 0.1526396,-8.064031 -3.443195 0.3135356,-8.020003 -2.752085 0.4805548,-7.98825 -2.131951 0.6050037,-8.537259 -4.435586 0.2444113,-8.46535 -3.125629 0.3939403,-8.415625 -2.284491 0.623083,-8.377729 -1.584014 0.8160828,-8.897227 -4.52948 0.3575226,-8.856146 -3.276163 0.5101787,-8.810324 -2.484109 0.7127602,-8.756312 -1.826949 0.8621175,-9.261581 -4.841644 0.4948124,-9.335062 -3.869427 0.6741678,-9.353588 -3.220261 0.8273222,-9.345857 -2.614964 0.928353,6.410,1 1
-1.303876 -7.91301 1.562411,-1.993416 -7.638233 2.315722,-2.593329 -7.141506 3.056283,-2.724888 -6.656353 3.643269,-2.445157 -6.329507 4.149218,-2.148765 -5.610804 3.497642,-2.147243 -5.527921 4.484876,-2.132809 -5.603107 4.713672,-2.106825 -5.591868 4.709431,-1.541178 -5.36166 3.438037,-1.403725 -5.960638 4.491379,-1.403725 -5.960638 4.491379,-1.645497 -6.827106 4.263162,-0.9715886 -5.543126 3.47419,-0.8247185 -6.045238 4.372314,-1.078377 -6.865625 3.991557,-1.227454 -6.856992 3.642316,-0.4981737 -5.955974 3.558324,-0.3638639 -6.258098 4.028326,-0.6212616 -6.925872 3.914924,-0.7822895 -6.976773 3.753702,-8.824106 -7.251838 -0.06034493,-8.218088 -6.977054 0.2075436,-7.707882 -6.381193 0.4438633,-7.350691 -5.788102 0.7067639,-6.999986 -5.434408 0.9894193,-8.180172 -4.581663 0.1642975,-8.067565 -3.441617 0.3368308,-8.018366 -2.746846 0.5055997,-7.981194 -2.129837 0.6287195,-8.553857 -4.419569 0.2302626,-8.474648 -3.111191 0.3794918,-8.423667 -2.269594 0.5989811,-8.384238 -1.569021 0.7911705,-8.917346 -4.511261 0.3179776,-8.869175 -3.25862 0.4642015,-8.824395 -2.468495 0.6495268,-8.77333 -1.810878 0.7896037,-9.283501 -4.824411 0.4322382,-9.355868 -3.861364 0.594144,-9.378567 -3.222159 0.732403,-9.375733 -2.629553 0.8279934,6.510,1 1
-1.140141 -7.926094 1.825052,-1.841928 -7.694324 2.552789,-2.504886 -7.241277 3.317573,-2.694553 -6.712612 3.940925,-2.352494 -6.390981 4.424428,-2.008812 -5.622189 3.862245,-2.008242 -5.619606 4.850476,-2.006391 -6.020657 4.929333,-2.021854 -6.125816 4.738987,-1.414465 -5.364194 3.806879,-1.254052 -6.096763 4.807665,-1.254052 -6.096763 4.807665,-1.521912 -6.908678 4.367077,-0.8530393 -5.548444 3.851039,-0.7007313 -6.215358 4.710089,-0.9626131 -7.02996 4.288859,-1.133485 -6.974868 3.930071,-0.371408 -5.957794 3.942688,-0.2582741 -6.4234 4.348879,-0.5243397 -7.073045 4.249044,-0.7052317 -7.081069 4.1315,-8.829552 -7.258788 -0.05371498,-8.218448 -6.967715 0.2208647,-7.708235 -6.358377 0.4713729,-7.346813 -5.757493 0.7511983,-6.985351 -5.388904 1.055681,-8.175797 -4.58466 0.1775387,-8.069091 -3.448598 0.3567306,-8.022009 -2.757806 0.5380069,-7.98391 -2.139059 0.6724457,-8.546873 -4.42777 0.2552675,-8.470857 -3.121668 0.4112144,-8.420095 -2.280675 0.6442773,-8.379423 -1.574714 0.8455026,-8.907615 -4.517395 0.3583934,-8.865597 -3.270332 0.5084441,-8.817351 -2.483563 0.7040771,-8.763114 -1.831571 0.853578,-9.273973 -4.822137 0.4898743,-9.344102 -3.855861 0.6664872,-9.365763 -3.208963 0.8116725,-9.364255 -2.610039 0.9088399,6.610,1 1
-1.159151 -8.027113 1.904958,-1.87419 -7.750146 2.632323,-2.503746 -7.230459 3.382518,-2.63587 -6.718092 3.9938,-2.320994 -6.361995 4.506491,-2.026365 -5.670584 3.882503,-2.011585 -5.630228 4.876936,-1.998517 -5.693286 5.094514,-1.991591 -5.638122 5.059749,-1.405555 -5.38536 3.822163,-1.266049 -6.165208 4.864352,-1.266049 -6.165208 4.864352,-1.530864 -6.894277 4.560971,-0.8254695 -5.554409 3.865749,-0.6930065 -6.246934 4.729745,-0.9660716 -7.03774 4.30982,-1.131453 -6.922365 3.961895,-0.3365903 -5.952791 3.958535,-0.2217941 -6.387413 4.357622,-0.504528 -7.063179 4.211771,-0.6837921 -7.052 4.066881,-8.826179 -7.262526 -0.05002549,-8.227651 -6.980889 0.2287843,-7.720863 -6.372028 0.4796923,-7.364584 -5.781261 0.7597649,-7.004477 -5.423366 1.060365,-8.18296 -4.581676 0.1953456,-8.081828 -3.436245 0.3773199,-8.037771 -2.734981 0.5560682,-8.001994 -2.112542 0.6847643,-8.55635 -4.430509 0.2707171,-8.486778 -3.120697 0.4342135,-8.438257 -2.278966 0.6677051,-8.398613 -1.576051 0.8639674,-8.917441 -4.526426 0.3700576,-8.877364 -3.2679 0.5309409,-8.836164 -2.476739 0.7272282,-8.785426 -1.819829 0.8709966,-9.282306 -4.838563 0.4959061,-9.353183 -3.868959 0.6708599,-9.376551 -3.225494 0.8137913,-9.376575 -2.62895 0.9135576,6.710,1 1
-1.27491 -8.251717 1.102352,-1.95727 -7.708318 1.639873,-2.510288 -6.979176 2.258055,-2.675852 -6.234385 2.752064,-2.401419 -5.790514 3.158563,-2.129377 -5.976818 2.919611,-2.092321 -5.241973 3.724055,-2.109739 -4.853364 3.998553,-2.177444 -4.685121 4.100434,-1.572381 -5.813241 2.899685,-1.332034 -5.364766 3.632195,-1.332034 -5.364766 3.632195,-1.545818 -6.384424 3.55752,-1.046527 -5.857921 2.868731,-0.8157396 -5.461844 3.492547,-0.9925108 -6.136619 3.177071,-1.16146 -6.428862 2.934983,-0.6071153 -6.041317 2.878659,-0.391511 -5.555141 3.24381,-0.5538163 -6.108974 3.10347,-0.7328143 -6.454577 2.938219,-8.876652 -7.293985 0.007200808,-8.283367 -7.01382 0.3068983,-7.771656 -6.382107 0.5534539,-7.405156 -5.784671 0.8213237,-7.039366 -5.424739 1.115584,-8.230369 -4.610212 0.2760436,-8.128377 -3.467298 0.4682792,-8.088054 -2.772715 0.6507576,-8.056393 -2.150934 0.7816519,-8.599207 -4.448814 0.3506385,-8.530626 -3.134669 0.5236752,-8.479903 -2.289016 0.7562909,-8.438361 -1.580183 0.9504665,-8.958912 -4.532521 0.4526413,-8.92177 -3.2738 0.6250992,-8.878174 -2.482414 0.8288808,-8.82591 -1.826013 0.975796,-9.323276 -4.841184 0.582878,-9.398646 -3.872488 0.7737502,-9.420855 -3.237259 0.9256158,-9.419094 -2.658226 1.028251,6.810,1 1
-1.338439 -8.173733 -0.1924396,-2.078844 -7.528453 0.1942113,-2.569366 -6.77227 0.7440494,-2.739122 -5.937646 1.141492,-2.628081 -5.334693 1.517836,-2.086389 -6.584106 1.847885,-2.132784 -5.436384 2.574173,-2.213441 -4.655754 2.795561,-2.320403 -4.147615 2.899036,-1.563622 -6.413797 1.807969,-1.522431 -4.964517 2.368064,-1.522431 -4.964517 2.368064,-1.69134 -4.940092 1.90538,-1.091312 -6.291101 1.702638,-1.000792 -4.868133 2.119994,-1.173233 -4.985547 1.712541,-1.283388 -5.388117 1.364196,-0.7051954 -6.266323 1.623387,-0.5968418 -5.077531 1.890041,-0.7733521 -5.222922 1.712798,-0.9189196 -5.665075 1.507978,-8.889311 -7.296799 -0.015101,-8.286066 -7.00059 0.2892641,-7.77983 -6.388787 0.5433514,-7.42044 -5.80026 0.8235019,-7.051023 -5.439029 1.12356,-8.240672 -4.606637 0.2576957,-8.135563 -3.464112 0.4661521,-8.091602 -2.770382 0.6529461,-8.057549 -2.149724 0.7765597,-8.612585 -4.457616 0.3252907,-8.545758 -3.137572 0.5031033,-8.497815 -2.305736 0.74474,-8.458161 -1.601334 0.9451566,-8.97392 -4.551831 0.4212618,-8.944708 -3.296828 0.5996788,-8.909501 -2.51391 0.8117347,-8.861322 -1.853282 0.9647086,-9.337545 -4.862887 0.5432019,-9.418775 -3.903769 0.7365437,-9.442101 -3.267618 0.8923019,-9.436411 -2.672323 0.9959118,6.910,1 1
-1.514261 -7.913741 -0.1741214,-2.155425 -7.498423 0.4247252,-2.596931 -6.75848 0.9191791,-2.747738 -5.982922 1.3341,-2.715884 -5.309183 1.728455,-2.194506 -5.753036 1.24489,-2.293538 -4.927806 1.938442,-2.325648 -4.360698 2.315927,-2.340428 -3.83235 2.555549,-1.719661 -5.642675 1.232291,-1.681128 -4.82847 2.03353,-1.681128 -4.82847 2.03353,-1.738273 -4.363761 2.69057,-1.278158 -5.741901 1.243444,-1.176438 -4.976369 1.960517,-1.221893 -4.720462 2.324046,-1.27823 -4.651538 2.533792,-0.891346 -6.039735 1.267575,-0.7338591 -5.329296 1.842627,-0.759532 -5.162906 2.142967,-0.8085041 -5.141049 2.33044,-8.891525 -7.30533 -0.01441714,-8.281863 -7.015014 0.2953235,-7.774184 -6.394599 0.5562638,-7.413403 -5.795474 0.8428921,-7.047525 -5.433187 1.153108,-8.242886 -4.618895 0.2580331,-8.136789 -3.477579 0.467383,-8.099002 -2.790004 0.6588426,-8.072338 -2.168722 0.7910635,-8.61646 -4.466037 0.3280088,-8.548595 -3.153616 0.5056508,-8.504173 -2.319115 0.7438271,-8.468661 -1.607155 0.9467086,-8.977392 -4.557255 0.4269593,-8.945561 -3.302285 0.6036132,-8.906143 -2.514486 0.809863,-8.859698 -1.851367 0.9635726,-9.344133 -4.865398 0.5545107,-9.419144 -3.901037 0.7507449,-9.44589 -3.251542 0.9056333,-9.448831 -2.645057 1.011348,7.010,1 1
-1.573293 -7.672147 0.3527556,-2.210433 -7.433158 0.9892967,-2.681324 -6.629505 1.320943,-2.827923 -5.815544 1.599183,-2.889867 -5.012073 1.850534,-2.267238 -4.977379 0.8305451,-2.403541 -4.087326 1.116326,-2.432989 -3.484976 1.479979,-2.413472 -2.978143 1.764521,-1.820701 -4.879442 0.7357219,-1.837567 -4.032478 1.192353,-1.837567 -4.032478 1.192353,-1.764884 -3.619342 2.016952,-1.41699 -5.014908 0.719799,-1.399276 -4.242731 1.101432,-1.381755 -3.957199 1.539807,-1.358673 -3.972718 1.865571,-1.013324 -5.345649 0.7486206,-0.9295959 -4.643661 1.109259,-0.9113941 -4.426197 1.457633,-0.9233952 -4.468742 1.723054,-8.884281 -7.332563 -0.04358368,-8.268167 -7.034836 0.2750115,-7.757311 -6.413972 0.5378415,-7.396837 -5.810006 0.8196008,-7.027128 -5.435823 1.124983,-8.237617 -4.652813 0.2426687,-8.13306 -3.494343 0.4567036,-8.090735 -2.8005 0.6495465,-8.061783 -2.173918 0.7819739,-8.616534 -4.501425 0.3023136,-8.547968 -3.176403 0.4876631,-8.5036 -2.340136 0.7274374,-8.468071 -1.626599 0.9332983,-8.982981 -4.595006 0.3907464,-8.945785 -3.329514 0.5717235,-8.907713 -2.539026 0.7786124,-8.863476 -1.876303 0.9310812,-9.356046 -4.90485 0.5076728,-9.420838 -3.935588 0.7055436,-9.441254 -3.288465 0.8604242,-9.435932 -2.685635 0.9662968,7.110,1 1
-1.542929 -7.575605 0.321633,-2.151545 -7.37985 1.038405,-2.629663 -6.615325 1.453469,-2.780607 -5.797432 1.790556,-2.789509 -5.023284 2.106527,-2.248931 -4.912103 0.8554009,-2.384097 -3.974554 1.175246,-2.419278 -3.372937 1.570671,-2.427541 -2.931042 1.876155,-1.794251 -4.799698 0.7553664,-1.785419 -3.771335 1.32247,-1.785419 -3.771335 1.32247,-1.734169 -3.856252 2.312882,-1.389755 -4.911855 0.7341131,-1.334639 -3.989072 1.208037,-1.331364 -3.905963 1.779277,-1.333331 -4.237006 2.148569,-0.9886227 -5.211004 0.7819703,-0.8838806 -4.482217 1.182075,-0.8994594 -4.361335 1.642459,-0.9440465 -4.571708 1.991271,-8.871262 -7.322135 -0.04384159,-8.250354 -7.026693 0.2496957,-7.744867 -6.399117 0.5093836,-7.38586 -5.786378 0.7939717,-7.013354 -5.417236 1.107246,-8.217511 -4.639746 0.2311345,-8.122196 -3.472549 0.43522,-8.084501 -2.771664 0.6249838,-8.056814 -2.14346 0.7556592,-8.595125 -4.492235 0.3049039,-8.534469 -3.169544 0.4831235,-8.488151 -2.328842 0.7167468,-8.44816 -1.612824 0.915995,-8.960614 -4.586905 0.404529,-8.929196 -3.31267 0.5881389,-8.890422 -2.516445 0.7972444,-8.845099 -1.845067 0.9489172,-9.332749 -4.894334 0.529291,-9.404975 -3.91047 0.7300634,-9.431525 -3.248127 0.8874502,-9.433984 -2.623541 0.9927037,7.210,1 1
-1.444159 -7.707632 0.388901,-2.07437 -7.48155 1.101289,-2.546649 -6.718045 1.500333,-2.668962 -5.877052 1.808311,-2.635085 -5.103224 2.102585,-2.156714 -5.069667 1.132088,-2.280113 -4.099919 1.469398,-2.338879 -3.479839 1.852512,-2.367064 -2.918848 2.177358,-1.700727 -4.949178 1.014356,-1.722599 -4.043563 1.472921,-1.722599 -4.043563 1.472921,-1.658945 -3.622332 2.314023,-1.289871 -5.066691 0.9737943,-1.276034 -4.256649 1.366903,-1.26227 -3.939805 1.840374,-1.260471 -3.917507 2.219013,-0.880661 -5.35968 0.9923408,-0.7981815 -4.689415 1.344601,-0.7895298 -4.486762 1.710151,-0.8107491 -4.491294 2.04627,-8.842279 -7.279223 -0.07862895,-8.220125 -7.001068 0.2309934,-7.709089 -6.381622 0.4911976,-7.34747 -5.769992 0.7705427,-6.985539 -5.392931 1.07146,-8.186448 -4.610395 0.2113805,-8.083159 -3.461428 0.4180754,-8.042019 -2.770649 0.6082152,-8.0121 -2.144368 0.7388127,-8.5657 -4.46043 0.2783174,-8.497222 -3.140913 0.4578653,-8.451975 -2.3019 0.6943104,-8.416774 -1.593193 0.8947093,-8.934388 -4.558736 0.3733242,-8.889162 -3.284603 0.5531126,-8.847919 -2.486623 0.7581605,-8.802887 -1.822541 0.9098756,-9.310417 -4.870711 0.4962299,-9.370209 -3.883118 0.6976898,-9.390249 -3.224679 0.8564133,-9.388429 -2.613914 0.9633678,7.310,1 1
-1.418465 -7.811173 0.2784773,-2.045794 -7.535507 0.9741811,-2.515788 -6.769943 1.361961,-2.636785 -5.920507 1.658204,-2.578764 -5.153759 1.931814,-2.12429 -5.209108 1.094307,-2.254327 -4.228001 1.430424,-2.316141 -3.586559 1.758647,-2.341728 -2.954875 2.046391,-1.668527 -5.098256 0.960508,-1.68961 -4.236769 1.361527,-1.68961 -4.236769 1.361527,-1.620676 -3.597268 1.994466,-1.258208 -5.216375 0.9038723,-1.23698 -4.479085 1.259506,-1.222995 -4.121116 1.646916,-1.216677 -3.973773 1.973671,-0.8716683 -5.498281 0.9021363,-0.7827787 -4.870613 1.219321,-0.7591705 -4.658521 1.518311,-0.7633348 -4.581552 1.802072,-8.834561 -7.294072 -0.01370918,-8.22635 -7.004179 0.2858315,-7.719159 -6.378726 0.5381993,-7.357763 -5.777744 0.8141733,-6.99342 -5.402641 1.11528,-8.195688 -4.605479 0.2409575,-8.096945 -3.467196 0.4389097,-8.053119 -2.774286 0.6269625,-8.019176 -2.151305 0.7643485,-8.564762 -4.452697 0.3172466,-8.495189 -3.141605 0.4846771,-8.444598 -2.301622 0.7228071,-8.403301 -1.596287 0.9272994,-8.92563 -4.551494 0.4252411,-8.888265 -3.292778 0.5977547,-8.846045 -2.49963 0.8130329,-8.796482 -1.837634 0.975314,-9.293883 -4.872344 0.5603735,-9.372674 -3.902086 0.7597503,-9.399326 -3.256311 0.924008,-9.401093 -2.661142 1.038816,7.410,1 1
-1.44708 -7.836998 -0.09043987,-2.059308 -7.554401 0.6062154,-2.502537 -6.719304 1.04251,-2.605726 -5.864172 1.369911,-2.540055 -5.11045 1.686101,-2.132101 -5.378059 0.9343086,-2.232998 -4.431571 1.429312,-2.288463 -3.763633 1.821602,-2.307725 -3.078104 2.148043,-1.674332 -5.313652 0.8516964,-1.673788 -4.508956 1.582459,-1.673788 -4.508956 1.582459,-1.600046 -4.298244 2.348381,-1.260213 -5.44629 0.8305244,-1.178303 -4.751848 1.505493,-1.195439 -4.795999 1.885306,-1.209425 -4.920848 2.103582,-0.8767185 -5.737358 0.8575709,-0.7465754 -5.127937 1.403936,-0.7730618 -5.227172 1.722783,-0.8030763 -5.429045 1.945143,-8.846592 -7.310747 0.02305431,-8.242991 -7.014095 0.3096573,-7.73715 -6.391958 0.5546681,-7.376637 -5.794246 0.8277229,-7.008333 -5.434482 1.126697,-8.203878 -4.613584 0.2575094,-8.096627 -3.48095 0.4493683,-8.052651 -2.792298 0.6326329,-8.022186 -2.171834 0.7668773,-8.574492 -4.457069 0.3367211,-8.501857 -3.143215 0.4990109,-8.453854 -2.30385 0.7407007,-8.417611 -1.597601 0.9487451,-8.935916 -4.549898 0.4448567,-8.897058 -3.294349 0.6094704,-8.857059 -2.502582 0.8146349,-8.809738 -1.838158 0.9718808,-9.301549 -4.86631 0.5795119,-9.3775 -3.901289 0.7732334,-9.402142 -3.252429 0.9317546,-9.402425 -2.650453 1.043809,7.510,1 1
-1.476728 -7.773139 -0.2537591,-2.072073 -7.532983 0.4721854,-2.513225 -6.746412 0.9116877,-2.637123 -5.902446 1.246219,-2.526211 -5.123538 1.548556,-2.164937 -5.348504 0.6743036,-2.277554 -4.444021 1.168027,-2.340811 -3.800408 1.584893,-2.365668 -3.189229 1.930717,-1.715321 -5.265608 0.589962,-1.699991 -4.498894 1.337319,-1.699991 -4.498894 1.337319,-1.619757 -4.472954 2.239834,-1.302732 -5.390357 0.5698877,-1.226671 -4.739994 1.263201,-1.224895 -4.937004 1.682045,-1.23486 -5.193448 1.926952,-0.9123836 -5.681816 0.6098216,-0.790235 -5.126163 1.187165,-0.8222752 -5.333269 1.549912,-0.8597212 -5.616048 1.804033,-8.8688 -7.321769 0.05744868,-8.263269 -7.030212 0.3653233,-7.754609 -6.399459 0.6297257,-7.391182 -5.792442 0.9147621,-7.02899 -5.430606 1.221607,-8.227209 -4.619503 0.3640178,-8.123388 -3.475595 0.5820296,-8.084535 -2.781479 0.775696,-8.054977 -2.15369 0.9088691,-8.60306 -4.465242 0.4348544,-8.53836 -3.142305 0.6254715,-8.491637 -2.297662 0.8615115,-8.45334 -1.578759 1.055609,-8.968271 -4.557582 0.5313401,-8.934562 -3.284606 0.719654,-8.893336 -2.489767 0.9213783,-8.843394 -1.828184 1.065275,-9.335896 -4.870847 0.6564883,-9.406759 -3.898471 0.8574951,-9.428895 -3.241091 1.00996,-9.427494 -2.632495 1.110522,7.610,1 1
-1.494349 -7.725652 -0.08802733,-2.082723 -7.529848 0.6560644,-2.522704 -6.746273 1.104882,-2.640759 -5.900168 1.448785,-2.539305 -5.129213 1.778633,-2.187235 -5.271498 0.8261631,-2.283716 -4.414705 1.32162,-2.334973 -3.775198 1.756278,-2.363086 -3.160587 2.104377,-1.735568 -5.160171 0.7307972,-1.699283 -4.410442 1.486307,-1.699283 -4.410442 1.486307,-1.638648 -4.723682 2.308455,-1.317901 -5.275907 0.7086884,-1.232465 -4.658456 1.415675,-1.262049 -5.11207 1.75226,-1.296443 -5.545152 1.903643,-0.9247398 -5.570905 0.7461978,-0.8155861 -5.071762 1.345855,-0.8782177 -5.451005 1.649073,-0.9477124 -5.843887 1.828216,-8.879276 -7.333352 0.06405925,-8.27939 -7.026941 0.3554263,-7.772337 -6.39972 0.603671,-7.408225 -5.802896 0.879703,-7.04023 -5.432571 1.17577,-8.242199 -4.624753 0.312654,-8.133726 -3.48735 0.5124841,-8.093503 -2.796358 0.6934633,-8.063592 -2.177646 0.8198521,-8.613237 -4.468692 0.3907425,-8.544966 -3.154112 0.5602833,-8.499639 -2.317873 0.7992681,-8.464174 -1.608437 0.9999301,-8.974823 -4.565201 0.4975427,-8.944221 -3.309035 0.6686757,-8.906558 -2.524972 0.8752854,-8.859532 -1.862606 1.027177,-9.33948 -4.884052 0.6307551,-9.421926 -3.924821 0.8256235,-9.445436 -3.286748 0.9821926,-9.44219 -2.691764 1.088645,7.710,1 1
-1.486366 -7.625011 -0.2698984,-2.058456 -7.481302 0.494847,-2.510115 -6.774786 0.9546094,-2.660531 -5.957447 1.315917,-2.553266 -5.199172 1.640924,-2.194731 -5.230436 0.5729828,-2.301123 -4.417998 1.1303,-2.342099 -3.788462 1.591956,-2.371004 -3.199531 1.935544,-1.752898 -5.096601 0.4841053,-1.721985 -4.317472 1.336869,-1.721985 -4.317472 1.336869,-1.650218 -4.93064 2.140058,-1.334107 -5.207462 0.4820942,-1.251103 -4.590671 1.271739,-1.266246 -5.190193 1.586018,-1.301652 -5.709981 1.674682,-0.9303508 -5.5093 0.5402632,-0.826725 -5.026685 1.170284,-0.8909302 -5.45012 1.458754,-0.9692163 -5.876251 1.594416,-8.904307 -7.340391 0.02811321,-8.301495 -7.041116 0.330772,-7.795797 -6.42292 0.5890096,-7.437583 -5.818301 0.8686789,-7.077651 -5.446051 1.163741,-8.27121 -4.643735 0.3191302,-8.164481 -3.487345 0.5303723,-8.121961 -2.787482 0.7111809,-8.091098 -2.156019 0.8291252,-8.645789 -4.488559 0.3810232,-8.576647 -3.158439 0.5689529,-8.531159 -2.316662 0.8010945,-8.497371 -1.598121 0.9965947,-9.007952 -4.58455 0.4691408,-8.975104 -3.315075 0.6503021,-8.937327 -2.520455 0.853248,-8.891831 -1.849742 1.002322,-9.371965 -4.904024 0.581477,-9.448311 -3.93602 0.7749882,-9.467401 -3.294654 0.935529,-9.461753 -2.697088 1.043826,7.810,1 1
