TiagoOliveira98/Thesis-Project/Difficulty_1/Motor_Task/Unity_Project/DataLogging/JointData/Logs(1644890372)_Tiago_main.csv
WRIST,THUMB_CMC,THUMB_MCP,THUMB_IP,THUMB_TIP,INDEX_FINGER_MCP,INDEX_FINGER_PIP,INDEX_FINGER_DIP,INDEX_FINGER_TIP,MIDDLE_FINGER_MCP,MIDDLE_FINGER_PIP,MIDDLE_FINGER_DIP,MIDDLE_FINGER_TIP,RING_FINGER_MCP,RING_FINGER_PIP,RING_FINGER_DIP,RING_FINGER_TIP,PINKY_MCP,PINKY_PIP,PINKY_DIP,PINKY_TIP,WRIST2,THUMB_CMC2,THUMB_MCP2,THUMB_IP2,THUMB_TIP2,INDEX_FINGER_MCP2,INDEX_FINGER_PIP2,INDEX_FINGER_DIP2,INDEX_FINGER_TIP2,MIDDLE_FINGER_MCP2,MIDDLE_FINGER_PIP2,MIDDLE_FINGER_DIP2,MIDDLE_FINGER_TIP2,RING_FINGER_MCP2,RING_FINGER_PIP2,RING_FINGER_DIP2,RING_FINGER_TIP2,PINKY_MCP2,PINKY_PIP2,PINKY_DIP2,PINKY_TIP2,Timestamp,Event
-2.290559 -9.346979 0.0005101507,-2.851617 -9.397619 0.6644035,-3.40245 -8.899191 1.288933,-3.49769 -8.254942 1.851057,-3.208096 -7.522655 2.376499,-3.408308 -7.135956 1.189562,-3.457525 -6.474359 1.860596,-3.377296 -5.91607 2.274107,-3.229023 -5.287374 2.60329,-2.934023 -6.719078 1.139184,-2.746546 -6.940919 1.962549,-2.746546 -6.940919 1.962549,-2.885973 -8.336529 1.995828,-2.42415 -6.711055 1.193202,-2.268389 -7.054886 1.833378,-2.388615 -7.960897 1.654001,-2.529837 -8.229307 1.451198,-1.975008 -6.90537 1.329952,-1.856915 -7.133474 1.667651,-2.002708 -7.867637 1.560082,-2.171647 -8.122351 1.441305,-9.756577 -9.896936 -9.053839E-05,-9.19156 -9.733122 0.661694,-8.683147 -9.113798 1.346646,-8.922289 -9.021868 1.924057,-9.376976 -8.722937 2.414439,-8.957036 -7.089021 1.19821,-8.908397 -6.148247 1.998762,-8.985778 -5.569349 2.515505,-9.118058 -5.199693 2.849492,-9.471807 -6.825452 1.20076,-9.599593 -7.064237 2.086221,-9.466347 -7.919536 2.36865,-9.306892 -8.400106 2.465478,-9.929353 -7.02104 1.247613,-10.00535 -7.701646 1.961882,-9.795671 -8.499548 1.951133,-9.595437 -8.831821 1.832603,-10.30132 -7.492427 1.390763,-10.33391 -8.098053 1.870933,-10.10582 -8.724022 1.956443,-9.881659 -8.946287 1.885999,0.010, 2
-2.333571 -9.308517 0.1328802,-2.879149 -9.37607 0.8603482,-3.437181 -8.909153 1.500102,-3.531273 -8.26379 2.066286,-3.234272 -7.517807 2.589776,-3.453688 -7.064842 1.338716,-3.503965 -6.414176 2.026139,-3.433644 -5.868537 2.444891,-3.302524 -5.226455 2.783331,-2.984781 -6.638792 1.268059,-2.793733 -6.883966 2.125907,-2.793733 -6.883966 2.125907,-2.915031 -8.306786 2.158983,-2.475656 -6.620085 1.316114,-2.310567 -6.995691 1.994698,-2.427108 -7.957283 1.813697,-2.570171 -8.231909 1.59915,-2.028175 -6.824547 1.45015,-1.893418 -7.072172 1.821668,-2.03258 -7.849946 1.71658,-2.200279 -8.118546 1.588092,-9.758578 -9.886492 -0.2015418,-9.20421 -9.717606 0.4571302,-8.703269 -9.08145 1.11022,-8.939106 -8.931536 1.656454,-9.394958 -8.613771 2.115131,-8.969957 -7.087352 0.9403942,-8.922795 -6.1273 1.712991,-9.001386 -5.541639 2.216616,-9.13449 -5.17427 2.53913,-9.473665 -6.856987 0.9475515,-9.603148 -6.997219 1.82138,-9.478921 -7.840873 2.138263,-9.330653 -8.343536 2.256231,-9.927536 -7.057323 0.9995676,-10.01791 -7.672138 1.725837,-9.810897 -8.483912 1.747201,-9.61641 -8.830822 1.644405,-10.30219 -7.533625 1.145334,-10.35042 -8.035723 1.642838,-10.12872 -8.665613 1.747653,-9.909929 -8.912287 1.691337,0.110, 2
-2.312374 -9.281269 0.293297,-2.876495 -9.373993 0.9593186,-3.436901 -8.895622 1.61061,-3.551488 -8.281023 2.193094,-3.284308 -7.559608 2.721958,-3.46739 -7.059307 1.545394,-3.501703 -6.425369 2.243964,-3.432407 -5.849557 2.65578,-3.306486 -5.154102 2.979148,-2.98325 -6.594453 1.495659,-2.774144 -6.987938 2.35556,-2.774144 -6.987938 2.35556,-2.971855 -8.354111 2.308815,-2.458547 -6.577082 1.55632,-2.283995 -7.108379 2.185421,-2.432965 -8.028433 1.958832,-2.598431 -8.21574 1.735369,-2.008018 -6.775991 1.699683,-1.871098 -7.230139 1.976825,-2.03814 -7.973871 1.82642,-2.229714 -8.146641 1.686596,-9.779938 -9.861954 -0.4686439,-9.230285 -9.721287 0.1476882,-8.71419 -9.083138 0.7718072,-8.945952 -8.893219 1.286011,-9.408055 -8.58189 1.724374,-8.978924 -7.111063 0.6282328,-8.947274 -6.115152 1.350887,-9.024378 -5.513056 1.834294,-9.143705 -5.163455 2.150073,-9.474426 -6.904947 0.6501268,-9.611325 -6.904489 1.466542,-9.509968 -7.72141 1.810448,-9.374588 -8.301279 1.974102,-9.922716 -7.099964 0.7103649,-10.02551 -7.586099 1.412878,-9.841261 -8.402067 1.475565,-9.656672 -8.837284 1.413934,-10.29949 -7.561758 0.8569993,-10.35828 -7.931831 1.351691,-10.16055 -8.563202 1.478599,-9.954044 -8.882492 1.442931,0.210, 2
-2.355218 -9.229467 0.1693734,-2.919027 -9.331392 0.8132157,-3.478958 -8.850578 1.447489,-3.582899 -8.22056 2.010161,-3.29382 -7.514826 2.521858,-3.458848 -7.030698 1.44344,-3.500643 -6.403099 2.125511,-3.448749 -5.821678 2.537025,-3.333101 -5.144084 2.862083,-2.986169 -6.583341 1.394932,-2.777975 -6.977098 2.226105,-2.777975 -6.977098 2.226105,-2.962608 -8.375656 2.183541,-2.467508 -6.578929 1.447806,-2.305937 -7.104583 2.062702,-2.450079 -8.000793 1.862488,-2.602965 -8.241909 1.665264,-2.021899 -6.783273 1.581629,-1.897148 -7.257406 1.862591,-2.061458 -7.977647 1.735181,-2.248944 -8.175373 1.622979,-9.774541 -9.842747 -0.2314734,-9.237172 -9.692825 0.3803247,-8.746976 -9.076086 1.015403,-8.931643 -8.905445 1.559532,-9.378182 -8.639429 2.035269,-8.968984 -7.049093 0.8956681,-8.935184 -6.083026 1.634223,-9.011231 -5.481824 2.124267,-9.134008 -5.108955 2.444206,-9.466457 -6.819738 0.90452,-9.607168 -6.946393 1.719261,-9.490258 -7.797145 2.020309,-9.339264 -8.325102 2.139466,-9.918506 -7.017025 0.9538922,-10.0289 -7.571895 1.631984,-9.836761 -8.387638 1.666211,-9.640964 -8.784405 1.588066,-10.29646 -7.475549 1.094135,-10.36561 -7.937027 1.564923,-10.15722 -8.574928 1.68047,-9.937552 -8.860123 1.643589,0.310, 2
-2.337984 -9.196087 -0.06352334,-2.886452 -9.316233 0.6314075,-3.451901 -8.850508 1.25918,-3.574137 -8.213718 1.817909,-3.308697 -7.495574 2.344621,-3.448528 -7.046804 1.184442,-3.487232 -6.381719 1.901821,-3.428158 -5.791845 2.350974,-3.316501 -5.121795 2.699014,-2.991587 -6.607973 1.113049,-2.778032 -6.868583 1.968033,-2.778032 -6.868583 1.968033,-2.948681 -8.321077 1.95864,-2.486195 -6.585496 1.151947,-2.306089 -6.989142 1.796002,-2.433515 -7.9286 1.606154,-2.591468 -8.210268 1.393196,-2.047081 -6.779027 1.281658,-1.910966 -7.183103 1.60215,-2.061045 -7.933813 1.482525,-2.250324 -8.169891 1.361843,-9.708284 -9.852736 -0.4388714,-9.183104 -9.664513 0.1454222,-8.705725 -9.016804 0.7807245,-8.937798 -8.816015 1.322209,-9.367718 -8.516483 1.817635,-8.934487 -7.05076 0.6267118,-8.897892 -6.071321 1.275368,-8.961326 -5.472575 1.706585,-9.071894 -5.105941 1.973952,-9.431002 -6.870427 0.6436769,-9.5855 -6.692388 1.345545,-9.50351 -7.440515 1.645639,-9.380798 -8.003073 1.79978,-9.878044 -7.076166 0.6959255,-9.991156 -7.513465 1.301874,-9.798907 -8.319744 1.327037,-9.612012 -8.738863 1.25199,-10.25135 -7.558226 0.823693,-10.30778 -7.901973 1.229548,-10.10848 -8.516525 1.324991,-9.908019 -8.833864 1.289726,0.410, 2
-2.355964 -9.236393 -0.01794262,-2.906021 -9.324524 0.678935,-3.446346 -8.864206 1.317846,-3.547624 -8.254425 1.874647,-3.292955 -7.560527 2.384859,-3.44881 -7.063894 1.220387,-3.4763 -6.395601 1.927755,-3.411779 -5.799729 2.361937,-3.299404 -5.084073 2.695031,-2.977614 -6.619527 1.144566,-2.789119 -6.938594 2.009511,-2.789119 -6.938594 2.009511,-2.96367 -8.37965 1.91368,-2.460739 -6.601543 1.185586,-2.302167 -7.03424 1.856404,-2.441247 -7.994938 1.62912,-2.596204 -8.215294 1.390039,-2.010365 -6.793794 1.31187,-1.887362 -7.182401 1.622684,-2.046687 -7.94959 1.466541,-2.226232 -8.148239 1.31146,-9.731238 -9.787378 -0.4251649,-9.183759 -9.641514 0.05343488,-8.687955 -9.005705 0.6251898,-8.90301 -8.791201 1.112607,-9.333558 -8.506527 1.553964,-8.934737 -7.022142 0.539735,-8.893572 -6.045774 1.174381,-8.957496 -5.467978 1.561288,-9.068016 -5.125671 1.776949,-9.426096 -6.772404 0.5670986,-9.560195 -6.861135 1.205153,-9.464897 -7.648084 1.445865,-9.339052 -8.159151 1.541357,-9.869016 -6.960205 0.6235433,-9.953482 -7.527648 1.142233,-9.787375 -8.296436 1.167299,-9.618755 -8.677979 1.104384,-10.24308 -7.401792 0.7509142,-10.26942 -7.891037 1.088221,-10.09097 -8.494228 1.184586,-9.903143 -8.767752 1.149839,0.510, 2
-2.28572 -9.223024 0.03001324,-2.851634 -9.318027 0.6979591,-3.424257 -8.85792 1.341852,-3.537512 -8.217646 1.89846,-3.251171 -7.498132 2.39422,-3.432016 -7.079492 1.298566,-3.494429 -6.489736 2.010548,-3.443831 -5.951748 2.421856,-3.333508 -5.278785 2.738895,-2.959229 -6.627081 1.244033,-2.765614 -6.986688 2.101558,-2.765614 -6.986688 2.101558,-2.907142 -8.326979 1.976672,-2.437962 -6.598228 1.299472,-2.274702 -7.076541 1.946201,-2.402256 -8.031292 1.688379,-2.552387 -8.213568 1.446781,-1.986636 -6.775053 1.438977,-1.861665 -7.229675 1.715261,-2.018801 -7.970499 1.538685,-2.199078 -8.113018 1.384123,-9.706748 -9.803949 -0.5512606,-9.154572 -9.644793 -0.09523618,-8.669296 -9.003633 0.4636121,-8.881718 -8.762238 0.953422,-9.307457 -8.478262 1.416054,-8.912876 -7.041725 0.3967556,-8.857574 -6.04177 0.9968958,-8.909964 -5.461904 1.376893,-9.011141 -5.117465 1.599421,-9.404397 -6.825685 0.4376617,-9.523737 -6.806315 1.033492,-9.432827 -7.580026 1.277612,-9.311931 -8.115976 1.391842,-9.843941 -7.020631 0.5025214,-9.917274 -7.510837 1.001601,-9.756988 -8.28244 1.026638,-9.598047 -8.687283 0.9699086,-10.21586 -7.465799 0.6373568,-10.24023 -7.85153 0.9618881,-10.06802 -8.465652 1.043028,-9.888199 -8.783163 1.005306,0.610, 2
-2.264314 -9.158184 -0.3644264,-2.803256 -9.336969 0.294549,-3.40633 -8.892744 0.8996224,-3.54742 -8.207012 1.426851,-3.271233 -7.500282 1.914224,-3.427592 -7.112109 0.8034465,-3.506924 -6.448382 1.459401,-3.477896 -5.898729 1.858467,-3.3923 -5.275209 2.171382,-2.991176 -6.660352 0.7527932,-2.782536 -6.910734 1.57299,-2.782536 -6.910734 1.57299,-2.872584 -8.289249 1.580642,-2.495437 -6.584516 0.8042374,-2.321592 -6.991727 1.424887,-2.40207 -7.939258 1.253227,-2.543581 -8.208725 1.070013,-2.056185 -6.71248 0.9400895,-1.905005 -7.098712 1.240239,-2.020334 -7.860367 1.124451,-2.198462 -8.083729 1.025467,-9.712887 -9.813465 -0.4665615,-9.152927 -9.653303 0.04422677,-8.656894 -9.019758 0.6281481,-8.81776 -8.72278 1.137406,-9.237508 -8.405293 1.617598,-8.864064 -7.032047 0.4836773,-8.805155 -6.038095 1.101097,-8.864874 -5.450025 1.507422,-8.975647 -5.087456 1.751956,-9.355729 -6.813274 0.5152044,-9.480918 -6.708419 1.161397,-9.406622 -7.456472 1.461767,-9.303337 -7.983354 1.602696,-9.802614 -7.002011 0.5742742,-9.886541 -7.457223 1.110695,-9.729612 -8.225161 1.15287,-9.572701 -8.618155 1.098982,-10.18276 -7.457242 0.707765,-10.21273 -7.852039 1.07433,-10.03904 -8.470642 1.173864,-9.856782 -8.777382 1.137801,0.710, 2
-2.327142 -9.143343 -0.278773,-2.874125 -9.249802 0.3787161,-3.471297 -8.791168 0.9989623,-3.610136 -8.079454 1.53567,-3.343335 -7.364187 2.015525,-3.488226 -7.101716 0.9325088,-3.566859 -6.493503 1.630367,-3.548092 -5.943035 2.041723,-3.485283 -5.27086 2.35836,-3.050776 -6.636733 0.8821919,-2.836726 -6.878453 1.703089,-2.836726 -6.878453 1.703089,-2.918634 -8.27515 1.546024,-2.551405 -6.530717 0.9403368,-2.364057 -6.924561 1.561833,-2.44211 -7.913007 1.308569,-2.592968 -8.14332 1.075954,-2.117098 -6.644035 1.081893,-1.962085 -7.045585 1.360674,-2.077899 -7.824783 1.197874,-2.256678 -8.010809 1.068755,-9.651991 -9.753134 -0.8079599,-9.09723 -9.555117 -0.4035627,-8.597244 -8.915253 0.1344889,-8.788366 -8.508898 0.6143192,-9.250322 -8.135035 1.036431,-8.816031 -6.990224 -0.02627039,-8.713273 -5.941022 0.5289673,-8.764086 -5.407389 0.8758355,-8.88275 -5.142648 1.062848,-9.307139 -6.816691 0.05238706,-9.3673 -6.518957 0.6401564,-9.298163 -7.197888 0.9152164,-9.210136 -7.732534 1.057316,-9.737554 -7.006473 0.152559,-9.77045 -7.402486 0.6538785,-9.612288 -8.138138 0.7084135,-9.477236 -8.505228 0.65943,-10.10267 -7.455364 0.3171763,-10.10244 -7.707559 0.6247946,-9.935039 -8.277746 0.7085167,-9.779065 -8.592287 0.6671703,0.810, 2
-2.337144 -9.089302 -0.3775791,-2.879697 -9.230673 0.2073719,-3.48867 -8.759209 0.7987161,-3.646347 -8.040342 1.315231,-3.381663 -7.322345 1.778315,-3.499041 -7.095249 0.7862674,-3.574578 -6.543133 1.443427,-3.558657 -6.009952 1.832328,-3.485935 -5.372877 2.139681,-3.066488 -6.605215 0.7588112,-2.840008 -7.012859 1.534597,-2.840008 -7.012859 1.534597,-2.918158 -8.288338 1.403868,-2.566082 -6.51369 0.8230544,-2.387877 -7.082057 1.402551,-2.473811 -7.975953 1.176414,-2.610199 -8.166718 0.9815706,-2.132432 -6.628705 0.968466,-1.984959 -7.221353 1.216517,-2.114293 -7.938964 1.067449,-2.292584 -8.065027 0.9756852,-9.630364 -9.730602 -0.7004043,-9.055693 -9.528631 -0.3417595,-8.546941 -8.883556 0.1537703,-8.704575 -8.460089 0.6046141,-9.152828 -8.115652 1.02536,-8.790787 -6.942552 0.0630706,-8.685719 -5.926931 0.5873392,-8.737821 -5.500679 0.8920808,-8.865177 -5.439352 1.037377,-9.277896 -6.753248 0.1259783,-9.332073 -6.557567 0.5899706,-9.259621 -7.224622 0.7633183,-9.172807 -7.732135 0.8676736,-9.700298 -6.956048 0.2143193,-9.741455 -7.325584 0.601722,-9.594202 -8.039446 0.6329771,-9.461511 -8.416006 0.6054567,-10.06353 -7.397399 0.3570567,-10.09708 -7.547624 0.5786983,-9.935351 -8.089169 0.6393716,-9.777149 -8.41535 0.6063652,0.910, 2
-2.263321 -9.028885 -0.7175651,-2.811288 -9.208727 -0.08811384,-3.420005 -8.792212 0.4877917,-3.613695 -8.104317 0.9863112,-3.385708 -7.385043 1.455215,-3.423201 -7.123798 0.4677624,-3.543743 -6.60941 1.182025,-3.531555 -6.145631 1.581861,-3.461614 -5.618272 1.872609,-3.002194 -6.664056 0.4297786,-2.827329 -6.892245 1.247746,-2.827329 -6.892245 1.247746,-2.857992 -8.269234 1.120834,-2.506307 -6.576201 0.4888021,-2.358679 -6.952159 1.146167,-2.420154 -7.92294 0.9371511,-2.535806 -8.221966 0.7216558,-2.068079 -6.690904 0.6289415,-1.958437 -7.147869 0.9595554,-2.066331 -7.899517 0.8344234,-2.224278 -8.104523 0.73502,-9.628476 -9.6327 -0.6590873,-9.049507 -9.532467 -0.2731096,-8.500044 -8.884138 0.2633338,-8.664556 -8.450464 0.7749265,-9.144894 -8.05217 1.224452,-8.724714 -6.884748 0.1259246,-8.584265 -5.808073 0.7484708,-8.695283 -5.611549 1.106021,-8.864528 -5.908906 1.258674,-9.215985 -6.660346 0.2013602,-9.296117 -6.660354 0.8387619,-9.236532 -7.436609 1.0827,-9.114395 -7.991176 1.204214,-9.648073 -6.858407 0.3177791,-9.720079 -7.281132 0.8146917,-9.583388 -8.02178 0.8862354,-9.426801 -8.385967 0.8903745,-10.02563 -7.284698 0.489332,-10.0845 -7.516687 0.7503458,-9.917175 -8.080482 0.8383029,-9.726569 -8.342909 0.8256994,1.010, 1
-2.264139 -9.025515 -0.225795,-2.817967 -9.172333 0.4594342,-3.407209 -8.759779 1.090744,-3.569085 -8.123138 1.618096,-3.347807 -7.413594 2.136295,-3.393485 -7.014081 1.105198,-3.449821 -6.611036 1.878891,-3.449707 -6.164333 2.299257,-3.401125 -5.654225 2.605214,-2.953839 -6.546392 1.047089,-2.777647 -6.95305 1.873791,-2.777647 -6.95305 1.873791,-2.897817 -8.357256 1.623795,-2.499178 -6.492869 1.005167,-2.337556 -6.905645 1.697191,-2.429667 -7.935237 1.467487,-2.550879 -8.253838 1.239635,-2.042186 -6.66032 1.141335,-1.919071 -7.058798 1.515192,-2.047886 -7.853376 1.363705,-2.21403 -8.080994 1.243488,-9.609697 -9.569973 -1.459963,-9.040886 -9.500074 -1.075566,-8.517126 -8.869081 -0.607721,-8.689169 -8.385977 -0.1745198,-9.166177 -7.928192 0.178021,-8.735373 -6.906735 -0.783321,-8.615255 -5.676872 -0.2710174,-8.69829 -5.538259 0.05939651,-8.829282 -5.941719 0.2185773,-9.210936 -6.805456 -0.7065226,-9.300562 -6.349867 -0.1502919,-9.257202 -7.04022 0.1353722,-9.146198 -7.715763 0.2891707,-9.615028 -7.043416 -0.5967601,-9.68058 -7.23892 -0.1147116,-9.556194 -7.943817 0.05512023,-9.411226 -8.37842 0.1135577,-9.966981 -7.473827 -0.4396616,-10.03661 -7.522412 -0.1715244,-9.898508 -8.03056 -0.02672136,-9.726872 -8.354641 0.02043593,1.110, 1
-2.250739 -9.043217 -0.3153146,-2.807452 -9.211969 0.385448,-3.394545 -8.793957 1.00106,-3.554677 -8.127577 1.510693,-3.335613 -7.423114 1.997524,-3.389309 -7.083892 1.019747,-3.437798 -6.653507 1.744043,-3.444075 -6.196867 2.123161,-3.415785 -5.690449 2.407683,-2.967434 -6.602998 0.9603498,-2.774543 -6.909631 1.748716,-2.774543 -6.909631 1.748716,-2.840713 -8.339025 1.579934,-2.468237 -6.531057 1.003668,-2.291114 -6.934007 1.686961,-2.374145 -7.910768 1.487762,-2.492969 -8.26277 1.275172,-2.030025 -6.68694 1.127756,-1.893422 -7.156922 1.513944,-2.006754 -7.903005 1.420646,-2.169156 -8.145254 1.33952,-9.585647 -9.552851 -1.091872,-9.011276 -9.50684 -0.7250949,-8.475115 -8.881933 -0.2435668,-8.641396 -8.455591 0.2187539,-9.111583 -8.068434 0.6099081,-8.712737 -6.860366 -0.3793481,-8.576352 -5.625357 0.1958838,-8.684299 -5.494509 0.5437931,-8.838887 -5.917568 0.7143323,-9.187421 -6.691359 -0.290504,-9.293301 -6.453266 0.342777,-9.262435 -7.169075 0.6372052,-9.143393 -7.802145 0.787735,-9.603098 -6.90124 -0.1621352,-9.647556 -7.309273 0.3694007,-9.536625 -8.012722 0.5089735,-9.389564 -8.408472 0.5554242,-9.966203 -7.314826 0.007842302,-9.983948 -7.63864 0.3078972,-9.839449 -8.186785 0.4507889,-9.665794 -8.447319 0.4800766,1.210, 1
-2.277176 -9.058748 -0.1737355,-2.825408 -9.194607 0.5100688,-3.405329 -8.777374 1.133398,-3.536377 -8.135168 1.652078,-3.291271 -7.470675 2.168441,-3.40041 -6.998703 1.108016,-3.419608 -6.620868 1.84625,-3.420524 -6.215497 2.234079,-3.391352 -5.738529 2.516527,-2.966997 -6.540321 1.054817,-2.765662 -6.985294 1.859618,-2.765662 -6.985294 1.859618,-2.864998 -8.365759 1.682523,-2.456437 -6.502568 1.116386,-2.273521 -7.026226 1.807516,-2.391431 -8.022974 1.573393,-2.523683 -8.301291 1.342089,-2.004468 -6.702528 1.255181,-1.868958 -7.22052 1.625463,-2.014654 -7.975448 1.481908,-2.187464 -8.153284 1.370287,-9.585021 -9.620893 -0.7920073,-8.985661 -9.520618 -0.4299084,-8.488639 -8.913414 0.05984944,-8.620583 -8.469189 0.5182434,-9.015347 -8.102991 0.9348701,-8.715581 -6.895212 0.05297983,-8.619365 -5.687827 0.5901918,-8.719215 -5.51676 0.8881201,-8.868538 -5.858654 1.026253,-9.216271 -6.695117 0.1104116,-9.325309 -6.583835 0.6563454,-9.249995 -7.297357 0.8238586,-9.124069 -7.85427 0.894981,-9.648628 -6.914956 0.1980159,-9.671813 -7.369994 0.6412522,-9.534485 -8.026207 0.7193567,-9.392906 -8.360439 0.740072,-10.01117 -7.327152 0.3248669,-10.02392 -7.735125 0.5723941,-9.860173 -8.23638 0.6933266,-9.682422 -8.416994 0.7248023,1.310, 1
-2.234159 -9.073477 -0.1416133,-2.788346 -9.206676 0.5765674,-3.369002 -8.782286 1.18481,-3.511431 -8.149363 1.691327,-3.271871 -7.473047 2.192989,-3.327801 -6.982769 1.148822,-3.366125 -6.613618 1.901043,-3.380629 -6.219617 2.291191,-3.359007 -5.758312 2.569678,-2.899651 -6.536397 1.083595,-2.724294 -6.964145 1.905032,-2.724294 -6.964145 1.905032,-2.808784 -8.432695 1.76108,-2.397202 -6.500665 1.136992,-2.234667 -6.971946 1.866045,-2.341914 -8.005251 1.67302,-2.45558 -8.368715 1.451298,-1.950818 -6.700912 1.264915,-1.837412 -7.151578 1.67167,-1.975849 -7.936215 1.555564,-2.13271 -8.189142 1.444921,-9.597407 -9.60269 -1.139435,-8.997692 -9.519424 -0.920187,-8.510862 -8.887442 -0.5264069,-8.65696 -8.437206 -0.150866,-9.064822 -8.102945 0.1960077,-8.722326 -6.913858 -0.4704971,-8.603684 -5.611276 -0.04887021,-8.706368 -5.448694 0.1714408,-8.857115 -5.803743 0.2577562,-9.200444 -6.742986 -0.3827317,-9.281693 -6.58605 -0.02138686,-9.228831 -7.302167 0.1298684,-9.102937 -7.854262 0.2422134,-9.609099 -6.959132 -0.2805995,-9.64534 -7.265508 -0.0030514,-9.546126 -7.933219 0.07391775,-9.41032 -8.32633 0.1568526,-9.961381 -7.346625 -0.1464372,-10.00419 -7.563836 -0.01005244,-9.883034 -8.088341 0.09142137,-9.71373 -8.370823 0.1456475,1.410, 1
-2.190001 -9.062366 -0.5418308,-2.749554 -9.254257 0.1661981,-3.350157 -8.833307 0.758844,-3.510481 -8.15514 1.244739,-3.270529 -7.45906 1.706936,-3.346411 -7.128656 0.7272742,-3.42493 -6.622378 1.449569,-3.417097 -6.136083 1.828958,-3.360664 -5.600574 2.110254,-2.917383 -6.66047 0.6553171,-2.741151 -6.926044 1.468873,-2.741151 -6.926044 1.468873,-2.795116 -8.345526 1.265029,-2.417827 -6.587783 0.6979182,-2.260227 -6.950046 1.376028,-2.345833 -7.95174 1.1419,-2.464861 -8.287653 0.8971486,-1.978861 -6.736842 0.8219508,-1.854037 -7.167323 1.198448,-1.973504 -7.932335 1.08204,-2.13848 -8.176823 0.9732126,-9.571845 -9.623087 -0.9632722,-8.979394 -9.520935 -0.7212746,-8.498799 -8.885014 -0.2989895,-8.642695 -8.417334 0.1097387,-9.036359 -8.053396 0.4929227,-8.712784 -6.885146 -0.2665656,-8.585577 -5.648061 0.1647265,-8.695029 -5.419647 0.4084266,-8.855332 -5.704715 0.5150663,-9.201001 -6.714414 -0.1803231,-9.266244 -6.558069 0.1712116,-9.225689 -7.214723 0.3100882,-9.118342 -7.765813 0.4266005,-9.614416 -6.946811 -0.06864554,-9.618158 -7.349666 0.2195008,-9.523647 -8.002869 0.2692206,-9.400665 -8.387964 0.3222488,-9.965393 -7.362474 0.07629251,-9.97275 -7.618116 0.2094069,-9.843892 -8.132893 0.2890333,-9.682346 -8.425531 0.3272362,1.510, 1
-2.222688 -9.029726 -0.81821,-2.771269 -9.206593 -0.1312253,-3.336189 -8.790333 0.4680074,-3.487879 -8.147511 0.982738,-3.280884 -7.468589 1.485213,-3.309603 -7.117521 0.4275584,-3.407736 -6.611575 1.160854,-3.408975 -6.120649 1.570744,-3.344509 -5.563896 1.881179,-2.871778 -6.691494 0.3690634,-2.724676 -6.945423 1.234672,-2.724676 -6.945423 1.234672,-2.759121 -8.406467 1.062445,-2.3719 -6.659662 0.4200087,-2.242298 -7.000003 1.132476,-2.328976 -8.014889 0.920454,-2.435964 -8.356041 0.6710646,-1.934105 -6.841775 0.5510644,-1.843773 -7.236043 0.9444002,-1.969838 -7.977108 0.8255352,-2.115871 -8.199842 0.7055835,-9.571732 -9.654202 -0.951027,-8.978543 -9.552048 -0.6721568,-8.46241 -8.877029 -0.2251591,-8.632139 -8.384306 0.1917355,-9.082804 -8.014265 0.5595239,-8.74063 -6.910764 -0.2812419,-8.594202 -5.736869 0.2167289,-8.69091 -5.372356 0.536465,-8.859709 -5.48475 0.7183664,-9.212123 -6.736663 -0.1824918,-9.271886 -6.569845 0.2997402,-9.22401 -7.27231 0.5054318,-9.119757 -7.867109 0.6420873,-9.619264 -6.952344 -0.0526675,-9.645945 -7.3166 0.3496082,-9.539611 -7.989862 0.4069822,-9.413435 -8.394213 0.4231652,-9.969179 -7.376826 0.1181525,-9.99434 -7.628865 0.3362231,-9.856122 -8.145082 0.4129817,-9.688374 -8.4464 0.4133675,1.610, 2
-2.193642 -8.968252 -1.084347,-2.759168 -9.196224 -0.4139127,-3.325777 -8.816 0.1769142,-3.467112 -8.171192 0.6789095,-3.282473 -7.470203 1.165212,-3.287392 -7.179887 0.1883699,-3.388054 -6.656911 0.9281641,-3.395657 -6.158718 1.341675,-3.331956 -5.628601 1.6481,-2.856733 -6.738615 0.1331273,-2.698235 -6.988986 0.9913169,-2.698235 -6.988986 0.9913169,-2.732957 -8.420958 0.8350335,-2.356842 -6.699031 0.1805009,-2.228274 -7.032071 0.8979285,-2.317535 -8.017815 0.7076824,-2.417675 -8.331133 0.4764875,-1.920215 -6.863122 0.3032321,-1.834273 -7.280696 0.6988015,-1.969101 -7.995019 0.583402,-2.113464 -8.173943 0.4786623,-9.558807 -9.601814 -0.8231047,-8.963228 -9.489614 -0.5646116,-8.463949 -8.841217 -0.1127697,-8.608425 -8.4023 0.3259231,-9.019958 -8.058876 0.7502216,-8.704086 -6.8659 -0.1107414,-8.561396 -5.752378 0.3977411,-8.659682 -5.389844 0.693414,-8.837581 -5.511514 0.8303056,-9.179313 -6.658082 -0.01945144,-9.245656 -6.649553 0.4361449,-9.195065 -7.358972 0.6106735,-9.096425 -7.895654 0.7193515,-9.597101 -6.867654 0.09752774,-9.623766 -7.288326 0.4401863,-9.521642 -7.980586 0.4785209,-9.401391 -8.359324 0.4957669,-9.957786 -7.271622 0.2543023,-9.982099 -7.574991 0.4225084,-9.840562 -8.121979 0.4874271,-9.677111 -8.390732 0.4854025,1.710, 2
-2.238053 -9.037298 -0.6803973,-2.784731 -9.210669 0.01189548,-3.345117 -8.813787 0.6160184,-3.480436 -8.171135 1.120355,-3.263206 -7.470085 1.614252,-3.304533 -7.138138 0.6317266,-3.396402 -6.65429 1.364384,-3.405346 -6.140813 1.764927,-3.350035 -5.560576 2.0625,-2.878739 -6.682977 0.5683141,-2.706995 -7.009266 1.423066,-2.706995 -7.009266 1.423066,-2.743621 -8.447052 1.263913,-2.374964 -6.619239 0.6155,-2.230505 -7.01923 1.336691,-2.32089 -8.01166 1.154721,-2.422426 -8.363247 0.9322966,-1.932557 -6.772517 0.7383531,-1.82304 -7.194885 1.12818,-1.956672 -7.936174 1.014605,-2.108943 -8.176886 0.9141067,-9.565885 -9.646275 -0.8816244,-8.966578 -9.512962 -0.5800762,-8.450895 -8.840174 -0.1380572,-8.611644 -8.38588 0.2768855,-9.041533 -7.997457 0.6624345,-8.705647 -6.888664 -0.2650192,-8.554808 -5.810098 0.2363083,-8.639648 -5.359642 0.5685092,-8.813359 -5.360612 0.7561722,-9.173378 -6.696166 -0.1775821,-9.248219 -6.544183 0.3099711,-9.207421 -7.253831 0.5579703,-9.125774 -7.872793 0.7098967,-9.589182 -6.891967 -0.05712008,-9.636006 -7.23795 0.3435111,-9.534238 -7.972515 0.4406663,-9.411342 -8.441198 0.47416,-9.956974 -7.292892 0.1086003,-9.984994 -7.533491 0.3494351,-9.841056 -8.11075 0.447283,-9.675965 -8.456381 0.4564594,1.810, 2
-2.213548 -9.01738 -0.7984914,-2.757615 -9.236931 -0.08661842,-3.322818 -8.830481 0.5101913,-3.456402 -8.179222 1.016244,-3.249821 -7.465534 1.497994,-3.300245 -7.104951 0.4195957,-3.382162 -6.584642 1.159251,-3.395389 -6.064168 1.57851,-3.352734 -5.440687 1.899985,-2.866073 -6.655396 0.3521411,-2.693931 -6.944444 1.254802,-2.693931 -6.944444 1.254802,-2.720471 -8.426113 1.105024,-2.367997 -6.602595 0.4048959,-2.220444 -6.994818 1.151497,-2.300542 -8.008354 0.9726092,-2.408702 -8.346972 0.7249079,-1.931413 -6.768833 0.5314955,-1.827419 -7.20079 0.9328387,-1.950301 -7.955637 0.8222947,-2.100288 -8.199503 0.6972309,-9.561223 -9.655277 -0.5240102,-8.961452 -9.506224 -0.1900797,-8.456171 -8.83827 0.2967821,-8.610888 -8.410992 0.7513599,-9.031917 -8.022474 1.174218,-8.701691 -6.875715 0.214991,-8.563092 -5.829925 0.7861758,-8.627728 -5.368707 1.153219,-8.780203 -5.295173 1.363273,-9.179772 -6.626754 0.2953264,-9.236629 -6.682708 0.8280001,-9.158623 -7.426658 1.055354,-9.059323 -7.953636 1.177611,-9.601401 -6.814167 0.4085549,-9.616883 -7.33204 0.8310463,-9.487185 -8.047848 0.886815,-9.357214 -8.412979 0.8831618,-9.961902 -7.241189 0.5751143,-9.952175 -7.682928 0.8219767,-9.794475 -8.259958 0.904574,-9.629171 -8.525023 0.8833189,1.910, 2
-2.147813 -8.965345 -0.9864178,-2.702451 -9.214794 -0.3130277,-3.286325 -8.819 0.2727377,-3.439228 -8.163939 0.7718835,-3.258937 -7.46166 1.242887,-3.273289 -7.175323 0.2844279,-3.37183 -6.645257 1.01047,-3.366589 -6.141727 1.425732,-3.29879 -5.590046 1.742749,-2.844081 -6.711458 0.2285541,-2.688162 -6.978313 1.077748,-2.688162 -6.978313 1.077748,-2.718703 -8.380339 0.8937991,-2.345173 -6.642284 0.2744633,-2.212037 -7.035943 0.9723592,-2.284775 -7.989184 0.7629551,-2.391159 -8.284922 0.5278912,-1.905837 -6.768357 0.4004923,-1.815557 -7.223249 0.770156,-1.933605 -7.94205 0.6530408,-2.082315 -8.137779 0.5506206,-9.550514 -9.61834 -0.6689462,-8.962099 -9.503452 -0.356638,-8.433064 -8.845955 0.1152119,-8.603 -8.444725 0.5491858,-9.046124 -8.074825 0.9432887,-8.687972 -6.87428 0.05500102,-8.572257 -5.821077 0.6187656,-8.632486 -5.34135 0.9628564,-8.77104 -5.248823 1.152993,-9.163665 -6.633829 0.1505015,-9.220531 -6.636567 0.6898923,-9.146137 -7.393972 0.9068342,-9.049398 -7.954925 1.016849,-9.583027 -6.819319 0.2709954,-9.610798 -7.292191 0.7180004,-9.486189 -8.01483 0.7676539,-9.360027 -8.401754 0.7530211,-9.941794 -7.246963 0.4438281,-9.940234 -7.64899 0.7115731,-9.792323 -8.222643 0.7875966,-9.6329 -8.507736 0.757338,2.010, 2
-2.212116 -9.032936 -0.8193073,-2.787674 -9.202133 -0.1416812,-3.341272 -8.817003 0.4721303,-3.448391 -8.166992 0.991838,-3.230905 -7.463552 1.481401,-3.314249 -7.169851 0.5132549,-3.376167 -6.639404 1.248533,-3.369929 -6.119465 1.640832,-3.303489 -5.513553 1.94462,-2.865278 -6.739865 0.4501345,-2.690955 -6.938672 1.310461,-2.690955 -6.938672 1.310461,-2.754216 -8.401762 1.058288,-2.347742 -6.694586 0.4961587,-2.217536 -7.015569 1.239384,-2.32474 -8.043089 0.9898185,-2.43124 -8.358234 0.7188753,-1.899338 -6.880001 0.6129731,-1.81287 -7.242054 1.022351,-1.963087 -7.98325 0.8652285,-2.112279 -8.190699 0.7217704,-9.553866 -9.60568 -0.6889392,-8.950132 -9.500025 -0.3892374,-8.416914 -8.831913 0.07442266,-8.585196 -8.411715 0.4974098,-9.025761 -8.036306 0.888751,-8.690286 -6.876514 0.05952227,-8.548722 -5.789526 0.6166718,-8.604346 -5.296634 0.955662,-8.747626 -5.192159 1.140637,-9.175019 -6.630199 0.1451808,-9.230953 -6.620267 0.6505036,-9.162124 -7.337808 0.8602158,-9.068057 -7.904207 0.9827147,-9.596196 -6.809342 0.2528691,-9.607045 -7.320192 0.6666384,-9.480972 -8.02644 0.7084496,-9.351583 -8.427837 0.6949694,-9.947639 -7.229406 0.4125279,-9.927435 -7.658991 0.6621801,-9.781639 -8.233448 0.739211,-9.627706 -8.535479 0.7130265,2.110, 2
-2.190393 -9.023188 -0.9369764,-2.747912 -9.226936 -0.2503598,-3.300998 -8.827309 0.3454969,-3.439587 -8.183805 0.8466086,-3.249769 -7.479764 1.321302,-3.258841 -7.177019 0.3590389,-3.344969 -6.64212 1.083392,-3.35408 -6.131675 1.473805,-3.308162 -5.589288 1.772016,-2.822287 -6.739711 0.2887845,-2.675866 -6.977437 1.140823,-2.675866 -6.977437 1.140823,-2.720191 -8.419798 0.9257034,-2.321934 -6.69675 0.3251466,-2.201938 -7.026796 1.050714,-2.296002 -8.02532 0.8275139,-2.40002 -8.349895 0.572479,-1.889561 -6.86593 0.4359962,-1.807285 -7.263738 0.8394687,-1.947456 -7.991542 0.7107549,-2.096435 -8.203426 0.5848159,-9.542976 -9.602488 -0.706717,-8.956455 -9.501286 -0.3529909,-8.439381 -8.830368 0.1125132,-8.613255 -8.401548 0.5324775,-9.04915 -8.011852 0.9198084,-8.669042 -6.857875 -0.006666899,-8.555209 -5.798782 0.5353038,-8.60436 -5.262325 0.8855636,-8.719948 -5.038658 1.096469,-9.130579 -6.622158 0.0733847,-9.203359 -6.619844 0.6516824,-9.135817 -7.413229 0.9192963,-9.034199 -7.981833 1.064136,-9.546618 -6.800107 0.178617,-9.588552 -7.275198 0.6625923,-9.470404 -8.02747 0.7501131,-9.34066 -8.435095 0.7585351,-9.908672 -7.209157 0.3398091,-9.914632 -7.587419 0.6578931,-9.763165 -8.183292 0.7680725,-9.594735 -8.481386 0.7606577,2.210, 2
-2.179874 -9.019806 -0.9834543,-2.72527 -9.239511 -0.3084229,-3.291645 -8.836178 0.2754717,-3.442574 -8.205774 0.7670227,-3.248041 -7.546381 1.247284,-3.243246 -7.181114 0.279845,-3.334603 -6.654513 1.017049,-3.347504 -6.143481 1.423262,-3.299662 -5.60037 1.7301,-2.81823 -6.742957 0.2222954,-2.675737 -7.004406 1.089497,-2.675737 -7.004406 1.089497,-2.703615 -8.445456 0.8931669,-2.325772 -6.701015 0.2756226,-2.205976 -7.048729 1.026699,-2.292723 -8.0236 0.8360614,-2.392373 -8.351851 0.5983075,-1.895525 -6.869689 0.4018341,-1.808225 -7.276041 0.8264037,-1.94215 -7.999073 0.7183825,-2.09254 -8.21258 0.6107172,-9.528973 -9.604424 -0.5166588,-8.949723 -9.481022 -0.125241,-8.418185 -8.808405 0.3731262,-8.593235 -8.392756 0.8212355,-9.045149 -8.002819 1.228484,-8.668143 -6.837278 0.2711209,-8.544044 -5.792957 0.8628315,-8.594085 -5.263153 1.218086,-8.716309 -5.041588 1.418105,-9.144865 -6.586235 0.3461649,-9.199758 -6.652221 0.9663994,-9.124939 -7.444977 1.211222,-9.023077 -7.998497 1.328145,-9.566984 -6.76468 0.4503127,-9.585683 -7.316633 0.9784781,-9.45564 -8.065878 1.034058,-9.326134 -8.446518 1.004429,-9.925974 -7.201013 0.6181046,-9.907694 -7.622224 0.9678047,-9.752617 -8.221611 1.074484,-9.592302 -8.5175 1.049609,2.310, 2
-2.169834 -9.012402 -0.927095,-2.728658 -9.226414 -0.2371217,-3.288857 -8.840376 0.3645769,-3.441752 -8.209036 0.8745018,-3.256193 -7.520738 1.364748,-3.230865 -7.158935 0.3660948,-3.324938 -6.666405 1.102843,-3.342865 -6.17782 1.494745,-3.304383 -5.634495 1.794113,-2.796505 -6.728507 0.3067052,-2.670711 -7.008651 1.186452,-2.670711 -7.008651 1.186452,-2.720745 -8.410616 0.9797682,-2.301366 -6.695988 0.3547381,-2.191302 -7.06912 1.111329,-2.291807 -8.055517 0.9032509,-2.394367 -8.362942 0.6522558,-1.872126 -6.874721 0.4766082,-1.795735 -7.306356 0.8957676,-1.941071 -8.015022 0.7804774,-2.091286 -8.217201 0.6599835,-9.522779 -9.580687 -0.6354266,-8.941602 -9.459795 -0.2350533,-8.429442 -8.817278 0.2697549,-8.6049 -8.439291 0.7256114,-9.029874 -8.052021 1.150637,-8.649435 -6.83517 0.1416301,-8.529656 -5.7672 0.7264595,-8.57913 -5.236351 1.096443,-8.699913 -5.015655 1.308694,-9.121655 -6.596338 0.2135009,-9.193453 -6.595599 0.83654,-9.120225 -7.423656 1.105891,-9.017706 -8.004883 1.241245,-9.547897 -6.772895 0.3163185,-9.586864 -7.248331 0.8442031,-9.461561 -8.030054 0.9205205,-9.327865 -8.443499 0.9128134,-9.91621 -7.190773 0.4791883,-9.921995 -7.532978 0.8284736,-9.767825 -8.150166 0.9430176,-9.598769 -8.467031 0.9369857,2.410, 2
-2.167504 -9.043686 -0.7844679,-2.732654 -9.241251 -0.1261511,-3.314438 -8.846134 0.4682369,-3.453756 -8.206579 0.962935,-3.230927 -7.540758 1.438894,-3.263864 -7.202089 0.5017313,-3.329391 -6.727643 1.218946,-3.342622 -6.229888 1.60143,-3.313568 -5.656336 1.896998,-2.843596 -6.726482 0.4499999,-2.685265 -7.071281 1.281805,-2.685265 -7.071281 1.281805,-2.730282 -8.474472 1.066183,-2.34643 -6.65369 0.506327,-2.210541 -7.103788 1.208364,-2.305986 -8.064222 0.9915179,-2.412636 -8.365845 0.7629485,-1.911541 -6.806101 0.6341822,-1.813078 -7.314353 1.003666,-1.951492 -8.02943 0.8724948,-2.108755 -8.229252 0.7654004,-9.542311 -9.583664 -0.646808,-8.951459 -9.483557 -0.3189001,-8.421027 -8.810049 0.1572612,-8.586664 -8.375786 0.5905249,-9.014441 -7.971893 0.9894123,-8.668694 -6.836472 0.09231311,-8.544308 -5.795351 0.6534239,-8.5924 -5.255753 0.9939666,-8.712463 -5.043037 1.177672,-9.139425 -6.595207 0.1744832,-9.191429 -6.629768 0.6976911,-9.122227 -7.392792 0.8902453,-9.03385 -7.92847 0.9905506,-9.560272 -6.782604 0.2880169,-9.57579 -7.256135 0.7168187,-9.465238 -7.985082 0.7584476,-9.354527 -8.380486 0.7479712,-9.926303 -7.200043 0.455254,-9.914236 -7.55361 0.7012364,-9.773397 -8.129423 0.7741696,-9.625958 -8.430683 0.74928,2.510, 2
-2.174246 -9.085104 -0.7516602,-2.730035 -9.276573 -0.09452486,-3.318542 -8.846128 0.4846473,-3.464344 -8.190813 0.9748045,-3.234133 -7.526882 1.44381,-3.275274 -7.201177 0.5290736,-3.33129 -6.730962 1.246488,-3.338446 -6.235172 1.622899,-3.305614 -5.693866 1.901962,-2.855732 -6.756698 0.4794174,-2.692979 -7.021738 1.298891,-2.692979 -7.021738 1.298891,-2.739222 -8.471272 1.14704,-2.35571 -6.688573 0.5318394,-2.219602 -7.048726 1.240906,-2.30599 -8.030516 1.059134,-2.407102 -8.401003 0.8554804,-1.910856 -6.839126 0.6557674,-1.808715 -7.228675 1.040359,-1.939796 -7.967066 0.9336709,-2.101281 -8.241226 0.8405327,-9.547081 -9.61068 -0.7110613,-8.965014 -9.509787 -0.3514594,-8.430749 -8.8433 0.1202604,-8.586921 -8.394304 0.5527018,-9.036415 -7.995759 0.9390759,-8.676842 -6.872417 -0.009878993,-8.533055 -5.820829 0.572523,-8.583703 -5.327287 0.9465247,-8.71979 -5.204268 1.160751,-9.14073 -6.632798 0.07653815,-9.190754 -6.637794 0.676327,-9.125378 -7.4167 0.9380101,-9.037191 -7.979241 1.063376,-9.554378 -6.81485 0.1978965,-9.581553 -7.288329 0.7009797,-9.463453 -8.030399 0.7781551,-9.343267 -8.411858 0.7636163,-9.910002 -7.246784 0.3763123,-9.908554 -7.630181 0.6984192,-9.761328 -8.219023 0.7923946,-9.606577 -8.505678 0.7630068,2.610, 2
-2.215765 -9.157974 -0.6168596,-2.773435 -9.304342 0.05798,-3.32094 -8.874592 0.6676984,-3.432117 -8.245316 1.177816,-3.216045 -7.592109 1.679537,-3.286788 -7.208044 0.6709571,-3.338585 -6.757967 1.390677,-3.355146 -6.265209 1.792395,-3.321898 -5.681848 2.103746,-2.84572 -6.771802 0.6167157,-2.683155 -7.092369 1.468467,-2.683155 -7.092369 1.468467,-2.748731 -8.557981 1.279314,-2.333324 -6.733815 0.6742339,-2.198931 -7.140285 1.412222,-2.309677 -8.160799 1.197931,-2.420368 -8.465395 0.9571798,-1.889405 -6.926464 0.7996844,-1.789959 -7.368105 1.196279,-1.940219 -8.110847 1.049975,-2.097499 -8.293661 0.9212401,-9.555512 -9.602095 -0.8025221,-8.974604 -9.514063 -0.4532336,-8.440744 -8.865749 0.006765962,-8.595752 -8.406179 0.4300673,-9.043467 -8.004641 0.8207206,-8.656083 -6.892995 -0.1598352,-8.475362 -5.837299 0.4217036,-8.523665 -5.337776 0.8049047,-8.673546 -5.246498 1.034086,-9.118944 -6.641194 -0.0717119,-9.175318 -6.562561 0.5235088,-9.120196 -7.330611 0.7991245,-9.038235 -7.925314 0.9239565,-9.53965 -6.799864 0.05408716,-9.568986 -7.233097 0.5481921,-9.451447 -7.993982 0.638098,-9.328766 -8.397482 0.6217127,-9.910026 -7.212217 0.2343951,-9.902519 -7.590259 0.5588914,-9.751781 -8.190014 0.6619494,-9.591572 -8.478737 0.6289083,2.710, 2
-2.130469 -9.101952 -0.8188418,-2.675584 -9.315784 -0.1619745,-3.258406 -8.911631 0.4233619,-3.440764 -8.267405 0.9311256,-3.251315 -7.59313 1.416812,-3.245193 -7.211355 0.3990699,-3.332921 -6.713418 1.111061,-3.359741 -6.270008 1.501888,-3.35173 -5.774852 1.790809,-2.821134 -6.769656 0.3561001,-2.673617 -7.075464 1.201508,-2.673617 -7.075464 1.201508,-2.710383 -8.446577 1.045463,-2.331498 -6.737081 0.4157554,-2.20179 -7.168242 1.119853,-2.285392 -8.136816 0.9302143,-2.410018 -8.421675 0.7094761,-1.903702 -6.930123 0.5489037,-1.804423 -7.47178 0.947062,-1.939927 -8.195566 0.8563924,-2.114611 -8.371717 0.7666444,-9.576793 -9.613508 -0.873556,-8.990516 -9.522301 -0.5312678,-8.440711 -8.902279 -0.08328038,-8.589292 -8.46649 0.3213522,-9.040396 -8.077251 0.6724286,-8.654097 -6.929639 -0.2231464,-8.441631 -5.895862 0.3354346,-8.449421 -5.395735 0.6803674,-8.5604 -5.268005 0.8767754,-9.115899 -6.677151 -0.143825,-9.154976 -6.588156 0.4292146,-9.112286 -7.357563 0.6845602,-9.037361 -7.947767 0.7932799,-9.532476 -6.840423 -0.0261755,-9.56043 -7.205936 0.459409,-9.459578 -7.95778 0.554008,-9.346096 -8.369068 0.546873,-9.904916 -7.246322 0.1434501,-9.913196 -7.505077 0.470472,-9.775334 -8.080675 0.5944843,-9.616678 -8.390934 0.5829924,2.810, 2
-2.191367 -9.135717 -0.9092104,-2.757693 -9.31299 -0.1976413,-3.299092 -8.894247 0.4163396,-3.418325 -8.297215 0.9349968,-3.238923 -7.660602 1.447802,-3.269803 -7.263933 0.4108311,-3.342749 -6.734567 1.162145,-3.376123 -6.224788 1.600472,-3.3552 -5.688623 1.941935,-2.813873 -6.852804 0.3394054,-2.676363 -7.044672 1.222067,-2.676363 -7.044672 1.222067,-2.72129 -8.568859 1.03643,-2.29957 -6.831081 0.3833951,-2.183463 -7.126892 1.144132,-2.286096 -8.159449 0.9340565,-2.402893 -8.511457 0.6845802,-1.858006 -7.035081 0.4998772,-1.785574 -7.366332 0.9389778,-1.932729 -8.109915 0.8180641,-2.08914 -8.339678 0.6957926,-9.607713 -9.650106 -0.8416393,-9.035745 -9.594975 -0.4781009,-8.465698 -8.98778 -0.02254015,-8.599236 -8.519039 0.3880706,-9.072234 -8.124596 0.7332937,-8.638092 -7.009651 -0.1673968,-8.408944 -6.001009 0.3918332,-8.367173 -5.494491 0.7173871,-8.41204 -5.292684 0.8992774,-9.103589 -6.719171 -0.08136046,-9.111806 -6.658062 0.5163851,-9.089743 -7.425643 0.7753353,-9.038853 -8.006929 0.8658777,-9.529976 -6.861606 0.04658729,-9.538502 -7.301269 0.5716549,-9.455778 -8.033834 0.6518054,-9.363499 -8.420868 0.609292,-9.916138 -7.2663 0.2310481,-9.904811 -7.611758 0.5932331,-9.782428 -8.17428 0.721171,-9.642993 -8.461966 0.6931728,2.910, 2
-2.182253 -9.154253 -1.031375,-2.708717 -9.328657 -0.3292901,-3.287066 -8.94606 0.2492303,-3.441983 -8.31666 0.7362027,-3.235999 -7.64188 1.203916,-3.247911 -7.291939 0.2260293,-3.350781 -6.765714 0.9685203,-3.378475 -6.274588 1.38323,-3.366088 -5.723274 1.688034,-2.811882 -6.851808 0.1539356,-2.682901 -7.066343 1.01918,-2.682901 -7.066343 1.01918,-2.690741 -8.52903 0.8359644,-2.319461 -6.802069 0.1928674,-2.205422 -7.108913 0.9451634,-2.279819 -8.127428 0.7583845,-2.388778 -8.482233 0.5199865,-1.891026 -6.970474 0.3038882,-1.815516 -7.34299 0.7281376,-1.941 -8.0888 0.6384809,-2.093755 -8.340662 0.532639,-9.628621 -9.645819 -0.7456916,-9.06357 -9.580254 -0.3225479,-8.477075 -8.941492 0.1413602,-8.65891 -8.430508 0.5486255,-9.14638 -8.01366 0.8630377,-8.634506 -6.991298 -0.117802,-8.403784 -6.041975 0.4435356,-8.353104 -5.517715 0.7521975,-8.363641 -5.228103 0.9067769,-9.083937 -6.676099 -0.05600601,-9.116812 -6.68275 0.6050657,-9.119022 -7.54602 0.8945727,-9.067616 -8.100105 0.9607019,-9.502951 -6.778972 0.04940104,-9.533207 -7.154053 0.5704772,-9.475155 -7.963689 0.6641371,-9.390757 -8.348345 0.6167433,-9.891025 -7.153473 0.2248116,-9.888762 -7.488307 0.5919552,-9.779455 -8.093828 0.7330456,-9.647196 -8.364618 0.7002466,3.010, 2
-2.16292 -9.174398 -0.830779,-2.710997 -9.360525 -0.1459443,-3.281242 -8.934212 0.4302207,-3.42667 -8.310633 0.9157656,-3.215759 -7.647565 1.376895,-3.234989 -7.27493 0.4262486,-3.335491 -6.777108 1.157591,-3.372865 -6.291145 1.571838,-3.366753 -5.732638 1.885728,-2.798391 -6.836244 0.3557389,-2.673263 -7.123912 1.207919,-2.673263 -7.123912 1.207919,-2.69437 -8.538361 1.014849,-2.309216 -6.79462 0.3972878,-2.199458 -7.19083 1.126445,-2.285489 -8.188011 0.9197985,-2.394558 -8.499632 0.6744245,-1.887519 -6.968275 0.507802,-1.812209 -7.386003 0.9088613,-1.941039 -8.11783 0.8016913,-2.091881 -8.337807 0.6850704,-9.653429 -9.578695 -1.221779,-9.082266 -9.562124 -0.7680545,-8.535184 -8.952917 -0.3324031,-8.642818 -8.424702 0.04002416,-9.050038 -8.005472 0.3899287,-8.639544 -7.042694 -0.5608224,-8.411277 -6.045219 -0.01429713,-8.337634 -5.522921 0.3409162,-8.330646 -5.255231 0.5589898,-9.065001 -6.763772 -0.5162826,-9.097232 -6.62834 0.1533562,-9.11772 -7.494174 0.5016428,-9.094374 -8.151997 0.6230575,-9.474941 -6.863315 -0.4228488,-9.513714 -7.063455 0.1354809,-9.479483 -7.8885 0.3047904,-9.408179 -8.41786 0.310842,-9.87425 -7.187249 -0.2759275,-9.881493 -7.345781 0.1577172,-9.783817 -7.968288 0.3285582,-9.648463 -8.356512 0.31185,3.110, 2
-2.188844 -9.229563 -0.5623787,-2.756176 -9.384281 0.09473991,-3.329775 -8.965252 0.6910572,-3.458429 -8.346582 1.190445,-3.228239 -7.700933 1.656999,-3.279028 -7.28988 0.7377363,-3.3473 -6.804557 1.446124,-3.385474 -6.297176 1.819469,-3.401503 -5.706995 2.097022,-2.839089 -6.837089 0.6832283,-2.671646 -7.205602 1.51279,-2.671646 -7.205602 1.51279,-2.735737 -8.599405 1.300967,-2.334424 -6.784076 0.7381698,-2.194227 -7.256952 1.4407,-2.294564 -8.237562 1.226038,-2.418907 -8.526621 1.01229,-1.894457 -6.957254 0.8598254,-1.78781 -7.450382 1.204128,-1.935921 -8.168137 1.072736,-2.109448 -8.357895 0.965969,-9.727875 -9.617979 -0.7405882,-9.150728 -9.501087 -0.2371737,-8.611254 -8.861242 0.2766726,-8.819236 -8.379232 0.7171199,-9.288039 -7.954561 1.078904,-8.762285 -6.986636 0.04900384,-8.552464 -6.018129 0.6710627,-8.493181 -5.461533 1.086122,-8.479208 -5.140224 1.363748,-9.230157 -6.682059 0.1158652,-9.283593 -6.587222 0.8723775,-9.248165 -7.352005 1.2778,-9.177313 -7.911468 1.465902,-9.671109 -6.798824 0.2113979,-9.693351 -7.262502 0.8192208,-9.593836 -8.0425 0.9613777,-9.49056 -8.420588 0.9471439,-10.06952 -7.214267 0.3790127,-10.05975 -7.654867 0.8233727,-9.913217 -8.277952 0.9866138,-9.758334 -8.534218 0.9729974,3.210, 2
-2.261861 -9.298073 -0.3500835,-2.815951 -9.410601 0.2274635,-3.396895 -8.940506 0.7954364,-3.541451 -8.316738 1.271192,-3.297245 -7.715597 1.720787,-3.304543 -7.25749 0.8886397,-3.36935 -6.761329 1.553795,-3.432257 -6.248039 1.88075,-3.492095 -5.66617 2.123669,-2.869565 -6.811059 0.8680503,-2.734495 -7.15345 1.603877,-2.734495 -7.15345 1.603877,-2.812506 -8.496977 1.348493,-2.376892 -6.788936 0.9427289,-2.257293 -7.263826 1.561309,-2.35619 -8.183142 1.328648,-2.472257 -8.457737 1.119682,-1.960672 -7.004945 1.082968,-1.87156 -7.50642 1.379817,-2.003224 -8.182251 1.252836,-2.158103 -8.351376 1.157521,-9.828619 -9.640791 -0.5211747,-9.245668 -9.493721 -0.02091408,-8.701594 -8.787954 0.4781148,-8.945833 -8.291916 0.9194047,-9.406808 -7.844619 1.278983,-8.871705 -6.934773 0.1770812,-8.689118 -5.984937 0.8096657,-8.64215 -5.448287 1.195558,-8.643414 -5.11444 1.440327,-9.345655 -6.615418 0.2579328,-9.397961 -6.632968 1.038856,-9.329533 -7.493005 1.399891,-9.244014 -8.015356 1.505579,-9.79097 -6.727584 0.3748768,-9.802963 -7.171925 0.9727488,-9.686591 -7.996747 1.109166,-9.589886 -8.306297 1.067511,-10.19122 -7.147897 0.5724655,-10.1772 -7.609257 1.012336,-10.02047 -8.26338 1.160113,-9.880104 -8.457005 1.116029,3.310, 2
-2.348777 -9.224325 -0.7460665,-2.900871 -9.435625 -0.129484,-3.469965 -9.041553 0.4421551,-3.662487 -8.414013 0.9176408,-3.486889 -7.731966 1.333559,-3.39399 -7.327938 0.466046,-3.508495 -6.764846 1.10202,-3.613878 -6.193653 1.433578,-3.714428 -5.525251 1.69795,-2.982399 -6.849876 0.4246985,-2.838823 -7.218527 1.189767,-2.838823 -7.218527 1.189767,-2.866291 -8.449114 0.8899666,-2.513383 -6.782126 0.4864596,-2.389207 -7.290603 1.090415,-2.450702 -8.188713 0.8185261,-2.567591 -8.334038 0.5988412,-2.106274 -6.931062 0.6181569,-2.011189 -7.516834 0.8865037,-2.111727 -8.192024 0.7473785,-2.246248 -8.28223 0.6489373,-9.964729 -9.706942 -0.8990005,-9.423681 -9.483997 -0.356718,-8.90464 -8.748825 0.1370894,-9.112094 -8.134239 0.5421476,-9.551001 -7.643507 0.8581382,-9.011453 -6.998668 -0.225845,-8.81634 -6.049893 0.3682284,-8.747864 -5.511528 0.7778642,-8.727776 -5.195657 1.04454,-9.461469 -6.78494 -0.1704086,-9.5154 -6.528587 0.5863314,-9.496133 -7.340091 0.9884557,-9.445007 -7.930517 1.138303,-9.892321 -6.933549 -0.06752372,-9.933376 -7.111909 0.5587405,-9.848754 -7.960615 0.7433964,-9.774142 -8.389433 0.7313808,-10.29363 -7.357895 0.109917,-10.29406 -7.547457 0.570407,-10.15394 -8.201841 0.7316799,-10.0261 -8.511415 0.707443,3.410, 2
-2.478498 -9.680407 -0.6584312,-3.031036 -9.551199 0.04809451,-3.521317 -9.112978 0.6732856,-3.716585 -8.549192 1.194635,-3.562647 -7.950069 1.683382,-3.408417 -7.601812 0.6222408,-3.369139 -7.3652 1.472237,-3.414621 -7.352577 1.757203,-3.475803 -7.164829 1.852787,-2.99962 -7.282892 0.5775504,-2.91622 -7.370481 1.478442,-2.91622 -7.370481 1.478442,-3.023842 -8.449932 1.420385,-2.552337 -7.219741 0.6376042,-2.458014 -7.436748 1.497231,-2.566675 -8.30064 1.29101,-2.692398 -8.43136 1.004671,-2.135004 -7.396541 0.7261001,-2.10784 -7.540647 1.275742,-2.238358 -8.181589 1.215637,-2.36772 -8.328032 1.042882,-10.10948 -9.741495 -0.8252727,-9.565315 -9.556467 -0.3116716,-9.066968 -8.82552 0.1962913,-9.251997 -8.236605 0.6388909,-9.688169 -7.76256 1.015969,-9.194181 -7.068904 -0.1373459,-9.001559 -6.10996 0.4954499,-8.901919 -5.607482 0.9286063,-8.859859 -5.361906 1.213207,-9.652093 -6.799982 -0.0577355,-9.683775 -6.673228 0.7072035,-9.618351 -7.54103 1.042525,-9.577351 -8.109575 1.131058,-10.07962 -6.945543 0.08104646,-10.07755 -7.200006 0.6847026,-9.981427 -8.053467 0.7889148,-9.938094 -8.43405 0.730902,-10.47161 -7.382339 0.2885448,-10.4525 -7.656803 0.7413895,-10.29987 -8.315016 0.8518704,-10.19402 -8.576935 0.7715546,3.510, 2
-2.471292 -9.628965 -0.6316767,-3.047075 -9.617002 0.03884697,-3.568329 -9.196981 0.6358873,-3.804272 -8.628042 1.110059,-3.727672 -8.011684 1.574461,-3.48888 -7.668767 0.7502143,-3.57879 -7.261955 1.556582,-3.688302 -6.861996 1.914606,-3.854467 -6.336244 2.131443,-3.052983 -7.291978 0.7060767,-3.005558 -7.442787 1.652018,-3.005558 -7.442787 1.652018,-3.089618 -8.483894 1.599536,-2.585183 -7.258382 0.7500867,-2.509117 -7.590727 1.57472,-2.618042 -8.390787 1.376976,-2.762702 -8.433657 1.104827,-2.178262 -7.466305 0.8302565,-2.136456 -7.886902 1.354128,-2.267746 -8.494076 1.315457,-2.409052 -8.523266 1.210613,-10.15777 -9.785618 -0.4969285,-9.618428 -9.528578 0.07571244,-9.130108 -8.774897 0.658246,-9.337776 -8.175571 1.177705,-9.765173 -7.660822 1.61523,-9.230108 -7.02285 0.3024381,-9.038122 -6.165741 1.064336,-8.983807 -5.652112 1.557447,-8.990244 -5.293304 1.846349,-9.694864 -6.766351 0.3440203,-9.732642 -6.787762 1.211838,-9.682036 -7.710481 1.484653,-9.6113 -8.065825 1.484958,-10.13183 -6.902378 0.466516,-10.16297 -7.251407 1.125588,-10.04869 -8.14856 1.161124,-9.963298 -8.33115 1.031264,-10.51461 -7.335586 0.6700956,-10.51346 -7.758731 1.086474,-10.3452 -8.447756 1.159882,-10.21337 -8.543293 1.066129,3.610, 2
-2.466067 -9.386234 -0.8366355,-3.03388 -9.644175 -0.2028556,-3.654627 -9.306494 0.3213702,-3.974076 -8.802288 0.7996652,-3.899675 -8.170832 1.240192,-3.703264 -7.50454 0.1356987,-4.028172 -6.934574 0.7389554,-4.265078 -6.413798 1.104545,-4.491568 -5.865636 1.383861,-3.2966 -7.01356 0.1380917,-3.406957 -7.391468 1.02726,-3.406957 -7.391468 1.02726,-3.203901 -8.567757 0.9828222,-2.833238 -6.922618 0.2449429,-2.886334 -7.47406 0.9633899,-2.822914 -8.375725 0.8270446,-2.835314 -8.517347 0.6534629,-2.387928 -7.03548 0.4190905,-2.431252 -7.493837 0.8175794,-2.446965 -8.24161 0.7685575,-2.490613 -8.399134 0.7197608,-10.26933 -9.69453 -0.5846843,-9.740458 -9.460711 -0.07795417,-9.239346 -8.738615 0.4686786,-9.367327 -8.146999 0.9545083,-9.77361 -7.649004 1.351842,-9.319842 -7.04211 0.23432,-9.125444 -6.274784 1.008702,-8.999884 -5.834593 1.511946,-8.906661 -5.512203 1.810501,-9.766022 -6.722797 0.3065091,-9.723369 -6.790543 1.168062,-9.712296 -7.720998 1.410212,-9.716313 -8.05752 1.395077,-10.18622 -6.819586 0.4536339,-10.16808 -7.090835 1.098047,-10.09212 -7.990322 1.07155,-10.06673 -8.237309 0.9085163,-10.57319 -7.203887 0.6746736,-10.52558 -7.584611 1.122883,-10.38131 -8.271711 1.1712,-10.2891 -8.44837 1.049405,3.710, 2
-2.367509 -9.350164 -1.084722,-2.982697 -9.699171 -0.8491852,-3.68811 -9.507648 -0.4280581,-4.148421 -9.144314 0.01263988,-4.189451 -8.614498 0.3975117,-3.824883 -7.669397 -0.49616,-4.269542 -7.22235 0.1395365,-4.613544 -6.867084 0.5769093,-4.932283 -6.473011 0.8847573,-3.469201 -7.099603 -0.301717,-3.736594 -8.105751 0.4855785,-3.736594 -8.105751 0.4855785,-3.2565 -8.805756 0.3541445,-3.065055 -7.006486 -0.05800378,-3.228684 -8.147461 0.5900123,-3.022646 -8.783598 0.4361583,-2.937393 -8.565289 0.2972002,-2.664731 -7.090588 0.2397189,-2.815308 -8.045118 0.573649,-2.738013 -8.589563 0.4812167,-2.672023 -8.422815 0.4411896,-10.27913 -9.622774 -1.168726,-9.713081 -9.299284 -0.7802064,-9.224866 -8.400576 -0.3089114,-9.274732 -7.553749 0.1242468,-9.573216 -6.812479 0.4695377,-9.456656 -7.046873 -0.2758182,-9.270623 -6.546491 0.4950829,-9.216717 -6.548566 0.8555988,-9.231502 -6.541464 1.066126,-9.879733 -6.852392 -0.1573976,-9.717426 -6.846128 0.689433,-9.674047 -7.628553 0.8562795,-9.720092 -7.874052 0.8277454,-10.26946 -7.039756 0.01500285,-10.1606 -7.109137 0.6715933,-10.04974 -7.876895 0.6019175,-10.07851 -8.092367 0.4499639,-10.64052 -7.464847 0.2400008,-10.54904 -7.597394 0.6194574,-10.4029 -8.159016 0.6184746,-10.36528 -8.325071 0.4930905,3.810, 3
-2.315833 -9.245623 -1.116232,-2.932008 -9.58604 -0.9222606,-3.63743 -9.410524 -0.5208619,-4.130465 -9.064156 -0.106122,-4.136207 -8.535454 0.2607527,-3.793693 -7.5832 -0.5551605,-4.261935 -7.218063 0.03027713,-4.640139 -6.870946 0.3735087,-5.001099 -6.513021 0.6178985,-3.443493 -7.012371 -0.3508713,-3.726716 -8.162294 0.4245613,-3.726716 -8.162294 0.4245613,-3.242034 -8.778542 0.1334339,-3.043683 -6.938431 -0.09860647,-3.223164 -8.270643 0.5466162,-2.998836 -8.834768 0.282865,-2.913495 -8.525669 0.08028233,-2.663385 -7.074699 0.2067039,-2.79128 -8.222649 0.5434502,-2.701266 -8.71093 0.4134053,-2.647302 -8.427282 0.357595,-10.39731 -9.480202 -2.084255,-9.837153 -9.336227 -1.698711,-9.256375 -8.668194 -1.254328,-9.220364 -8.006844 -0.8328968,-9.489973 -7.45891 -0.4651275,-9.354721 -7.355386 -1.321428,-9.107346 -6.806146 -0.6113524,-8.927324 -6.248113 -0.1254183,-8.757815 -5.640031 0.1955035,-9.812671 -6.994612 -1.162445,-9.655423 -6.64594 -0.3119853,-9.598054 -7.173795 -0.04435468,-9.594707 -7.388353 0.01543927,-10.27852 -7.014408 -0.9591677,-10.13157 -7.185838 -0.2708118,-10.06645 -7.942354 -0.36972,-10.10159 -8.032906 -0.5685152,-10.69521 -7.362216 -0.7133268,-10.51636 -7.796664 -0.2495505,-10.4202 -8.398726 -0.3239233,-10.44473 -8.457943 -0.4867159,3.910, 3
-2.291966 -9.068317 -1.188021,-2.909791 -9.387829 -0.9983052,-3.592264 -9.188065 -0.5721783,-4.049686 -8.810358 -0.1327208,-4.038683 -8.307859 0.2654598,-3.732573 -7.418805 -0.5767532,-4.208216 -7.04973 -0.01025605,-4.581914 -6.669015 0.3144405,-4.936426 -6.269905 0.5582829,-3.384267 -6.862976 -0.3626807,-3.708118 -8.027927 0.410422,-3.708118 -8.027927 0.410422,-3.214094 -8.631163 0.02457702,-2.982568 -6.802972 -0.1001254,-3.207726 -8.109247 0.5525904,-2.989585 -8.685667 0.2797451,-2.898265 -8.386267 0.08435011,-2.60389 -6.946556 0.2089978,-2.771845 -8.082453 0.5608219,-2.683022 -8.567984 0.4225374,-2.609413 -8.28269 0.3806674,-10.44263 -9.362549 -2.379789,-9.921795 -9.289448 -1.916491,-9.362549 -8.598137 -1.495975,-9.283005 -7.907512 -1.123849,-9.487683 -7.379134 -0.7710363,-9.464397 -7.268247 -1.611973,-9.210683 -6.70877 -0.8731362,-9.015459 -6.178785 -0.3298638,-8.840904 -5.627634 0.0370481,-9.896526 -6.945892 -1.49661,-9.760561 -6.530505 -0.6561589,-9.725909 -7.243484 -0.3669384,-9.734343 -7.624225 -0.2974296,-10.34249 -6.999988 -1.310557,-10.22451 -7.001585 -0.572968,-10.13178 -7.792339 -0.5299654,-10.13876 -8.025583 -0.651226,-10.74868 -7.345401 -1.093707,-10.6086 -7.664 -0.5289816,-10.49048 -8.259193 -0.4889597,-10.47559 -8.410786 -0.5901715,4.010, 2
-2.285252 -9.011936 -1.086732,-2.886364 -9.316149 -0.8877816,-3.551647 -9.077131 -0.4720006,-4.016457 -8.663412 -0.05213273,-4.074104 -8.124531 0.3127681,-3.703957 -7.314096 -0.4820393,-4.161904 -6.93214 0.0896467,-4.535277 -6.561069 0.4194335,-4.888038 -6.166019 0.6632761,-3.34329 -6.75395 -0.267568,-3.64325 -7.908723 0.5298501,-3.64325 -7.908723 0.5298501,-3.169804 -8.459887 0.191415,-2.941541 -6.702598 -0.01672482,-3.128494 -8.030426 0.6466588,-2.931255 -8.591717 0.3693863,-2.861619 -8.215677 0.162623,-2.572583 -6.862686 0.2883258,-2.701826 -8.031385 0.6344693,-2.623771 -8.508646 0.4889126,-2.568481 -8.167322 0.4376613,-10.4438 -9.317465 -2.433827,-9.932054 -9.232643 -2.029104,-9.398506 -8.568527 -1.633127,-9.327248 -7.901148 -1.274648,-9.535866 -7.37614 -0.9217148,-9.475593 -7.24004 -1.716241,-9.214244 -6.664869 -1.017161,-9.013746 -6.115881 -0.4788718,-8.822813 -5.577598 -0.09797382,-9.902509 -6.903957 -1.585591,-9.767165 -6.467936 -0.8086925,-9.734684 -7.206164 -0.5449073,-9.736316 -7.629398 -0.491163,-10.3442 -6.945325 -1.394122,-10.22698 -6.902263 -0.7132664,-10.13519 -7.700763 -0.6779555,-10.13413 -7.964088 -0.7940491,-10.75024 -7.282187 -1.169188,-10.60615 -7.577129 -0.6358328,-10.48195 -8.168112 -0.5985606,-10.45635 -8.331858 -0.6958408,4.110, 3
-2.328232 -9.064493 -0.858108,-2.934864 -9.325537 -0.4243551,-3.539806 -9.136 0.1375013,-3.883518 -8.772158 0.6466329,-3.964358 -8.403389 1.102964,-3.695387 -7.275981 0.03051507,-4.09565 -6.919317 0.7281178,-4.438808 -6.461057 1.062812,-4.747625 -5.993049 1.27621,-3.329746 -6.783569 0.1567711,-3.648594 -7.799314 0.9953647,-3.648594 -7.799314 0.9953647,-3.183271 -8.796368 0.3775935,-2.891995 -6.710027 0.388463,-3.137173 -7.78852 1.157496,-2.955914 -8.561255 0.744638,-2.862923 -8.536163 0.3748236,-2.442617 -6.874084 0.6745945,-2.658832 -7.802291 1.130347,-2.624911 -8.439121 0.8860272,-2.577679 -8.36434 0.7252846,-10.45635 -9.315777 -2.050707,-9.930514 -9.184177 -1.671738,-9.371067 -8.474684 -1.263255,-9.281521 -7.716333 -0.8815202,-9.471259 -7.109779 -0.5117527,-9.49357 -7.142005 -1.334685,-9.286931 -6.672487 -0.574868,-9.13187 -6.186613 -0.05310452,-8.977618 -5.647729 0.2703444,-9.933903 -6.775163 -1.217509,-9.748174 -6.662112 -0.396493,-9.709159 -7.456208 -0.2094085,-9.73076 -7.728765 -0.2430043,-10.38125 -6.799003 -1.026457,-10.2292 -7.079505 -0.3205047,-10.15059 -7.86858 -0.4017392,-10.17614 -7.929931 -0.6090518,-10.77947 -7.113197 -0.7968711,-10.60664 -7.621019 -0.3426169,-10.50175 -8.223248 -0.4105146,-10.51618 -8.23485 -0.5867735,4.210, 3
-2.263729 -9.064543 -0.6907163,-2.864956 -9.338171 -0.2699447,-3.485106 -9.121281 0.2998771,-3.82822 -8.761623 0.814291,-3.929469 -8.405661 1.28302,-3.648527 -7.264602 0.1697249,-4.041204 -6.909452 0.8380287,-4.376242 -6.448715 1.154635,-4.690763 -5.985709 1.345667,-3.310944 -6.738603 0.3035864,-3.600701 -7.842712 1.115421,-3.600701 -7.842712 1.115421,-3.119592 -8.787926 0.5246437,-2.886722 -6.644528 0.5379328,-3.09177 -7.843383 1.286273,-2.880467 -8.56654 0.9046214,-2.798279 -8.486738 0.586058,-2.455058 -6.805635 0.8293228,-2.650648 -7.82986 1.236332,-2.585613 -8.449108 0.9920571,-2.523412 -8.344414 0.8702766,-10.4681 -9.269272 -2.399859,-9.948944 -9.207302 -1.999403,-9.40669 -8.622643 -1.584527,-9.296642 -7.980247 -1.200596,-9.540965 -7.498559 -0.8158591,-9.453646 -7.216106 -1.645877,-9.170166 -6.671426 -0.9812126,-8.956001 -6.106607 -0.4174184,-8.76148 -5.582611 0.0009373426,-9.888497 -6.869628 -1.508679,-9.768887 -6.39551 -0.756987,-9.711062 -6.953148 -0.3971492,-9.701535 -7.366819 -0.2159745,-10.34246 -6.88454 -1.320009,-10.22849 -6.873355 -0.6675307,-10.13148 -7.634143 -0.6093068,-10.12095 -7.93601 -0.677942,-10.76371 -7.211542 -1.10174,-10.62901 -7.490863 -0.5650462,-10.50365 -8.059366 -0.5341998,-10.45796 -8.25827 -0.6100223,4.310, 3
-2.179738 -8.878809 -1.280869,-2.774793 -9.267683 -1.029903,-3.458734 -9.059996 -0.6154786,-3.934164 -8.698376 -0.1847049,-4.045835 -8.144556 0.1783417,-3.653494 -7.26715 -0.7202289,-4.114064 -6.8553 -0.1575251,-4.490718 -6.492548 0.2021612,-4.842331 -6.108406 0.4640992,-3.313507 -6.695449 -0.5404944,-3.568766 -7.824863 0.2171241,-3.568766 -7.824863 0.2171241,-3.107346 -8.416512 -0.009049773,-2.9158 -6.61033 -0.3046809,-3.066895 -7.895901 0.3232551,-2.86383 -8.498566 0.09909821,-2.795009 -8.192348 -0.0629611,-2.538162 -6.730038 -0.008988619,-2.660135 -7.885581 0.2959642,-2.578503 -8.398037 0.1997559,-2.529168 -8.126812 0.1755173,-10.46049 -9.225805 -2.27415,-9.928058 -9.079548 -1.874103,-9.377138 -8.438602 -1.445338,-9.226211 -7.721352 -1.053244,-9.386477 -7.124017 -0.6627713,-9.497289 -7.092819 -1.509106,-9.297327 -6.625561 -0.7577546,-9.139138 -6.154946 -0.2054964,-8.990017 -5.651018 0.1500992,-9.924768 -6.77222 -1.396239,-9.749842 -6.593346 -0.5831404,-9.704738 -7.387319 -0.3584253,-9.722514 -7.7266 -0.346571,-10.36344 -6.823286 -1.211405,-10.22528 -6.929828 -0.5046718,-10.1365 -7.705083 -0.5336862,-10.14967 -7.872224 -0.6880275,-10.75842 -7.14167 -0.996417,-10.63126 -7.478181 -0.4983332,-10.51338 -8.054129 -0.5133259,-10.49506 -8.1602 -0.6348079,4.410, 3
-2.169594 -8.924873 -1.080111,-2.778922 -9.201355 -0.8715409,-3.468012 -8.961346 -0.4596771,-3.93371 -8.537853 -0.03683639,-3.942269 -8.002535 0.3188894,-3.61542 -7.249222 -0.4540675,-4.055897 -6.839939 0.1332779,-4.429453 -6.478311 0.4808089,-4.782435 -6.101902 0.7278612,-3.249207 -6.678035 -0.2524499,-3.504524 -7.844423 0.5564141,-3.504524 -7.844423 0.5564141,-3.072622 -8.339825 0.2460732,-2.836028 -6.61654 -0.005990863,-2.976807 -7.983121 0.65493,-2.798578 -8.492649 0.3942554,-2.743961 -8.110855 0.2005411,-2.452672 -6.761875 0.2955409,-2.552621 -7.965966 0.6286471,-2.488875 -8.411781 0.4916645,-2.445507 -8.069897 0.4430093,-10.51514 -9.093439 -2.241892,-9.913965 -8.887634 -1.988702,-9.341155 -8.18947 -1.579367,-9.086735 -7.463087 -1.149974,-9.070963 -6.791581 -0.7327569,-9.446397 -6.990325 -1.563986,-9.202481 -6.600293 -0.8245858,-8.96181 -6.175272 -0.3354546,-8.74145 -5.777631 -0.03863728,-9.857927 -6.645257 -1.404597,-9.585239 -6.884872 -0.6151321,-9.556199 -7.685892 -0.4794389,-9.604527 -7.943096 -0.5655923,-10.29849 -6.698274 -1.170941,-10.04684 -7.177029 -0.5192353,-10.02768 -7.901447 -0.598985,-10.11002 -7.936065 -0.7660564,-10.69402 -6.961193 -0.9218349,-10.44897 -7.550724 -0.5372363,-10.38948 -8.097036 -0.5984297,-10.45424 -8.083624 -0.7321684,4.510, 4
-2.112968 -8.944765 -1.075005,-2.718318 -9.220507 -0.7931027,-3.395782 -9.010206 -0.3357558,-3.849961 -8.589525 0.1327435,-3.835712 -8.012651 0.5372155,-3.567097 -7.227317 -0.4458284,-4.006952 -6.839582 0.1492586,-4.36465 -6.47425 0.4960015,-4.703781 -6.079063 0.7369967,-3.191258 -6.691843 -0.2576404,-3.46445 -7.812113 0.5629795,-3.46445 -7.812113 0.5629795,-3.018223 -8.349846 0.2797238,-2.7725 -6.644076 -0.01141441,-2.93973 -7.933517 0.6718943,-2.755447 -8.496758 0.4489113,-2.698511 -8.146456 0.2677763,-2.375266 -6.798471 0.301005,-2.505461 -7.923076 0.66061,-2.445413 -8.397787 0.5471593,-2.400276 -8.08876 0.5085782,-10.8028 -8.726997 -3.106525,-10.22101 -8.959993 -2.990194,-9.605573 -8.627573 -2.579947,-9.297631 -8.190363 -2.100466,-9.340127 -7.775447 -1.609832,-9.441964 -7.172868 -2.582269,-8.984553 -6.824138 -1.919297,-8.610214 -6.537052 -1.532191,-8.291279 -6.282097 -1.366927,-9.788589 -6.666649 -2.335427,-9.434328 -6.876115 -1.562535,-9.542218 -7.687643 -1.562189,-9.706119 -7.880752 -1.774508,-10.19789 -6.581287 -2.021559,-9.906858 -7.198636 -1.452163,-10.02666 -7.904157 -1.611252,-10.18395 -7.813837 -1.813047,-10.59345 -6.751121 -1.688126,-10.32462 -7.588029 -1.37488,-10.3634 -8.117653 -1.451558,-10.48486 -7.988645 -1.51492,4.610, 2
-2.0924 -8.947453 -1.026764,-2.707386 -9.238214 -0.7602677,-3.39359 -9.026051 -0.2966408,-3.840082 -8.582344 0.1788262,-3.792405 -8.011919 0.5871335,-3.537292 -7.235568 -0.3405986,-3.971669 -6.850065 0.2595972,-4.324018 -6.476068 0.621572,-4.658987 -6.066375 0.8786163,-3.158283 -6.697053 -0.144268,-3.433009 -7.836225 0.6697614,-3.433009 -7.836225 0.6697614,-2.969445 -8.456692 0.3557627,-2.734088 -6.642475 0.1079613,-2.907595 -7.946609 0.7824941,-2.723036 -8.519669 0.5558873,-2.648506 -8.218832 0.3776464,-2.326421 -6.789257 0.4272265,-2.467141 -7.916532 0.7685122,-2.413081 -8.398392 0.6533456,-2.362048 -8.128716 0.6126368,-10.75531 -8.891747 -3.166783,-10.20164 -8.898489 -2.860954,-9.621722 -8.557741 -2.452704,-9.330231 -8.131931 -2.019221,-9.350829 -7.65759 -1.544911,-9.580916 -7.150745 -2.473117,-9.166613 -6.624145 -1.876705,-8.788301 -6.362905 -1.382986,-8.468852 -6.190551 -1.017665,-9.938962 -6.804951 -2.292187,-9.63772 -6.357522 -1.527367,-9.572618 -7.050069 -1.133968,-9.608731 -7.605048 -0.9667476,-10.35141 -6.776847 -2.060712,-10.1203 -6.724571 -1.377053,-10.04581 -7.467184 -1.144141,-10.0636 -7.853657 -1.110411,-10.75511 -6.997884 -1.845858,-10.58663 -7.225511 -1.312037,-10.46263 -7.774999 -1.159609,-10.42192 -8.061413 -1.136216,4.710, 2
-2.062707 -8.968998 -1.135346,-2.678794 -9.301886 -0.8276939,-3.351435 -9.117886 -0.3478169,-3.778591 -8.672619 0.1328261,-3.721819 -8.072969 0.5375271,-3.494806 -7.296384 -0.4167527,-3.91329 -6.885257 0.1968199,-4.262054 -6.501455 0.5600443,-4.584505 -6.091365 0.8121784,-3.106791 -6.750741 -0.2379601,-3.370366 -7.892982 0.5917963,-3.370366 -7.892982 0.5917963,-2.928033 -8.530542 0.2736571,-2.670527 -6.682838 -0.004131079,-2.835507 -8.010193 0.6908212,-2.665167 -8.575287 0.4715462,-2.587629 -8.268078 0.2836168,-2.2485 -6.811795 0.2996097,-2.392307 -7.940612 0.645916,-2.351403 -8.430584 0.5135705,-2.299682 -8.169952 0.4514114,-10.85991 -8.751556 -3.169854,-10.31269 -8.792088 -2.89376,-9.710003 -8.418978 -2.485272,-9.418004 -7.991352 -2.057086,-9.43875 -7.521191 -1.59897,-9.66427 -7.044445 -2.520884,-9.206654 -6.554866 -1.948951,-8.79868 -6.234392 -1.485762,-8.452623 -6.016206 -1.137851,-10.01154 -6.666113 -2.325283,-9.661297 -6.235284 -1.59394,-9.591958 -6.973819 -1.259795,-9.641655 -7.558058 -1.131452,-10.41571 -6.60485 -2.072467,-10.15201 -6.612271 -1.473625,-10.08918 -7.371099 -1.312367,-10.13864 -7.741886 -1.314909,-10.8127 -6.801216 -1.836517,-10.60541 -7.116222 -1.351476,-10.50906 -7.682458 -1.248705,-10.52124 -7.934396 -1.252843,4.810, 2
-1.746305 -9.185581 -1.764187,-2.44971 -9.532053 -1.34426,-3.147892 -9.288052 -1.002782,-3.57074 -8.786156 -0.6664171,-3.743567 -8.320047 -0.3419452,-3.308132 -7.695493 -1.080943,-3.797888 -6.736732 -0.3402176,-4.140334 -6.33205 0.1377449,-4.436157 -5.94485 0.3731217,-2.959638 -7.236507 -0.9643897,-3.320871 -7.457342 0.02468705,-3.320871 -7.457342 0.02468705,-2.975761 -8.771597 0.09311414,-2.562382 -7.052305 -0.7567871,-2.855383 -7.502063 0.1131021,-2.703374 -8.286478 0.02030146,-2.577476 -8.539082 -0.2348298,-2.118206 -7.041407 -0.5373883,-2.392933 -7.512277 0.07482243,-2.398834 -8.140633 0.07944798,-2.37218 -8.355494 -0.01875949,-10.84731 -8.662579 -2.538347,-10.30656 -8.647219 -2.245027,-9.683484 -8.188244 -1.80141,-9.386063 -7.708777 -1.343532,-9.371527 -7.233493 -0.8535738,-9.710009 -6.747764 -1.785613,-9.308857 -6.357855 -1.092429,-8.934726 -6.093078 -0.6164799,-8.625314 -5.891756 -0.3132385,-10.07994 -6.375789 -1.609275,-9.726693 -6.398223 -0.8125665,-9.711873 -7.242553 -0.6141645,-9.805747 -7.682323 -0.6371801,-10.50319 -6.384936 -1.360499,-10.23969 -6.706062 -0.7072824,-10.21007 -7.484873 -0.7111284,-10.28639 -7.697216 -0.8298081,-10.89908 -6.657505 -1.112617,-10.6986 -7.143625 -0.665934,-10.61522 -7.700016 -0.6742605,-10.64909 -7.814382 -0.7683451,4.910, 4
-1.755901 -9.162981 -1.031261,-2.475224 -9.404747 -0.9198705,-3.189957 -9.105972 -0.5461508,-3.629507 -8.664469 -0.1195165,-3.661163 -8.178308 0.2878526,-3.336851 -7.447275 -0.6203499,-3.81328 -6.920322 -0.0249939,-4.141418 -6.554443 0.2977289,-4.436695 -6.218807 0.5135734,-2.959348 -6.910408 -0.3607093,-3.265982 -7.84426 0.4578211,-3.265982 -7.84426 0.4578211,-2.788643 -8.644283 0.3377361,-2.534307 -6.798668 -0.04542631,-2.750684 -7.945772 0.6173853,-2.520837 -8.574434 0.4561228,-2.421438 -8.451326 0.2883652,-2.113406 -6.903686 0.3123273,-2.320364 -7.901302 0.6310111,-2.244442 -8.46526 0.5374724,-2.181673 -8.36956 0.4697644,-10.90333 -8.654194 -3.009276,-10.36386 -8.74102 -2.708251,-9.73796 -8.305786 -2.286677,-9.433057 -7.858976 -1.860832,-9.458065 -7.43493 -1.409288,-9.724738 -6.88379 -2.334689,-9.286696 -6.40863 -1.674666,-8.872261 -6.080057 -1.185686,-8.534532 -5.852001 -0.8510613,-10.09416 -6.505721 -2.152773,-9.769534 -6.154018 -1.362288,-9.688071 -6.90642 -1.063085,-9.731915 -7.447811 -0.9894128,-10.51013 -6.479009 -1.910344,-10.26559 -6.49761 -1.254551,-10.17877 -7.235727 -1.145691,-10.20812 -7.576437 -1.190477,-10.90302 -6.707775 -1.664302,-10.69199 -7.0737 -1.173544,-10.59584 -7.613212 -1.096724,-10.61832 -7.805205 -1.126894,5.010, 3
-1.82514 -9.139465 -1.055964,-2.469733 -9.422894 -0.8826207,-3.141398 -9.183908 -0.4563102,-3.594845 -8.727804 0.009348989,-3.623657 -8.116898 0.4240859,-3.327804 -7.417078 -0.5361516,-3.77594 -6.952905 0.07370329,-4.118684 -6.54537 0.4651196,-4.435309 -6.145198 0.7430977,-2.953496 -6.886467 -0.2903804,-3.25853 -7.932369 0.5561775,-3.25853 -7.932369 0.5561775,-2.782439 -8.680304 0.3715414,-2.527621 -6.819808 0.00946033,-2.738133 -8.063047 0.72082,-2.510456 -8.665728 0.5353993,-2.416889 -8.406519 0.363391,-2.117111 -6.949822 0.356879,-2.297493 -8.029655 0.6973282,-2.216416 -8.545321 0.5779356,-2.15081 -8.308798 0.5116777,-10.87005 -8.696138 -2.787013,-10.32209 -8.749851 -2.49269,-9.708452 -8.298939 -2.057338,-9.428697 -7.862289 -1.614828,-9.447548 -7.46669 -1.129607,-9.703148 -6.864271 -2.07395,-9.271959 -6.367239 -1.418391,-8.858361 -6.032108 -0.9150339,-8.50872 -5.804095 -0.5636067,-10.07594 -6.492141 -1.875253,-9.747625 -6.097858 -1.090968,-9.653955 -6.86268 -0.7626739,-9.684665 -7.453477 -0.6532407,-10.49776 -6.48625 -1.615721,-10.24837 -6.442357 -0.9636832,-10.1504 -7.198883 -0.8439921,-10.1737 -7.595794 -0.868168,-10.90587 -6.760356 -1.357755,-10.69888 -7.049198 -0.8339506,-10.58998 -7.603287 -0.7408988,-10.59945 -7.847038 -0.7555113,5.110, 3
-1.833256 -9.106909 -1.11964,-2.464243 -9.414282 -0.9546521,-3.142607 -9.173695 -0.5436022,-3.598675 -8.693148 -0.09311616,-3.604448 -8.095638 0.2941682,-3.295607 -7.386224 -0.6130688,-3.748871 -6.952684 -0.01979136,-4.099338 -6.555923 0.3453858,-4.429788 -6.160493 0.6187574,-2.918268 -6.85115 -0.3619427,-3.243065 -7.92416 0.4904543,-3.243065 -7.92416 0.4904543,-2.767068 -8.638659 0.2789035,-2.496712 -6.789831 -0.06096458,-2.714342 -8.064754 0.6524928,-2.491066 -8.647539 0.4533621,-2.396153 -8.362877 0.2740484,-2.093911 -6.932582 0.2931722,-2.279791 -8.044827 0.634636,-2.198061 -8.534653 0.5070897,-2.124458 -8.265301 0.4399244,-10.84619 -8.719219 -2.629184,-10.31021 -8.725706 -2.265802,-9.709149 -8.316475 -1.78489,-9.428404 -7.900346 -1.301139,-9.463364 -7.485682 -0.7750354,-9.681816 -6.861997 -1.813063,-9.279819 -6.351559 -1.097456,-8.901399 -6.041395 -0.5492307,-8.578875 -5.822536 -0.1734523,-10.05965 -6.498275 -1.630641,-9.766599 -6.158361 -0.7976503,-9.695724 -6.932494 -0.4569787,-9.733364 -7.462482 -0.348509,-10.48733 -6.503293 -1.385737,-10.2781 -6.502027 -0.6790888,-10.18541 -7.238166 -0.5285698,-10.20393 -7.568565 -0.5529932,-10.89815 -6.782487 -1.137463,-10.73597 -7.074726 -0.5766405,-10.6243 -7.609438 -0.4610742,-10.61828 -7.816431 -0.4641401,5.210, 3
-1.848719 -9.093512 -1.152328,-2.458882 -9.456869 -0.9306341,-3.167858 -9.241171 -0.501444,-3.629438 -8.777872 -0.04127204,-3.57233 -8.161661 0.3438513,-3.286718 -7.395311 -0.5827315,-3.726922 -6.930608 0.003484964,-4.077616 -6.519411 0.3430148,-4.402404 -6.125101 0.5844183,-2.909963 -6.848053 -0.3632439,-3.215107 -7.907978 0.4733113,-3.215107 -7.907978 0.4733113,-2.752436 -8.636524 0.2404284,-2.491088 -6.785186 -0.09378588,-2.70248 -8.044436 0.608754,-2.490435 -8.625807 0.4173719,-2.386684 -8.360661 0.2367765,-2.090767 -6.927597 0.2336913,-2.268744 -8.040913 0.5742669,-2.190368 -8.536137 0.4643234,-2.108782 -8.29665 0.4071178,-10.82039 -8.621523 -2.87275,-10.29512 -8.63801 -2.538203,-9.691036 -8.257896 -2.07622,-9.407824 -7.823343 -1.605771,-9.457875 -7.377457 -1.097774,-9.683424 -6.806402 -2.144607,-9.274615 -6.264834 -1.500206,-8.902068 -5.921073 -0.987568,-8.595587 -5.672252 -0.623125,-10.05219 -6.43799 -1.956723,-9.735813 -6.05582 -1.170731,-9.661511 -6.826913 -0.833167,-9.712748 -7.405307 -0.7074002,-10.47418 -6.408306 -1.705984,-10.24541 -6.398698 -1.035177,-10.16572 -7.180394 -0.8808798,-10.20179 -7.566301 -0.893104,-10.87806 -6.659328 -1.458738,-10.70396 -6.943374 -0.9214815,-10.59853 -7.508972 -0.8125576,-10.60083 -7.760292 -0.8177701,5.310, 2
-1.854139 -9.091658 -1.112301,-2.481472 -9.4303 -0.8581332,-3.167034 -9.241198 -0.3832498,-3.615312 -8.796679 0.1084529,-3.569618 -8.173903 0.525092,-3.283737 -7.375577 -0.4766372,-3.702433 -6.967105 0.1434557,-4.045954 -6.552249 0.5269756,-4.375183 -6.132249 0.8084702,-2.890057 -6.843233 -0.2622843,-3.199709 -7.962615 0.5906147,-3.199709 -7.962615 0.5906147,-2.747226 -8.647408 0.2891277,-2.457128 -6.807621 0.01487541,-2.676148 -8.09222 0.7361343,-2.480403 -8.671278 0.49617,-2.397721 -8.360407 0.2983593,-2.049014 -6.982652 0.3473496,-2.240378 -8.103531 0.7072761,-2.17868 -8.578529 0.5628554,-2.111388 -8.284227 0.4997076,-10.83239 -8.585066 -2.7983,-10.30264 -8.647223 -2.468174,-9.704961 -8.278296 -1.995808,-9.422386 -7.898232 -1.515242,-9.484704 -7.524593 -0.9946291,-9.644889 -6.798917 -2.023758,-9.238652 -6.31874 -1.317294,-8.862098 -5.980592 -0.7966061,-8.548776 -5.723878 -0.4391499,-10.02847 -6.411363 -1.832915,-9.72877 -6.165184 -1.005745,-9.682064 -6.964397 -0.7385709,-9.737368 -7.452634 -0.6996682,-10.46508 -6.394599 -1.577582,-10.24609 -6.464288 -0.9016755,-10.17456 -7.223149 -0.8169472,-10.20651 -7.50332 -0.8771996,-10.88309 -6.65191 -1.312797,-10.69089 -7.036295 -0.8062671,-10.59153 -7.587539 -0.7317388,-10.59691 -7.744171 -0.7593639,5.410, 2
-1.526898 -9.161438 -1.128867,-2.32408 -9.498301 -0.8502146,-3.059191 -9.27372 -0.4984657,-3.463573 -8.784208 -0.1068863,-3.545107 -8.27006 0.2886107,-3.242622 -7.571815 -0.5098671,-3.716112 -6.661909 0.2655463,-4.03426 -6.315994 0.8148556,-4.258923 -6.028518 1.124037,-2.87477 -7.086115 -0.2907824,-3.165808 -7.434899 0.6312789,-3.165808 -7.434899 0.6312789,-2.87134 -8.717842 0.8006504,-2.467469 -6.958313 0.02114439,-2.719926 -7.528348 0.8359281,-2.591401 -8.234509 0.8104042,-2.461544 -8.484375 0.6345975,-2.030992 -7.052063 0.3434017,-2.274185 -7.696655 0.920025,-2.289865 -8.244036 0.9409121,-2.238927 -8.383471 0.8828589,-10.8271 -8.594522 -2.741847,-10.27588 -8.673903 -2.468255,-9.667328 -8.20693 -2.057108,-9.39736 -7.757349 -1.621498,-9.433255 -7.353013 -1.155922,-9.662726 -6.73497 -2.087806,-9.239617 -6.321069 -1.416334,-8.852243 -5.963493 -0.9334131,-8.529487 -5.690353 -0.6070932,-10.0433 -6.34832 -1.890656,-9.721601 -6.18386 -1.067788,-9.660388 -6.994596 -0.7860142,-9.715417 -7.526292 -0.7463862,-10.47332 -6.345838 -1.6218,-10.23564 -6.472049 -0.9495897,-10.15621 -7.230209 -0.8836673,-10.18563 -7.531762 -0.9656764,-10.87895 -6.614145 -1.349878,-10.67594 -7.011947 -0.8532447,-10.57489 -7.554285 -0.8019161,-10.58621 -7.70421 -0.862465,5.510, 3
-1.533773 -9.129234 -0.9456741,-2.327236 -9.443666 -0.8490061,-2.995689 -9.184305 -0.4808005,-3.391459 -8.770136 -0.03335863,-3.562984 -8.399548 0.407305,-3.201593 -7.441827 -0.6064624,-3.672615 -6.830839 -0.02136856,-4.007489 -6.458461 0.3199209,-4.313265 -6.162298 0.5590013,-2.823535 -6.88084 -0.3268021,-3.156026 -7.766523 0.4954627,-3.156026 -7.766523 0.4954627,-2.706179 -8.700809 0.5438628,-2.411283 -6.758823 0.01847583,-2.657041 -7.926826 0.6897869,-2.422454 -8.582647 0.5749002,-2.317796 -8.517902 0.4354553,-2.003667 -6.868717 0.3932568,-2.23077 -7.939606 0.7271665,-2.144081 -8.516359 0.6446223,-2.068408 -8.436024 0.5922951,-10.8029 -8.576366 -2.686558,-10.2345 -8.596846 -2.39769,-9.617918 -8.105959 -1.966349,-9.345837 -7.600191 -1.521313,-9.360355 -7.143068 -1.030438,-9.66435 -6.711201 -1.954274,-9.282407 -6.259975 -1.25244,-8.924185 -5.925762 -0.7615178,-8.630988 -5.695753 -0.4431868,-10.04878 -6.328502 -1.768513,-9.740919 -6.233749 -0.9480567,-9.67287 -7.055305 -0.6999578,-9.72695 -7.582633 -0.6817033,-10.47853 -6.328813 -1.517801,-10.24856 -6.531856 -0.8544323,-10.17321 -7.289884 -0.8171251,-10.21204 -7.571167 -0.9151788,-10.87684 -6.596241 -1.266582,-10.68854 -7.01392 -0.7855364,-10.58894 -7.556598 -0.7558165,-10.60801 -7.703361 -0.8344457,5.610, 3
-1.710979 -9.145327 -0.8241364,-2.389929 -9.408813 -0.7092002,-3.067655 -9.133842 -0.3217871,-3.505499 -8.669071 0.1247181,-3.550404 -8.073481 0.5401297,-3.228024 -7.367292 -0.3541812,-3.690043 -6.894774 0.2238883,-4.017172 -6.505273 0.5733064,-4.318949 -6.12128 0.8135136,-2.860591 -6.818394 -0.08114374,-3.165959 -7.871501 0.7418723,-3.165959 -7.871501 0.7418723,-2.689071 -8.721174 0.6501652,-2.438581 -6.73105 0.2339379,-2.656416 -7.991935 0.9287244,-2.429704 -8.603785 0.7742844,-2.315947 -8.458492 0.6126852,-2.026106 -6.860689 0.5911855,-2.214462 -7.895457 0.917299,-2.144203 -8.443199 0.816003,-2.081388 -8.34016 0.7494496,-10.7968 -8.585566 -2.519779,-10.24205 -8.598785 -2.245519,-9.623917 -8.158649 -1.813746,-9.3378 -7.693588 -1.372157,-9.359156 -7.284538 -0.8824028,-9.622379 -6.726169 -1.795118,-9.224766 -6.290484 -1.080834,-8.862468 -5.918304 -0.5897201,-8.554406 -5.615641 -0.2745876,-10.0027 -6.290502 -1.619203,-9.676379 -6.392864 -0.8063561,-9.657349 -7.193228 -0.5993913,-9.724804 -7.588302 -0.6296388,-10.43778 -6.254129 -1.378098,-10.20218 -6.614954 -0.705722,-10.16903 -7.346612 -0.7094167,-10.21763 -7.535076 -0.8408463,-10.84297 -6.484659 -1.132935,-10.64413 -7.034641 -0.6592637,-10.55931 -7.565546 -0.6448112,-10.58072 -7.6494 -0.7419146,5.710, 3
-1.789277 -9.125196 -0.9443931,-2.415809 -9.397541 -0.7819328,-3.090006 -9.157984 -0.3582132,-3.541195 -8.70236 0.1144303,-3.544216 -8.088726 0.5316682,-3.211506 -7.333816 -0.4529608,-3.669137 -6.855138 0.1287707,-4.005455 -6.465462 0.4776043,-4.324091 -6.102773 0.7189083,-2.844116 -6.793605 -0.1992372,-3.18231 -7.841474 0.6364598,-3.18231 -7.841474 0.6364598,-2.69062 -8.550234 0.4360723,-2.432703 -6.733314 0.1047717,-2.669432 -7.991201 0.8142476,-2.430768 -8.582005 0.6165602,-2.3227 -8.30382 0.433598,-2.037665 -6.881374 0.4599442,-2.244062 -7.959297 0.7976856,-2.146512 -8.454651 0.6880547,-2.054008 -8.206833 0.63298,-10.77954 -8.585033 -2.476203,-10.23519 -8.626406 -2.182255,-9.621025 -8.193245 -1.730287,-9.34615 -7.709377 -1.26469,-9.386487 -7.269147 -0.7626039,-9.632064 -6.707431 -1.711494,-9.248504 -6.263936 -0.9634436,-8.907058 -5.919303 -0.4457798,-8.627192 -5.659697 -0.1294615,-10.01864 -6.277849 -1.542644,-9.724231 -6.350589 -0.7492403,-9.702721 -7.161652 -0.5499988,-9.774456 -7.567628 -0.5774879,-10.45482 -6.26027 -1.307977,-10.25276 -6.643657 -0.6616989,-10.21702 -7.353508 -0.6573242,-10.26615 -7.515975 -0.7763816,-10.85633 -6.513484 -1.064945,-10.69375 -7.118791 -0.6216439,-10.61821 -7.622222 -0.6045679,-10.64017 -7.664773 -0.6889533,5.810, 3
-1.795094 -9.085176 -0.9890355,-2.411108 -9.408518 -0.7983586,-3.101409 -9.206583 -0.360897,-3.557501 -8.718918 0.1208102,-3.527131 -8.067778 0.5511706,-3.219023 -7.298738 -0.4781116,-3.638371 -6.839399 0.1145108,-3.981031 -6.497079 0.4776679,-4.311904 -6.21969 0.7339879,-2.849508 -6.767627 -0.2450024,-3.179134 -7.801487 0.5966116,-3.179134 -7.801487 0.5966116,-2.6969 -8.554529 0.4212445,-2.433708 -6.713037 0.03820348,-2.681082 -7.966844 0.7545768,-2.445525 -8.585951 0.5692446,-2.327362 -8.324255 0.3951569,-2.032978 -6.863813 0.3794296,-2.244716 -7.945282 0.7192599,-2.147347 -8.460558 0.6068028,-2.042776 -8.229763 0.5496119,-10.78274 -8.554316 -2.654819,-10.25439 -8.649559 -2.337554,-9.643564 -8.233971 -1.897727,-9.372322 -7.816878 -1.440138,-9.458076 -7.426134 -0.9701102,-9.581333 -6.725011 -1.927837,-9.15844 -6.307596 -1.226567,-8.786307 -5.932313 -0.7381191,-8.477846 -5.631417 -0.4133084,-9.972095 -6.311832 -1.746804,-9.678283 -6.261077 -0.909247,-9.649415 -7.115766 -0.6930859,-9.72248 -7.597337 -0.7089914,-10.41536 -6.301665 -1.492321,-10.21802 -6.533133 -0.8096622,-10.16622 -7.296833 -0.7877231,-10.20755 -7.530794 -0.9001437,-10.83316 -6.550017 -1.223264,-10.64788 -7.007898 -0.7341676,-10.56516 -7.549888 -0.7003802,-10.58694 -7.652257 -0.7661325,5.910, 2
-1.881755 -8.937958 -1.205218,-2.477585 -9.290411 -1.035824,-3.132329 -9.134382 -0.5133998,-3.559424 -8.684834 0.08635294,-3.523876 -8.029297 0.6481144,-3.227271 -7.120052 -0.6800454,-3.558346 -6.423164 0.03050876,-3.862447 -6.413652 0.4598992,-4.063072 -6.768669 0.6625923,-2.833293 -6.649501 -0.4499406,-3.132314 -7.736494 0.3801357,-3.132314 -7.736494 0.3801357,-2.760996 -8.48653 0.1416767,-2.408901 -6.680709 -0.1457213,-2.646647 -7.881046 0.532208,-2.445146 -8.546095 0.2848363,-2.362527 -8.252499 0.08895874,-2.009763 -6.893507 0.2009189,-2.204803 -7.955771 0.4498518,-2.129945 -8.493715 0.247619,-2.051934 -8.213184 0.1490693,-10.73781 -8.61727 -3.026124,-10.235 -8.704044 -2.671178,-9.637774 -8.350651 -2.236853,-9.35866 -7.927236 -1.806601,-9.450919 -7.517642 -1.347103,-9.577423 -6.855121 -2.321915,-9.185137 -6.238048 -1.71978,-8.848608 -5.779741 -1.243203,-8.549903 -5.416105 -0.884048,-9.964231 -6.463647 -2.163441,-9.693477 -6.117445 -1.398561,-9.630931 -6.86156 -1.071722,-9.644839 -7.392135 -0.9672694,-10.4012 -6.437824 -1.942989,-10.21307 -6.455361 -1.251849,-10.13596 -7.193206 -1.074317,-10.14023 -7.533224 -1.081033,-10.82304 -6.654109 -1.720107,-10.65219 -6.89368 -1.171211,-10.53239 -7.44223 -1.039392,-10.50068 -7.668329 -1.043531,6.010, 1
-1.877361 -9.008121 -1.070494,-2.474451 -9.308844 -0.8726275,-3.123823 -9.135799 -0.3424011,-3.534667 -8.690279 0.2786356,-3.507259 -8.028906 0.8462528,-3.266285 -7.161752 -0.5556991,-3.542217 -6.330045 0.1898664,-3.740877 -6.431444 0.6210942,-3.823656 -6.858226 0.7966235,-2.868575 -6.687934 -0.3303378,-3.134253 -7.600087 0.5263669,-3.134253 -7.600087 0.5263669,-2.814355 -8.465231 0.4750448,-2.439968 -6.6779 -0.04678011,-2.659496 -7.73948 0.6416061,-2.501141 -8.445448 0.4861273,-2.419488 -8.276993 0.337146,-2.027789 -6.841935 0.2885816,-2.21797 -7.736495 0.5819213,-2.174899 -8.355301 0.4559866,-2.118794 -8.230225 0.3616546,-10.75396 -8.732193 -2.518363,-10.21957 -8.800102 -2.112448,-9.610025 -8.430437 -1.645132,-9.347248 -7.94776 -1.154086,-9.536241 -7.515384 -0.6365654,-9.583096 -6.736557 -1.870966,-9.218026 -6.10531 -1.191473,-8.902942 -5.894243 -0.6402991,-8.674581 -5.954845 -0.2460229,-9.970252 -6.391267 -1.732879,-9.708813 -6.164756 -0.9269578,-9.687352 -7.004711 -0.5387006,-9.760329 -7.561759 -0.4524443,-10.39902 -6.410322 -1.514762,-10.20155 -6.460874 -0.8526816,-10.14514 -7.250021 -0.6494442,-10.17474 -7.570019 -0.6711841,-10.81837 -6.658089 -1.288728,-10.63981 -6.939653 -0.7663512,-10.52271 -7.510049 -0.6185563,-10.48916 -7.701421 -0.6173605,6.110, 1
-1.87876 -9.057447 -0.9532313,-2.486761 -9.315666 -0.7470893,-3.130697 -9.153223 -0.2106246,-3.540679 -8.731295 0.410802,-3.49592 -8.096371 0.9936069,-3.24631 -7.164012 -0.4102647,-3.526785 -6.319271 0.3744844,-3.728912 -6.442006 0.8274801,-3.825714 -6.8712 0.9959277,-2.847487 -6.697708 -0.1889359,-3.106183 -7.608619 0.6702589,-3.106183 -7.608619 0.6702589,-2.772844 -8.514471 0.5969226,-2.415992 -6.694453 0.09357584,-2.640054 -7.728212 0.7975638,-2.483085 -8.446638 0.6493601,-2.391005 -8.332909 0.4948807,-1.993466 -6.857215 0.434417,-2.196509 -7.663928 0.7389379,-2.159675 -8.304922 0.6211464,-2.102275 -8.254129 0.5239857,-10.75174 -8.772892 -2.477428,-10.20911 -8.762684 -2.100085,-9.613788 -8.389589 -1.606532,-9.354942 -7.913751 -1.070988,-9.542981 -7.479421 -0.4950887,-9.59342 -6.743527 -1.874417,-9.264851 -6.065446 -1.170808,-8.991766 -5.871149 -0.5948635,-8.828821 -5.998947 -0.1992565,-9.977063 -6.409887 -1.710698,-9.745977 -6.16131 -0.8775944,-9.711807 -6.966222 -0.4404503,-9.777597 -7.53448 -0.3059634,-10.39611 -6.429268 -1.472612,-10.21879 -6.465185 -0.8103812,-10.15329 -7.210054 -0.5787774,-10.17941 -7.529619 -0.5768311,-10.80678 -6.667522 -1.227858,-10.64385 -6.947893 -0.7142242,-10.53074 -7.488668 -0.5443982,-10.50194 -7.662033 -0.5218333,6.210, 1
-1.877605 -8.982639 -0.9935194,-2.489313 -9.294605 -0.7709263,-3.129732 -9.112652 -0.2500055,-3.538628 -8.694586 0.3835198,-3.529566 -8.043695 1.006734,-3.289125 -7.153333 -0.4828514,-3.602966 -6.163146 0.2722982,-3.852152 -6.212482 0.757609,-3.961112 -6.693019 0.9749449,-2.884784 -6.639991 -0.2672938,-3.120275 -7.593119 0.5900916,-3.120275 -7.593119 0.5900916,-2.77367 -8.477856 0.6343454,-2.446765 -6.619054 0.01350605,-2.639309 -7.727384 0.7151412,-2.46592 -8.417776 0.6138824,-2.38734 -8.275654 0.4954748,-2.024055 -6.783065 0.3548597,-2.194128 -7.703935 0.6674992,-2.143746 -8.323858 0.580238,-2.101022 -8.231245 0.5224192,-10.77144 -8.769432 -2.282262,-10.23806 -8.711597 -1.954724,-9.626519 -8.362934 -1.453846,-9.344007 -7.924728 -0.9121187,-9.51393 -7.527773 -0.3218567,-9.629667 -6.699192 -1.654975,-9.35957 -6.13976 -0.9986986,-9.1033 -5.903232 -0.4630945,-8.905263 -5.890481 -0.1029134,-10.01514 -6.35223 -1.476099,-9.770356 -6.119838 -0.7277611,-9.710363 -6.924213 -0.3959368,-9.760831 -7.423931 -0.3118823,-10.43397 -6.365739 -1.236869,-10.21605 -6.539069 -0.6324309,-10.16299 -7.262851 -0.4635227,-10.2157 -7.455037 -0.4636433,-10.83495 -6.629018 -0.98309,-10.63724 -7.090551 -0.5626886,-10.55602 -7.609715 -0.4528422,-10.5764 -7.673369 -0.4199203,6.310, 1
-1.809039 -9.09404 -0.5555725,-2.45369 -9.340439 -0.3502578,-3.141638 -9.099354 0.1369136,-3.559238 -8.602371 0.7063799,-3.5184 -7.928932 1.25018,-3.292484 -7.21545 -0.007749796,-3.61156 -6.31097 0.5835656,-3.864292 -5.913534 0.9455028,-4.102209 -5.698944 1.158885,-2.879778 -6.650194 0.212541,-3.135664 -7.636966 1.027808,-3.135664 -7.636966 1.027808,-2.7057 -8.481596 0.9437504,-2.428934 -6.583452 0.4809976,-2.655443 -7.762874 1.174521,-2.454144 -8.385658 1.017212,-2.352335 -8.20476 0.8837848,-1.993972 -6.723411 0.8053449,-2.198647 -7.698932 1.124214,-2.148421 -8.2694 1.00167,-2.080657 -8.146944 0.9293053,-10.72231 -8.589697 -2.663671,-10.20049 -8.715235 -2.235927,-9.593005 -8.365664 -1.751759,-9.348737 -7.881876 -1.262226,-9.526237 -7.446974 -0.7558609,-9.545349 -6.703584 -1.924471,-9.118947 -5.934103 -1.29804,-8.796533 -5.392679 -0.8151444,-8.517053 -4.991607 -0.4576497,-9.953146 -6.330115 -1.768893,-9.720322 -6.07492 -0.9333209,-9.67809 -6.856044 -0.5739825,-9.695545 -7.404428 -0.4875529,-10.39249 -6.333534 -1.544954,-10.23913 -6.500412 -0.8179018,-10.17475 -7.230482 -0.6192827,-10.17295 -7.5333 -0.6361847,-10.81053 -6.573751 -1.299035,-10.6576 -6.960341 -0.7626172,-10.55088 -7.503252 -0.6205683,-10.5106 -7.685728 -0.6099224,6.410, 2
-1.792746 -9.086044 -0.7163402,-2.420454 -9.35973 -0.5111879,-3.117069 -9.133928 -0.0281769,-3.552729 -8.64073 0.5262325,-3.5105 -7.945467 1.050848,-3.320004 -7.246634 -0.203341,-3.617196 -6.342536 0.3805137,-3.87244 -5.937103 0.708441,-4.104546 -5.727437 0.8953658,-2.914569 -6.708202 0.02070123,-3.158941 -7.582922 0.8611525,-3.158941 -7.582922 0.8611525,-2.709643 -8.452003 0.7814559,-2.466182 -6.623228 0.2951998,-2.66195 -7.680724 1.012087,-2.446213 -8.381552 0.8433689,-2.351899 -8.202848 0.6729077,-2.021273 -6.716518 0.6263962,-2.199327 -7.600329 0.9424766,-2.131333 -8.225798 0.8257787,-2.065183 -8.114027 0.7394044,-10.71132 -8.584475 -2.571593,-10.19025 -8.681742 -2.20877,-9.57153 -8.369406 -1.727394,-9.315725 -7.920003 -1.22434,-9.507524 -7.497056 -0.7146878,-9.559498 -6.665859 -1.879118,-9.126992 -5.886867 -1.297608,-8.800026 -5.382167 -0.8779788,-8.523407 -4.998216 -0.5705914,-9.983468 -6.272918 -1.700426,-9.691687 -6.13335 -0.8842934,-9.678335 -6.900255 -0.5701418,-9.7483 -7.415443 -0.5366855,-10.42763 -6.266035 -1.468011,-10.22439 -6.562955 -0.7624823,-10.18096 -7.267983 -0.614122,-10.21975 -7.557464 -0.6697989,-10.8439 -6.516855 -1.21275,-10.65847 -6.978506 -0.7100263,-10.56227 -7.501834 -0.5747886,-10.54621 -7.675949 -0.5795571,6.510, 2
-1.795552 -9.05825 -0.6675574,-2.442034 -9.329319 -0.5153548,-3.124063 -9.109619 -0.0172801,-3.533264 -8.631674 0.5706345,-3.464686 -7.982544 1.141283,-3.291613 -7.156157 -0.2006001,-3.607704 -6.234242 0.4933813,-3.884087 -6.08163 0.9274343,-4.063836 -6.319431 1.149432,-2.873529 -6.635966 0.0415476,-3.135447 -7.588269 0.9006352,-3.135447 -7.588269 0.9006352,-2.72752 -8.430454 0.78379,-2.415176 -6.600528 0.3544227,-2.635664 -7.703699 1.071074,-2.424607 -8.427704 0.8811319,-2.349529 -8.211279 0.703334,-1.975033 -6.750492 0.7121422,-2.16134 -7.689408 0.9917024,-2.088507 -8.299583 0.8243682,-2.029365 -8.108635 0.7169099,-10.76932 -8.669741 -2.387396,-10.22694 -8.74403 -2.013824,-9.584581 -8.423876 -1.534567,-9.31713 -7.963071 -1.03895,-9.535462 -7.55533 -0.5389601,-9.557088 -6.696012 -1.740096,-9.128544 -5.881357 -1.18601,-8.813003 -5.433151 -0.7882578,-8.522856 -5.155954 -0.4668525,-9.964761 -6.309455 -1.558187,-9.667545 -6.037765 -0.7996788,-9.630471 -6.767517 -0.4023442,-9.682862 -7.377595 -0.2617458,-10.40209 -6.284099 -1.327352,-10.19798 -6.48182 -0.6754048,-10.15524 -7.220697 -0.4644103,-10.18407 -7.649126 -0.436877,-10.83164 -6.493372 -1.078066,-10.63865 -6.865342 -0.5752856,-10.53677 -7.426956 -0.3761753,-10.50105 -7.717212 -0.3081509,6.610, 1
-1.772296 -8.965038 -0.7169401,-2.419283 -9.26524 -0.5469652,-3.103191 -9.096165 -0.02557063,-3.534363 -8.640467 0.6002349,-3.542612 -7.89514 1.206638,-3.346457 -7.140764 -0.2360744,-3.652655 -6.175336 0.4931453,-3.940737 -6.085396 0.9842116,-4.114214 -6.422725 1.265074,-2.921918 -6.5972 0.00884372,-3.180312 -7.606935 0.8926635,-3.180312 -7.606935 0.8926635,-2.734561 -8.443462 0.8522484,-2.457198 -6.540775 0.3238946,-2.661698 -7.711788 1.044548,-2.424828 -8.420967 0.8498086,-2.336188 -8.12874 0.679826,-2.011681 -6.677946 0.6894863,-2.188479 -7.701036 0.9763991,-2.088592 -8.307272 0.7910235,-2.020452 -8.048485 0.6655654,-10.75871 -8.740347 -2.067633,-10.19914 -8.751524 -1.728274,-9.591547 -8.426491 -1.241439,-9.34689 -7.975683 -0.7240378,-9.56697 -7.570817 -0.1821256,-9.590694 -6.651015 -1.426517,-9.17576 -5.896965 -0.8194594,-8.852972 -5.440942 -0.375105,-8.578588 -5.117264 -0.04441011,-10.00037 -6.262596 -1.242962,-9.70755 -6.244376 -0.4355212,-9.70743 -7.04006 -0.06640804,-9.796949 -7.586611 -0.002669692,-10.42558 -6.2472 -1.006098,-10.23342 -6.602476 -0.3733392,-10.19328 -7.323805 -0.2122937,-10.22994 -7.672233 -0.2490948,-10.83615 -6.476089 -0.7460964,-10.66158 -7.008699 -0.2942362,-10.56492 -7.560499 -0.1458606,-10.53875 -7.777255 -0.1273984,6.710, 2
-1.74566 -9.045601 -0.5716761,-2.41985 -9.307344 -0.4215525,-3.121204 -9.120506 0.07447278,-3.554239 -8.64732 0.657683,-3.506567 -7.960989 1.216624,-3.277853 -7.21684 -0.05909097,-3.582371 -6.31798 0.5777942,-3.846268 -6.003347 0.9932094,-4.058504 -5.959371 1.24525,-2.864243 -6.625336 0.1862976,-3.101407 -7.699276 1.003495,-3.101407 -7.699276 1.003495,-2.672361 -8.397964 0.9036974,-2.405431 -6.559524 0.4892645,-2.609277 -7.796038 1.169436,-2.400511 -8.398094 0.9806514,-2.326419 -8.08864 0.852205,-1.972708 -6.700643 0.8435049,-2.143862 -7.749198 1.120227,-2.072913 -8.287775 0.9633629,-2.012016 -8.03146 0.8907324,-10.74957 -8.704702 -2.190793,-10.21052 -8.722107 -1.819372,-9.603651 -8.407461 -1.314381,-9.355421 -7.984461 -0.7794741,-9.540174 -7.580474 -0.2367307,-9.568935 -6.635278 -1.564915,-9.115665 -5.825284 -0.9779537,-8.774955 -5.296587 -0.5347865,-8.486271 -4.895072 -0.1750706,-9.981581 -6.270149 -1.361535,-9.673724 -6.105615 -0.5530397,-9.65592 -6.938368 -0.181708,-9.7257 -7.540075 -0.08565056,-10.41772 -6.275777 -1.094144,-10.19719 -6.453598 -0.3998176,-10.14282 -7.26444 -0.1934414,-10.18028 -7.718524 -0.1888226,-10.83465 -6.529188 -0.8061099,-10.6374 -6.884639 -0.296778,-10.53029 -7.475907 -0.131694,-10.50457 -7.776887 -0.1056205,6.810, 2
-1.726146 -9.065762 -0.7076939,-2.379812 -9.312223 -0.5117502,-3.077614 -9.106571 -0.01428658,-3.494894 -8.583275 0.5409615,-3.404602 -7.909164 1.043971,-3.205097 -7.190451 -0.1410611,-3.505867 -6.355205 0.4849755,-3.77752 -5.960508 0.839934,-4.039572 -5.74127 1.052534,-2.797296 -6.685564 0.102643,-3.051073 -7.589828 0.9490724,-3.051073 -7.589828 0.9490724,-2.627098 -8.469221 0.7915497,-2.343098 -6.644328 0.4042171,-2.557609 -7.70791 1.153603,-2.358286 -8.407066 0.9363294,-2.260367 -8.246048 0.7374772,-1.890357 -6.784347 0.7597716,-2.082098 -7.61697 1.09981,-2.026237 -8.223801 0.9653341,-1.960641 -8.112495 0.8782879,-10.81272 -8.761684 -2.406498,-10.22018 -8.786451 -2.054191,-9.608169 -8.428516 -1.608092,-9.39325 -7.912482 -1.140185,-9.618485 -7.483762 -0.6659029,-9.546225 -6.731014 -1.856025,-9.080105 -5.856163 -1.333099,-8.752466 -5.245624 -0.918925,-8.46312 -4.759544 -0.5579107,-9.949462 -6.400152 -1.661068,-9.655552 -6.074578 -0.9041841,-9.663075 -6.816473 -0.5013499,-9.732349 -7.414779 -0.3662388,-10.38298 -6.375555 -1.413961,-10.17155 -6.319355 -0.7680439,-10.12262 -7.077495 -0.5486782,-10.15214 -7.604181 -0.5171837,-10.82102 -6.558911 -1.13228,-10.61614 -6.776533 -0.653376,-10.50696 -7.347023 -0.4757625,-10.46956 -7.717742 -0.4379438,6.910, 2
-1.701876 -9.132277 -0.702996,-2.350251 -9.390181 -0.4296922,-3.043267 -9.136856 0.07945281,-3.440702 -8.622719 0.6339978,-3.400326 -7.941222 1.160327,-3.190256 -7.288189 -0.02981091,-3.452662 -6.483764 0.6050133,-3.690025 -6.058863 0.9941436,-3.929685 -5.733673 1.247854,-2.77556 -6.772819 0.1667615,-2.956381 -7.56973 1.009316,-2.956381 -7.56973 1.009316,-2.589187 -8.543209 0.9225119,-2.308911 -6.713562 0.4224603,-2.447059 -7.746024 1.149469,-2.276703 -8.438454 0.9693979,-2.202076 -8.371946 0.7966402,-1.851148 -6.848892 0.741158,-1.987464 -7.700883 1.084519,-1.950148 -8.293453 0.9864666,-1.917816 -8.234695 0.9015231,-10.85082 -8.853662 -2.713769,-10.25681 -8.877777 -2.409395,-9.650828 -8.500843 -2.023357,-9.452003 -7.934463 -1.627179,-9.652882 -7.495126 -1.228,-9.612834 -6.866924 -2.264945,-9.15778 -5.956287 -1.806911,-8.850195 -5.302349 -1.404298,-8.580328 -4.755931 -1.025398,-10.0119 -6.552829 -2.060112,-9.699249 -6.122137 -1.347804,-9.713244 -6.832155 -0.9192742,-9.781763 -7.418953 -0.7174875,-10.43526 -6.505266 -1.805811,-10.19944 -6.303609 -1.188759,-10.15601 -7.06735 -0.9518217,-10.19558 -7.65283 -0.881052,-10.87345 -6.648138 -1.527766,-10.66567 -6.739011 -1.048186,-10.56574 -7.332026 -0.8604139,-10.54005 -7.771618 -0.8174945,7.010, 2
-1.64739 -9.331385 -1.121639,-2.281903 -9.536125 -0.6880214,-2.903402 -9.206579 -0.209129,-3.195906 -8.690992 0.2423278,-3.247963 -8.130327 0.7063581,-2.945161 -7.485065 -0.2093595,-3.261772 -6.59704 0.3666191,-3.511293 -6.105827 0.7483697,-3.775196 -5.675257 0.9869256,-2.552235 -7.087007 -0.1315346,-2.817303 -7.447848 0.6424383,-2.817303 -7.447848 0.6424383,-2.567301 -8.613811 0.7448752,-2.124326 -7.047649 -0.00598073,-2.38848 -7.592005 0.711346,-2.296982 -8.305481 0.6569666,-2.203609 -8.609049 0.5304793,-1.700706 -7.210554 0.1577687,-1.966059 -7.572731 0.6116441,-1.995358 -8.142218 0.6095064,-1.963724 -8.406851 0.5477986,-10.9128 -8.961414 -2.98285,-10.33825 -9.042097 -2.707675,-9.750781 -8.667665 -2.379488,-9.505205 -8.142069 -2.055387,-9.700412 -7.630088 -1.732283,-9.752439 -7.001106 -2.622537,-9.30817 -5.95539 -2.285376,-8.997851 -5.267669 -1.978123,-8.717894 -4.722085 -1.664012,-10.14251 -6.696323 -2.420282,-9.807061 -6.337398 -1.775773,-9.796479 -7.010828 -1.362532,-9.873831 -7.611663 -1.175156,-10.56283 -6.641363 -2.185869,-10.26693 -6.550073 -1.587267,-10.20845 -7.263587 -1.286689,-10.24984 -7.871594 -1.186228,-10.99937 -6.74714 -1.935501,-10.71665 -6.767242 -1.468026,-10.60129 -7.336627 -1.273311,-10.57403 -7.847845 -1.210279,7.110, 3
-1.64739 -9.331385 -1.121639,-2.281903 -9.536125 -0.6880214,-2.903402 -9.206579 -0.209129,-3.195906 -8.690992 0.2423278,-3.247963 -8.130327 0.7063581,-2.945161 -7.485065 -0.2093595,-3.261772 -6.59704 0.3666191,-3.511293 -6.105827 0.7483697,-3.775196 -5.675257 0.9869256,-2.552235 -7.087007 -0.1315346,-2.817303 -7.447848 0.6424383,-2.817303 -7.447848 0.6424383,-2.567301 -8.613811 0.7448752,-2.124326 -7.047649 -0.00598073,-2.38848 -7.592005 0.711346,-2.296982 -8.305481 0.6569666,-2.203609 -8.609049 0.5304793,-1.700706 -7.210554 0.1577687,-1.966059 -7.572731 0.6116441,-1.995358 -8.142218 0.6095064,-1.963724 -8.406851 0.5477986,-10.9128 -8.961414 -2.98285,-10.33825 -9.042097 -2.707675,-9.750781 -8.667665 -2.379488,-9.505205 -8.142069 -2.055387,-9.700412 -7.630088 -1.732283,-9.752439 -7.001106 -2.622537,-9.30817 -5.95539 -2.285376,-8.997851 -5.267669 -1.978123,-8.717894 -4.722085 -1.664012,-10.14251 -6.696323 -2.420282,-9.807061 -6.337398 -1.775773,-9.796479 -7.010828 -1.362532,-9.873831 -7.611663 -1.175156,-10.56283 -6.641363 -2.185869,-10.26693 -6.550073 -1.587267,-10.20845 -7.263587 -1.286689,-10.24984 -7.871594 -1.186228,-10.99937 -6.74714 -1.935501,-10.71665 -6.767242 -1.468026,-10.60129 -7.336627 -1.273311,-10.57403 -7.847845 -1.210279,7.210, 3
-1.64739 -9.331385 -1.121639,-2.281903 -9.536125 -0.6880214,-2.903402 -9.206579 -0.209129,-3.195906 -8.690992 0.2423278,-3.247963 -8.130327 0.7063581,-2.945161 -7.485065 -0.2093595,-3.261772 -6.59704 0.3666191,-3.511293 -6.105827 0.7483697,-3.775196 -5.675257 0.9869256,-2.552235 -7.087007 -0.1315346,-2.817303 -7.447848 0.6424383,-2.817303 -7.447848 0.6424383,-2.567301 -8.613811 0.7448752,-2.124326 -7.047649 -0.00598073,-2.38848 -7.592005 0.711346,-2.296982 -8.305481 0.6569666,-2.203609 -8.609049 0.5304793,-1.700706 -7.210554 0.1577687,-1.966059 -7.572731 0.6116441,-1.995358 -8.142218 0.6095064,-1.963724 -8.406851 0.5477986,-10.9128 -8.961414 -2.98285,-10.33825 -9.042097 -2.707675,-9.750781 -8.667665 -2.379488,-9.505205 -8.142069 -2.055387,-9.700412 -7.630088 -1.732283,-9.752439 -7.001106 -2.622537,-9.30817 -5.95539 -2.285376,-8.997851 -5.267669 -1.978123,-8.717894 -4.722085 -1.664012,-10.14251 -6.696323 -2.420282,-9.807061 -6.337398 -1.775773,-9.796479 -7.010828 -1.362532,-9.873831 -7.611663 -1.175156,-10.56283 -6.641363 -2.185869,-10.26693 -6.550073 -1.587267,-10.20845 -7.263587 -1.286689,-10.24984 -7.871594 -1.186228,-10.99937 -6.74714 -1.935501,-10.71665 -6.767242 -1.468026,-10.60129 -7.336627 -1.273311,-10.57403 -7.847845 -1.210279,7.310, 3
-1.64739 -9.331385 -1.121639,-2.281903 -9.536125 -0.6880214,-2.903402 -9.206579 -0.209129,-3.195906 -8.690992 0.2423278,-3.247963 -8.130327 0.7063581,-2.945161 -7.485065 -0.2093595,-3.261772 -6.59704 0.3666191,-3.511293 -6.105827 0.7483697,-3.775196 -5.675257 0.9869256,-2.552235 -7.087007 -0.1315346,-2.817303 -7.447848 0.6424383,-2.817303 -7.447848 0.6424383,-2.567301 -8.613811 0.7448752,-2.124326 -7.047649 -0.00598073,-2.38848 -7.592005 0.711346,-2.296982 -8.305481 0.6569666,-2.203609 -8.609049 0.5304793,-1.700706 -7.210554 0.1577687,-1.966059 -7.572731 0.6116441,-1.995358 -8.142218 0.6095064,-1.963724 -8.406851 0.5477986,-10.9128 -8.961414 -2.98285,-10.33825 -9.042097 -2.707675,-9.750781 -8.667665 -2.379488,-9.505205 -8.142069 -2.055387,-9.700412 -7.630088 -1.732283,-9.752439 -7.001106 -2.622537,-9.30817 -5.95539 -2.285376,-8.997851 -5.267669 -1.978123,-8.717894 -4.722085 -1.664012,-10.14251 -6.696323 -2.420282,-9.807061 -6.337398 -1.775773,-9.796479 -7.010828 -1.362532,-9.873831 -7.611663 -1.175156,-10.56283 -6.641363 -2.185869,-10.26693 -6.550073 -1.587267,-10.20845 -7.263587 -1.286689,-10.24984 -7.871594 -1.186228,-10.99937 -6.74714 -1.935501,-10.71665 -6.767242 -1.468026,-10.60129 -7.336627 -1.273311,-10.57403 -7.847845 -1.210279,7.410, 3
-1.64739 -9.331385 -1.121639,-2.281903 -9.536125 -0.6880214,-2.903402 -9.206579 -0.209129,-3.195906 -8.690992 0.2423278,-3.247963 -8.130327 0.7063581,-2.945161 -7.485065 -0.2093595,-3.261772 -6.59704 0.3666191,-3.511293 -6.105827 0.7483697,-3.775196 -5.675257 0.9869256,-2.552235 -7.087007 -0.1315346,-2.817303 -7.447848 0.6424383,-2.817303 -7.447848 0.6424383,-2.567301 -8.613811 0.7448752,-2.124326 -7.047649 -0.00598073,-2.38848 -7.592005 0.711346,-2.296982 -8.305481 0.6569666,-2.203609 -8.609049 0.5304793,-1.700706 -7.210554 0.1577687,-1.966059 -7.572731 0.6116441,-1.995358 -8.142218 0.6095064,-1.963724 -8.406851 0.5477986,-10.9128 -8.961414 -2.98285,-10.33825 -9.042097 -2.707675,-9.750781 -8.667665 -2.379488,-9.505205 -8.142069 -2.055387,-9.700412 -7.630088 -1.732283,-9.752439 -7.001106 -2.622537,-9.30817 -5.95539 -2.285376,-8.997851 -5.267669 -1.978123,-8.717894 -4.722085 -1.664012,-10.14251 -6.696323 -2.420282,-9.807061 -6.337398 -1.775773,-9.796479 -7.010828 -1.362532,-9.873831 -7.611663 -1.175156,-10.56283 -6.641363 -2.185869,-10.26693 -6.550073 -1.587267,-10.20845 -7.263587 -1.286689,-10.24984 -7.871594 -1.186228,-10.99937 -6.74714 -1.935501,-10.71665 -6.767242 -1.468026,-10.60129 -7.336627 -1.273311,-10.57403 -7.847845 -1.210279,7.510, 3
-1.64739 -9.331385 -1.121639,-2.281903 -9.536125 -0.6880214,-2.903402 -9.206579 -0.209129,-3.195906 -8.690992 0.2423278,-3.247963 -8.130327 0.7063581,-2.945161 -7.485065 -0.2093595,-3.261772 -6.59704 0.3666191,-3.511293 -6.105827 0.7483697,-3.775196 -5.675257 0.9869256,-2.552235 -7.087007 -0.1315346,-2.817303 -7.447848 0.6424383,-2.817303 -7.447848 0.6424383,-2.567301 -8.613811 0.7448752,-2.124326 -7.047649 -0.00598073,-2.38848 -7.592005 0.711346,-2.296982 -8.305481 0.6569666,-2.203609 -8.609049 0.5304793,-1.700706 -7.210554 0.1577687,-1.966059 -7.572731 0.6116441,-1.995358 -8.142218 0.6095064,-1.963724 -8.406851 0.5477986,-10.9128 -8.961414 -2.98285,-10.33825 -9.042097 -2.707675,-9.750781 -8.667665 -2.379488,-9.505205 -8.142069 -2.055387,-9.700412 -7.630088 -1.732283,-9.752439 -7.001106 -2.622537,-9.30817 -5.95539 -2.285376,-8.997851 -5.267669 -1.978123,-8.717894 -4.722085 -1.664012,-10.14251 -6.696323 -2.420282,-9.807061 -6.337398 -1.775773,-9.796479 -7.010828 -1.362532,-9.873831 -7.611663 -1.175156,-10.56283 -6.641363 -2.185869,-10.26693 -6.550073 -1.587267,-10.20845 -7.263587 -1.286689,-10.24984 -7.871594 -1.186228,-10.99937 -6.74714 -1.935501,-10.71665 -6.767242 -1.468026,-10.60129 -7.336627 -1.273311,-10.57403 -7.847845 -1.210279,7.610, 3
0.1838503 -12.52465 -8.598675,-0.2271729 -12.17094 -8.278282,-0.6289601 -12.09144 -8.092607,-0.9540429 -11.90541 -7.949701,-1.295625 -11.71722 -7.760268,-0.2757173 -12.44771 -8.134098,-0.3474588 -12.62743 -8.008404,-0.3078003 -12.74114 -7.662531,-0.3307753 -12.94462 -7.370452,0.08967543 -12.6343 -8.142171,0.2536173 -12.71655 -7.991242,0.2536173 -12.71655 -7.991242,0.4045391 -12.96202 -7.310887,0.4704313 -12.71115 -8.213382,0.7787886 -12.71272 -8.012938,0.947906 -12.77795 -7.72064,0.9419794 -12.92869 -7.487842,0.8425226 -12.81185 -8.232775,1.127389 -12.80626 -8.036871,1.301981 -12.82408 -7.863436,1.343218 -12.96281 -7.731848,-10.9128 -8.961414 -2.98285,-10.33825 -9.042097 -2.707675,-9.750781 -8.667665 -2.379488,-9.505205 -8.142069 -2.055387,-9.700412 -7.630088 -1.732283,-9.752439 -7.001106 -2.622537,-9.30817 -5.95539 -2.285376,-8.997851 -5.267669 -1.978123,-8.717894 -4.722085 -1.664012,-10.14251 -6.696323 -2.420282,-9.807061 -6.337398 -1.775773,-9.796479 -7.010828 -1.362532,-9.873831 -7.611663 -1.175156,-10.56283 -6.641363 -2.185869,-10.26693 -6.550073 -1.587267,-10.20845 -7.263587 -1.286689,-10.24984 -7.871594 -1.186228,-10.99937 -6.74714 -1.935501,-10.71665 -6.767242 -1.468026,-10.60129 -7.336627 -1.273311,-10.57403 -7.847845 -1.210279,7.710, 2
0.1838503 -12.52465 -8.598675,-0.2271729 -12.17094 -8.278282,-0.6289601 -12.09144 -8.092607,-0.9540429 -11.90541 -7.949701,-1.295625 -11.71722 -7.760268,-0.2757173 -12.44771 -8.134098,-0.3474588 -12.62743 -8.008404,-0.3078003 -12.74114 -7.662531,-0.3307753 -12.94462 -7.370452,0.08967543 -12.6343 -8.142171,0.2536173 -12.71655 -7.991242,0.2536173 -12.71655 -7.991242,0.4045391 -12.96202 -7.310887,0.4704313 -12.71115 -8.213382,0.7787886 -12.71272 -8.012938,0.947906 -12.77795 -7.72064,0.9419794 -12.92869 -7.487842,0.8425226 -12.81185 -8.232775,1.127389 -12.80626 -8.036871,1.301981 -12.82408 -7.863436,1.343218 -12.96281 -7.731848,-10.9128 -8.961414 -2.98285,-10.33825 -9.042097 -2.707675,-9.750781 -8.667665 -2.379488,-9.505205 -8.142069 -2.055387,-9.700412 -7.630088 -1.732283,-9.752439 -7.001106 -2.622537,-9.30817 -5.95539 -2.285376,-8.997851 -5.267669 -1.978123,-8.717894 -4.722085 -1.664012,-10.14251 -6.696323 -2.420282,-9.807061 -6.337398 -1.775773,-9.796479 -7.010828 -1.362532,-9.873831 -7.611663 -1.175156,-10.56283 -6.641363 -2.185869,-10.26693 -6.550073 -1.587267,-10.20845 -7.263587 -1.286689,-10.24984 -7.871594 -1.186228,-10.99937 -6.74714 -1.935501,-10.71665 -6.767242 -1.468026,-10.60129 -7.336627 -1.273311,-10.57403 -7.847845 -1.210279,7.810, 2
