TiagoOliveira98/Thesis-Project/Difficulty_1/Motor_Task/Unity_Project/DataLogging/JointData/Logs(1644889420)_Tiago_main.csv
WRIST,THUMB_CMC,THUMB_MCP,THUMB_IP,THUMB_TIP,INDEX_FINGER_MCP,INDEX_FINGER_PIP,INDEX_FINGER_DIP,INDEX_FINGER_TIP,MIDDLE_FINGER_MCP,MIDDLE_FINGER_PIP,MIDDLE_FINGER_DIP,MIDDLE_FINGER_TIP,RING_FINGER_MCP,RING_FINGER_PIP,RING_FINGER_DIP,RING_FINGER_TIP,PINKY_MCP,PINKY_PIP,PINKY_DIP,PINKY_TIP,WRIST2,THUMB_CMC2,THUMB_MCP2,THUMB_IP2,THUMB_TIP2,INDEX_FINGER_MCP2,INDEX_FINGER_PIP2,INDEX_FINGER_DIP2,INDEX_FINGER_TIP2,MIDDLE_FINGER_MCP2,MIDDLE_FINGER_PIP2,MIDDLE_FINGER_DIP2,MIDDLE_FINGER_TIP2,RING_FINGER_MCP2,RING_FINGER_PIP2,RING_FINGER_DIP2,RING_FINGER_TIP2,PINKY_MCP2,PINKY_PIP2,PINKY_DIP2,PINKY_TIP2,Timestamp,Event
-1.89763 -9.296484 -0.06930599,-2.446826 -9.169285 0.3180863,-2.950827 -8.475908 0.781239,-3.071751 -7.764562 1.34622,-2.835662 -7.171949 1.974516,-2.807595 -6.864357 0.5547293,-2.896451 -5.802659 1.281413,-3.014657 -5.706016 1.796438,-3.095304 -6.055116 2.029564,-2.355091 -6.530817 0.6813228,-2.529625 -7.051839 1.512206,-2.529625 -7.051839 1.512206,-2.435505 -8.576693 1.81188,-1.9148 -6.585998 0.8834958,-2.067229 -7.212692 1.583298,-2.05349 -8.107014 1.62059,-2.030119 -8.537004 1.542133,-1.474966 -6.787664 1.141499,-1.60545 -7.099432 1.553977,-1.691281 -7.845417 1.588362,-1.741226 -8.219391 1.555763,-9.400349 -8.462708 0.1152639,-8.818557 -8.205778 0.3927386,-8.288205 -7.412635 0.8180971,-8.332729 -6.718023 1.284029,-8.75652 -6.360688 1.771686,-8.491672 -5.522743 0.398224,-8.366955 -4.363891 1.064069,-8.302981 -4.386835 1.482092,-8.323739 -4.846374 1.634996,-8.950573 -5.32533 0.5526681,-8.854447 -5.585824 1.284077,-8.826702 -6.600685 1.55248,-8.839983 -7.053621 1.546861,-9.367204 -5.526824 0.7897329,-9.271636 -5.924791 1.344878,-9.199559 -6.873777 1.431412,-9.17508 -7.219283 1.396223,-9.76762 -5.899557 1.088478,-9.626585 -6.162886 1.381349,-9.495009 -6.878364 1.412551,-9.432328 -7.13483 1.346577,0.010, 0
-1.924221 -9.32708 0.03149945,-2.469652 -9.148762 0.3908474,-2.967986 -8.44632 0.8566262,-3.064405 -7.712135 1.425438,-2.81341 -7.124424 2.053408,-2.80217 -6.841725 0.600287,-2.874699 -5.84279 1.333117,-2.991726 -5.696943 1.853164,-3.081273 -5.976764 2.097279,-2.348144 -6.51362 0.7343032,-2.506242 -7.027904 1.558814,-2.506242 -7.027904 1.558814,-2.428197 -8.545155 1.854701,-1.908704 -6.573879 0.9411486,-2.066319 -7.209594 1.630984,-2.057656 -8.08997 1.652631,-2.043911 -8.514236 1.568736,-1.477274 -6.785578 1.203729,-1.606131 -7.109773 1.588946,-1.695418 -7.845058 1.603366,-1.750543 -8.216156 1.563088,-9.414207 -8.492735 0.03171084,-8.823158 -8.209808 0.3423374,-8.277904 -7.421379 0.7789397,-8.349371 -6.72122 1.248914,-8.799291 -6.32946 1.715889,-8.488704 -5.554681 0.2781985,-8.360657 -4.414776 0.9384133,-8.309532 -4.397254 1.36767,-8.344938 -4.82364 1.540753,-8.946919 -5.377008 0.4297682,-8.832795 -5.579473 1.176695,-8.807912 -6.580947 1.46827,-8.829565 -7.053236 1.48667,-9.361914 -5.573663 0.66729,-9.244008 -5.932138 1.267363,-9.18039 -6.882646 1.354645,-9.169959 -7.238931 1.307491,-9.768924 -5.943076 0.9668643,-9.617766 -6.112245 1.292958,-9.492615 -6.838262 1.316623,-9.440544 -7.126868 1.239881,0.110, 0
-1.938069 -9.312334 0.001749307,-2.473511 -9.131372 0.3289652,-2.968188 -8.419325 0.7687867,-3.06842 -7.671176 1.314161,-2.824793 -7.078979 1.929812,-2.790925 -6.825556 0.5135771,-2.854031 -5.845846 1.224447,-2.970313 -5.686045 1.745753,-3.07276 -5.944807 1.999397,-2.345817 -6.492933 0.6532757,-2.518759 -7.05733 1.435752,-2.518759 -7.05733 1.435752,-2.427373 -8.576778 1.754488,-1.91844 -6.548524 0.8570532,-2.088166 -7.234096 1.520553,-2.069407 -8.115442 1.557409,-2.049917 -8.515768 1.485481,-1.497566 -6.754124 1.111641,-1.629832 -7.106254 1.473799,-1.716592 -7.839305 1.46849,-1.772924 -8.195091 1.426128,-9.364572 -8.49053 0.1153272,-8.786222 -8.162918 0.4266607,-8.250351 -7.385211 0.8926451,-8.313869 -6.710974 1.395057,-8.750525 -6.371898 1.904586,-8.481601 -5.514855 0.4618726,-8.340585 -4.435043 1.172558,-8.285678 -4.434063 1.635394,-8.308971 -4.82151 1.82633,-8.933105 -5.360752 0.6204286,-8.802402 -5.536487 1.418963,-8.78685 -6.541927 1.693738,-8.817397 -6.977059 1.687893,-9.348309 -5.577192 0.8720555,-9.218585 -5.870838 1.490796,-9.154264 -6.832688 1.56398,-9.14873 -7.187443 1.518948,-9.755284 -5.963911 1.185473,-9.600936 -6.097744 1.513187,-9.461545 -6.820793 1.537627,-9.395783 -7.095113 1.464851,0.210, 0
-1.956647 -9.326674 0.1736814,-2.485356 -9.14101 0.5632662,-2.957041 -8.439224 1.049396,-3.057028 -7.726268 1.625464,-2.8436 -7.11656 2.274267,-2.808082 -6.806052 0.7844214,-2.876936 -5.859159 1.520145,-2.993864 -5.695904 2.077216,-3.093887 -5.937356 2.360896,-2.35014 -6.476005 0.9141428,-2.525297 -7.068511 1.72654,-2.525297 -7.068511 1.72654,-2.436188 -8.596954 1.998879,-1.913798 -6.554025 1.117524,-2.077495 -7.23216 1.800556,-2.068644 -8.148716 1.793324,-2.046402 -8.529009 1.703386,-1.488283 -6.786058 1.382661,-1.615641 -7.14178 1.766135,-1.707569 -7.883882 1.75036,-1.75248 -8.208496 1.708845,-9.36504 -8.476023 0.1233678,-8.790493 -8.16968 0.3882156,-8.257096 -7.401449 0.8155032,-8.279469 -6.716599 1.287846,-8.690817 -6.359489 1.797825,-8.512276 -5.504732 0.3706593,-8.341791 -4.462132 1.032458,-8.270628 -4.346416 1.506082,-8.280876 -4.652236 1.718561,-8.960335 -5.325915 0.5289452,-8.823987 -5.545208 1.253937,-8.801757 -6.547626 1.539655,-8.825387 -7.02817 1.541788,-9.36533 -5.53162 0.777975,-9.228318 -5.872652 1.333677,-9.150985 -6.817675 1.42103,-9.129539 -7.179833 1.370794,-9.755131 -5.903587 1.079231,-9.583184 -6.114868 1.393413,-9.440166 -6.816593 1.413254,-9.371576 -7.083502 1.331819,0.310, 0
-1.951254 -9.308979 0.1787917,-2.48715 -9.106991 0.5171663,-2.975152 -8.354939 0.9559787,-3.09065 -7.600349 1.496436,-2.878397 -6.970527 2.108461,-2.802964 -6.791627 0.7364519,-2.883661 -5.807079 1.447319,-3.002361 -5.658378 1.973071,-3.104286 -5.924097 2.233125,-2.357089 -6.44692 0.873081,-2.545475 -7.054436 1.664704,-2.545475 -7.054436 1.664704,-2.430409 -8.580238 1.943411,-1.927439 -6.50525 1.070237,-2.104761 -7.220687 1.723797,-2.082016 -8.127403 1.745642,-2.052611 -8.532078 1.67307,-1.51128 -6.714283 1.324827,-1.651382 -7.091633 1.684542,-1.728733 -7.833629 1.667469,-1.772753 -8.180447 1.621921,-9.361231 -8.46699 -0.02782943,-8.787164 -8.171412 0.2228701,-8.257777 -7.41959 0.6193742,-8.270604 -6.731648 1.066961,-8.683798 -6.359312 1.550261,-8.499723 -5.532721 0.1818085,-8.357817 -4.473638 0.7889869,-8.265789 -4.290479 1.237322,-8.238197 -4.551421 1.461277,-8.943783 -5.358486 0.3452908,-8.81817 -5.578506 1.063051,-8.805055 -6.585285 1.353513,-8.840961 -7.099267 1.360936,-9.350797 -5.568534 0.5892442,-9.224173 -5.882207 1.148886,-9.162594 -6.831167 1.219377,-9.156178 -7.221622 1.160558,-9.750794 -5.93921 0.8842654,-9.598824 -6.108331 1.225977,-9.466221 -6.79286 1.254568,-9.408731 -7.077871 1.182312,0.410, 0
-1.949537 -9.301579 0.09554037,-2.482438 -9.114616 0.4277049,-2.971515 -8.408676 0.8691635,-3.081358 -7.67148 1.418347,-2.84024 -7.071962 2.047822,-2.801727 -6.769949 0.6126297,-2.877498 -5.765232 1.320162,-3.008392 -5.61069 1.845206,-3.116444 -5.889505 2.107859,-2.357608 -6.454996 0.7493483,-2.542064 -6.961124 1.555918,-2.542064 -6.961124 1.555918,-2.447679 -8.555788 1.869648,-1.925773 -6.519901 0.9511105,-2.102 -7.16242 1.620251,-2.088815 -8.077885 1.667183,-2.063358 -8.534508 1.597498,-1.494491 -6.729562 1.205779,-1.636981 -7.042154 1.586161,-1.725281 -7.786659 1.602079,-1.771602 -8.174915 1.572623,-9.355484 -8.477474 0.05596218,-8.783091 -8.181883 0.3286905,-8.250956 -7.431737 0.7504988,-8.262955 -6.734244 1.218799,-8.682025 -6.367422 1.729927,-8.488093 -5.533038 0.2915168,-8.339535 -4.543817 0.9256104,-8.244884 -4.319047 1.418495,-8.203906 -4.500249 1.669473,-8.93142 -5.348451 0.4527044,-8.797233 -5.574147 1.188281,-8.792538 -6.582592 1.467298,-8.833706 -7.072513 1.457471,-9.342429 -5.556794 0.7043661,-9.207867 -5.862702 1.290854,-9.145177 -6.826969 1.357504,-9.141002 -7.218853 1.285309,-9.748594 -5.938653 1.005594,-9.596788 -6.103385 1.372016,-9.456938 -6.794057 1.408551,-9.393273 -7.075658 1.337018,0.510, 1
-1.885573 -9.287935 -0.02414002,-2.444494 -9.122993 0.2728168,-2.952764 -8.425962 0.7102685,-3.076023 -7.689399 1.257927,-2.826945 -7.116365 1.865742,-2.809858 -6.824357 0.4761739,-2.890059 -5.738355 1.170552,-3.024757 -5.60139 1.650341,-3.130455 -5.907963 1.862379,-2.364718 -6.487887 0.6289522,-2.552948 -7.053367 1.436314,-2.552948 -7.053367 1.436314,-2.452545 -8.55266 1.744756,-1.936045 -6.538783 0.8417479,-2.111323 -7.220224 1.509975,-2.096666 -8.093153 1.551039,-2.066273 -8.508228 1.47533,-1.507994 -6.738111 1.105229,-1.655116 -7.084741 1.470787,-1.74153 -7.815365 1.490312,-1.78346 -8.186769 1.451431,-9.343283 -8.442442 -0.2400467,-8.778455 -8.151651 0.05313167,-8.269485 -7.401485 0.4753802,-8.280791 -6.698184 0.9420595,-8.680428 -6.352031 1.470342,-8.497952 -5.541017 -0.01225188,-8.356569 -4.536975 0.6017896,-8.279088 -4.301525 1.068517,-8.26625 -4.481389 1.294759,-8.937147 -5.395478 0.1448283,-8.828252 -5.484909 0.8831472,-8.800673 -6.52132 1.187212,-8.824644 -7.094697 1.189885,-9.342155 -5.606133 0.3795676,-9.234132 -5.818134 0.9842234,-9.150715 -6.806768 1.079863,-9.132805 -7.259771 1.000051,-9.74115 -5.979532 0.6636696,-9.615465 -6.075204 1.05979,-9.466965 -6.777172 1.11732,-9.397337 -7.097527 1.041417,0.610, 1
-1.942134 -9.337238 0.06453753,-2.501737 -9.114677 0.3415345,-2.981685 -8.347038 0.745961,-3.06791 -7.56448 1.261747,-2.851892 -6.971965 1.830755,-2.810527 -6.830719 0.5214471,-2.895057 -5.785608 1.206197,-3.020382 -5.617794 1.696272,-3.129254 -5.864572 1.929194,-2.369559 -6.494893 0.683491,-2.563788 -7.095001 1.480609,-2.563788 -7.095001 1.480609,-2.455377 -8.573149 1.789849,-1.939041 -6.541315 0.9076747,-2.12796 -7.239852 1.569631,-2.099518 -8.104239 1.591801,-2.069084 -8.494127 1.511385,-1.506829 -6.736677 1.181593,-1.659468 -7.076884 1.541021,-1.736047 -7.79614 1.534408,-1.780544 -8.147255 1.486073,-9.365708 -8.427273 -0.3858614,-8.797463 -8.13097 -0.0792377,-8.283777 -7.403186 0.3432375,-8.287334 -6.687774 0.7984773,-8.683358 -6.265253 1.299111,-8.481521 -5.570124 -0.1401158,-8.346271 -4.544283 0.4730917,-8.274344 -4.283454 0.9566418,-8.259418 -4.439229 1.207289,-8.920441 -5.429451 0.008134633,-8.819667 -5.487466 0.7556672,-8.806737 -6.518331 1.051208,-8.838088 -7.088647 1.041494,-9.327236 -5.639956 0.2370964,-9.220351 -5.791162 0.8548127,-9.150569 -6.785325 0.9436747,-9.142233 -7.257616 0.8612716,-9.734811 -6.011688 0.5145921,-9.607092 -6.031579 0.9235878,-9.46968 -6.736984 0.9837608,-9.409061 -7.081865 0.9129165,0.710, 1
-1.908934 -9.301924 -0.004547268,-2.451225 -9.125875 0.2799108,-2.956669 -8.411179 0.7007276,-3.062224 -7.663282 1.222058,-2.805887 -7.121742 1.816636,-2.782573 -6.815937 0.4738973,-2.851275 -5.806926 1.174495,-2.966225 -5.615615 1.701244,-3.078062 -5.827524 1.971703,-2.33558 -6.483568 0.6310529,-2.539615 -7.011699 1.429385,-2.539615 -7.011699 1.429385,-2.423452 -8.570034 1.728231,-1.905448 -6.538362 0.8509694,-2.110288 -7.229143 1.533465,-2.081414 -8.124664 1.560281,-2.043862 -8.525124 1.479843,-1.474528 -6.753078 1.120305,-1.6419 -7.130875 1.49119,-1.723973 -7.861811 1.475011,-1.758411 -8.19697 1.424564,-9.382092 -8.440422 -0.3650531,-8.815704 -8.157274 -0.06000695,-8.290249 -7.449509 0.3574045,-8.284712 -6.751655 0.7985343,-8.690425 -6.36567 1.27921,-8.494738 -5.614374 -0.09356669,-8.354514 -4.647922 0.5083289,-8.287223 -4.348318 0.9861829,-8.269333 -4.405586 1.240806,-8.930771 -5.439929 0.04750547,-8.836917 -5.538812 0.7755544,-8.825946 -6.570976 1.060027,-8.850419 -7.144587 1.059212,-9.336789 -5.640745 0.26723,-9.2449 -5.826277 0.8783044,-9.178494 -6.815691 0.9578859,-9.161841 -7.293984 0.8812332,-9.744239 -6.010847 0.5334828,-9.634428 -6.037851 0.9433286,-9.498969 -6.738743 1.002059,-9.430114 -7.092344 0.9403958,0.810, 1
-1.964898 -9.329451 0.1783566,-2.482025 -9.129286 0.5071334,-2.96631 -8.419683 0.9494762,-3.058414 -7.706173 1.486522,-2.80043 -7.17919 2.097175,-2.768133 -6.782868 0.7283487,-2.827713 -5.833456 1.447585,-2.949543 -5.62747 1.980507,-3.072456 -5.803375 2.252447,-2.319802 -6.46125 0.8744689,-2.505225 -7.015954 1.681216,-2.505225 -7.015954 1.681216,-2.404332 -8.559391 1.976741,-1.889834 -6.537395 1.089448,-2.071925 -7.221917 1.776388,-2.054217 -8.110865 1.800225,-2.027162 -8.509686 1.72155,-1.460313 -6.77424 1.357582,-1.606217 -7.113437 1.738719,-1.698168 -7.833045 1.7364,-1.742785 -8.174828 1.702442,-9.372264 -8.441513 -0.4275233,-8.815987 -8.154942 -0.1296644,-8.308635 -7.407327 0.2647513,-8.325601 -6.671402 0.6956432,-8.72358 -6.284269 1.182115,-8.509801 -5.616008 -0.2312065,-8.371791 -4.655191 0.3318776,-8.300224 -4.332315 0.7744244,-8.272115 -4.355209 0.9985039,-8.938058 -5.448196 -0.08177412,-8.838821 -5.51847 0.6243949,-8.820807 -6.534197 0.934378,-8.852118 -7.131338 0.9463638,-9.334221 -5.640855 0.1415273,-9.234119 -5.832642 0.737258,-9.160213 -6.79751 0.8662479,-9.153599 -7.274415 0.8090886,-9.732116 -5.997247 0.4110188,-9.619063 -6.069263 0.8208894,-9.484303 -6.755495 0.9092923,-9.427155 -7.100856 0.8598086,0.910, 2
-1.945533 -9.295561 0.194396,-2.483938 -9.115297 0.5563126,-2.98139 -8.391258 1.01295,-3.07947 -7.676696 1.560756,-2.794022 -7.178136 2.176785,-2.774246 -6.725372 0.7560058,-2.838792 -5.798169 1.479476,-2.958873 -5.587471 2.04055,-3.070971 -5.792133 2.346665,-2.318853 -6.422241 0.8793561,-2.499997 -6.961946 1.683583,-2.499997 -6.961946 1.683583,-2.417596 -8.526608 1.913827,-1.88329 -6.524032 1.082489,-2.060443 -7.196354 1.755093,-2.059417 -8.11232 1.75521,-2.032908 -8.518122 1.667838,-1.447611 -6.782857 1.345592,-1.579842 -7.122864 1.734551,-1.679904 -7.860927 1.745525,-1.722886 -8.202259 1.726003,-9.349718 -8.403004 -0.4016724,-8.793377 -8.131603 -0.0736914,-8.289295 -7.416166 0.3844111,-8.304579 -6.735004 0.8732966,-8.703236 -6.376451 1.421538,-8.498531 -5.580822 -0.09946874,-8.358799 -4.631611 0.5390906,-8.301182 -4.344779 1.021571,-8.297339 -4.432821 1.249062,-8.936357 -5.412336 0.04307812,-8.84911 -5.510566 0.8104273,-8.831029 -6.547777 1.084302,-8.846253 -7.133373 1.051317,-9.344954 -5.62131 0.2684223,-9.260792 -5.844493 0.9077874,-9.182451 -6.830516 1.006233,-9.154251 -7.300148 0.9146664,-9.74749 -6.008016 0.5377052,-9.642567 -6.112615 0.9655956,-9.496795 -6.808167 1.046795,-9.420891 -7.13931 0.990267,1.010, 2
-1.93683 -9.303564 0.2102752,-2.473089 -9.132807 0.5485607,-2.961098 -8.419353 1.015746,-3.071907 -7.696779 1.574045,-2.810647 -7.149623 2.203638,-2.775252 -6.767859 0.7724776,-2.831944 -5.818391 1.520521,-2.953476 -5.609351 2.091358,-3.064883 -5.792186 2.388985,-2.318514 -6.43202 0.9174193,-2.507764 -7.017054 1.732285,-2.507764 -7.017054 1.732285,-2.430609 -8.531437 1.994886,-1.880451 -6.507953 1.13473,-2.066147 -7.23259 1.822166,-2.064245 -8.131491 1.820977,-2.040964 -8.486362 1.736687,-1.449944 -6.748202 1.411398,-1.599594 -7.193191 1.778103,-1.698382 -7.928162 1.765229,-1.744793 -8.220158 1.727427,-9.373792 -8.389246 -0.4220824,-8.821115 -8.144518 -0.09696487,-8.291988 -7.408996 0.3285128,-8.302879 -6.707101 0.780775,-8.715134 -6.324117 1.269589,-8.50908 -5.585851 -0.1970122,-8.381569 -4.683288 0.3981497,-8.342703 -4.363088 0.8448042,-8.346934 -4.357201 1.069335,-8.941317 -5.397039 -0.05232456,-8.861238 -5.549015 0.7065737,-8.849207 -6.594913 0.9915239,-8.867473 -7.186134 0.9699053,-9.345972 -5.593648 0.1699155,-9.268719 -5.854346 0.8089778,-9.195339 -6.840428 0.906341,-9.174417 -7.324483 0.8078229,-9.749754 -5.972116 0.4400522,-9.645271 -6.104064 0.8730993,-9.508886 -6.80241 0.9512018,-9.444253 -7.152473 0.8887928,1.110, 2
-1.959105 -9.31362 0.1722056,-2.481782 -9.106314 0.5677474,-2.966672 -8.392416 1.030706,-3.060941 -7.68464 1.577687,-2.814652 -7.128063 2.192639,-2.782054 -6.746912 0.7664174,-2.833336 -5.807249 1.477494,-2.962612 -5.603168 2.030541,-3.093031 -5.804925 2.323252,-2.32849 -6.451831 0.8797491,-2.496302 -6.975089 1.672658,-2.496302 -6.975089 1.672658,-2.405137 -8.504374 1.970015,-1.89389 -6.546459 1.07162,-2.046698 -7.186015 1.747834,-2.046746 -8.084028 1.770784,-2.028251 -8.492392 1.691554,-1.45672 -6.790094 1.322332,-1.572015 -7.065515 1.722125,-1.674694 -7.793217 1.737415,-1.732069 -8.149916 1.710143,-9.344091 -8.376791 -0.3822244,-8.809187 -8.141602 -0.05156633,-8.301283 -7.415887 0.3887162,-8.30837 -6.710056 0.8594782,-8.704266 -6.316011 1.386979,-8.513549 -5.561576 -0.1321572,-8.389985 -4.646484 0.4854715,-8.340212 -4.344398 0.9490592,-8.33328 -4.398431 1.17653,-8.947508 -5.371089 0.01155189,-8.864728 -5.495456 0.7677183,-8.842922 -6.541219 1.052719,-8.859692 -7.15755 1.023,-9.354018 -5.566971 0.2350191,-9.265914 -5.838386 0.8645993,-9.190712 -6.824672 0.9745309,-9.169672 -7.301956 0.8824081,-9.754546 -5.943753 0.5053038,-9.638769 -6.130791 0.9314879,-9.501758 -6.826247 1.011445,-9.440701 -7.14973 0.9516618,1.210, 2
-1.925164 -9.269617 -0.04266288,-2.461863 -9.107494 0.3282203,-2.955064 -8.438612 0.7770389,-3.05607 -7.737163 1.310299,-2.786402 -7.199634 1.918979,-2.787672 -6.782568 0.5283284,-2.828519 -5.795642 1.24881,-2.956936 -5.587698 1.805254,-3.087944 -5.797518 2.090869,-2.335295 -6.472542 0.6458075,-2.508075 -6.979642 1.457528,-2.508075 -6.979642 1.457528,-2.414825 -8.53116 1.78033,-1.903227 -6.546771 0.8369285,-2.07119 -7.207995 1.530595,-2.063736 -8.088106 1.565842,-2.043929 -8.505882 1.495248,-1.469938 -6.772378 1.083843,-1.603678 -7.098768 1.488821,-1.702355 -7.831714 1.520218,-1.756525 -8.20076 1.505877,-9.361681 -8.369938 -0.5568241,-8.819815 -8.151648 -0.2523148,-8.299841 -7.415491 0.1561387,-8.310266 -6.700355 0.5962799,-8.716844 -6.322969 1.090525,-8.52581 -5.610296 -0.3679134,-8.38953 -4.688047 0.2132267,-8.339586 -4.364965 0.6478314,-8.335136 -4.381759 0.8596858,-8.950768 -5.410511 -0.2148856,-8.86283 -5.51423 0.5169667,-8.847353 -6.533517 0.8140453,-8.865707 -7.159551 0.8006619,-9.355319 -5.587698 0.01400757,-9.260017 -5.844921 0.6532731,-9.186786 -6.824245 0.7906511,-9.167998 -7.332811 0.7102741,-9.759337 -5.951633 0.2855138,-9.634996 -6.110649 0.7296126,-9.496885 -6.809223 0.8334056,-9.435484 -7.167938 0.7870857,1.310, 1
-1.923179 -9.295485 -0.02913985,-2.449438 -9.127213 0.2973243,-2.947469 -8.42874 0.7136768,-3.066712 -7.712826 1.225412,-2.789703 -7.188524 1.80397,-2.748456 -6.779469 0.4653734,-2.808475 -5.789356 1.155942,-2.942752 -5.602825 1.685348,-3.076385 -5.829788 1.950721,-2.309075 -6.477079 0.6000198,-2.511883 -6.983106 1.399511,-2.511883 -6.983106 1.399511,-2.398293 -8.541353 1.731895,-1.888062 -6.548085 0.8019605,-2.09008 -7.194544 1.484761,-2.071501 -8.08572 1.545707,-2.038707 -8.531055 1.479729,-1.460074 -6.771003 1.056132,-1.632017 -7.06962 1.443953,-1.727859 -7.795341 1.471541,-1.773911 -8.192656 1.449809,-9.358605 -8.353708 -0.4897522,-8.823069 -8.146799 -0.1779971,-8.301721 -7.410046 0.2496822,-8.319686 -6.702399 0.7030785,-8.729984 -6.32921 1.204836,-8.532681 -5.592806 -0.2299293,-8.383925 -4.66501 0.3994088,-8.331581 -4.364873 0.8588499,-8.336649 -4.434679 1.082179,-8.958218 -5.381787 -0.08114085,-8.859026 -5.548493 0.684786,-8.844343 -6.577603 0.9509684,-8.864495 -7.187767 0.9036385,-9.363631 -5.562942 0.1493346,-9.26268 -5.869873 0.7916405,-9.193682 -6.849857 0.891381,-9.171824 -7.328267 0.7931572,-9.766039 -5.932338 0.4230169,-9.633835 -6.140704 0.8557385,-9.497173 -6.854414 0.9360638,-9.433894 -7.188961 0.8754201,1.410, 1
-1.910734 -9.314016 -0.0896208,-2.437309 -9.140696 0.2277749,-2.958418 -8.425047 0.6367071,-3.095058 -7.693415 1.136873,-2.792572 -7.197464 1.694455,-2.718882 -6.790604 0.4116158,-2.773345 -5.842309 1.103081,-2.908545 -5.619956 1.63326,-3.041885 -5.787065 1.907694,-2.281158 -6.511985 0.5421519,-2.468788 -6.966375 1.333011,-2.468788 -6.966375 1.333011,-2.374487 -8.510685 1.605214,-1.861514 -6.598993 0.7416521,-2.041722 -7.199678 1.408717,-2.034237 -8.083868 1.432788,-2.004109 -8.524731 1.3496,-1.432873 -6.834042 0.9955075,-1.578687 -7.154434 1.380294,-1.67862 -7.884444 1.402816,-1.726981 -8.265848 1.379693,-9.37466 -8.396854 -0.4553693,-8.847986 -8.20945 -0.130946,-8.3155 -7.489385 0.2998241,-8.305178 -6.801813 0.7453855,-8.719398 -6.43021 1.224603,-8.551807 -5.642576 -0.1732356,-8.429816 -4.756364 0.431639,-8.38908 -4.433506 0.8689915,-8.383887 -4.429825 1.102681,-8.982243 -5.417215 -0.02332667,-8.880718 -5.574857 0.7398057,-8.8612 -6.612448 0.9979812,-8.881611 -7.223997 0.9477613,-9.394147 -5.599641 0.1977071,-9.293849 -5.910502 0.8335286,-9.21656 -6.882955 0.9180201,-9.191986 -7.361622 0.8115437,-9.803319 -5.982037 0.4645817,-9.66907 -6.239331 0.9161762,-9.525415 -6.947266 1.000791,-9.463484 -7.278765 0.9432355,1.510, 2
-1.91022 -7.872438 -2.956993,-2.474242 -8.019741 -2.256731,-2.792551 -8.144297 -1.605062,-2.921982 -7.980079 -1.138883,-2.896849 -7.886838 -0.7625005,-2.419943 -8.234856 -0.7840784,-2.413579 -7.958127 -0.1641667,-2.441897 -7.918983 0.01910567,-2.513368 -8.02965 0.1959724,-1.991828 -8.098452 -0.8937936,-2.019618 -7.411448 -0.07698965,-2.019618 -7.411448 -0.07698965,-2.351856 -7.65199 0.3013203,-1.604465 -7.931159 -1.086795,-1.653564 -7.389707 -0.4011421,-1.831906 -7.675357 -0.451092,-2.000881 -8.02087 -0.4976521,-1.292574 -7.7686 -1.229023,-1.323447 -7.298101 -0.7102981,-1.481245 -7.467668 -0.6114352,-1.616953 -7.738304 -0.560174,-9.747127 -8.775906 -2.205479,-9.128726 -8.775551 -1.802872,-8.601599 -8.132679 -1.408349,-8.508608 -7.563119 -1.08737,-8.799092 -7.28675 -0.8118645,-8.951184 -6.411154 -1.546996,-8.747438 -5.095254 -1.17867,-8.572817 -4.962696 -0.9501251,-8.539135 -5.218334 -0.7942594,-9.387623 -6.370354 -1.486417,-9.185533 -6.156827 -0.8655505,-9.165858 -7.106102 -0.7619822,-9.239693 -7.56612 -0.7913326,-9.800822 -6.59756 -1.395957,-9.592263 -6.506757 -0.8488855,-9.556896 -7.358564 -0.8136138,-9.614943 -7.765808 -0.8746951,-10.21399 -6.953269 -1.264569,-10.02192 -6.790198 -0.9123973,-9.921897 -7.466638 -0.9091417,-9.924816 -7.851961 -0.9731506,1.610, 0
-0.9556384 -11.19679 2.847695,-1.867262 -10.6118 3.258795,-2.432239 -9.608616 3.866967,-2.686179 -8.856228 4.487465,-2.76313 -8.315851 5.082743,-2.237807 -7.925209 4.589952,-2.601136 -6.809129 5.655798,-2.94496 -7.069702 6.17223,-3.12129 -7.59407 6.420368,-1.741832 -8.127266 4.82604,-2.065331 -7.062292 5.95128,-2.065331 -7.062292 5.95128,-2.650033 -8.341442 6.458168,-1.247427 -8.630968 5.042815,-1.543358 -8.059473 6.094419,-1.906988 -8.639524 6.318502,-2.092468 -9.251951 6.340767,-0.8031306 -9.313366 5.248593,-0.9758 -8.858448 6.066561,-1.239253 -9.103502 6.381179,-1.383617 -9.423134 6.537839,-9.747127 -8.775906 -2.205479,-9.128726 -8.775551 -1.802872,-8.601599 -8.132679 -1.408349,-8.508608 -7.563119 -1.08737,-8.799092 -7.28675 -0.8118645,-8.951184 -6.411154 -1.546996,-8.747438 -5.095254 -1.17867,-8.572817 -4.962696 -0.9501251,-8.539135 -5.218334 -0.7942594,-9.387623 -6.370354 -1.486417,-9.185533 -6.156827 -0.8655505,-9.165858 -7.106102 -0.7619822,-9.239693 -7.56612 -0.7913326,-9.800822 -6.59756 -1.395957,-9.592263 -6.506757 -0.8488855,-9.556896 -7.358564 -0.8136138,-9.614943 -7.765808 -0.8746951,-10.21399 -6.953269 -1.264569,-10.02192 -6.790198 -0.9123973,-9.921897 -7.466638 -0.9091417,-9.924816 -7.851961 -0.9731506,1.710,Right Hand Closed  1
0.05815983 -13.58836 -3.150224,-0.6035843 -13.48252 -3.100383,-1.071069 -13.11634 -2.85428,-1.315727 -12.68116 -2.631092,-1.527256 -12.32651 -2.398947,-0.8253403 -12.07255 -2.296672,-1.105513 -11.23095 -1.949787,-1.29616 -11.2559 -1.820343,-1.366542 -11.46501 -1.739443,-0.5428557 -11.94602 -2.135316,-0.8452625 -11.12272 -1.68131,-0.8452625 -11.12272 -1.68131,-1.081431 -11.43009 -1.568495,-0.2431812 -12.00394 -2.003883,-0.5171824 -11.27238 -1.620656,-0.7260637 -11.29357 -1.510762,-0.8011684 -11.43251 -1.419896,0.04947615 -12.19109 -1.880832,-0.08956623 -11.59583 -1.586901,-0.2517233 -11.49941 -1.394397,-0.3425426 -11.5088 -1.239344,-12.64424 -12.80961 -1.530122,-11.91918 -12.88474 -1.515191,-11.29552 -12.25673 -1.501012,-10.92077 -11.62724 -1.440947,-10.61039 -11.00426 -1.383985,-11.17197 -10.76071 -1.946118,-10.83312 -9.844786 -1.985759,-10.5963 -9.417038 -1.958822,-10.43606 -9.200859 -1.893921,-11.38162 -10.41021 -1.84499,-11.00311 -9.45985 -1.894863,-10.73685 -9.026873 -1.861585,-10.57975 -8.805014 -1.856909,-11.61303 -10.27708 -1.695742,-11.23284 -9.357796 -1.783102,-10.97089 -9.006533 -1.769834,-10.83209 -8.8729 -1.750072,-11.8998 -10.31568 -1.52027,-11.51451 -9.538332 -1.585188,-11.25412 -9.234959 -1.590826,-11.08512 -9.051641 -1.610752,1.810, 7
0.05815983 -13.58836 -3.150224,-0.6035843 -13.48252 -3.100383,-1.071069 -13.11634 -2.85428,-1.315727 -12.68116 -2.631092,-1.527256 -12.32651 -2.398947,-0.8253403 -12.07255 -2.296672,-1.105513 -11.23095 -1.949787,-1.29616 -11.2559 -1.820343,-1.366542 -11.46501 -1.739443,-0.5428557 -11.94602 -2.135316,-0.8452625 -11.12272 -1.68131,-0.8452625 -11.12272 -1.68131,-1.081431 -11.43009 -1.568495,-0.2431812 -12.00394 -2.003883,-0.5171824 -11.27238 -1.620656,-0.7260637 -11.29357 -1.510762,-0.8011684 -11.43251 -1.419896,0.04947615 -12.19109 -1.880832,-0.08956623 -11.59583 -1.586901,-0.2517233 -11.49941 -1.394397,-0.3425426 -11.5088 -1.239344,-12.78029 -14.81606 -1.308328,-12.78484 -13.91209 -0.6491269,-12.56688 -13.21958 -0.2255592,-12.34068 -12.67741 0.06879652,-12.16866 -12.13614 0.3128898,-12.44648 -12.01278 -0.5511718,-12.32119 -11.04147 -0.3681297,-12.33743 -10.76421 -0.1769475,-12.35192 -10.70706 -0.04917705,-12.34182 -12.11081 -0.7706828,-12.20535 -11.22318 -0.5705779,-12.24295 -11.20712 -0.3878653,-12.28 -11.35395 -0.2722932,-12.25596 -12.37975 -0.9401805,-12.11307 -11.62076 -0.7904317,-12.17899 -11.62042 -0.6032491,-12.27122 -11.77713 -0.5242208,-12.19221 -12.73993 -1.063619,-12.05844 -12.14082 -0.8882045,-12.14448 -12.03242 -0.7189576,-12.25643 -12.06304 -0.6650985,1.910, 5
0.05815983 -13.58836 -3.150224,-0.6035843 -13.48252 -3.100383,-1.071069 -13.11634 -2.85428,-1.315727 -12.68116 -2.631092,-1.527256 -12.32651 -2.398947,-0.8253403 -12.07255 -2.296672,-1.105513 -11.23095 -1.949787,-1.29616 -11.2559 -1.820343,-1.366542 -11.46501 -1.739443,-0.5428557 -11.94602 -2.135316,-0.8452625 -11.12272 -1.68131,-0.8452625 -11.12272 -1.68131,-1.081431 -11.43009 -1.568495,-0.2431812 -12.00394 -2.003883,-0.5171824 -11.27238 -1.620656,-0.7260637 -11.29357 -1.510762,-0.8011684 -11.43251 -1.419896,0.04947615 -12.19109 -1.880832,-0.08956623 -11.59583 -1.586901,-0.2517233 -11.49941 -1.394397,-0.3425426 -11.5088 -1.239344,-12.78029 -14.81606 -1.308328,-12.78484 -13.91209 -0.6491269,-12.56688 -13.21958 -0.2255592,-12.34068 -12.67741 0.06879652,-12.16866 -12.13614 0.3128898,-12.44648 -12.01278 -0.5511718,-12.32119 -11.04147 -0.3681297,-12.33743 -10.76421 -0.1769475,-12.35192 -10.70706 -0.04917705,-12.34182 -12.11081 -0.7706828,-12.20535 -11.22318 -0.5705779,-12.24295 -11.20712 -0.3878653,-12.28 -11.35395 -0.2722932,-12.25596 -12.37975 -0.9401805,-12.11307 -11.62076 -0.7904317,-12.17899 -11.62042 -0.6032491,-12.27122 -11.77713 -0.5242208,-12.19221 -12.73993 -1.063619,-12.05844 -12.14082 -0.8882045,-12.14448 -12.03242 -0.7189576,-12.25643 -12.06304 -0.6650985,2.010, 5
0.05815983 -13.58836 -3.150224,-0.6035843 -13.48252 -3.100383,-1.071069 -13.11634 -2.85428,-1.315727 -12.68116 -2.631092,-1.527256 -12.32651 -2.398947,-0.8253403 -12.07255 -2.296672,-1.105513 -11.23095 -1.949787,-1.29616 -11.2559 -1.820343,-1.366542 -11.46501 -1.739443,-0.5428557 -11.94602 -2.135316,-0.8452625 -11.12272 -1.68131,-0.8452625 -11.12272 -1.68131,-1.081431 -11.43009 -1.568495,-0.2431812 -12.00394 -2.003883,-0.5171824 -11.27238 -1.620656,-0.7260637 -11.29357 -1.510762,-0.8011684 -11.43251 -1.419896,0.04947615 -12.19109 -1.880832,-0.08956623 -11.59583 -1.586901,-0.2517233 -11.49941 -1.394397,-0.3425426 -11.5088 -1.239344,-12.78029 -14.81606 -1.308328,-12.78484 -13.91209 -0.6491269,-12.56688 -13.21958 -0.2255592,-12.34068 -12.67741 0.06879652,-12.16866 -12.13614 0.3128898,-12.44648 -12.01278 -0.5511718,-12.32119 -11.04147 -0.3681297,-12.33743 -10.76421 -0.1769475,-12.35192 -10.70706 -0.04917705,-12.34182 -12.11081 -0.7706828,-12.20535 -11.22318 -0.5705779,-12.24295 -11.20712 -0.3878653,-12.28 -11.35395 -0.2722932,-12.25596 -12.37975 -0.9401805,-12.11307 -11.62076 -0.7904317,-12.17899 -11.62042 -0.6032491,-12.27122 -11.77713 -0.5242208,-12.19221 -12.73993 -1.063619,-12.05844 -12.14082 -0.8882045,-12.14448 -12.03242 -0.7189576,-12.25643 -12.06304 -0.6650985,2.110, 5
0.05815983 -13.58836 -3.150224,-0.6035843 -13.48252 -3.100383,-1.071069 -13.11634 -2.85428,-1.315727 -12.68116 -2.631092,-1.527256 -12.32651 -2.398947,-0.8253403 -12.07255 -2.296672,-1.105513 -11.23095 -1.949787,-1.29616 -11.2559 -1.820343,-1.366542 -11.46501 -1.739443,-0.5428557 -11.94602 -2.135316,-0.8452625 -11.12272 -1.68131,-0.8452625 -11.12272 -1.68131,-1.081431 -11.43009 -1.568495,-0.2431812 -12.00394 -2.003883,-0.5171824 -11.27238 -1.620656,-0.7260637 -11.29357 -1.510762,-0.8011684 -11.43251 -1.419896,0.04947615 -12.19109 -1.880832,-0.08956623 -11.59583 -1.586901,-0.2517233 -11.49941 -1.394397,-0.3425426 -11.5088 -1.239344,-12.78029 -14.81606 -1.308328,-12.78484 -13.91209 -0.6491269,-12.56688 -13.21958 -0.2255592,-12.34068 -12.67741 0.06879652,-12.16866 -12.13614 0.3128898,-12.44648 -12.01278 -0.5511718,-12.32119 -11.04147 -0.3681297,-12.33743 -10.76421 -0.1769475,-12.35192 -10.70706 -0.04917705,-12.34182 -12.11081 -0.7706828,-12.20535 -11.22318 -0.5705779,-12.24295 -11.20712 -0.3878653,-12.28 -11.35395 -0.2722932,-12.25596 -12.37975 -0.9401805,-12.11307 -11.62076 -0.7904317,-12.17899 -11.62042 -0.6032491,-12.27122 -11.77713 -0.5242208,-12.19221 -12.73993 -1.063619,-12.05844 -12.14082 -0.8882045,-12.14448 -12.03242 -0.7189576,-12.25643 -12.06304 -0.6650985,2.210, 5
0.05815983 -13.58836 -3.150224,-0.6035843 -13.48252 -3.100383,-1.071069 -13.11634 -2.85428,-1.315727 -12.68116 -2.631092,-1.527256 -12.32651 -2.398947,-0.8253403 -12.07255 -2.296672,-1.105513 -11.23095 -1.949787,-1.29616 -11.2559 -1.820343,-1.366542 -11.46501 -1.739443,-0.5428557 -11.94602 -2.135316,-0.8452625 -11.12272 -1.68131,-0.8452625 -11.12272 -1.68131,-1.081431 -11.43009 -1.568495,-0.2431812 -12.00394 -2.003883,-0.5171824 -11.27238 -1.620656,-0.7260637 -11.29357 -1.510762,-0.8011684 -11.43251 -1.419896,0.04947615 -12.19109 -1.880832,-0.08956623 -11.59583 -1.586901,-0.2517233 -11.49941 -1.394397,-0.3425426 -11.5088 -1.239344,-12.78029 -14.81606 -1.308328,-12.78484 -13.91209 -0.6491269,-12.56688 -13.21958 -0.2255592,-12.34068 -12.67741 0.06879652,-12.16866 -12.13614 0.3128898,-12.44648 -12.01278 -0.5511718,-12.32119 -11.04147 -0.3681297,-12.33743 -10.76421 -0.1769475,-12.35192 -10.70706 -0.04917705,-12.34182 -12.11081 -0.7706828,-12.20535 -11.22318 -0.5705779,-12.24295 -11.20712 -0.3878653,-12.28 -11.35395 -0.2722932,-12.25596 -12.37975 -0.9401805,-12.11307 -11.62076 -0.7904317,-12.17899 -11.62042 -0.6032491,-12.27122 -11.77713 -0.5242208,-12.19221 -12.73993 -1.063619,-12.05844 -12.14082 -0.8882045,-12.14448 -12.03242 -0.7189576,-12.25643 -12.06304 -0.6650985,2.310, 5
0.05815983 -13.58836 -3.150224,-0.6035843 -13.48252 -3.100383,-1.071069 -13.11634 -2.85428,-1.315727 -12.68116 -2.631092,-1.527256 -12.32651 -2.398947,-0.8253403 -12.07255 -2.296672,-1.105513 -11.23095 -1.949787,-1.29616 -11.2559 -1.820343,-1.366542 -11.46501 -1.739443,-0.5428557 -11.94602 -2.135316,-0.8452625 -11.12272 -1.68131,-0.8452625 -11.12272 -1.68131,-1.081431 -11.43009 -1.568495,-0.2431812 -12.00394 -2.003883,-0.5171824 -11.27238 -1.620656,-0.7260637 -11.29357 -1.510762,-0.8011684 -11.43251 -1.419896,0.04947615 -12.19109 -1.880832,-0.08956623 -11.59583 -1.586901,-0.2517233 -11.49941 -1.394397,-0.3425426 -11.5088 -1.239344,-12.78029 -14.81606 -1.308328,-12.78484 -13.91209 -0.6491269,-12.56688 -13.21958 -0.2255592,-12.34068 -12.67741 0.06879652,-12.16866 -12.13614 0.3128898,-12.44648 -12.01278 -0.5511718,-12.32119 -11.04147 -0.3681297,-12.33743 -10.76421 -0.1769475,-12.35192 -10.70706 -0.04917705,-12.34182 -12.11081 -0.7706828,-12.20535 -11.22318 -0.5705779,-12.24295 -11.20712 -0.3878653,-12.28 -11.35395 -0.2722932,-12.25596 -12.37975 -0.9401805,-12.11307 -11.62076 -0.7904317,-12.17899 -11.62042 -0.6032491,-12.27122 -11.77713 -0.5242208,-12.19221 -12.73993 -1.063619,-12.05844 -12.14082 -0.8882045,-12.14448 -12.03242 -0.7189576,-12.25643 -12.06304 -0.6650985,2.410, 5
0.05815983 -13.58836 -3.150224,-0.6035843 -13.48252 -3.100383,-1.071069 -13.11634 -2.85428,-1.315727 -12.68116 -2.631092,-1.527256 -12.32651 -2.398947,-0.8253403 -12.07255 -2.296672,-1.105513 -11.23095 -1.949787,-1.29616 -11.2559 -1.820343,-1.366542 -11.46501 -1.739443,-0.5428557 -11.94602 -2.135316,-0.8452625 -11.12272 -1.68131,-0.8452625 -11.12272 -1.68131,-1.081431 -11.43009 -1.568495,-0.2431812 -12.00394 -2.003883,-0.5171824 -11.27238 -1.620656,-0.7260637 -11.29357 -1.510762,-0.8011684 -11.43251 -1.419896,0.04947615 -12.19109 -1.880832,-0.08956623 -11.59583 -1.586901,-0.2517233 -11.49941 -1.394397,-0.3425426 -11.5088 -1.239344,-12.78029 -14.81606 -1.308328,-12.78484 -13.91209 -0.6491269,-12.56688 -13.21958 -0.2255592,-12.34068 -12.67741 0.06879652,-12.16866 -12.13614 0.3128898,-12.44648 -12.01278 -0.5511718,-12.32119 -11.04147 -0.3681297,-12.33743 -10.76421 -0.1769475,-12.35192 -10.70706 -0.04917705,-12.34182 -12.11081 -0.7706828,-12.20535 -11.22318 -0.5705779,-12.24295 -11.20712 -0.3878653,-12.28 -11.35395 -0.2722932,-12.25596 -12.37975 -0.9401805,-12.11307 -11.62076 -0.7904317,-12.17899 -11.62042 -0.6032491,-12.27122 -11.77713 -0.5242208,-12.19221 -12.73993 -1.063619,-12.05844 -12.14082 -0.8882045,-12.14448 -12.03242 -0.7189576,-12.25643 -12.06304 -0.6650985,2.510, 5
0.05815983 -13.58836 -3.150224,-0.6035843 -13.48252 -3.100383,-1.071069 -13.11634 -2.85428,-1.315727 -12.68116 -2.631092,-1.527256 -12.32651 -2.398947,-0.8253403 -12.07255 -2.296672,-1.105513 -11.23095 -1.949787,-1.29616 -11.2559 -1.820343,-1.366542 -11.46501 -1.739443,-0.5428557 -11.94602 -2.135316,-0.8452625 -11.12272 -1.68131,-0.8452625 -11.12272 -1.68131,-1.081431 -11.43009 -1.568495,-0.2431812 -12.00394 -2.003883,-0.5171824 -11.27238 -1.620656,-0.7260637 -11.29357 -1.510762,-0.8011684 -11.43251 -1.419896,0.04947615 -12.19109 -1.880832,-0.08956623 -11.59583 -1.586901,-0.2517233 -11.49941 -1.394397,-0.3425426 -11.5088 -1.239344,-12.78029 -14.81606 -1.308328,-12.78484 -13.91209 -0.6491269,-12.56688 -13.21958 -0.2255592,-12.34068 -12.67741 0.06879652,-12.16866 -12.13614 0.3128898,-12.44648 -12.01278 -0.5511718,-12.32119 -11.04147 -0.3681297,-12.33743 -10.76421 -0.1769475,-12.35192 -10.70706 -0.04917705,-12.34182 -12.11081 -0.7706828,-12.20535 -11.22318 -0.5705779,-12.24295 -11.20712 -0.3878653,-12.28 -11.35395 -0.2722932,-12.25596 -12.37975 -0.9401805,-12.11307 -11.62076 -0.7904317,-12.17899 -11.62042 -0.6032491,-12.27122 -11.77713 -0.5242208,-12.19221 -12.73993 -1.063619,-12.05844 -12.14082 -0.8882045,-12.14448 -12.03242 -0.7189576,-12.25643 -12.06304 -0.6650985,2.610, 5
0.05815983 -13.58836 -3.150224,-0.6035843 -13.48252 -3.100383,-1.071069 -13.11634 -2.85428,-1.315727 -12.68116 -2.631092,-1.527256 -12.32651 -2.398947,-0.8253403 -12.07255 -2.296672,-1.105513 -11.23095 -1.949787,-1.29616 -11.2559 -1.820343,-1.366542 -11.46501 -1.739443,-0.5428557 -11.94602 -2.135316,-0.8452625 -11.12272 -1.68131,-0.8452625 -11.12272 -1.68131,-1.081431 -11.43009 -1.568495,-0.2431812 -12.00394 -2.003883,-0.5171824 -11.27238 -1.620656,-0.7260637 -11.29357 -1.510762,-0.8011684 -11.43251 -1.419896,0.04947615 -12.19109 -1.880832,-0.08956623 -11.59583 -1.586901,-0.2517233 -11.49941 -1.394397,-0.3425426 -11.5088 -1.239344,-12.78029 -14.81606 -1.308328,-12.78484 -13.91209 -0.6491269,-12.56688 -13.21958 -0.2255592,-12.34068 -12.67741 0.06879652,-12.16866 -12.13614 0.3128898,-12.44648 -12.01278 -0.5511718,-12.32119 -11.04147 -0.3681297,-12.33743 -10.76421 -0.1769475,-12.35192 -10.70706 -0.04917705,-12.34182 -12.11081 -0.7706828,-12.20535 -11.22318 -0.5705779,-12.24295 -11.20712 -0.3878653,-12.28 -11.35395 -0.2722932,-12.25596 -12.37975 -0.9401805,-12.11307 -11.62076 -0.7904317,-12.17899 -11.62042 -0.6032491,-12.27122 -11.77713 -0.5242208,-12.19221 -12.73993 -1.063619,-12.05844 -12.14082 -0.8882045,-12.14448 -12.03242 -0.7189576,-12.25643 -12.06304 -0.6650985,2.710, 5
0.05815983 -13.58836 -3.150224,-0.6035843 -13.48252 -3.100383,-1.071069 -13.11634 -2.85428,-1.315727 -12.68116 -2.631092,-1.527256 -12.32651 -2.398947,-0.8253403 -12.07255 -2.296672,-1.105513 -11.23095 -1.949787,-1.29616 -11.2559 -1.820343,-1.366542 -11.46501 -1.739443,-0.5428557 -11.94602 -2.135316,-0.8452625 -11.12272 -1.68131,-0.8452625 -11.12272 -1.68131,-1.081431 -11.43009 -1.568495,-0.2431812 -12.00394 -2.003883,-0.5171824 -11.27238 -1.620656,-0.7260637 -11.29357 -1.510762,-0.8011684 -11.43251 -1.419896,0.04947615 -12.19109 -1.880832,-0.08956623 -11.59583 -1.586901,-0.2517233 -11.49941 -1.394397,-0.3425426 -11.5088 -1.239344,-12.78029 -14.81606 -1.308328,-12.78484 -13.91209 -0.6491269,-12.56688 -13.21958 -0.2255592,-12.34068 -12.67741 0.06879652,-12.16866 -12.13614 0.3128898,-12.44648 -12.01278 -0.5511718,-12.32119 -11.04147 -0.3681297,-12.33743 -10.76421 -0.1769475,-12.35192 -10.70706 -0.04917705,-12.34182 -12.11081 -0.7706828,-12.20535 -11.22318 -0.5705779,-12.24295 -11.20712 -0.3878653,-12.28 -11.35395 -0.2722932,-12.25596 -12.37975 -0.9401805,-12.11307 -11.62076 -0.7904317,-12.17899 -11.62042 -0.6032491,-12.27122 -11.77713 -0.5242208,-12.19221 -12.73993 -1.063619,-12.05844 -12.14082 -0.8882045,-12.14448 -12.03242 -0.7189576,-12.25643 -12.06304 -0.6650985,2.810, 5
0.7869482 -13.89807 -3.925731,0.003332138 -13.67738 -3.313796,-0.4939828 -13.06114 -2.810317,-0.7668724 -12.50859 -2.464664,-0.8412051 -12.16523 -2.203489,-0.04165697 -12.69126 -2.688285,-0.3537521 -12.11223 -2.281878,-0.6047153 -12.3278 -1.962939,-0.7625217 -12.72699 -1.775312,0.4149046 -12.50116 -2.852465,0.143856 -11.88894 -2.542856,0.143856 -11.88894 -2.542856,-0.1779809 -12.58484 -2.247399,0.8128557 -12.36224 -3.005056,0.5695601 -11.74477 -2.818725,0.4098372 -12.01755 -2.713812,0.3661561 -12.38412 -2.613643,1.111425 -12.23283 -3.088776,0.9481435 -11.72042 -3.062233,0.8017974 -11.96329 -3.083328,0.753469 -12.33009 -3.113911,-12.78029 -14.81606 -1.308328,-12.78484 -13.91209 -0.6491269,-12.56688 -13.21958 -0.2255592,-12.34068 -12.67741 0.06879652,-12.16866 -12.13614 0.3128898,-12.44648 -12.01278 -0.5511718,-12.32119 -11.04147 -0.3681297,-12.33743 -10.76421 -0.1769475,-12.35192 -10.70706 -0.04917705,-12.34182 -12.11081 -0.7706828,-12.20535 -11.22318 -0.5705779,-12.24295 -11.20712 -0.3878653,-12.28 -11.35395 -0.2722932,-12.25596 -12.37975 -0.9401805,-12.11307 -11.62076 -0.7904317,-12.17899 -11.62042 -0.6032491,-12.27122 -11.77713 -0.5242208,-12.19221 -12.73993 -1.063619,-12.05844 -12.14082 -0.8882045,-12.14448 -12.03242 -0.7189576,-12.25643 -12.06304 -0.6650985,2.910,Right Hand Closed  4
-0.2342596 -12.76266 4.028295,0.628242 -12.15298 5.276034,1.120028 -11.49767 6.468518,1.465462 -10.8547 7.287902,1.479354 -10.28504 8.131797,0.7446499 -13.00085 8.288617,1.042851 -12.00653 9.878739,0.9762373 -10.92781 10.5736,0.8259382 -9.909285 11.02324,0.009999275 -13.17103 8.073039,-0.09566212 -11.7215 9.828972,-0.09566212 -11.7215 9.828972,-0.7342625 -8.722542 11.64502,-0.7016354 -13.1049 7.718493,-0.8654346 -11.56239 9.113702,-1.10327 -10.08661 10.19282,-1.376254 -8.817665 10.98327,-1.28968 -12.89028 7.324949,-1.490281 -11.66463 8.231068,-1.674846 -10.64391 8.965748,-1.85313 -9.795496 9.609767,-10.36969 -15.96269 1.328143,-9.555559 -14.76269 1.5058,-9.24264 -13.46726 2.069093,-9.041839 -12.32736 2.502984,-8.732903 -11.45584 2.949626,-9.630569 -13.33133 3.664511,-9.333863 -11.46886 4.645075,-9.183042 -10.15203 5.149465,-9.069759 -8.959993 5.52299,-10.31305 -13.4319 3.811859,-10.13615 -11.44932 5.12094,-10.05179 -9.905287 5.746678,-9.984444 -8.399984 6.175737,-11.00532 -13.61627 3.782924,-11.00041 -11.78095 4.845782,-10.92787 -10.31062 5.443422,-10.86348 -8.90163 5.872244,-11.63019 -13.88235 3.656905,-11.84368 -12.47943 4.561906,-11.90813 -11.34137 5.110705,-11.92212 -10.13799 5.528526,3.010, 9
-0.2746272 -14.07125 1.839771,-1.192459 -13.4454 2.2331,-1.701175 -11.973 2.658705,-1.903389 -10.70668 2.938094,-2.001237 -9.652281 3.168433,-1.698404 -11.77886 4.115348,-2.188514 -10.27291 5.037093,-2.448168 -9.162428 5.533018,-2.618553 -8.115507 5.896454,-1.014567 -11.73517 4.265446,-1.334828 -9.895422 5.370441,-1.334828 -9.895422 5.370441,-1.691107 -7.391445 6.385171,-0.2985439 -11.96461 4.335969,-0.4171896 -10.16234 5.431966,-0.5990238 -8.937363 6.152894,-0.7987261 -7.852891 6.611359,0.3685627 -12.44598 4.317669,0.7117348 -11.31911 5.294762,0.933382 -10.30966 6.044063,1.125408 -9.251596 6.529038,-11.16483 -13.92787 1.714314,-10.24951 -13.48444 2.391722,-9.567479 -12.78587 3.168923,-9.076631 -12.23647 3.858039,-8.635558 -12.02428 4.579431,-9.70709 -11.46232 3.909512,-9.335201 -9.758829 4.999525,-9.213835 -8.738693 5.643324,-9.113007 -7.729221 6.0619,-10.31899 -11.26045 4.068181,-10.04255 -9.30438 5.287182,-9.967748 -8.064146 6.105293,-9.911756 -6.764013 6.719639,-10.96602 -11.33961 4.15906,-10.80226 -9.571426 5.194931,-10.73809 -8.38262 5.940063,-10.65233 -7.196111 6.514387,-11.6498 -11.6027 4.249446,-11.69649 -10.33319 5.047745,-11.75307 -9.457624 5.575139,-11.76842 -8.433245 6.039927,3.110, 10
-0.2746272 -14.07125 1.839771,-1.192459 -13.4454 2.2331,-1.701175 -11.973 2.658705,-1.903389 -10.70668 2.938094,-2.001237 -9.652281 3.168433,-1.698404 -11.77886 4.115348,-2.188514 -10.27291 5.037093,-2.448168 -9.162428 5.533018,-2.618553 -8.115507 5.896454,-1.014567 -11.73517 4.265446,-1.334828 -9.895422 5.370441,-1.334828 -9.895422 5.370441,-1.691107 -7.391445 6.385171,-0.2985439 -11.96461 4.335969,-0.4171896 -10.16234 5.431966,-0.5990238 -8.937363 6.152894,-0.7987261 -7.852891 6.611359,0.3685627 -12.44598 4.317669,0.7117348 -11.31911 5.294762,0.933382 -10.30966 6.044063,1.125408 -9.251596 6.529038,-10.85946 -13.87394 0.8391648,-10.09675 -13.4036 1.531095,-9.555363 -12.77216 2.22917,-9.344406 -12.4207 2.836495,-9.08128 -12.27457 3.548476,-9.724486 -11.22871 2.507572,-9.371811 -9.589798 3.273504,-9.269058 -8.439451 3.832267,-9.212627 -7.317554 4.269219,-10.3475 -11.0073 2.606771,-10.08612 -9.038832 3.413719,-10.01089 -7.724456 4.012761,-9.922814 -6.525995 4.475762,-10.94657 -11.12148 2.669871,-10.7752 -9.284136 3.417962,-10.69259 -8.02286 3.951185,-10.57712 -6.879463 4.390909,-11.5282 -11.48642 2.755407,-11.6903 -10.17451 3.422499,-11.79939 -9.248083 3.824313,-11.81456 -8.26782 4.129779,3.210, 10
-0.4138479 -14.04663 2.335806,-1.229944 -14.52392 3.595358,-1.832329 -14.22828 4.421264,-2.22113 -13.90053 5.094517,-2.608722 -13.41556 5.826693,-1.69615 -11.43883 4.326461,-2.143158 -9.878294 5.03778,-2.471488 -8.773197 5.632398,-2.777086 -7.827869 6.083383,-1.087507 -11.05045 4.194739,-1.284926 -9.475693 5.006086,-1.284926 -9.475693 5.006086,-1.65424 -6.882619 6.379633,-0.471674 -11.2279 4.142607,-0.5025682 -9.698631 4.859749,-0.6355696 -8.459909 5.502573,-0.7682838 -7.374725 6.094134,0.09694099 -11.75527 4.169939,0.2995605 -10.80308 4.774891,0.4327688 -10.06502 5.233965,0.5587554 -9.301579 5.635796,-10.76854 -14.22399 2.725192,-9.88365 -14.37996 3.723573,-9.236246 -13.71348 4.51261,-8.743996 -12.98979 5.222452,-8.157817 -12.45492 5.970525,-9.640902 -10.9437 4.329288,-9.415732 -9.332064 4.949112,-9.266768 -8.204037 5.394171,-9.118671 -7.145562 5.753351,-10.24643 -10.66191 4.338725,-10.09617 -8.840887 4.981658,-9.995263 -7.494407 5.538867,-9.899291 -6.26148 6.014575,-10.85743 -10.80954 4.362804,-10.79617 -9.024874 5.011974,-10.73265 -7.746923 5.556595,-10.63421 -6.583451 6.047528,-11.50447 -11.26443 4.447985,-11.64235 -9.854698 5.079056,-11.70119 -8.891928 5.476035,-11.69911 -7.899744 5.827128,3.310, 10
-0.4138479 -14.04663 2.335806,-1.229944 -14.52392 3.595358,-1.832329 -14.22828 4.421264,-2.22113 -13.90053 5.094517,-2.608722 -13.41556 5.826693,-1.69615 -11.43883 4.326461,-2.143158 -9.878294 5.03778,-2.471488 -8.773197 5.632398,-2.777086 -7.827869 6.083383,-1.087507 -11.05045 4.194739,-1.284926 -9.475693 5.006086,-1.284926 -9.475693 5.006086,-1.65424 -6.882619 6.379633,-0.471674 -11.2279 4.142607,-0.5025682 -9.698631 4.859749,-0.6355696 -8.459909 5.502573,-0.7682838 -7.374725 6.094134,0.09694099 -11.75527 4.169939,0.2995605 -10.80308 4.774891,0.4327688 -10.06502 5.233965,0.5587554 -9.301579 5.635796,-10.80132 -14.26535 3.444829,-9.845272 -14.03366 4.146554,-9.006748 -13.35914 4.705645,-8.378791 -12.74369 5.237212,-7.740096 -12.37664 5.826731,-9.568261 -10.54955 4.410178,-9.290249 -8.847878 4.966718,-9.140676 -7.859878 5.401746,-9.017317 -6.864837 5.726421,-10.17055 -10.29337 4.472104,-9.983473 -8.419138 4.993117,-9.892024 -7.275975 5.490288,-9.839585 -6.206483 5.887368,-10.77387 -10.3982 4.595728,-10.67244 -8.669226 5.114122,-10.60212 -7.569113 5.572779,-10.53604 -6.564696 5.921711,-11.4044 -10.813 4.75545,-11.48705 -9.470007 5.235055,-11.5428 -8.575745 5.58502,-11.56233 -7.684946 5.880019,3.410, 10
-0.5296273 -13.66788 4.146019,-1.393216 -13.98633 5.387508,-2.223107 -13.4269 6.17319,-2.877715 -12.9011 6.786891,-3.605864 -12.89033 7.459177,-2.009596 -10.49028 6.000418,-2.446593 -8.919827 6.836395,-2.646984 -8.083014 7.396373,-2.88994 -7.336891 7.787078,-1.355912 -10.02783 5.857627,-1.63587 -8.246283 6.70085,-1.63587 -8.246283 6.70085,-1.960613 -6.435668 7.64957,-0.7223659 -10.04701 5.811439,-0.7865057 -8.430885 6.642057,-0.9399533 -7.537353 7.270251,-1.15897 -6.771616 7.7129,-0.09233618 -10.48489 5.81641,0.1680703 -9.218718 6.565639,0.2725139 -8.503208 7.107012,0.2802763 -7.846586 7.542893,-10.81546 -14.22624 3.282153,-9.822018 -13.92761 3.791514,-8.978922 -13.17576 4.199516,-8.357129 -12.51627 4.60686,-7.713613 -12.18531 5.098522,-9.53196 -10.45307 3.790013,-9.227131 -8.734756 4.172831,-9.085101 -7.757214 4.518305,-8.965414 -6.794078 4.774394,-10.15389 -10.22241 3.895906,-9.974206 -8.342201 4.229348,-9.898935 -7.270303 4.642821,-9.851309 -6.299265 4.974601,-10.75609 -10.32225 4.064188,-10.65363 -8.60924 4.426982,-10.58861 -7.575 4.817406,-10.51735 -6.633374 5.107795,-11.37165 -10.72168 4.251575,-11.47046 -9.375153 4.629598,-11.53418 -8.498449 4.930333,-11.55399 -7.611097 5.181685,3.510, 10
-0.6444969 -13.77573 3.674836,-1.552219 -13.81626 4.620833,-2.433979 -13.47279 5.266464,-3.100986 -13.21297 5.782902,-3.708728 -13.07718 6.322909,-2.013105 -10.56106 5.167363,-2.412481 -9.125921 5.966284,-2.645574 -8.279509 6.485318,-2.85709 -7.452196 6.852841,-1.406881 -10.18275 5.187575,-1.668345 -8.624269 6.009007,-1.668345 -8.624269 6.009007,-2.009069 -6.766737 7.066697,-0.8004732 -10.27538 5.298476,-0.8594742 -8.800915 6.108295,-0.9841175 -7.931893 6.7776,-1.114447 -7.13256 7.255276,-0.1868849 -10.75585 5.464833,0.04267836 -9.644444 6.135563,0.1514621 -8.957809 6.681616,0.2063837 -8.203524 7.160727,-10.82178 -14.16266 2.73777,-9.865565 -13.88987 3.326619,-9.039671 -13.16039 3.782095,-8.414168 -12.52752 4.217068,-7.76183 -12.18965 4.737098,-9.587579 -10.5946 3.451005,-9.272798 -8.964235 3.898538,-9.125225 -8.024893 4.261743,-9.002782 -7.077472 4.541317,-10.20881 -10.34015 3.516255,-10.02783 -8.600306 3.934009,-9.962046 -7.596704 4.386438,-9.916703 -6.679164 4.738571,-10.8035 -10.38508 3.644736,-10.68967 -8.756485 4.044022,-10.62607 -7.768836 4.440241,-10.55231 -6.857461 4.74509,-11.40273 -10.71125 3.786752,-11.49066 -9.42341 4.187903,-11.54912 -8.571487 4.486636,-11.56466 -7.708108 4.747332,3.610, 10
-0.6689677 -13.72973 3.441347,-1.582302 -13.81714 4.394661,-2.450074 -13.52381 5.033802,-3.105406 -13.32897 5.542072,-3.696637 -13.2494 6.061502,-2.070553 -10.63505 5.023774,-2.478243 -9.222162 5.843421,-2.709591 -8.388229 6.379177,-2.91618 -7.547131 6.768374,-1.461169 -10.26122 5.052388,-1.744628 -8.73978 5.922313,-1.744628 -8.73978 5.922313,-2.100067 -6.947475 7.024696,-0.8454628 -10.34671 5.169213,-0.9256725 -8.909807 6.019826,-1.072742 -8.081797 6.689532,-1.223468 -7.308154 7.173709,-0.2191954 -10.81901 5.339903,0.006965637 -9.722618 6.035966,0.1076221 -9.059765 6.589027,0.155386 -8.334726 7.073105,-10.82201 -14.21259 2.798435,-9.863712 -13.95183 3.37733,-9.032097 -13.22219 3.824358,-8.400637 -12.59271 4.253183,-7.747743 -12.25887 4.76209,-9.583785 -10.64391 3.482627,-9.266092 -9.084757 3.902717,-9.120575 -8.171461 4.244904,-8.995344 -7.265586 4.514536,-10.20088 -10.36642 3.54081,-10.03862 -8.671835 3.916041,-9.981852 -7.714136 4.326735,-9.941681 -6.856379 4.654924,-10.78509 -10.41819 3.659483,-10.70273 -8.813787 4.032876,-10.66077 -7.848272 4.402678,-10.60695 -6.959005 4.691149,-11.37959 -10.76795 3.796495,-11.50028 -9.529589 4.172925,-11.58207 -8.716194 4.462348,-11.61958 -7.881084 4.721736,3.710, 10
-0.6739798 -13.76261 3.448666,-1.58795 -13.79679 4.353521,-2.461962 -13.43594 4.945161,-3.120343 -13.18086 5.412697,-3.705545 -13.09408 5.889915,-2.083967 -10.61997 4.909888,-2.497958 -9.209732 5.688087,-2.719977 -8.376066 6.200095,-2.912079 -7.523832 6.583334,-1.484133 -10.24601 4.947665,-1.759075 -8.707386 5.788857,-1.759075 -8.707386 5.788857,-2.095698 -6.889305 6.864089,-0.8733234 -10.32312 5.075333,-0.9543219 -8.877871 5.911672,-1.091178 -8.039482 6.577682,-1.232836 -7.264143 7.05226,-0.2508221 -10.7796 5.253242,-0.03569221 -9.671309 5.937353,0.06641626 -9.00169 6.485063,0.1122537 -8.271925 6.96346,-10.8075 -14.25167 2.994058,-9.85363 -13.96522 3.554682,-9.032359 -13.21368 3.974941,-8.415112 -12.55145 4.383305,-7.76367 -12.22043 4.873346,-9.56941 -10.61205 3.616841,-9.245171 -9.066904 4.004715,-9.099606 -8.157187 4.35152,-8.968255 -7.255708 4.625189,-10.1878 -10.33858 3.686872,-10.02632 -8.62793 4.021518,-9.969459 -7.668804 4.433363,-9.928594 -6.822435 4.756853,-10.76991 -10.38596 3.821273,-10.69111 -8.781536 4.162164,-10.64772 -7.811525 4.531687,-10.59215 -6.928113 4.817509,-11.36028 -10.73202 3.973899,-11.49459 -9.485369 4.317064,-11.5852 -8.660599 4.597113,-11.63313 -7.819772 4.84551,3.810, 10
-0.6746531 -13.77509 3.796093,-1.617716 -13.71164 4.572586,-2.499969 -13.3216 5.089407,-3.159038 -12.98477 5.530763,-3.742294 -12.81348 6.003006,-2.136383 -10.43337 4.949798,-2.55786 -9.003338 5.635353,-2.781211 -8.151052 6.114538,-2.966703 -7.298734 6.48409,-1.530513 -10.06 5.029176,-1.802693 -8.502432 5.7342,-1.802693 -8.502432 5.7342,-2.093969 -6.674847 6.668358,-0.9139605 -10.15288 5.19986,-0.9988046 -8.680836 5.922323,-1.121362 -7.809616 6.554847,-1.253904 -7.05443 7.002313,-0.2831717 -10.6289 5.412847,-0.07371283 -9.516199 6.019692,0.02670002 -8.812735 6.507465,0.06296015 -8.056013 6.925587,-10.8333 -14.07685 2.963037,-9.838773 -13.77256 3.500015,-9.027477 -13.05927 3.900852,-8.420498 -12.39276 4.299332,-7.790874 -12.02195 4.756545,-9.569963 -10.4285 3.46027,-9.227066 -8.852051 3.820947,-9.072604 -7.921595 4.174451,-8.9331 -7.023208 4.453039,-10.18227 -10.15789 3.531162,-10.02113 -8.384619 3.82327,-9.971934 -7.380764 4.242903,-9.939705 -6.503651 4.588143,-10.75895 -10.2177 3.667983,-10.68434 -8.581593 3.959799,-10.64928 -7.598295 4.316256,-10.596 -6.714877 4.598105,-11.35212 -10.55823 3.832986,-11.47572 -9.291796 4.137738,-11.56289 -8.457973 4.399407,-11.60369 -7.619247 4.635746,3.910, 10
-0.7147579 -13.74243 3.825049,-1.652765 -13.66751 4.607912,-2.526526 -13.26605 5.122586,-3.182589 -12.89185 5.561954,-3.766823 -12.68432 6.018643,-2.148537 -10.38659 4.996389,-2.576837 -8.944065 5.682663,-2.798465 -8.079575 6.162122,-2.985025 -7.212314 6.524043,-1.544553 -10.01496 5.065386,-1.824114 -8.446316 5.765162,-1.824114 -8.446316 5.765162,-2.12283 -6.607452 6.681072,-0.927464 -10.09434 5.226533,-1.014752 -8.610348 5.941502,-1.137452 -7.733818 6.563342,-1.272309 -6.972274 6.999312,-0.2965174 -10.54896 5.429549,-0.08722162 -9.422649 6.031238,0.01410055 -8.717548 6.509151,0.05203152 -7.967878 6.919235,-10.80684 -13.99148 3.044546,-9.836837 -13.67792 3.600571,-9.034382 -12.98308 4.013299,-8.43061 -12.31641 4.425995,-7.793316 -11.94642 4.892315,-9.555468 -10.3301 3.556953,-9.207459 -8.763184 3.921013,-9.051939 -7.832401 4.285799,-8.906568 -6.923122 4.567321,-10.16634 -10.04876 3.625153,-9.994224 -8.294664 3.913048,-9.941272 -7.288363 4.340312,-9.90469 -6.398185 4.68952,-10.74216 -10.09263 3.762405,-10.65674 -8.472334 4.057227,-10.62037 -7.483657 4.417701,-10.56585 -6.590318 4.705455,-11.33472 -10.4185 3.930811,-11.4514 -9.150024 4.234083,-11.53313 -8.317621 4.488871,-11.57243 -7.468654 4.717676,4.010, 10
-0.732511 -13.69377 3.98017,-1.670147 -13.57996 4.765391,-2.552685 -13.13164 5.268861,-3.194326 -12.70604 5.688436,-3.779758 -12.4917 6.127302,-2.177834 -10.26713 5.114222,-2.583827 -8.808807 5.786735,-2.808659 -7.956419 6.259821,-3.011513 -7.09448 6.629401,-1.577466 -9.905184 5.16834,-1.837687 -8.332628 5.826177,-1.837687 -8.332628 5.826177,-2.149704 -6.480184 6.723533,-0.9658012 -9.998779 5.316564,-1.042016 -8.532307 5.995831,-1.163068 -7.671226 6.597579,-1.301999 -6.909694 7.034719,-0.339819 -10.4609 5.515842,-0.1366343 -9.361265 6.103037,-0.04945374 -8.678432 6.573929,-0.02295208 -7.947624 6.982923,-10.79364 -13.93529 3.116821,-9.837761 -13.66965 3.71399,-9.029316 -12.94826 4.154643,-8.418183 -12.28268 4.591093,-7.772225 -11.90914 5.098052,-9.527477 -10.28058 3.716402,-9.175004 -8.704578 4.107487,-9.003013 -7.771919 4.470031,-8.853051 -6.853667 4.751165,-10.12437 -9.987566 3.770712,-9.934374 -8.257305 4.084241,-9.865388 -7.25113 4.49423,-9.830774 -6.353622 4.83689,-10.70009 -10.034 3.8967,-10.595 -8.41201 4.231699,-10.54277 -7.428999 4.602968,-10.49163 -6.542419 4.890384,-11.29739 -10.36945 4.055928,-11.40267 -9.105558 4.401071,-11.46809 -8.288256 4.668787,-11.49804 -7.454218 4.91249,4.110, 10
-0.7160673 -13.62059 3.913161,-1.630088 -13.51987 4.718313,-2.498478 -13.05959 5.232984,-3.139622 -12.64167 5.66817,-3.733967 -12.40276 6.138468,-2.151112 -10.20555 5.077344,-2.55149 -8.747719 5.743409,-2.761143 -7.903705 6.230361,-2.962211 -7.044027 6.613401,-1.551726 -9.861677 5.136323,-1.812392 -8.272635 5.810821,-1.812392 -8.272635 5.810821,-2.112587 -6.420551 6.736311,-0.9468827 -9.98078 5.287197,-1.027421 -8.531755 5.993502,-1.145612 -7.697866 6.62288,-1.292841 -6.937942 7.073882,-0.3347416 -10.45933 5.488499,-0.1847677 -9.394287 6.112547,-0.1459718 -8.752157 6.611542,-0.1672926 -8.048233 7.029637,-10.7732 -13.9041 3.10837,-9.823697 -13.64709 3.689128,-9.013131 -12.93543 4.134752,-8.402225 -12.28439 4.575381,-7.765519 -11.94248 5.086615,-9.501282 -10.24895 3.696723,-9.145464 -8.698233 4.08991,-8.970958 -7.78498 4.45978,-8.817241 -6.883127 4.751648,-10.10007 -9.95911 3.759836,-9.922974 -8.243095 4.078649,-9.857008 -7.249824 4.494642,-9.821445 -6.364902 4.83701,-10.67555 -10.00368 3.89544,-10.58412 -8.391628 4.225639,-10.53552 -7.418005 4.598953,-10.48016 -6.534744 4.892467,-11.27099 -10.34013 4.063484,-11.38446 -9.084085 4.397665,-11.456 -8.264441 4.665566,-11.48581 -7.426382 4.90801,4.210, 10
-0.729497 -13.60702 3.954527,-1.627209 -13.53334 4.799237,-2.494813 -13.06966 5.35093,-3.122252 -12.63638 5.810809,-3.708569 -12.3526 6.311204,-2.147071 -10.22314 5.257462,-2.54185 -8.768076 5.972826,-2.750577 -7.918202 6.478384,-2.943902 -7.036933 6.865425,-1.545163 -9.872778 5.299628,-1.805855 -8.290436 6.023702,-1.805855 -8.290436 6.023702,-2.09205 -6.402814 6.956488,-0.9402242 -9.989931 5.42732,-1.028501 -8.561405 6.165915,-1.149408 -7.724849 6.793981,-1.286858 -6.952074 7.247321,-0.3287077 -10.46252 5.608905,-0.1920538 -9.39467 6.25248,-0.1592178 -8.744541 6.748769,-0.178731 -8.046507 7.173889,-10.76545 -13.86636 2.96702,-9.799743 -13.60885 3.554584,-8.993463 -12.90928 4.001697,-8.387455 -12.26009 4.442732,-7.755174 -11.90368 4.949856,-9.496614 -10.25126 3.589163,-9.144835 -8.682655 3.99369,-8.972593 -7.761264 4.36298,-8.823167 -6.850352 4.656221,-10.09249 -9.968527 3.651666,-9.908505 -8.245775 3.980518,-9.832184 -7.24572 4.405044,-9.791423 -6.355011 4.755376,-10.66506 -10.01432 3.785399,-10.57149 -8.398714 4.132684,-10.51799 -7.425975 4.514079,-10.46276 -6.550198 4.810418,-11.25878 -10.34705 3.952661,-11.37394 -9.081398 4.307961,-11.44411 -8.257027 4.582905,-11.47769 -7.419618 4.830262,4.310, 10
-0.7304797 -13.6314 4.007466,-1.619307 -13.5501 4.855141,-2.487682 -13.07774 5.411157,-3.119047 -12.65707 5.876391,-3.709608 -12.37369 6.384026,-2.141222 -10.23161 5.3302,-2.531744 -8.773935 6.059151,-2.747349 -7.933095 6.581222,-2.953263 -7.070253 6.97497,-1.537692 -9.886633 5.373959,-1.786487 -8.314892 6.113605,-1.786487 -8.314892 6.113605,-2.066454 -6.42271 7.053411,-0.9319954 -10.00577 5.501171,-1.016741 -8.594051 6.243534,-1.132645 -7.767492 6.877594,-1.265353 -6.987953 7.341126,-0.3211966 -10.47866 5.679729,-0.194252 -9.423197 6.322405,-0.1683149 -8.781775 6.820268,-0.1934748 -8.07892 7.245356,-10.7426 -13.82038 3.017983,-9.79159 -13.57758 3.635577,-8.982509 -12.84165 4.102332,-8.372817 -12.17934 4.553986,-7.72901 -11.81324 5.066413,-9.477148 -10.19649 3.716971,-9.127526 -8.644075 4.152641,-8.955433 -7.732227 4.535667,-8.80549 -6.815908 4.834496,-10.07688 -9.919046 3.77167,-9.889906 -8.225739 4.142522,-9.813807 -7.236736 4.583019,-9.774339 -6.336143 4.939249,-10.65434 -9.968853 3.89611,-10.55478 -8.373184 4.273969,-10.50346 -7.401519 4.670106,-10.45547 -6.507439 4.97945,-11.25309 -10.30246 4.051972,-11.35318 -9.048943 4.42568,-11.42394 -8.226328 4.716063,-11.46348 -7.37437 4.969083,4.410, 10
-0.7693892 -13.6029 3.842349,-1.67308 -13.49579 4.653471,-2.537328 -13.0489 5.199939,-3.171728 -12.64475 5.665179,-3.763186 -12.37479 6.174985,-2.181398 -10.19508 5.01682,-2.586208 -8.74024 5.696995,-2.800477 -7.889387 6.192256,-2.998145 -7.031766 6.576863,-1.581829 -9.859707 5.062741,-1.834268 -8.294062 5.7212,-1.834268 -8.294062 5.7212,-2.091825 -6.427417 6.606555,-0.9813271 -9.986048 5.201272,-1.063817 -8.557085 5.884353,-1.176861 -7.728082 6.496527,-1.308474 -6.972566 6.933416,-0.373395 -10.46432 5.389853,-0.2250171 -9.402693 5.991506,-0.1881151 -8.76259 6.473714,-0.2078409 -8.06806 6.875395,-10.69571 -13.83202 3.044014,-9.74893 -13.5712 3.630718,-8.966342 -12.84242 4.081554,-8.366696 -12.18559 4.529484,-7.726183 -11.85461 5.056118,-9.45482 -10.18029 3.648545,-9.099424 -8.610947 4.050223,-8.921354 -7.691226 4.424305,-8.761884 -6.791974 4.709263,-10.05367 -9.904537 3.717988,-9.870377 -8.19585 4.053392,-9.795376 -7.209174 4.470219,-9.753246 -6.353599 4.808958,-10.6314 -9.963646 3.862933,-10.52574 -8.34313 4.221875,-10.46993 -7.36123 4.611797,-10.41155 -6.478355 4.899111,-11.22401 -10.31843 4.037102,-11.33004 -9.052204 4.404502,-11.39537 -8.235929 4.6824,-11.42305 -7.397756 4.929355,4.510, 10
-0.7720337 -13.61561 3.888644,-1.67172 -13.48695 4.695742,-2.539972 -13.0301 5.223258,-3.178028 -12.61 5.665629,-3.756149 -12.33629 6.14215,-2.179796 -10.20708 5.05633,-2.57818 -8.760025 5.728952,-2.792772 -7.910444 6.230352,-2.994494 -7.0372 6.618947,-1.585426 -9.857323 5.105444,-1.846016 -8.291767 5.773221,-1.846016 -8.291767 5.773221,-2.128622 -6.378797 6.687616,-0.9843225 -9.971455 5.246654,-1.06596 -8.546886 5.934015,-1.189703 -7.719041 6.552059,-1.328875 -6.958709 7.000537,-0.3771105 -10.4374 5.436507,-0.2347507 -9.375055 6.04291,-0.2012744 -8.726627 6.523911,-0.2215509 -8.022547 6.9341,-10.70855 -13.80425 2.995898,-9.756888 -13.55691 3.625981,-8.965931 -12.8606 4.115121,-8.367742 -12.23265 4.592156,-7.739425 -11.89266 5.138861,-9.448978 -10.19235 3.72767,-9.090805 -8.615467 4.177755,-8.915462 -7.690953 4.563894,-8.761194 -6.787939 4.856325,-10.04844 -9.915672 3.78614,-9.86141 -8.221189 4.178538,-9.783027 -7.229284 4.609688,-9.738911 -6.368419 4.958572,-10.63095 -9.971575 3.917918,-10.5262 -8.355576 4.319103,-10.47395 -7.36806 4.728046,-10.4186 -6.483359 5.033407,-11.22982 -10.32425 4.079718,-11.33134 -9.057093 4.477527,-11.39763 -8.236006 4.774159,-11.42167 -7.401417 5.040349,4.610, 10
-0.796062 -13.58278 3.870438,-1.687705 -13.47978 4.702452,-2.55051 -13.04782 5.25874,-3.176575 -12.63765 5.731112,-3.744774 -12.34651 6.250664,-2.198974 -10.17592 5.049339,-2.606851 -8.733101 5.726559,-2.823669 -7.891616 6.222806,-3.018038 -7.018106 6.602,-1.600585 -9.827513 5.085109,-1.860884 -8.253933 5.734807,-1.860884 -8.253933 5.734807,-2.123399 -6.352762 6.610821,-0.9969797 -9.950411 5.218325,-1.081623 -8.523544 5.887354,-1.20292 -7.70667 6.48904,-1.329381 -6.94506 6.929761,-0.3859706 -10.4227 5.404968,-0.244844 -9.363091 6.00887,-0.2175379 -8.714102 6.492912,-0.2407351 -8.002417 6.906121,-10.71546 -13.83052 3.039397,-9.76615 -13.57491 3.667935,-8.97333 -12.87273 4.146611,-8.374741 -12.23569 4.60944,-7.747309 -11.87522 5.142986,-9.457854 -10.18805 3.728228,-9.099886 -8.622404 4.158246,-8.916342 -7.703466 4.53962,-8.756556 -6.798326 4.833873,-10.06074 -9.918541 3.7803,-9.874754 -8.234932 4.155077,-9.792811 -7.264046 4.587489,-9.743111 -6.401919 4.931071,-10.64525 -9.978889 3.906712,-10.53848 -8.369558 4.288009,-10.47953 -7.399339 4.67921,-10.41861 -6.51338 4.974642,-11.24431 -10.33021 4.060688,-11.35 -9.066732 4.441403,-11.41453 -8.243547 4.720512,-11.44047 -7.395713 4.978289,4.710, 10
-0.8312664 -13.57882 3.868988,-1.725759 -13.47232 4.665079,-2.577917 -13.02428 5.196005,-3.199118 -12.60753 5.65201,-3.776418 -12.32233 6.148055,-2.238703 -10.15752 4.935223,-2.62486 -8.756956 5.59316,-2.828337 -7.94372 6.084297,-3.015595 -7.11841 6.462068,-1.644629 -9.797171 4.991177,-1.902191 -8.260332 5.611018,-1.902191 -8.260332 5.611018,-2.186162 -6.388696 6.505306,-1.042604 -9.917547 5.145831,-1.131315 -8.510092 5.795141,-1.257376 -7.706343 6.400006,-1.400126 -6.962106 6.844876,-0.4284048 -10.39947 5.356441,-0.2855344 -9.35355 5.949469,-0.2588978 -8.706947 6.428533,-0.2949891 -8.007124 6.834709,-10.72305 -13.802 3.033154,-9.770855 -13.55413 3.639169,-8.981403 -12.84404 4.099244,-8.395935 -12.1998 4.546509,-7.759024 -11.86978 5.059796,-9.47002 -10.17374 3.692417,-9.125269 -8.63435 4.101961,-8.952662 -7.737129 4.472363,-8.799271 -6.847816 4.755324,-10.07279 -9.886734 3.750466,-9.892814 -8.187937 4.086437,-9.824142 -7.201447 4.506879,-9.789649 -6.325051 4.849019,-10.65187 -9.935829 3.882082,-10.54831 -8.329121 4.235784,-10.50174 -7.353895 4.625811,-10.45474 -6.468469 4.928885,-11.24879 -10.27393 4.04417,-11.34983 -9.013136 4.394469,-11.41805 -8.192007 4.676454,-11.45214 -7.348363 4.932591,4.810, 10
-0.8261156 -13.55842 3.854061,-1.723393 -13.44716 4.626801,-2.575375 -12.99595 5.147144,-3.190735 -12.58692 5.598652,-3.768481 -12.28889 6.082756,-2.239917 -10.15416 4.912222,-2.613189 -8.791159 5.590064,-2.817062 -8.041767 6.070185,-3.015692 -7.3103 6.427856,-1.651357 -9.784618 4.978606,-1.905891 -8.256308 5.611355,-1.905891 -8.256308 5.611355,-2.207047 -6.422195 6.489609,-1.050039 -9.900284 5.137191,-1.141516 -8.497171 5.789588,-1.268023 -7.708583 6.380029,-1.415282 -6.980922 6.811471,-0.437171 -10.38062 5.351677,-0.3037052 -9.341074 5.929255,-0.2871189 -8.700645 6.386721,-0.3337831 -8.020641 6.765008,-10.71604 -13.7587 2.968064,-9.765947 -13.51046 3.556244,-8.980939 -12.81044 4.006595,-8.392754 -12.16608 4.442638,-7.760905 -11.8188 4.945926,-9.480201 -10.13947 3.585819,-9.131127 -8.610298 3.973394,-8.960265 -7.719215 4.33395,-8.807108 -6.838676 4.616903,-10.07741 -9.853233 3.64349,-9.904412 -8.153627 3.959702,-9.84282 -7.174253 4.36936,-9.812113 -6.310927 4.712164,-10.65355 -9.906557 3.773736,-10.55925 -8.296873 4.109739,-10.51298 -7.323498 4.486667,-10.4646 -6.447352 4.77997,-11.24953 -10.25272 3.935724,-11.3544 -8.9949 4.277543,-11.42206 -8.17272 4.549595,-11.45375 -7.33292 4.798814,4.910, 10
-0.8271432 -13.48293 3.702146,-1.720312 -13.41072 4.480381,-2.573892 -12.9715 5.004644,-3.19355 -12.56637 5.454336,-3.764647 -12.27725 5.934003,-2.22793 -10.13993 4.718293,-2.569657 -8.835543 5.411866,-2.76668 -8.168951 5.924572,-2.948586 -7.55017 6.297113,-1.643874 -9.742624 4.789757,-1.88396 -8.215919 5.414342,-1.88396 -8.215919 5.414342,-2.197129 -6.377969 6.297889,-1.045984 -9.857023 4.955091,-1.113392 -8.438057 5.600976,-1.232289 -7.651392 6.167821,-1.38203 -6.930789 6.587169,-0.4389291 -10.33671 5.185353,-0.2860427 -9.304682 5.728759,-0.2533364 -8.641235 6.14355,-0.2912321 -7.929479 6.487507,-10.70107 -13.72894 2.97156,-9.751179 -13.49371 3.56233,-8.974233 -12.80087 4.010111,-8.390726 -12.17502 4.445175,-7.768682 -11.86027 4.949243,-9.482594 -10.10663 3.550354,-9.147267 -8.591415 3.931988,-8.975072 -7.706273 4.297132,-8.821269 -6.834966 4.581495,-10.08399 -9.811836 3.604217,-9.920782 -8.108261 3.894364,-9.860362 -7.125576 4.298217,-9.833997 -6.263632 4.634646,-10.65667 -9.863792 3.732863,-10.56577 -8.247444 4.051053,-10.5218 -7.269005 4.425097,-10.476 -6.393732 4.718953,-11.24697 -10.21219 3.895026,-11.35859 -8.956854 4.224792,-11.43269 -8.133095 4.493293,-11.47125 -7.289837 4.736556,5.010, 10
-0.838594 -13.50699 3.709286,-1.718988 -13.42578 4.497245,-2.575781 -12.96288 5.022341,-3.201254 -12.53566 5.47124,-3.767329 -12.24317 5.944557,-2.226685 -10.15644 4.725214,-2.568922 -8.845778 5.405409,-2.767732 -8.196236 5.902663,-2.951546 -7.592416 6.265854,-1.645472 -9.75779 4.780843,-1.884149 -8.229406 5.386447,-1.884149 -8.229406 5.386447,-2.197048 -6.381813 6.249927,-1.050756 -9.861095 4.932274,-1.120284 -8.438515 5.561862,-1.240148 -7.65002 6.111696,-1.383468 -6.917531 6.519679,-0.4458156 -10.32507 5.147774,-0.2905116 -9.281263 5.678128,-0.2500467 -8.613291 6.080328,-0.2732515 -7.893486 6.42471,-10.70694 -13.73621 3.037704,-9.754704 -13.48041 3.626382,-8.971039 -12.77527 4.078962,-8.383448 -12.14795 4.521674,-7.760358 -11.83544 5.03062,-9.475138 -10.09491 3.646757,-9.139704 -8.575775 4.039732,-8.972552 -7.6859 4.407553,-8.819493 -6.810707 4.691912,-10.07548 -9.807903 3.706206,-9.911505 -8.114212 4.012179,-9.849901 -7.129002 4.421066,-9.821523 -6.265975 4.759593,-10.65284 -9.865152 3.841299,-10.55507 -8.251013 4.17283,-10.50682 -7.269962 4.546949,-10.45925 -6.38615 4.834404,-11.24797 -10.21871 4.010424,-11.35354 -8.956396 4.345462,-11.42425 -8.129246 4.610484,-11.46121 -7.28631 4.852103,5.110, 10
-0.8449402 -13.48457 3.587755,-1.720334 -13.40828 4.372736,-2.582333 -12.94739 4.900762,-3.214999 -12.53486 5.342293,-3.778676 -12.24825 5.798406,-2.22675 -10.18677 4.624537,-2.565546 -8.90539 5.327916,-2.76055 -8.260427 5.842249,-2.942385 -7.646541 6.210475,-1.646583 -9.778511 4.684572,-1.883681 -8.265226 5.311909,-1.883681 -8.265226 5.311909,-2.197564 -6.400072 6.19531,-1.050657 -9.860376 4.836623,-1.120185 -8.442387 5.48119,-1.240259 -7.655546 6.030992,-1.387098 -6.924566 6.441807,-0.4454713 -10.30714 5.053249,-0.2862244 -9.250208 5.579974,-0.2460036 -8.586292 5.976801,-0.2693462 -7.86944 6.319487,-10.6885 -13.72327 3.026696,-9.750227 -13.47477 3.637859,-8.974402 -12.77178 4.106899,-8.392252 -12.15688 4.562842,-7.774508 -11.84206 5.088484,-9.479186 -10.08871 3.704519,-9.143609 -8.573496 4.122171,-8.973271 -7.686562 4.498135,-8.821304 -6.80333 4.791714,-10.08014 -9.806093 3.759652,-9.916865 -8.123842 4.090736,-9.854649 -7.134839 4.506557,-9.827439 -6.260747 4.851528,-10.65521 -9.862675 3.886588,-10.56176 -8.260447 4.239817,-10.51671 -7.278201 4.625539,-10.47352 -6.397422 4.923013,-11.2446 -10.20968 4.049311,-11.3502 -8.949982 4.398158,-11.42311 -8.125969 4.670443,-11.46256 -7.281253 4.920254,5.210, 10
-0.8388772 -13.47647 3.522696,-1.718388 -13.38163 4.282949,-2.570963 -12.94798 4.789784,-3.197753 -12.55754 5.219515,-3.764011 -12.30313 5.662279,-2.215893 -10.16489 4.476545,-2.55864 -8.878176 5.159351,-2.758089 -8.21567 5.665012,-2.940062 -7.602642 6.033352,-1.634257 -9.768946 4.550404,-1.870491 -8.254372 5.169265,-1.870491 -8.254372 5.169265,-2.183877 -6.384753 6.047997,-1.039759 -9.857828 4.720965,-1.103575 -8.435839 5.358613,-1.21893 -7.640062 5.905619,-1.365993 -6.913068 6.302274,-0.4360657 -10.31356 4.955531,-0.2697411 -9.252357 5.474308,-0.2199087 -8.585577 5.870445,-0.2404313 -7.865833 6.203562,-10.70002 -13.71878 3.100116,-9.773875 -13.4426 3.724649,-8.995944 -12.70873 4.190511,-8.408627 -12.07295 4.6431,-7.773116 -11.75757 5.163334,-9.49843 -10.0772 3.839081,-9.160159 -8.553028 4.271175,-8.992913 -7.661344 4.6436,-8.843082 -6.782732 4.935396,-10.09266 -9.790449 3.888022,-9.926634 -8.094833 4.239127,-9.873265 -7.098831 4.6555,-9.853116 -6.217325 5.007959,-10.66005 -9.848707 4.008242,-10.57757 -8.241518 4.384744,-10.5441 -7.257267 4.783031,-10.51051 -6.367293 5.093686,-11.24222 -10.20362 4.165528,-11.35803 -8.955925 4.529675,-11.43442 -8.142345 4.817497,-11.47441 -7.308967 5.077037,5.310, 10
-0.8504519 -13.48453 3.611744,-1.723709 -13.38828 4.386302,-2.570116 -12.94604 4.907834,-3.202965 -12.54646 5.355292,-3.767419 -12.27548 5.816215,-2.218184 -10.15387 4.605637,-2.546162 -8.853315 5.286885,-2.739302 -8.204971 5.777287,-2.921086 -7.613157 6.133821,-1.647053 -9.75795 4.666834,-1.878798 -8.233015 5.284044,-1.878798 -8.233015 5.284044,-2.201373 -6.403018 6.15076,-1.057852 -9.850054 4.824977,-1.116789 -8.410534 5.465121,-1.2352 -7.623094 6.003787,-1.384685 -6.90765 6.397663,-0.4566236 -10.30982 5.046675,-0.2675271 -9.245985 5.575151,-0.2082472 -8.568489 5.969358,-0.2226291 -7.83995 6.293626,-10.68975 -13.70229 3.094793,-9.75563 -13.44011 3.70031,-8.987418 -12.71601 4.161345,-8.401248 -12.08046 4.611731,-7.771209 -11.75304 5.12838,-9.499175 -10.05832 3.776091,-9.162173 -8.535278 4.187077,-8.99287 -7.647132 4.557044,-8.841882 -6.779813 4.83963,-10.09578 -9.763615 3.83181,-9.925961 -8.06745 4.16577,-9.866549 -7.071543 4.577341,-9.841921 -6.194448 4.923275,-10.66612 -9.822897 3.958404,-10.57532 -8.206697 4.317925,-10.53589 -7.212931 4.72227,-10.49598 -6.317531 5.029831,-11.25143 -10.17556 4.121075,-11.35571 -8.920986 4.473217,-11.42486 -8.096968 4.757401,-11.45687 -7.253645 5.007182,5.410, 10
-0.8629985 -13.44268 3.556454,-1.74254 -13.35628 4.332747,-2.590827 -12.92409 4.864669,-3.222916 -12.52879 5.320685,-3.775742 -12.24569 5.780012,-2.234303 -10.13198 4.564569,-2.555979 -8.829403 5.260649,-2.740306 -8.202177 5.759596,-2.913568 -7.657512 6.12831,-1.658468 -9.738678 4.63263,-1.893488 -8.218582 5.260899,-1.893488 -8.218582 5.260899,-2.232435 -6.392498 6.145624,-1.066638 -9.834045 4.797747,-1.126251 -8.392176 5.447432,-1.249018 -7.592657 5.994417,-1.404247 -6.865915 6.399626,-0.4666829 -10.29919 5.026019,-0.2766924 -9.243687 5.560509,-0.2217903 -8.56226 5.96396,-0.2376041 -7.824674 6.295297,-10.66615 -13.6773 3.065158,-9.738854 -13.39958 3.672257,-8.969532 -12.68773 4.140475,-8.389341 -12.05597 4.592759,-7.781963 -11.72083 5.095959,-9.49216 -10.0479 3.78125,-9.16093 -8.553143 4.206436,-8.992465 -7.673679 4.581253,-8.841433 -6.804494 4.869645,-10.08255 -9.753181 3.841005,-9.914988 -8.064106 4.189115,-9.854885 -7.063627 4.612113,-9.826938 -6.186325 4.967045,-10.64847 -9.817972 3.970967,-10.56052 -8.206512 4.344523,-10.51657 -7.204237 4.754621,-10.47279 -6.301887 5.068993,-11.23103 -10.18476 4.132786,-11.33774 -8.927414 4.49566,-11.40685 -8.093212 4.781156,-11.43969 -7.252199 5.032814,5.510, 10
-0.851903 -13.45815 3.517262,-1.738828 -13.3767 4.256882,-2.592742 -12.93133 4.765863,-3.220336 -12.52804 5.201963,-3.78229 -12.2687 5.635891,-2.235156 -10.1366 4.411098,-2.553873 -8.842058 5.07835,-2.733775 -8.218517 5.56455,-2.889531 -7.671264 5.918579,-1.654028 -9.740952 4.497861,-1.88301 -8.214905 5.093289,-1.88301 -8.214905 5.093289,-2.206412 -6.36964 5.952403,-1.065098 -9.82888 4.685412,-1.125148 -8.378044 5.308038,-1.245114 -7.578195 5.830976,-1.390605 -6.849607 6.215099,-0.4651308 -10.28856 4.940858,-0.2763028 -9.224775 5.446145,-0.2199464 -8.550966 5.825582,-0.2314415 -7.816921 6.148986,-10.67035 -13.66529 2.967236,-9.735877 -13.38955 3.540219,-8.967782 -12.69324 3.982685,-8.388648 -12.05989 4.41315,-7.783511 -11.71738 4.890726,-9.496644 -10.04978 3.611911,-9.16315 -8.542599 4.010843,-8.995009 -7.653423 4.368013,-8.846928 -6.785058 4.640631,-10.08449 -9.757339 3.674494,-9.920084 -8.057793 3.99417,-9.86233 -7.057065 4.405912,-9.838397 -6.172802 4.753886,-10.64739 -9.821051 3.805398,-10.56304 -8.206135 4.151687,-10.52412 -7.211961 4.548188,-10.48619 -6.311982 4.852717,-11.22697 -10.17823 3.967982,-11.3306 -8.921675 4.311327,-11.40327 -8.090277 4.59208,-11.44431 -7.249356 4.837165,5.610, 10
-0.8528051 -13.39839 3.432679,-1.735169 -13.35443 4.166423,-2.59751 -12.90283 4.676555,-3.22497 -12.48243 5.108798,-3.791555 -12.21694 5.534904,-2.249616 -10.12947 4.392742,-2.572381 -8.838282 5.066167,-2.75429 -8.258074 5.562023,-2.899525 -7.792948 5.921188,-1.670753 -9.727554 4.476175,-1.905359 -8.20858 5.086771,-1.905359 -8.20858 5.086771,-2.22049 -6.365777 5.951901,-1.076761 -9.805262 4.656131,-1.137508 -8.361588 5.283864,-1.254981 -7.56329 5.805958,-1.395465 -6.833827 6.196575,-0.4734492 -10.25011 4.89732,-0.2908745 -9.17569 5.399851,-0.2324491 -8.503986 5.772066,-0.2391787 -7.778766 6.089266,-10.65406 -13.61662 2.952615,-9.719694 -13.35416 3.550863,-8.959469 -12.64057 4.00634,-8.374997 -11.99589 4.447436,-7.74614 -11.62899 4.943085,-9.492305 -10.00644 3.628979,-9.155852 -8.526215 4.030768,-8.985644 -7.652792 4.389186,-8.838507 -6.800205 4.656483,-10.07903 -9.715492 3.682459,-9.915017 -8.039879 3.996458,-9.851346 -7.048042 4.401702,-9.816861 -6.166078 4.741937,-10.63977 -9.784838 3.806079,-10.55849 -8.179199 4.151036,-10.51892 -7.179998 4.552197,-10.47403 -6.273847 4.862235,-11.22054 -10.14952 3.963209,-11.33141 -8.903784 4.305404,-11.40272 -8.07408 4.584812,-11.43717 -7.232041 4.826104,5.710, 10
-0.9011869 -13.36025 3.358109,-1.773766 -13.28315 4.076994,-2.622469 -12.84713 4.588228,-3.240351 -12.43707 5.028632,-3.786746 -12.13957 5.469447,-2.256643 -10.0928 4.258872,-2.580425 -8.802103 4.922746,-2.769379 -8.25786 5.423114,-2.921613 -7.863912 5.783228,-1.678163 -9.686171 4.340041,-1.905779 -8.160419 4.922285,-1.905779 -8.160419 4.922285,-2.237576 -6.321882 5.755888,-1.08471 -9.766045 4.520767,-1.131776 -8.327114 5.116048,-1.252819 -7.528834 5.616921,-1.397595 -6.818637 5.9899,-0.4845324 -10.20542 4.763376,-0.2994137 -9.120567 5.234082,-0.2495565 -8.435528 5.588727,-0.2722192 -7.715089 5.889114,-10.64461 -13.5962 3.004788,-9.715767 -13.31608 3.600459,-8.954213 -12.59888 4.053617,-8.377046 -11.9584 4.494436,-7.76669 -11.61067 4.985594,-9.476568 -9.972252 3.690937,-9.145597 -8.485926 4.103601,-8.980522 -7.612583 4.466165,-8.83558 -6.757801 4.740656,-10.0624 -9.683462 3.748704,-9.900206 -8.00313 4.077676,-9.841409 -7.00732 4.488077,-9.815196 -6.125045 4.83737,-10.62334 -9.751108 3.875693,-10.54432 -8.14879 4.231089,-10.50823 -7.157228 4.630472,-10.46966 -6.254955 4.938055,-11.2009 -10.1159 4.037419,-11.31267 -8.87784 4.386538,-11.38576 -8.050461 4.667497,-11.42121 -7.208229 4.911151,5.810, 10
-0.9024196 -13.33635 3.494876,-1.781355 -13.27153 4.250556,-2.632297 -12.82763 4.779391,-3.248962 -12.40213 5.236539,-3.801119 -12.10694 5.698091,-2.269375 -10.03964 4.450422,-2.596197 -8.747421 5.152487,-2.773918 -8.201832 5.691855,-2.908626 -7.80932 6.08064,-1.693367 -9.638542 4.530543,-1.930754 -8.139015 5.155024,-1.930754 -8.139015 5.155024,-2.241364 -6.307938 6.075598,-1.099716 -9.712942 4.713592,-1.166228 -8.2782 5.352063,-1.280716 -7.473624 5.890244,-1.419043 -6.747739 6.301131,-0.4921312 -10.15627 4.960327,-0.3165741 -9.069721 5.479534,-0.264925 -8.38398 5.865352,-0.2819695 -7.652952 6.193822,-10.64086 -13.59355 2.924973,-9.714723 -13.30868 3.496916,-8.955973 -12.59297 3.934537,-8.381828 -11.95296 4.3626,-7.776972 -11.59554 4.83954,-9.486762 -9.978456 3.552891,-9.153522 -8.498005 3.951686,-8.982307 -7.620235 4.305973,-8.83179 -6.764762 4.570536,-10.06871 -9.69313 3.616499,-9.904852 -8.007734 3.926935,-9.843406 -7.004711 4.336143,-9.81451 -6.111728 4.679994,-10.62545 -9.761353 3.745618,-10.54218 -8.148829 4.082113,-10.50236 -7.146852 4.473122,-10.46218 -6.238542 4.771827,-11.19883 -10.12054 3.907316,-11.3091 -8.867998 4.239004,-11.37583 -8.034988 4.511969,-11.40802 -7.18921 4.745929,5.910, 10
-0.9216704 -13.2709 3.525098,-1.788353 -13.17515 4.237067,-2.640569 -12.74013 4.765347,-3.258598 -12.32631 5.237615,-3.820942 -12.00954 5.731289,-2.311458 -9.952063 4.373672,-2.638377 -8.632908 5.063878,-2.831827 -8.152441 5.635831,-2.970147 -7.926414 6.053963,-1.72778 -9.540308 4.459368,-1.96422 -8.017475 5.023485,-1.96422 -8.017475 5.023485,-2.303568 -6.209628 5.887896,-1.129112 -9.616098 4.654964,-1.179647 -8.171373 5.237607,-1.293984 -7.38031 5.734757,-1.437 -6.702585 6.111166,-0.5184379 -10.0508 4.913711,-0.3500304 -8.960892 5.398959,-0.2994723 -8.276909 5.762535,-0.3270864 -7.561201 6.060406,-10.62688 -13.51488 2.956376,-9.710299 -13.2346 3.572221,-8.960169 -12.50279 4.04109,-8.390049 -11.84929 4.496135,-7.767478 -11.49229 5.003539,-9.479612 -9.917643 3.691416,-9.156567 -8.452271 4.113834,-8.989161 -7.586395 4.476138,-8.841162 -6.736223 4.747138,-10.06021 -9.622608 3.743593,-9.900211 -7.955747 4.083907,-9.83921 -6.951309 4.488567,-9.811468 -6.05166 4.831594,-10.61834 -9.691221 3.865017,-10.53479 -8.093054 4.223928,-10.49587 -7.091833 4.61659,-10.45833 -6.180578 4.916028,-11.1946 -10.05497 4.023983,-11.30242 -8.806477 4.369507,-11.37228 -7.975715 4.644471,-11.40802 -7.130983 4.88328,6.010, 10
-0.9480186 -13.21344 3.528024,-1.814685 -13.14938 4.281263,-2.660913 -12.72909 4.854868,-3.27156 -12.32587 5.369802,-3.829206 -11.98233 5.906971,-2.326606 -9.899542 4.469712,-2.657706 -8.5168 5.197579,-2.842658 -8.041681 5.78337,-2.967937 -7.856586 6.200857,-1.737786 -9.504076 4.559261,-1.974031 -7.970413 5.159953,-1.974031 -7.970413 5.159953,-2.307463 -6.216987 6.034376,-1.136829 -9.588863 4.761035,-1.19864 -8.130625 5.393951,-1.309494 -7.322375 5.917129,-1.455766 -6.620155 6.312047,-0.5267415 -10.03783 5.030577,-0.3622403 -8.935322 5.555678,-0.31604 -8.257612 5.945342,-0.3507919 -7.540345 6.266628,-10.63057 -13.46366 2.916316,-9.713366 -13.18567 3.498986,-8.960006 -12.4577 3.950879,-8.386869 -11.81 4.389265,-7.774783 -11.44481 4.86801,-9.486551 -9.871964 3.59855,-9.16105 -8.415571 4.009926,-8.996908 -7.557374 4.368443,-8.848197 -6.722503 4.636138,-10.06143 -9.574814 3.65938,-9.902689 -7.901876 3.98454,-9.843533 -6.9067 4.387979,-9.811797 -6.020891 4.734391,-10.61566 -9.643835 3.784015,-10.53197 -8.0394 4.13278,-10.49793 -7.042446 4.523279,-10.45905 -6.1325 4.821805,-11.18816 -10.01386 3.947775,-11.29537 -8.765566 4.282238,-11.36496 -7.928977 4.554899,-11.39635 -7.074748 4.795908,6.110, 10
-0.9760728 -13.11572 3.551693,-1.844139 -13.03228 4.291276,-2.696078 -12.60978 4.872318,-3.311329 -12.20183 5.399808,-3.850016 -11.84658 5.945678,-2.359677 -9.794863 4.504125,-2.665276 -8.396099 5.239722,-2.854742 -7.975948 5.849442,-2.985402 -7.888584 6.277643,-1.776382 -9.401031 4.581586,-2.004883 -7.84358 5.181204,-2.004883 -7.84358 5.181204,-2.338801 -6.105873 6.010489,-1.180818 -9.482887 4.772758,-1.243217 -8.024223 5.399769,-1.358971 -7.223901 5.876889,-1.505145 -6.545375 6.223812,-0.5782762 -9.911243 5.029705,-0.410471 -8.810274 5.529626,-0.3583031 -8.136148 5.873472,-0.3830805 -7.426176 6.145666,-10.61979 -13.34133 2.922304,-9.711479 -13.04709 3.526106,-8.95462 -12.30463 3.988997,-8.388543 -11.64468 4.44174,-7.773099 -11.24639 4.939157,-9.478267 -9.741161 3.629791,-9.156436 -8.276445 4.067951,-8.994347 -7.416526 4.439762,-8.847393 -6.581059 4.707482,-10.05334 -9.453676 3.682735,-9.91165 -7.771337 4.023795,-9.860547 -6.782285 4.425313,-9.831768 -5.887224 4.761816,-10.60713 -9.533163 3.802727,-10.53689 -7.931937 4.168092,-10.50514 -6.942188 4.552404,-10.46522 -6.034915 4.835292,-11.17675 -9.913774 3.961553,-11.28813 -8.663509 4.303409,-11.35347 -7.828196 4.578231,-11.37782 -6.97166 4.808079,6.210, 10
-1.025288 -12.79131 3.418106,-1.902858 -12.66695 4.106559,-2.741957 -12.23369 4.686763,-3.382097 -11.84641 5.228366,-3.919032 -11.50425 5.80492,-2.438601 -9.535252 4.373228,-2.740842 -8.10215 5.095245,-2.940768 -7.722459 5.694487,-3.076813 -7.734535 6.100198,-1.87373 -9.131102 4.459308,-2.105767 -7.549898 5.040608,-2.105767 -7.549898 5.040608,-2.447674 -5.860433 5.757454,-1.290375 -9.204012 4.655858,-1.35555 -7.711909 5.268062,-1.459861 -6.858011 5.699591,-1.598943 -6.169258 6.00237,-0.6974878 -9.615009 4.914283,-0.5231466 -8.492941 5.380295,-0.4594927 -7.793958 5.679242,-0.4719133 -7.088655 5.897998,-10.61098 -13.02818 2.691268,-9.700089 -12.75357 3.229875,-8.958662 -12.00701 3.644959,-8.423997 -11.31305 4.06396,-7.826582 -10.95675 4.529764,-9.445208 -9.491589 3.334436,-9.133848 -8.017555 3.76182,-8.978987 -7.152933 4.119821,-8.844911 -6.339046 4.371079,-10.02018 -9.203495 3.406372,-9.873353 -7.493291 3.750981,-9.813848 -6.482817 4.143042,-9.776857 -5.580492 4.458188,-10.56956 -9.271698 3.532039,-10.49426 -7.655119 3.901145,-10.45686 -6.664741 4.275914,-10.4101 -5.750999 4.548569,-11.13744 -9.634771 3.69194,-11.23105 -8.379114 4.046537,-11.29083 -7.53539 4.32244,-11.31051 -6.673903 4.539531,6.310, 10
-1.044901 -12.5695 3.180978,-1.934073 -12.43638 3.841028,-2.782576 -11.9961 4.403947,-3.404318 -11.53959 4.928239,-3.927024 -11.18543 5.456685,-2.480086 -9.419966 4.111238,-2.796629 -8.095949 4.807775,-2.971201 -7.650012 5.385561,-3.114992 -7.480811 5.788655,-1.926776 -8.987539 4.214815,-2.160158 -7.430398 4.807611,-2.160158 -7.430398 4.807611,-2.460211 -5.56048 5.626536,-1.344551 -9.016193 4.409536,-1.434187 -7.554965 4.992784,-1.538808 -6.689302 5.408643,-1.668697 -5.97121 5.736696,-0.7405152 -9.385798 4.661535,-0.6084843 -8.243715 5.091393,-0.5694475 -7.521127 5.374833,-0.5886135 -6.80653 5.606089,-10.571 -12.82178 2.740379,-9.689801 -12.56955 3.316956,-8.95551 -11.83621 3.770662,-8.425727 -11.14011 4.226669,-7.85671 -10.76379 4.725183,-9.412551 -9.297806 3.486624,-9.097342 -7.820121 3.946274,-8.942018 -6.953765 4.32324,-8.801633 -6.143743 4.579239,-9.97692 -9.004141 3.559967,-9.810931 -7.305278 3.942661,-9.740551 -6.280097 4.341172,-9.683002 -5.365099 4.654409,-10.5236 -9.069031 3.68627,-10.43555 -7.457399 4.091036,-10.38878 -6.450544 4.49536,-10.33073 -5.526464 4.775181,-11.08695 -9.433411 3.846243,-11.18624 -8.189487 4.238848,-11.24276 -7.331809 4.532005,-11.25293 -6.468601 4.750792,6.410, 10
-1.200938 -12.12655 3.117796,-2.046624 -11.94916 3.743393,-2.840448 -11.47102 4.277121,-3.402003 -10.99491 4.806613,-3.875553 -10.52562 5.359601,-2.562026 -8.962412 3.935133,-2.874829 -7.618236 4.671558,-3.09052 -7.344705 5.288287,-3.253071 -7.448429 5.672969,-2.036447 -8.519842 4.03027,-2.250103 -6.967962 4.557288,-2.250103 -6.967962 4.557288,-2.533995 -5.125447 5.274953,-1.476148 -8.548969 4.228645,-1.58061 -7.06434 4.743117,-1.682961 -6.172347 5.09829,-1.823848 -5.406065 5.376904,-0.8886805 -8.900013 4.477004,-0.76969 -7.747036 4.852921,-0.7195978 -6.99895 5.084913,-0.7325406 -6.239221 5.243495,-10.43328 -12.46999 2.733365,-9.568768 -12.24051 3.28496,-8.85914 -11.50622 3.696779,-8.368421 -10.8007 4.11192,-7.849542 -10.42215 4.543153,-9.354327 -8.902269 3.293051,-9.047223 -7.462047 3.693936,-8.907257 -6.623222 4.03198,-8.786768 -5.84133 4.259317,-9.904054 -8.609804 3.367952,-9.74623 -6.920108 3.685686,-9.673986 -5.928848 4.060163,-9.620965 -5.051462 4.34586,-10.43703 -8.673576 3.505387,-10.35092 -7.066149 3.85061,-10.2987 -6.076594 4.220809,-10.24242 -5.177969 4.482381,-10.98572 -9.040518 3.684299,-11.08697 -7.801326 4.02792,-11.12828 -6.951536 4.287423,-11.12815 -6.112815 4.493372,6.510, 10
-1.360209 -11.73118 2.794599,-2.133903 -11.65474 3.488066,-2.924784 -11.14176 4.026396,-3.462316 -10.61987 4.531883,-3.912148 -10.13705 5.058232,-2.647635 -8.647512 3.641502,-2.936643 -7.364975 4.320153,-3.148779 -6.964038 4.92046,-3.332338 -6.885812 5.32212,-2.132515 -8.203016 3.688024,-2.346566 -6.690862 4.193773,-2.346566 -6.690862 4.193773,-2.65791 -4.816131 4.952228,-1.590105 -8.225136 3.84783,-1.731256 -6.796752 4.336288,-1.853176 -5.909168 4.683811,-2.016299 -5.117166 4.971486,-1.020376 -8.565828 4.053105,-0.9341598 -7.454921 4.424849,-0.8950291 -6.712718 4.659898,-0.9146948 -5.955348 4.856137,-10.33716 -12.21091 2.622308,-9.497445 -11.95648 3.081725,-8.804105 -11.20815 3.450755,-8.314373 -10.48454 3.847743,-7.814005 -10.10755 4.255951,-9.283095 -8.661432 3.063828,-8.969742 -7.286428 3.414671,-8.828665 -6.469819 3.733569,-8.718647 -5.686941 3.955318,-9.80813 -8.37166 3.184051,-9.644307 -6.71833 3.444433,-9.559568 -5.733236 3.799145,-9.492875 -4.844474 4.080346,-10.32363 -8.43248 3.363759,-10.23322 -6.858552 3.664576,-10.17229 -5.881397 4.037261,-10.10641 -4.971109 4.310978,-10.85519 -8.802586 3.583111,-10.9511 -7.582387 3.900358,-10.99795 -6.734851 4.147455,-11.00104 -5.883199 4.358813,6.610, 10
-1.382242 -11.56299 2.556166,-2.159653 -11.52209 3.279823,-2.943603 -11.03871 3.818159,-3.465977 -10.50642 4.297305,-3.919331 -10.03448 4.79159,-2.688235 -8.594463 3.472175,-2.975525 -7.340726 4.112433,-3.166878 -6.905987 4.672954,-3.33611 -6.725255 5.052962,-2.180634 -8.124687 3.494973,-2.394805 -6.627245 4.002418,-2.394805 -6.627245 4.002418,-2.695148 -4.745162 4.782936,-1.637288 -8.112488 3.62576,-1.784744 -6.685569 4.101749,-1.910044 -5.792447 4.468983,-2.075273 -4.99467 4.788995,-1.058935 -8.427874 3.798702,-0.9873304 -7.32545 4.161934,-0.9598508 -6.580867 4.420409,-0.991395 -5.834221 4.651985,-10.29494 -12.10958 2.553564,-9.467072 -11.8332 2.991572,-8.783896 -11.07316 3.336135,-8.30246 -10.34276 3.70894,-7.79785 -9.988998 4.102473,-9.256014 -8.56455 2.954278,-8.941226 -7.18865 3.272449,-8.795398 -6.371797 3.571779,-8.682472 -5.588315 3.782217,-9.772257 -8.283485 3.072376,-9.607354 -6.62919 3.313903,-9.518859 -5.651487 3.656534,-9.448792 -4.771574 3.927561,-10.27973 -8.346607 3.246737,-10.1848 -6.778425 3.527776,-10.11922 -5.806509 3.889112,-10.04865 -4.904525 4.158307,-10.8034 -8.716629 3.458726,-10.89299 -7.510405 3.76116,-10.93283 -6.676993 4.010575,-10.93188 -5.833274 4.221041,6.710, 10
-1.457549 -11.37811 2.32948,-2.208853 -11.35326 3.038925,-2.985549 -10.8586 3.521267,-3.501333 -10.30331 3.931339,-3.944504 -9.874113 4.331905,-2.731086 -8.470003 3.180473,-3.027254 -7.270309 3.735313,-3.200256 -6.80406 4.189354,-3.362752 -6.49957 4.495663,-2.239901 -7.980004 3.173369,-2.445877 -6.4871 3.644515,-2.445877 -6.4871 3.644515,-2.711358 -4.631117 4.352118,-1.71707 -7.94109 3.26933,-1.866405 -6.528765 3.720392,-1.992018 -5.647024 4.070501,-2.147626 -4.85791 4.355455,-1.150987 -8.231546 3.408215,-1.082934 -7.139629 3.750809,-1.057548 -6.409215 4.002033,-1.086066 -5.679237 4.224567,-10.24175 -11.95762 2.578862,-9.40646 -11.69033 3.014408,-8.717486 -10.89691 3.344571,-8.231421 -10.13757 3.708037,-7.723962 -9.766432 4.092116,-9.179859 -8.408937 2.916858,-8.862464 -7.061004 3.209384,-8.711782 -6.253042 3.50861,-8.600213 -5.477005 3.716562,-9.682751 -8.121181 3.034053,-9.524341 -6.513672 3.234761,-9.433 -5.558259 3.560971,-9.363608 -4.697267 3.817826,-10.17476 -8.179329 3.211514,-10.0873 -6.627046 3.459823,-10.02449 -5.671234 3.805902,-9.960741 -4.783996 4.062194,-10.67974 -8.543999 3.430684,-10.77852 -7.358035 3.711562,-10.82284 -6.532505 3.939672,-10.83345 -5.693054 4.125052,6.810, 10
-1.541849 -11.18479 2.156282,-2.278605 -11.16869 2.845686,-3.038246 -10.66095 3.296366,-3.54689 -10.10873 3.670291,-3.974251 -9.721376 4.027672,-2.769621 -8.295988 2.919168,-3.055604 -7.116991 3.433338,-3.230665 -6.634801 3.860698,-3.39036 -6.303293 4.152759,-2.295609 -7.81011 2.906047,-2.502179 -6.31981 3.351674,-2.502179 -6.31981 3.351674,-2.780021 -4.477333 4.035792,-1.791733 -7.765375 2.994022,-1.945967 -6.366326 3.433801,-2.074646 -5.490596 3.769537,-2.231302 -4.710313 4.048004,-1.243587 -8.041491 3.13442,-1.132818 -7.05564 3.543146,-1.108414 -6.332149 3.790218,-1.134041 -5.607177 4.005284,-10.19252 -11.87082 2.53176,-9.37577 -11.57045 2.955038,-8.688397 -10.78207 3.289511,-8.202899 -10.02828 3.658971,-7.698211 -9.648396 4.05371,-9.129597 -8.3277 2.871526,-8.817234 -6.979154 3.140204,-8.671009 -6.184439 3.424141,-8.559554 -5.426706 3.627571,-9.626677 -8.04995 2.99404,-9.46214 -6.454216 3.193565,-9.370315 -5.511285 3.515879,-9.299584 -4.661161 3.762455,-10.11562 -8.111944 3.175884,-10.02415 -6.574553 3.42199,-9.952728 -5.628587 3.770355,-9.872502 -4.74503 4.032924,-10.61764 -8.473322 3.399958,-10.71738 -7.300216 3.677458,-10.75412 -6.4909 3.909477,-10.74871 -5.657575 4.092727,6.910, 10
-1.558996 -11.09194 2.182658,-2.289439 -11.07987 2.889516,-3.038197 -10.57849 3.339229,-3.537392 -10.00826 3.708199,-3.995032 -9.639612 4.07591,-2.800093 -8.19261 2.93403,-3.078142 -7.020659 3.443568,-3.255148 -6.55249 3.882296,-3.416731 -6.243038 4.196253,-2.326037 -7.7082 2.913503,-2.531957 -6.244453 3.353442,-2.531957 -6.244453 3.353442,-2.822383 -4.421452 4.04324,-1.822226 -7.657781 2.998275,-1.97976 -6.285666 3.431849,-2.115451 -5.429395 3.765893,-2.276199 -4.649931 4.048256,-1.272963 -7.929873 3.139848,-1.22135 -6.882351 3.474192,-1.199976 -6.179299 3.717368,-1.227845 -5.47302 3.935049,-10.13705 -11.66359 2.409153,-9.337159 -11.40622 2.831633,-8.641953 -10.61611 3.196561,-8.156458 -9.840462 3.596879,-7.648345 -9.450762 4.031933,-9.060737 -8.219063 2.765061,-8.791564 -6.979461 3.066866,-8.673699 -6.300701 3.389431,-8.585491 -5.682121 3.620401,-9.53829 -7.88516 2.884369,-9.375484 -6.321794 3.084872,-9.27879 -5.407398 3.394882,-9.196139 -4.585065 3.63996,-10.01361 -7.904667 3.066323,-9.918746 -6.363945 3.308607,-9.840336 -5.444993 3.626069,-9.756813 -4.601056 3.866909,-10.51062 -8.238495 3.292123,-10.60048 -7.074275 3.535361,-10.63102 -6.28324 3.724149,-10.61507 -5.478778 3.877199,7.010, 10
-1.604808 -10.9193 2.011426,-2.337611 -10.88483 2.566444,-3.080919 -10.3446 2.92878,-3.579609 -9.777395 3.243551,-4.0133 -9.452269 3.545672,-2.808419 -8.001587 2.500938,-3.061482 -6.864797 2.945755,-3.231344 -6.412385 3.32779,-3.382385 -6.092208 3.597147,-2.365605 -7.549174 2.550856,-2.573064 -6.110624 2.939354,-2.573064 -6.110624 2.939354,-2.876975 -4.327597 3.572243,-1.883598 -7.508435 2.702917,-2.044657 -6.162757 3.103041,-2.180621 -5.322024 3.406495,-2.331664 -4.545593 3.655571,-1.352579 -7.784959 2.903131,-1.292912 -6.754663 3.209207,-1.279921 -6.073614 3.418506,-1.310897 -5.392202 3.602255,-10.06433 -11.43843 2.021125,-9.258776 -11.16068 2.409215,-8.573241 -10.40005 2.808741,-8.078367 -9.650703 3.252771,-7.582929 -9.25992 3.758243,-9.001075 -8.125149 2.351506,-8.754138 -6.941252 2.725588,-8.65164 -6.393243 3.159125,-8.593916 -6.022726 3.466292,-9.461788 -7.771964 2.481831,-9.301085 -6.241552 2.668833,-9.212686 -5.306234 2.953472,-9.134211 -4.482856 3.188243,-9.927212 -7.777475 2.680113,-9.82542 -6.240047 2.893586,-9.741849 -5.326395 3.140542,-9.654463 -4.501209 3.31577,-10.42307 -8.096004 2.918008,-10.4958 -6.915658 3.125961,-10.51482 -6.097216 3.23819,-10.49311 -5.271205 3.312899,7.110, 10
-1.626049 -10.84514 1.967814,-2.354693 -10.79395 2.516661,-3.089091 -10.24663 2.863675,-3.585917 -9.675762 3.163559,-4.028244 -9.386721 3.453486,-2.821946 -7.933071 2.428644,-3.083055 -6.829558 2.863214,-3.249944 -6.375993 3.242251,-3.393702 -6.037097 3.511107,-2.380282 -7.481815 2.477566,-2.594578 -6.064807 2.856965,-2.594578 -6.064807 2.856965,-2.892015 -4.282995 3.482504,-1.90271 -7.439521 2.62639,-2.06725 -6.107467 3.027181,-2.202881 -5.272403 3.338017,-2.351522 -4.495256 3.584427,-1.378774 -7.718104 2.825769,-1.324313 -6.697267 3.131725,-1.316687 -6.027572 3.340806,-1.349844 -5.352839 3.521171,-10.01201 -11.33474 1.812074,-9.215985 -11.08901 2.193668,-8.537382 -10.34544 2.583864,-8.056475 -9.592844 3.016512,-7.582085 -9.197794 3.502722,-8.961605 -8.090868 2.124123,-8.718086 -6.920005 2.488288,-8.615532 -6.394972 2.916957,-8.55727 -6.049051 3.221484,-9.418241 -7.72521 2.25158,-9.25082 -6.206979 2.4326,-9.159264 -5.279964 2.716866,-9.081089 -4.469373 2.955484,-9.880985 -7.724782 2.447226,-9.76633 -6.201421 2.653096,-9.680971 -5.291704 2.892327,-9.593104 -4.473142 3.06681,-10.37654 -8.031475 2.679657,-10.43633 -6.857282 2.873554,-10.45005 -6.050895 2.979765,-10.42462 -5.237314 3.051121,7.210, 10
-1.634783 -10.72416 1.76044,-2.362398 -10.66063 2.251345,-3.089605 -10.11778 2.561837,-3.595036 -9.556591 2.838572,-4.037895 -9.269753 3.115123,-2.808934 -7.848583 2.111461,-3.070242 -6.773431 2.501229,-3.239115 -6.32814 2.844192,-3.379015 -6.000287 3.091815,-2.380735 -7.406963 2.174099,-2.596489 -6.01073 2.520203,-2.596489 -6.01073 2.520203,-2.87726 -4.271591 3.088272,-1.919285 -7.365873 2.336133,-2.082552 -6.048687 2.711462,-2.217354 -5.225072 3.010103,-2.360945 -4.468107 3.241694,-1.412086 -7.639484 2.549789,-1.353416 -6.632595 2.832115,-1.339307 -5.968568 3.03132,-1.36383 -5.297252 3.199669,-9.933158 -11.16018 1.509516,-9.138691 -10.94044 1.894151,-8.477262 -10.25029 2.287206,-8.012652 -9.51823 2.716697,-7.538522 -9.127628 3.188773,-8.889116 -8.013985 1.840734,-8.646473 -6.866236 2.217952,-8.545074 -6.362916 2.65097,-8.491089 -6.035529 2.947575,-9.339879 -7.640325 1.960598,-9.170939 -6.16079 2.139926,-9.081144 -5.249448 2.417279,-8.999558 -4.445641 2.653595,-9.80069 -7.632132 2.149638,-9.676954 -6.143816 2.343941,-9.592187 -5.2401 2.586056,-9.50217 -4.41904 2.760205,-10.29542 -7.936937 2.373282,-10.34626 -6.788429 2.557296,-10.35684 -5.993459 2.667912,-10.32666 -5.185582 2.751693,7.310, 10
-1.639714 -10.62222 1.612282,-2.342231 -10.55952 2.136971,-3.063866 -10.02309 2.461504,-3.559202 -9.458122 2.74365,-3.999165 -9.169558 3.035767,-2.804818 -7.814027 2.079331,-3.079268 -6.769865 2.504072,-3.235506 -6.327046 2.849689,-3.370322 -5.974269 3.090481,-2.381208 -7.361745 2.124674,-2.593754 -5.990878 2.493771,-2.593754 -5.990878 2.493771,-2.821621 -4.277961 3.07653,-1.920594 -7.316535 2.261336,-2.082683 -6.014373 2.639813,-2.201065 -5.210545 2.949268,-2.324603 -4.475148 3.194356,-1.414189 -7.584164 2.449599,-1.357495 -6.590544 2.742088,-1.34137 -5.923202 2.959631,-1.356186 -5.249248 3.146976,-9.875371 -10.97327 1.223131,-9.099466 -10.79073 1.586002,-8.445403 -10.10488 1.945773,-7.986654 -9.371418 2.346833,-7.508553 -9.004076 2.794349,-8.826303 -7.910933 1.46486,-8.578157 -6.789793 1.818325,-8.48239 -6.29944 2.233405,-8.441573 -5.992436 2.523732,-9.265983 -7.528997 1.581322,-9.086804 -6.077299 1.715921,-8.999582 -5.178775 1.966683,-8.926132 -4.404056 2.187263,-9.717199 -7.502212 1.774222,-9.591473 -6.046109 1.930861,-9.508686 -5.157699 2.152062,-9.425598 -4.368369 2.314314,-10.20618 -7.790355 2.004796,-10.25828 -6.663404 2.158476,-10.27211 -5.883691 2.263589,-10.25025 -5.094139 2.343288,7.410, 10
-1.621312 -10.56024 1.529856,-2.323267 -10.50818 2.075547,-3.04509 -9.973345 2.417772,-3.553205 -9.432096 2.711808,-4.013517 -9.193047 3.024062,-2.806612 -7.794059 2.03562,-3.068284 -6.74493 2.470325,-3.228058 -6.285544 2.832849,-3.369907 -5.927575 3.095226,-2.38284 -7.333268 2.069252,-2.590926 -5.969628 2.449068,-2.590926 -5.969628 2.449068,-2.847766 -4.258852 3.019034,-1.924493 -7.273614 2.19969,-2.083951 -5.98586 2.598633,-2.203882 -5.178518 2.907052,-2.335049 -4.438924 3.137846,-1.418894 -7.528293 2.381604,-1.367491 -6.555233 2.687492,-1.350718 -5.904644 2.892698,-1.367011 -5.240343 3.065493,-9.839372 -10.90987 1.175751,-9.076658 -10.721 1.554321,-8.428144 -10.03821 1.921356,-7.970915 -9.322805 2.329766,-7.499491 -8.96644 2.788993,-8.794837 -7.836833 1.406017,-8.549603 -6.686704 1.75023,-8.464042 -6.200984 2.176169,-8.433198 -5.925835 2.472039,-9.233904 -7.476003 1.507479,-9.05528 -6.016647 1.627661,-8.968981 -5.111841 1.875965,-8.893521 -4.339038 2.09246,-9.685772 -7.460975 1.68397,-9.559467 -6.010023 1.83579,-9.476728 -5.105669 2.054127,-9.388666 -4.306708 2.211141,-10.17293 -7.75165 1.901802,-10.2299 -6.625511 2.041112,-10.24652 -5.843879 2.137051,-10.2218 -5.055217 2.206797,7.510, 10
-1.644066 -10.55176 1.423563,-2.331382 -10.47377 1.950633,-3.038341 -9.931536 2.276405,-3.533655 -9.399139 2.552119,-3.981709 -9.154537 2.842393,-2.794756 -7.808924 1.961015,-3.053688 -6.762546 2.417328,-3.209443 -6.292978 2.774976,-3.345705 -5.91107 3.032485,-2.376376 -7.358119 2.011379,-2.578831 -5.994709 2.410308,-2.578831 -5.994709 2.410308,-2.827111 -4.273119 3.009354,-1.917782 -7.304751 2.146916,-2.073097 -6.016884 2.558683,-2.189049 -5.208976 2.871317,-2.317242 -4.48254 3.11545,-1.41007 -7.567163 2.332522,-1.352239 -6.585697 2.660727,-1.329768 -5.931127 2.882134,-1.343715 -5.271806 3.069534,-9.793625 -10.87953 1.272275,-9.029827 -10.67234 1.584286,-8.393144 -9.968834 1.910603,-7.94654 -9.239155 2.287122,-7.477836 -8.906475 2.707842,-8.744963 -7.784513 1.383517,-8.493691 -6.675247 1.71022,-8.408222 -6.274799 2.15045,-8.375295 -6.101808 2.462546,-9.173905 -7.411487 1.496952,-8.999811 -5.976204 1.572266,-8.910828 -5.073694 1.803945,-8.825571 -4.306397 2.021268,-9.619452 -7.385599 1.694963,-9.504188 -5.953037 1.796441,-9.419394 -5.053613 1.987572,-9.32484 -4.267305 2.126421,-10.09554 -7.676877 1.927791,-10.15736 -6.556415 2.021109,-10.16531 -5.777211 2.080347,-10.12998 -4.998159 2.117548,7.610, 10
-1.627666 -10.50863 1.408308,-2.295339 -10.47207 1.966088,-2.998393 -9.916403 2.302199,-3.483805 -9.358009 2.576175,-3.930637 -9.088921 2.85569,-2.763875 -7.783708 1.989179,-3.017036 -6.761781 2.447086,-3.164249 -6.306097 2.809216,-3.294378 -5.93147 3.075434,-2.347929 -7.322141 2.024595,-2.540029 -5.974924 2.432178,-2.540029 -5.974924 2.432178,-2.780591 -4.256181 3.039461,-1.889525 -7.26134 2.149816,-2.039557 -5.976915 2.56943,-2.153234 -5.176837 2.883097,-2.274926 -4.443712 3.134453,-1.381199 -7.524598 2.325008,-1.324606 -6.546272 2.648201,-1.29666 -5.890718 2.873702,-1.300671 -5.2199 3.071966,-9.734201 -10.7953 1.19995,-8.967649 -10.57079 1.502567,-8.330602 -9.872465 1.832666,-7.883116 -9.167347 2.219782,-7.420913 -8.805984 2.651768,-8.695809 -7.71437 1.314219,-8.454994 -6.632112 1.670496,-8.378608 -6.272665 2.145874,-8.356472 -6.144672 2.479472,-9.120597 -7.348632 1.446242,-8.954965 -5.934669 1.539833,-8.871476 -5.056851 1.788054,-8.790083 -4.304105 2.012147,-9.564324 -7.334243 1.662822,-9.449301 -5.904494 1.782001,-9.366518 -5.027602 1.993454,-9.274606 -4.252492 2.147871,-10.04301 -7.630229 1.913117,-10.10345 -6.524957 2.016167,-10.10773 -5.750736 2.074825,-10.06966 -4.966068 2.111983,7.710, 10
-1.613514 -10.48763 1.364406,-2.273422 -10.44568 1.945272,-2.97179 -9.90131 2.300816,-3.451232 -9.348349 2.595027,-3.900531 -9.074228 2.901757,-2.751978 -7.770826 1.981058,-2.990571 -6.727661 2.453066,-3.135134 -6.278297 2.824166,-3.2692 -5.925642 3.096837,-2.331393 -7.319659 2.010818,-2.517185 -5.966775 2.416451,-2.517185 -5.966775 2.416451,-2.754996 -4.247104 3.021262,-1.870955 -7.268674 2.131094,-2.014394 -5.989377 2.544804,-2.126346 -5.193637 2.857602,-2.249009 -4.46136 3.103476,-1.363861 -7.530261 2.301227,-1.306869 -6.556922 2.623534,-1.281272 -5.905008 2.843858,-1.29067 -5.235019 3.034277,-9.728259 -10.77913 1.162099,-8.954334 -10.5571 1.473192,-8.308679 -9.861689 1.797982,-7.851482 -9.145426 2.175287,-7.388237 -8.786993 2.59578,-8.67359 -7.711704 1.265299,-8.438371 -6.616189 1.597207,-8.366258 -6.26181 2.064657,-8.346018 -6.144292 2.39899,-9.099212 -7.344272 1.378938,-8.928615 -5.932146 1.442183,-8.841718 -5.053787 1.679847,-8.755424 -4.291413 1.905847,-9.544394 -7.320337 1.580596,-9.419738 -5.881216 1.670894,-9.331386 -4.995092 1.86896,-9.237798 -4.211196 2.021371,-10.02235 -7.599617 1.815046,-10.07318 -6.487163 1.885532,-10.07504 -5.709739 1.92251,-10.0395 -4.919142 1.947455,7.810, 10
-1.569879 -10.53102 1.315524,-2.221192 -10.45771 1.912899,-2.900799 -9.917168 2.280247,-3.374957 -9.364897 2.587116,-3.828815 -9.062765 2.915211,-2.679532 -7.805461 1.910231,-2.928198 -6.770296 2.375841,-3.077542 -6.314311 2.75893,-3.212135 -5.950338 3.056912,-2.262535 -7.36497 1.926645,-2.444161 -6.018419 2.306692,-2.444161 -6.018419 2.306692,-2.678567 -4.295049 2.923607,-1.807733 -7.323008 2.033587,-1.942514 -6.053703 2.420821,-2.056207 -5.258701 2.739042,-2.18338 -4.537938 2.999815,-1.30959 -7.592327 2.195598,-1.238154 -6.614424 2.514505,-1.20796 -5.958278 2.747901,-1.215605 -5.300611 2.952525,-9.681948 -10.72903 1.133258,-8.9079 -10.50227 1.449805,-8.26685 -9.817326 1.777108,-7.815028 -9.102846 2.151607,-7.356541 -8.7365 2.561846,-8.621746 -7.675155 1.235298,-8.366664 -6.57856 1.587851,-8.28667 -6.300288 2.066886,-8.265864 -6.263578 2.399984,-9.045382 -7.303376 1.339954,-8.864229 -5.883199 1.411588,-8.77058 -5.024371 1.645969,-8.67977 -4.27802 1.862319,-9.487124 -7.269588 1.536404,-9.357141 -5.835096 1.626386,-9.263377 -4.96281 1.816999,-9.164327 -4.18795 1.96119,-9.961074 -7.534328 1.762298,-10.00459 -6.413401 1.828622,-9.997792 -5.639987 1.862095,-9.954391 -4.861025 1.876489,7.910, 10
