TiagoOliveira98/Thesis-Project/Difficulty_1/Motor_Task/Unity_Project/DataLogging/JointData/Logs(1644889013)_Tiago_main.csv
WRIST,THUMB_CMC,THUMB_MCP,THUMB_IP,THUMB_TIP,INDEX_FINGER_MCP,INDEX_FINGER_PIP,INDEX_FINGER_DIP,INDEX_FINGER_TIP,MIDDLE_FINGER_MCP,MIDDLE_FINGER_PIP,MIDDLE_FINGER_DIP,MIDDLE_FINGER_TIP,RING_FINGER_MCP,RING_FINGER_PIP,RING_FINGER_DIP,RING_FINGER_TIP,PINKY_MCP,PINKY_PIP,PINKY_DIP,PINKY_TIP,WRIST2,THUMB_CMC2,THUMB_MCP2,THUMB_IP2,THUMB_TIP2,INDEX_FINGER_MCP2,INDEX_FINGER_PIP2,INDEX_FINGER_DIP2,INDEX_FINGER_TIP2,MIDDLE_FINGER_MCP2,MIDDLE_FINGER_PIP2,MIDDLE_FINGER_DIP2,MIDDLE_FINGER_TIP2,RING_FINGER_MCP2,RING_FINGER_PIP2,RING_FINGER_DIP2,RING_FINGER_TIP2,PINKY_MCP2,PINKY_PIP2,PINKY_DIP2,PINKY_TIP2,Timestamp,Event
-1.394356 -7.962894 0.0004778791,-1.917992 -7.792488 0.3979836,-2.429814 -7.27623 0.651261,-2.806751 -6.724751 0.908802,-3.141359 -6.397842 1.215894,-2.212301 -5.646664 0.2689199,-2.468543 -4.73619 0.4428428,-2.595003 -4.175733 0.5874916,-2.686379 -3.634595 0.7246204,-1.899931 -5.386787 0.2611509,-2.073222 -4.297594 0.3960498,-2.073222 -4.297594 0.3960498,-2.234391 -3.035491 0.7112609,-1.57941 -5.384482 0.3176374,-1.639993 -4.347726 0.4624959,-1.710716 -3.718626 0.6494103,-1.782925 -3.162862 0.7940374,-1.235721 -5.606845 0.4178517,-1.112203 -4.828434 0.5597909,-1.038846 -4.336118 0.7051528,-0.9857903 -3.858282 0.8365214,-8.219099 -8.372499 0.000831119,-7.603574 -8.098909 0.1335751,-7.010571 -7.417217 0.2483427,-6.580766 -6.787378 0.4211849,-6.189356 -6.541222 0.6382955,-7.246702 -5.737304 -0.06453855,-7.020327 -4.768325 -0.03745512,-6.931551 -4.128068 0.07607366,-6.865621 -3.57887 0.1839502,-7.554836 -5.469663 0.02635742,-7.353613 -4.308207 0.01750284,-7.236738 -3.582717 0.1821487,-7.134679 -2.946175 0.3141935,-7.877565 -5.458853 0.1438999,-7.746805 -4.345875 0.1849104,-7.641579 -3.68188 0.311776,-7.535092 -3.120542 0.4036671,-8.223816 -5.671408 0.29144,-8.322119 -4.821455 0.3736578,-8.367946 -4.271718 0.4687613,-8.386025 -3.750602 0.5393151,0.010, 10
-1.375307 -7.967977 0.05518141,-1.904405 -7.790255 0.46884,-2.426368 -7.274343 0.7205788,-2.804144 -6.713195 0.9749253,-3.141829 -6.376742 1.286138,-2.210104 -5.641553 0.3254524,-2.463326 -4.723224 0.4849452,-2.591093 -4.161376 0.6327579,-2.688607 -3.616343 0.77531,-1.894473 -5.376905 0.2990301,-2.066908 -4.292501 0.414845,-2.066908 -4.292501 0.414845,-2.235173 -3.032141 0.7337762,-1.573086 -5.372612 0.3361765,-1.631211 -4.34508 0.4637261,-1.70057 -3.725877 0.6502632,-1.772566 -3.179961 0.7932363,-1.231579 -5.590695 0.4208547,-1.111589 -4.813748 0.5555952,-1.04336 -4.321812 0.7005725,-0.9965534 -3.843831 0.8321266,-8.227335 -8.397623 0.0363935,-7.60929 -8.126358 0.1714134,-7.013016 -7.437849 0.2852485,-6.580851 -6.800722 0.4576162,-6.195374 -6.542114 0.6715788,-7.257818 -5.748024 -0.01436767,-7.029912 -4.77025 0.01628584,-6.940391 -4.137273 0.1239955,-6.871356 -3.592725 0.2263338,-7.565739 -5.48384 0.07325049,-7.364588 -4.318578 0.07570792,-7.245271 -3.59126 0.2344123,-7.138271 -2.948587 0.3608871,-7.885238 -5.476165 0.1898502,-7.751988 -4.362322 0.2361423,-7.642914 -3.692703 0.3603709,-7.535277 -3.13151 0.4508501,-8.227324 -5.696009 0.3327368,-8.324681 -4.841096 0.4124909,-8.371358 -4.288669 0.5112648,-8.392053 -3.764813 0.5844164,0.110, 10
-1.395084 -7.976091 0.04784061,-1.921531 -7.777143 0.4476318,-2.432598 -7.272766 0.7090214,-2.810063 -6.723959 0.9758531,-3.144344 -6.393854 1.297521,-2.210719 -5.640357 0.3097716,-2.468763 -4.717217 0.4859191,-2.593019 -4.159301 0.6295816,-2.684962 -3.622829 0.7665887,-1.899487 -5.385597 0.3056713,-2.076198 -4.294485 0.4364182,-2.076198 -4.294485 0.4364182,-2.243313 -3.028672 0.761497,-1.579343 -5.387063 0.3673775,-1.646458 -4.347114 0.5114794,-1.719337 -3.710756 0.6994792,-1.79916 -3.152841 0.8484579,-1.236181 -5.613802 0.473652,-1.116501 -4.828166 0.6177301,-1.047052 -4.331779 0.7600918,-1.002418 -3.854388 0.8876996,-8.229575 -8.367981 0.02683978,-7.614356 -8.096037 0.1579169,-7.016301 -7.410758 0.267274,-6.584336 -6.771303 0.4337468,-6.189837 -6.526733 0.6396564,-7.25026 -5.726644 -0.04597615,-7.02374 -4.764163 -0.03013876,-6.937622 -4.128503 0.07563031,-6.871194 -3.574951 0.1835492,-7.561213 -5.458355 0.03894985,-7.362535 -4.305927 0.01639197,-7.249335 -3.583672 0.1686736,-7.147428 -2.942791 0.2921059,-7.886336 -5.451131 0.1494742,-7.756682 -4.340562 0.1801181,-7.653971 -3.67763 0.2965213,-7.549081 -3.117169 0.3774644,-8.234529 -5.667797 0.2884842,-8.337037 -4.8232 0.3626367,-8.390488 -4.279754 0.4517841,-8.416213 -3.760541 0.5158002,0.210, 10
-1.365805 -7.968785 -0.04384742,-1.899907 -7.783758 0.3285656,-2.423395 -7.263731 0.5562729,-2.805511 -6.704677 0.7896297,-3.135559 -6.375242 1.071845,-2.193719 -5.672328 0.2056014,-2.449336 -4.744182 0.3637118,-2.573396 -4.182323 0.4959943,-2.668185 -3.633911 0.621026,-1.882027 -5.406213 0.201496,-2.060077 -4.303465 0.3248369,-2.060077 -4.303465 0.3248369,-2.229846 -3.037532 0.6406909,-1.563626 -5.390955 0.2540944,-1.629878 -4.343532 0.3893629,-1.697986 -3.716916 0.5676903,-1.772192 -3.169741 0.7073086,-1.223491 -5.597654 0.3510978,-1.108209 -4.797658 0.4864833,-1.039687 -4.303293 0.6266091,-0.9960041 -3.828311 0.757084,-8.233497 -8.365337 -0.01369491,-7.61678 -8.089834 0.1295031,-7.015831 -7.411201 0.2473637,-6.582072 -6.77502 0.4208929,-6.190226 -6.514148 0.6325283,-7.258655 -5.739164 -0.07933078,-7.034073 -4.778867 -0.05279315,-6.946047 -4.153763 0.05582493,-6.876693 -3.613501 0.1606441,-7.570723 -5.466314 0.001823511,-7.373515 -4.315944 -0.01176044,-7.25955 -3.599414 0.1433682,-7.156593 -2.963538 0.2674514,-7.89626 -5.454687 0.1115676,-7.762096 -4.348609 0.1482009,-7.656639 -3.6838 0.2749115,-7.54944 -3.120742 0.3629687,-8.245502 -5.670413 0.2503208,-8.3455 -4.830234 0.3218875,-8.395531 -4.290092 0.4161187,-8.417609 -3.774899 0.4850001,0.310, 10
-1.386606 -7.98049 0.02015316,-1.91177 -7.789643 0.401415,-2.428751 -7.282934 0.6429731,-2.80306 -6.733164 0.8921189,-3.1227 -6.391866 1.189193,-2.199562 -5.653894 0.2529652,-2.451624 -4.73554 0.4170488,-2.578873 -4.173065 0.5638427,-2.674405 -3.628578 0.7031342,-1.888277 -5.395092 0.2517704,-2.06122 -4.306472 0.3738562,-2.06122 -4.306472 0.3738562,-2.234602 -3.044014 0.696509,-1.568322 -5.390262 0.3138762,-1.628603 -4.35917 0.4472085,-1.699003 -3.734123 0.627219,-1.774259 -3.187973 0.7681603,-1.226572 -5.607417 0.4211911,-1.108035 -4.824443 0.5565465,-1.038669 -4.330163 0.6958986,-0.9937706 -3.856268 0.824151,-8.232212 -8.383804 -0.001014372,-7.618975 -8.105101 0.1527331,-7.021526 -7.42066 0.2771972,-6.582965 -6.791513 0.4583254,-6.194929 -6.533197 0.6859336,-7.265638 -5.744732 -0.04460143,-7.038141 -4.772906 -0.003873081,-6.952968 -4.139619 0.1152106,-6.888656 -3.592992 0.226595,-7.574968 -5.480085 0.04062141,-7.377511 -4.322529 0.04440985,-7.264081 -3.599677 0.2125611,-7.161629 -2.957908 0.3453753,-7.898072 -5.478946 0.1529556,-7.767408 -4.361246 0.2036628,-7.662946 -3.690131 0.3441724,-7.558074 -3.121136 0.4461632,-8.244876 -5.71103 0.2958041,-8.34624 -4.858655 0.3870198,-8.397397 -4.306133 0.4982703,-8.421525 -3.776563 0.581723,0.410, 10
-1.403271 -8.077847 0.06324968,-1.917345 -7.795823 0.5263917,-2.382495 -7.232118 0.7869645,-2.628914 -6.613122 1.049084,-2.870277 -6.189667 1.355417,-2.198373 -5.700346 0.3926995,-2.431128 -4.781743 0.6017964,-2.546308 -4.215597 0.7881305,-2.632998 -3.663363 0.9490772,-1.870579 -5.47964 0.3561896,-2.009834 -4.378874 0.5217901,-2.009834 -4.378874 0.5217901,-2.101581 -3.092563 0.9305984,-1.549028 -5.499975 0.3899135,-1.595959 -4.503557 0.5490192,-1.61651 -3.884342 0.7890956,-1.638317 -3.329387 0.9883497,-1.213454 -5.718525 0.469176,-1.122754 -4.954283 0.6453694,-1.059134 -4.466486 0.8277606,-1.014959 -3.990469 0.9961767,-8.227032 -8.404877 0.007531317,-7.613589 -8.105133 0.1444789,-7.029204 -7.428705 0.2677344,-6.60432 -6.788961 0.4451058,-6.226502 -6.513807 0.6617606,-7.280766 -5.754391 -0.02153137,-7.057163 -4.775521 0.01782239,-6.970222 -4.140563 0.1352835,-6.899412 -3.59 0.250103,-7.595565 -5.493283 0.0704208,-7.403424 -4.31356 0.07614651,-7.290046 -3.583944 0.2440459,-7.185409 -2.942905 0.3797512,-7.921696 -5.493345 0.1863325,-7.798112 -4.364313 0.2414272,-7.692251 -3.682587 0.3773954,-7.583345 -3.111102 0.4767257,-8.271489 -5.718576 0.329225,-8.374643 -4.854442 0.4229992,-8.423009 -4.293695 0.5288317,-8.441826 -3.763631 0.6044092,0.510, 10
-1.459983 -8.088285 0.03845173,-1.979268 -7.757963 0.5099223,-2.37852 -7.077764 0.7328591,-2.526201 -6.377334 0.9772775,-2.682457 -5.855163 1.246948,-2.246694 -5.638862 0.2728816,-2.453189 -4.719182 0.4734667,-2.531854 -4.143872 0.6440477,-2.582262 -3.595219 0.7744194,-1.86865 -5.479063 0.2433036,-1.92832 -4.434001 0.3988122,-1.92832 -4.434001 0.3988122,-1.885067 -3.274047 0.7408757,-1.528859 -5.540611 0.3004726,-1.49157 -4.542836 0.4904285,-1.433599 -3.905048 0.7730958,-1.392867 -3.370405 0.9785386,-1.201507 -5.802609 0.4090748,-1.132101 -5.01679 0.6258245,-1.071135 -4.52005 0.824671,-1.025279 -4.054985 0.9974899,-8.235601 -8.408148 0.01044162,-7.627281 -8.12104 0.1585775,-7.040578 -7.421975 0.2955853,-6.617664 -6.779077 0.4860304,-6.230927 -6.502972 0.7140681,-7.298717 -5.750068 0.01189347,-7.074926 -4.769783 0.06944285,-6.986585 -4.13685 0.1942161,-6.917094 -3.579974 0.3118026,-7.613863 -5.494683 0.1103458,-7.420524 -4.309459 0.1393687,-7.309996 -3.577564 0.317149,-7.212372 -2.926005 0.456221,-7.936508 -5.50518 0.2322711,-7.818279 -4.36547 0.3089816,-7.715016 -3.677337 0.4487906,-7.608979 -3.090637 0.5498221,-8.279872 -5.745826 0.3818701,-8.379287 -4.873729 0.4866067,-8.427536 -4.300844 0.59713,-8.446359 -3.750662 0.6783067,0.610, 10
-1.398273 -8.162016 -0.8610768,-1.87841 -7.793539 -0.4757829,-2.210493 -7.128261 -0.1682662,-2.331084 -6.389171 0.1138533,-2.385994 -5.781522 0.3616818,-2.198637 -5.935335 -0.448817,-2.393983 -4.908288 -0.251273,-2.483718 -4.249244 -0.08226871,-2.547572 -3.624263 0.09312296,-1.860162 -5.856355 -0.4227929,-1.889923 -4.908355 0.0006433725,-1.889923 -4.908355 0.0006433725,-1.902632 -5.44642 0.3529477,-1.535157 -5.941999 -0.3375255,-1.522087 -5.058096 0.07097405,-1.512207 -5.514999 0.229912,-1.541679 -5.920451 0.2761376,-1.21234 -6.163201 -0.2337969,-1.161478 -5.394783 0.07243234,-1.168885 -5.443987 0.1812904,-1.199792 -5.594903 0.2511129,-8.25082 -8.408861 -0.014221,-7.633422 -8.099115 0.1461948,-7.059422 -7.42156 0.301931,-6.656404 -6.762416 0.5170923,-6.285155 -6.415012 0.7654282,-7.311946 -5.751045 -0.02090269,-7.095022 -4.766286 0.04631047,-7.010251 -4.135567 0.179777,-6.942462 -3.575687 0.3011879,-7.632727 -5.501436 0.07379401,-7.461558 -4.335989 0.08990496,-7.367043 -3.613569 0.2701119,-7.283476 -2.974325 0.4090535,-7.959625 -5.505487 0.2012079,-7.864803 -4.385746 0.2717411,-7.784704 -3.692176 0.4291388,-7.696857 -3.108772 0.5420827,-8.309433 -5.727911 0.353381,-8.40523 -4.857985 0.4559486,-8.448158 -4.290479 0.5672373,-8.459291 -3.75167 0.6411538,0.710, 7
-1.49649 -7.949556 -1.593746,-1.907507 -7.852905 -1.051717,-2.256032 -7.310269 -0.7239447,-2.284663 -6.64442 -0.4282548,-2.12778 -6.10638 -0.1625264,-2.191366 -5.956073 -1.023478,-2.33356 -5.137517 -0.6679258,-2.423511 -4.557975 -0.4453912,-2.499461 -3.96072 -0.2350674,-1.847576 -5.86614 -1.045652,-1.840102 -5.627962 -0.3036484,-1.840102 -5.627962 -0.3036484,-1.824366 -7.118085 -0.1644307,-1.509822 -5.930418 -0.9853804,-1.522102 -5.812212 -0.2397583,-1.557859 -6.686975 -0.1268294,-1.608541 -7.256397 -0.2223231,-1.177738 -6.12494 -0.892316,-1.190215 -5.787356 -0.3824037,-1.269611 -6.375594 -0.32486,-1.3483 -6.829385 -0.3934835,-8.284822 -8.429976 0.1400366,-7.653796 -8.145666 0.2986268,-7.096241 -7.395679 0.448045,-6.714128 -6.662838 0.6579305,-6.34388 -6.207148 0.8980315,-7.353939 -5.69125 -0.08117172,-7.135925 -4.759343 -0.1103392,-7.043562 -4.151224 -0.0349122,-6.973495 -3.584787 0.05706433,-7.680187 -5.4778 -0.02259441,-7.53947 -4.463753 -0.1412403,-7.476424 -3.873991 -0.05303068,-7.425117 -3.356206 0.01344681,-8.009165 -5.486011 0.08828971,-7.930646 -4.452583 0.06733617,-7.868388 -3.844064 0.1764932,-7.799793 -3.315718 0.2497981,-8.354458 -5.697359 0.2313758,-8.417475 -4.856321 0.2656971,-8.449951 -4.309436 0.3474821,-8.452142 -3.779331 0.3914416,0.810, 6
-1.496121 -7.914087 -1.144889,-1.900817 -7.79853 -0.6770734,-2.252781 -7.248006 -0.325913,-2.223641 -6.619769 0.01451623,-1.998606 -6.151191 0.3453668,-2.157834 -5.874782 -0.5238085,-2.276408 -5.082513 -0.1353469,-2.324978 -4.561134 0.1211214,-2.355269 -4.027793 0.3211464,-1.803194 -5.710152 -0.5215693,-1.735754 -5.852327 0.1621127,-1.735754 -5.852327 0.1621127,-1.789076 -7.23524 0.3546093,-1.460158 -5.767053 -0.4551675,-1.433032 -6.109746 0.1867423,-1.488027 -6.870556 0.258193,-1.571704 -7.336072 0.1758397,-1.14231 -5.951228 -0.3476971,-1.12758 -6.05073 0.09639144,-1.219513 -6.644628 0.1305302,-1.321076 -7.013881 0.0764482,-8.309923 -8.427399 0.04826115,-7.684871 -8.162525 0.2450694,-7.136148 -7.425851 0.3875529,-6.765811 -6.700433 0.5881887,-6.414905 -6.205677 0.8148366,-7.374913 -5.716658 -0.2128836,-7.152553 -4.785911 -0.2625419,-7.061584 -4.181858 -0.1952801,-6.986098 -3.617905 -0.1121748,-7.705107 -5.506643 -0.1825253,-7.570526 -4.556495 -0.3232693,-7.526298 -4.022914 -0.2378559,-7.492605 -3.555317 -0.1722167,-8.036245 -5.507909 -0.08998027,-7.960111 -4.55327 -0.1289224,-7.905042 -4.001543 -0.02369538,-7.843191 -3.527676 0.04044325,-8.382293 -5.703981 0.04083605,-8.436836 -4.908931 0.05962048,-8.462296 -4.398225 0.13441,-8.455928 -3.893254 0.176874,0.910, 6
-1.454215 -7.897909 -0.8652423,-1.859792 -7.766054 -0.3669047,-2.213944 -7.277186 0.02361619,-2.173675 -6.727799 0.3942258,-1.918804 -6.301773 0.7481593,-2.090496 -5.848291 -0.1096375,-2.188566 -5.095594 0.3177111,-2.231369 -4.607412 0.5940579,-2.2555 -4.132722 0.7960048,-1.732688 -5.643995 -0.1182177,-1.668876 -5.856092 0.5398506,-1.668876 -5.856092 0.5398506,-1.753888 -7.12481 0.8015602,-1.389535 -5.710224 -0.07851672,-1.373307 -6.201696 0.5095249,-1.445389 -6.897221 0.5889412,-1.542619 -7.303077 0.5401849,-1.090485 -5.917294 0.01470983,-1.065789 -6.161256 0.4226364,-1.169116 -6.728128 0.4595671,-1.293352 -7.08275 0.414555,-8.291985 -8.405916 -0.1432096,-7.677627 -8.161083 0.07591313,-7.151931 -7.423328 0.2193366,-6.809999 -6.687454 0.4113684,-6.479198 -6.174953 0.6363128,-7.371957 -5.727938 -0.3725167,-7.157612 -4.800989 -0.4092634,-7.075892 -4.194376 -0.3256916,-7.00869 -3.62788 -0.2352377,-7.71279 -5.534078 -0.3495158,-7.595853 -4.612597 -0.4703623,-7.571358 -4.121337 -0.3763822,-7.560288 -3.710007 -0.303498,-8.053123 -5.550617 -0.2605233,-7.996021 -4.643754 -0.2838737,-7.949131 -4.13052 -0.164903,-7.897444 -3.708646 -0.09567112,-8.401677 -5.759325 -0.1326945,-8.462009 -5.000216 -0.1006875,-8.489335 -4.505737 -0.01314004,-8.480501 -4.00899 0.03122982,1.010, 6
-1.465011 -7.894857 -0.7050807,-1.867554 -7.772466 -0.1925265,-2.226909 -7.286443 0.2075604,-2.167496 -6.742906 0.5728006,-1.878563 -6.345852 0.9074351,-2.069406 -5.850301 0.1092119,-2.162263 -5.124176 0.5744375,-2.206572 -4.624347 0.8708251,-2.223108 -4.133594 1.095897,-1.713024 -5.606637 0.09435225,-1.625375 -5.901756 0.7386711,-1.625375 -5.901756 0.7386711,-1.722939 -7.182458 0.9423224,-1.368964 -5.647424 0.1275833,-1.333648 -6.204456 0.7013991,-1.410098 -6.906414 0.7451149,-1.51997 -7.318799 0.6764693,-1.069381 -5.845262 0.2213743,-1.030213 -6.142999 0.6074107,-1.139792 -6.734575 0.6184307,-1.27574 -7.102992 0.5533437,-8.276991 -8.396566 -0.2440323,-7.667588 -8.15233 -0.006750345,-7.152468 -7.424864 0.1430904,-6.815412 -6.709686 0.3393823,-6.492517 -6.197348 0.5690346,-7.400048 -5.722915 -0.4630659,-7.187932 -4.786294 -0.4983745,-7.10117 -4.166835 -0.4170609,-7.024847 -3.595505 -0.3298298,-7.743743 -5.545337 -0.4518645,-7.636699 -4.630789 -0.575704,-7.613864 -4.175973 -0.4949511,-7.595375 -3.803129 -0.4323177,-8.083032 -5.570411 -0.3735876,-8.027632 -4.685503 -0.4070936,-7.97288 -4.191846 -0.2990442,-7.91113 -3.797032 -0.2371464,-8.426977 -5.78259 -0.2506538,-8.485985 -5.042852 -0.236151,-8.51543 -4.555961 -0.1527329,-8.505652 -4.06814 -0.1077497,1.110, 6
-1.488716 -7.876125 -0.6377821,-1.891938 -7.782636 -0.1378764,-2.235123 -7.280992 0.2675498,-2.155998 -6.811045 0.6420764,-1.845799 -6.446647 0.9747992,-2.083548 -5.853315 0.2323215,-2.152956 -5.159036 0.7376056,-2.189688 -4.67762 1.035516,-2.190855 -4.191066 1.238865,-1.715237 -5.583396 0.2123025,-1.630203 -6.062881 0.8465096,-1.630203 -6.062881 0.8465096,-1.749106 -7.253555 0.934516,-1.365444 -5.650954 0.2432321,-1.31608 -6.308179 0.7854161,-1.417465 -6.975288 0.7705792,-1.53247 -7.290157 0.6696101,-1.068503 -5.879356 0.3372794,-1.019897 -6.258893 0.6494906,-1.156411 -6.843379 0.6083636,-1.302101 -7.133293 0.5191909,-8.261982 -8.405809 -0.326272,-7.666081 -8.176159 -0.1547277,-7.1657 -7.417215 -0.05227917,-6.844062 -6.695217 0.1002145,-6.542419 -6.208433 0.2819461,-7.409811 -5.738054 -0.5918034,-7.203949 -4.807533 -0.6370164,-7.115713 -4.186334 -0.5606046,-7.037722 -3.625264 -0.4834709,-7.756257 -5.575647 -0.5618918,-7.666044 -4.678506 -0.7240818,-7.638525 -4.269393 -0.6751917,-7.612628 -3.950295 -0.6378437,-8.094235 -5.618592 -0.4727902,-8.052053 -4.762787 -0.5366058,-7.995044 -4.29651 -0.4589086,-7.930598 -3.929094 -0.4193321,-8.432168 -5.84502 -0.3421638,-8.492979 -5.121063 -0.3544824,-8.523405 -4.644054 -0.2917067,-8.517577 -4.166952 -0.265942,1.210, 6
-1.466749 -7.858363 -0.6623705,-1.870104 -7.776566 -0.0786556,-2.233523 -7.298975 0.3347019,-2.152457 -6.804925 0.6889508,-1.840438 -6.41875 0.9849194,-2.064258 -5.848924 0.2390842,-2.141018 -5.169719 0.7035072,-2.182098 -4.684938 0.9799107,-2.197462 -4.189955 1.204935,-1.702433 -5.572366 0.1831214,-1.600432 -5.994895 0.7922133,-1.600432 -5.994895 0.7922133,-1.707156 -7.250679 0.8693066,-1.361231 -5.623584 0.1900883,-1.300435 -6.182132 0.7604463,-1.388754 -6.896142 0.7514827,-1.506079 -7.284696 0.6555159,-1.06725 -5.837907 0.2660557,-1.000369 -6.030284 0.6387573,-1.123483 -6.616907 0.6281847,-1.271485 -6.98466 0.565618,-8.286631 -8.41884 -0.2756233,-7.682067 -8.195004 -0.0670622,-7.177299 -7.443546 0.05107614,-6.846984 -6.721243 0.2174015,-6.530038 -6.226388 0.416347,-7.414085 -5.748861 -0.5271361,-7.20182 -4.83979 -0.5806234,-7.114375 -4.219039 -0.5056385,-7.037682 -3.654687 -0.426949,-7.758263 -5.577938 -0.5102088,-7.665701 -4.705345 -0.6781156,-7.639541 -4.29367 -0.6192499,-7.617064 -3.960111 -0.573384,-8.093408 -5.618862 -0.4330673,-8.055641 -4.780723 -0.4935759,-8.002329 -4.318384 -0.4036894,-7.945391 -3.950161 -0.3551948,-8.428743 -5.841577 -0.3117547,-8.496179 -5.128809 -0.3193825,-8.5259 -4.669086 -0.2513597,-8.525582 -4.211296 -0.2237701,1.310, 6
-1.490514 -7.812986 -0.8121783,-1.892546 -7.729948 -0.1972744,-2.238737 -7.252385 0.2216396,-2.135385 -6.784283 0.5754548,-1.81943 -6.408302 0.8711162,-2.073419 -5.804134 0.08489293,-2.143898 -5.113307 0.5328763,-2.175912 -4.623611 0.7833931,-2.187316 -4.131237 0.9940069,-1.705664 -5.566858 0.02284968,-1.60491 -5.94555 0.6616344,-1.60491 -5.94555 0.6616344,-1.708318 -7.220326 0.7794393,-1.363602 -5.629976 0.02649301,-1.302198 -6.147502 0.6267226,-1.383061 -6.871146 0.6548507,-1.499711 -7.291303 0.5656705,-1.067567 -5.84988 0.09890097,-0.9866552 -5.926486 0.4915346,-1.098872 -6.502038 0.4946806,-1.243681 -6.892604 0.4320757,-8.289259 -8.422249 -0.3941244,-7.693439 -8.201973 -0.1429488,-7.195879 -7.445116 -0.004081666,-6.863077 -6.73155 0.1701786,-6.549644 -6.260675 0.3631161,-7.436483 -5.764133 -0.5744124,-7.232013 -4.829244 -0.6066574,-7.14763 -4.197917 -0.5007252,-7.078108 -3.630455 -0.4114023,-7.783919 -5.607241 -0.5667465,-7.690012 -4.70969 -0.6745733,-7.678108 -4.360595 -0.5811231,-7.676769 -4.150173 -0.5122679,-8.120865 -5.660871 -0.5036047,-8.092119 -4.815973 -0.5392533,-8.040958 -4.38928 -0.4265384,-7.985909 -4.086109 -0.3612063,-8.459161 -5.903709 -0.3915997,-8.517631 -5.202636 -0.3851292,-8.540507 -4.743845 -0.3107147,-8.536715 -4.300773 -0.2713854,1.410, 6
-1.484533 -7.801628 -0.6766571,-1.888571 -7.736983 -0.09720337,-2.240368 -7.242313 0.3246022,-2.145123 -6.772443 0.6930172,-1.81724 -6.40339 1.008028,-2.079104 -5.791568 0.2604225,-2.151514 -5.111482 0.7605838,-2.179994 -4.632573 1.058541,-2.179585 -4.154842 1.286594,-1.711529 -5.537069 0.2158009,-1.600583 -5.955562 0.8681899,-1.600583 -5.955562 0.8681899,-1.703214 -7.169441 1.014633,-1.36472 -5.609774 0.226404,-1.29334 -6.217496 0.8060737,-1.391394 -6.910158 0.8221158,-1.516061 -7.278471 0.7380987,-1.070354 -5.843443 0.3037967,-0.9877787 -6.113639 0.6719949,-1.117298 -6.694948 0.6580629,-1.271945 -7.031971 0.5918965,-8.326 -8.392361 -0.4700338,-7.734966 -8.15531 -0.2200065,-7.254754 -7.427654 -0.05326539,-6.932004 -6.731308 0.1400011,-6.629431 -6.193375 0.3356779,-7.46188 -5.77256 -0.6015251,-7.262847 -4.83291 -0.6129095,-7.186291 -4.162885 -0.5152567,-7.128366 -3.546213 -0.4083961,-7.796556 -5.599677 -0.5506235,-7.698643 -4.612331 -0.4296486,-7.679981 -4.527484 -0.174165,-7.69491 -4.68781 -0.03287372,-8.128277 -5.627943 -0.470462,-8.10484 -4.701965 -0.3196567,-8.062858 -4.510662 -0.1031657,-8.037217 -4.582326 0.005741626,-8.471782 -5.840791 -0.354505,-8.511344 -5.038303 -0.2256902,-8.496818 -4.729004 -0.1220193,-8.469174 -4.645597 -0.08186418,1.510, 5
-1.482717 -7.817568 -0.6899467,-1.874526 -7.752445 -0.08874184,-2.22192 -7.26247 0.3533084,-2.122301 -6.818471 0.7403927,-1.809286 -6.459678 1.064782,-2.071751 -5.812408 0.2630835,-2.138858 -5.119239 0.7855078,-2.162852 -4.638398 1.087022,-2.165425 -4.145807 1.316312,-1.700588 -5.562455 0.2182887,-1.594091 -5.9671 0.9073317,-1.594091 -5.9671 0.9073317,-1.713479 -7.178005 1.060045,-1.349427 -5.638767 0.2366224,-1.292479 -6.246664 0.8355321,-1.401642 -6.95549 0.8397136,-1.533622 -7.3096 0.7471831,-1.057741 -5.882778 0.3241603,-0.9890022 -6.186393 0.6963687,-1.12553 -6.773153 0.6676375,-1.288891 -7.092556 0.5909182,-8.38103 -8.338537 -1.864666,-7.826519 -8.046648 -1.523966,-7.426203 -7.425331 -1.238751,-7.213658 -6.812799 -0.928228,-7.039571 -6.230128 -0.6108477,-7.507892 -6.039529 -1.662175,-7.346098 -4.91695 -1.319454,-7.258691 -4.276978 -1.033163,-7.214632 -3.683984 -0.8703608,-7.825823 -5.976333 -1.563884,-7.719967 -5.089704 -0.9486066,-7.672593 -5.98593 -0.6297557,-7.683805 -6.684607 -0.5865601,-8.152499 -6.022696 -1.398333,-8.075495 -5.278694 -0.8241049,-7.997294 -6.15014 -0.5467997,-7.976606 -6.812259 -0.5444341,-8.508553 -6.197731 -1.211667,-8.447127 -5.471641 -0.7473967,-8.339767 -6.014343 -0.534029,-8.290936 -6.56079 -0.5189694,1.610, 3
-1.476649 -7.83703 -0.7182189,-1.878033 -7.781356 -0.102649,-2.222412 -7.295828 0.3146597,-2.123012 -6.841196 0.6747029,-1.812855 -6.473814 0.9702626,-2.082511 -5.833875 0.2035766,-2.14542 -5.118004 0.7045896,-2.168209 -4.62376 0.9998161,-2.165086 -4.126384 1.229698,-1.709311 -5.574277 0.1443608,-1.59311 -6.023388 0.811229,-1.59311 -6.023388 0.811229,-1.71096 -7.226625 0.9334565,-1.362727 -5.648544 0.1490968,-1.292969 -6.246418 0.7411321,-1.394583 -6.949688 0.752412,-1.521732 -7.304868 0.6660079,-1.072419 -5.883323 0.2242776,-0.9973722 -6.155208 0.6057203,-1.120752 -6.745654 0.5950913,-1.270546 -7.075492 0.5275669,-8.440523 -8.230038 -2.1631,-7.899553 -8.001358 -1.873546,-7.459695 -7.482616 -1.580115,-7.265618 -6.885876 -1.26712,-7.342513 -6.304073 -0.9627051,-7.547716 -6.032535 -1.953916,-7.347667 -4.916645 -1.655069,-7.248449 -4.26762 -1.372197,-7.180218 -3.681687 -1.18435,-7.880516 -5.961145 -1.835102,-7.723937 -5.201902 -1.325441,-7.705982 -6.037613 -1.035143,-7.74369 -6.689233 -0.9476796,-8.209113 -6.004329 -1.658603,-8.070754 -5.392635 -1.184649,-8.014102 -6.2143 -0.9380934,-8.015109 -6.830844 -0.8887515,-8.564153 -6.162724 -1.458072,-8.453617 -5.561428 -1.063572,-8.362379 -6.111368 -0.8702984,-8.338973 -6.633035 -0.8157027,1.710, 2
-1.463169 -7.889291 -0.7651241,-1.852162 -7.825881 -0.1471625,-2.202321 -7.361482 0.2996287,-2.102332 -6.894855 0.6867741,-1.800935 -6.515033 1.005423,-2.059906 -5.894329 0.1621381,-2.125241 -5.199335 0.6665341,-2.146642 -4.714462 0.9599882,-2.152708 -4.205038 1.197081,-1.692762 -5.647081 0.1142906,-1.581202 -5.977724 0.8061243,-1.581202 -5.977724 0.8061243,-1.708263 -7.226221 0.9608855,-1.342647 -5.70966 0.1361297,-1.28178 -6.210718 0.7527356,-1.378644 -6.95494 0.7786176,-1.509805 -7.35052 0.7000037,-1.042253 -5.933154 0.2283229,-0.9752893 -6.105341 0.6271601,-1.104657 -6.688797 0.6287688,-1.26464 -7.041406 0.5731258,-8.448856 -7.834774 -1.954871,-7.970858 -7.569328 -1.677675,-7.540689 -7.043709 -1.337321,-7.480281 -6.463769 -0.9716055,-7.72275 -6.057119 -0.5858632,-7.609956 -5.628688 -1.663017,-7.418736 -4.615394 -1.315046,-7.304608 -3.979925 -1.042814,-7.22808 -3.435263 -0.8722613,-7.953698 -5.50896 -1.509941,-7.832799 -5.04865 -0.9411466,-7.829079 -5.90884 -0.6973917,-7.86279 -6.515995 -0.6469076,-8.29806 -5.561001 -1.30517,-8.200713 -5.219089 -0.8011129,-8.139261 -6.044144 -0.6213651,-8.13036 -6.619532 -0.6300297,-8.656566 -5.730443 -1.068827,-8.552575 -5.412309 -0.6601113,-8.459455 -6.013238 -0.5066953,-8.415407 -6.4651 -0.4848295,1.810, 2
-1.474674 -7.936469 -0.6582512,-1.882334 -7.858565 -0.05630624,-2.231448 -7.36377 0.3652157,-2.125047 -6.881176 0.7294581,-1.805725 -6.502343 1.033214,-2.074146 -5.918996 0.2684842,-2.145087 -5.216751 0.7745711,-2.167678 -4.731115 1.070023,-2.167575 -4.244835 1.303199,-1.704672 -5.659344 0.2156225,-1.588354 -6.059163 0.8656404,-1.588354 -6.059163 0.8656404,-1.700617 -7.302883 0.9881347,-1.357122 -5.720174 0.2229449,-1.289881 -6.314613 0.8156306,-1.383383 -7.033462 0.8252333,-1.519183 -7.427871 0.7325284,-1.065212 -5.948612 0.299242,-0.9907622 -6.199923 0.6807833,-1.116984 -6.801511 0.655002,-1.280157 -7.163946 0.581257,-8.441812 -7.540688 -1.926819,-8.002003 -7.350736 -1.546125,-7.56849 -6.834624 -1.164393,-7.48737 -6.241149 -0.7737343,-7.746517 -5.792623 -0.367995,-7.675449 -5.307447 -1.547997,-7.489562 -4.342512 -1.142272,-7.389055 -3.700078 -0.8152369,-7.3042 -3.162139 -0.599738,-8.033637 -5.199593 -1.43264,-7.912076 -4.829544 -0.7973275,-7.934263 -5.711017 -0.5290222,-7.979987 -6.360712 -0.5018098,-8.385277 -5.283401 -1.245587,-8.27444 -5.11798 -0.6710949,-8.23898 -5.943717 -0.5018852,-8.229697 -6.498905 -0.5457547,-8.742839 -5.488357 -1.024634,-8.63353 -5.300523 -0.6036031,-8.550721 -5.905681 -0.4662174,-8.499756 -6.327993 -0.486908,1.910, 2
-1.463142 -7.924247 -0.6129347,-1.867149 -7.872694 -0.0619694,-2.220195 -7.388994 0.3665695,-2.128306 -6.912982 0.750402,-1.815982 -6.523594 1.072518,-2.073489 -5.935237 0.3378221,-2.139483 -5.249641 0.8713416,-2.166054 -4.778075 1.184914,-2.16031 -4.29783 1.407221,-1.704274 -5.651083 0.3035629,-1.596575 -6.117942 0.9568727,-1.596575 -6.117942 0.9568727,-1.722563 -7.29512 1.103774,-1.354967 -5.712446 0.3193266,-1.301647 -6.416664 0.870609,-1.41336 -7.095132 0.8596456,-1.543565 -7.414756 0.7726187,-1.067529 -5.939954 0.4077686,-1.012837 -6.418621 0.7229184,-1.154572 -7.003059 0.6811645,-1.315373 -7.292261 0.600247,-8.430882 -7.502777 -1.950865,-7.974881 -7.286329 -1.492134,-7.549116 -6.769155 -1.058872,-7.474322 -6.196592 -0.6394434,-7.740183 -5.744476 -0.2162646,-7.664629 -5.252271 -1.516379,-7.496197 -4.31164 -1.108958,-7.407036 -3.669477 -0.7811989,-7.33245 -3.107049 -0.5485162,-8.031458 -5.172126 -1.434233,-7.923858 -4.764507 -0.7966468,-7.931218 -5.658199 -0.5505729,-7.964621 -6.318828 -0.5307674,-8.394078 -5.275117 -1.271433,-8.28467 -5.052794 -0.664132,-8.233054 -5.89286 -0.4951633,-8.218873 -6.47215 -0.541616,-8.761939 -5.488258 -1.069989,-8.637945 -5.232721 -0.6310257,-8.539076 -5.832366 -0.4907836,-8.483158 -6.279856 -0.5045012,2.010, 2
-1.470089 -7.95823 -0.7451965,-1.87241 -7.865558 -0.168292,-2.21804 -7.384631 0.2552904,-2.113278 -6.918947 0.6270283,-1.801418 -6.565906 0.950599,-2.061231 -5.959964 0.2022407,-2.135655 -5.263038 0.6846501,-2.161084 -4.778404 0.9649599,-2.165845 -4.286018 1.183657,-1.698425 -5.720932 0.1621388,-1.583797 -6.023584 0.8063987,-1.583797 -6.023584 0.8063987,-1.697081 -7.248415 1.038997,-1.352501 -5.774873 0.1693704,-1.29036 -6.382989 0.7565696,-1.388351 -7.080631 0.8052787,-1.524349 -7.486923 0.732829,-1.061858 -6.001689 0.2401264,-0.9975834 -6.321798 0.6172968,-1.126177 -6.9062 0.5995464,-1.290206 -7.2649 0.5210402,-8.435584 -7.407959 -1.910001,-7.964265 -7.213702 -1.424322,-7.523012 -6.680981 -0.978034,-7.462588 -6.105699 -0.5501167,-7.763377 -5.687874 -0.1185441,-7.646505 -5.153569 -1.442653,-7.485196 -4.216102 -1.004473,-7.400856 -3.583779 -0.6711879,-7.335815 -3.029455 -0.4440521,-8.02738 -5.072862 -1.366014,-7.936699 -4.712095 -0.6849675,-7.932883 -5.622216 -0.4615487,-7.961182 -6.260238 -0.4706627,-8.405121 -5.189428 -1.209325,-8.319196 -4.992247 -0.5671751,-8.243986 -5.853099 -0.4381554,-8.217947 -6.423305 -0.5204097,-8.783068 -5.411019 -1.007412,-8.68302 -5.150139 -0.5561801,-8.562732 -5.773371 -0.4386029,-8.490864 -6.222959 -0.4750032,2.110, 2
-1.465877 -7.989509 -0.7549511,-1.867321 -7.892308 -0.1685407,-2.21362 -7.412292 0.2594213,-2.095445 -6.963083 0.633745,-1.782629 -6.605381 0.9528095,-2.062527 -5.981868 0.1757306,-2.127009 -5.290063 0.6671133,-2.150752 -4.802764 0.9550641,-2.15861 -4.308386 1.192533,-1.692744 -5.748252 0.1355222,-1.580512 -6.071194 0.7992779,-1.580512 -6.071194 0.7992779,-1.719733 -7.314787 0.9817199,-1.341437 -5.811996 0.1546413,-1.27702 -6.369514 0.7456169,-1.38454 -7.087718 0.7742442,-1.530509 -7.488684 0.6898856,-1.043248 -6.040689 0.2407082,-0.9633904 -6.2542 0.6169671,-1.098676 -6.839015 0.5961661,-1.269919 -7.193832 0.5223105,-8.450966 -7.353029 -1.871246,-7.977911 -7.212103 -1.418915,-7.52658 -6.66105 -0.9984484,-7.469848 -6.078548 -0.592144,-7.785144 -5.694063 -0.1774368,-7.674385 -5.108696 -1.431525,-7.498165 -4.177848 -0.9926822,-7.406669 -3.554251 -0.659641,-7.333049 -3.018957 -0.4340537,-8.054467 -4.999474 -1.349128,-7.954275 -4.723974 -0.687978,-7.954267 -5.639328 -0.4705496,-7.983953 -6.294213 -0.4822557,-8.4302 -5.108414 -1.189976,-8.330259 -4.993081 -0.551548,-8.259841 -5.850244 -0.4158412,-8.234948 -6.437128 -0.4917457,-8.802506 -5.33511 -0.9888446,-8.689681 -5.167745 -0.5335797,-8.573124 -5.801164 -0.4118252,-8.501336 -6.255445 -0.4481486,2.210, 2
-1.463084 -7.996105 -0.6234183,-1.877492 -7.91712 -0.09046996,-2.229103 -7.422142 0.3105393,-2.115343 -6.942498 0.6605598,-1.787846 -6.599245 0.9638339,-2.070545 -5.979297 0.30178,-2.145253 -5.290493 0.7796553,-2.174057 -4.814289 1.06024,-2.173748 -4.34485 1.27369,-1.701925 -5.716794 0.270081,-1.579443 -6.108284 0.8676698,-1.579443 -6.108284 0.8676698,-1.699461 -7.326338 1.054491,-1.355971 -5.776168 0.2780653,-1.28532 -6.457287 0.8288487,-1.388553 -7.145029 0.8663416,-1.526052 -7.541393 0.7976564,-1.066824 -6.012451 0.3479191,-0.9910307 -6.393139 0.6861938,-1.121469 -6.983911 0.6561387,-1.283612 -7.333671 0.5825473,-8.4335 -7.36444 -1.780219,-7.968418 -7.238556 -1.32843,-7.510786 -6.718334 -0.8935452,-7.457924 -6.139684 -0.4848909,-7.783346 -5.731584 -0.06270361,-7.654205 -5.121377 -1.290481,-7.489167 -4.194582 -0.841253,-7.407837 -3.570539 -0.4916253,-7.343032 -3.036348 -0.2482901,-8.039993 -4.994673 -1.209155,-7.942042 -4.743911 -0.5496361,-7.942735 -5.675497 -0.3512826,-7.973006 -6.336521 -0.3733031,-8.424067 -5.102695 -1.057953,-8.324129 -5.011419 -0.4277048,-8.258468 -5.880962 -0.3124188,-8.236463 -6.462937 -0.3857009,-8.802185 -5.332101 -0.8590413,-8.683773 -5.18279 -0.4189901,-8.568256 -5.827875 -0.3072152,-8.496877 -6.273998 -0.3442856,2.310, 2
-1.519002 -8.050669 -0.5570722,-1.936795 -7.977037 -0.05474812,-2.291953 -7.463068 0.3322996,-2.184299 -7.001544 0.6830497,-1.864149 -6.673033 1.000197,-2.132033 -6.01324 0.3304358,-2.208413 -5.315481 0.811537,-2.242676 -4.84246 1.084746,-2.243291 -4.372661 1.286512,-1.761263 -5.740863 0.3092025,-1.651844 -6.186262 0.9157892,-1.651844 -6.186262 0.9157892,-1.76235 -7.38165 1.087183,-1.407578 -5.800767 0.3279346,-1.34442 -6.520101 0.8666021,-1.446694 -7.190754 0.8973196,-1.580298 -7.555871 0.8191813,-1.106324 -6.034488 0.4050052,-1.042194 -6.399118 0.7198898,-1.173835 -6.973988 0.6809615,-1.328132 -7.301725 0.5977528,-8.442733 -7.393065 -1.846517,-7.977121 -7.297906 -1.39834,-7.51195 -6.76955 -0.9686247,-7.44757 -6.176746 -0.5604178,-7.769384 -5.763562 -0.1377549,-7.657296 -5.167839 -1.382778,-7.481148 -4.222463 -0.9234597,-7.390184 -3.582534 -0.5607462,-7.315425 -3.045601 -0.3031563,-8.033328 -5.040414 -1.29785,-7.931809 -4.781938 -0.6398857,-7.934824 -5.7201 -0.4476901,-7.969292 -6.374179 -0.4776806,-8.413414 -5.144069 -1.135951,-8.313236 -5.043182 -0.4990685,-8.24953 -5.918733 -0.3852235,-8.223721 -6.490127 -0.4575635,-8.788062 -5.36523 -0.9269065,-8.67115 -5.25387 -0.4765134,-8.560426 -5.910902 -0.3683472,-8.488302 -6.34555 -0.4053037,2.410, 2
-1.575391 -8.077183 -0.5700024,-2.00339 -7.958358 -0.08474103,-2.360488 -7.439954 0.3012147,-2.272034 -6.941026 0.6584144,-1.943372 -6.577344 0.9855894,-2.194132 -6.010586 0.2457896,-2.286412 -5.294019 0.6947763,-2.330899 -4.80179 0.9594389,-2.337941 -4.318088 1.150947,-1.821928 -5.749251 0.2336231,-1.758019 -6.179398 0.8357075,-1.758019 -6.179398 0.8357075,-1.839457 -7.418039 0.9860386,-1.470312 -5.81184 0.2592767,-1.438262 -6.4372 0.792788,-1.512791 -7.122581 0.845125,-1.610703 -7.509248 0.7754599,-1.156908 -6.038257 0.3410835,-1.126138 -6.298885 0.6721767,-1.24863 -6.887895 0.6589692,-1.376622 -7.246267 0.5827378,-8.421681 -7.412942 -1.7191,-7.942126 -7.305204 -1.277926,-7.479339 -6.766889 -0.8484215,-7.431306 -6.175529 -0.4468738,-7.764989 -5.774234 -0.03160477,-7.639887 -5.159837 -1.230966,-7.462492 -4.230739 -0.7738099,-7.369718 -3.599567 -0.4120327,-7.291862 -3.05828 -0.1535885,-8.025143 -5.026243 -1.144831,-7.918905 -4.785774 -0.5002629,-7.912572 -5.706391 -0.2968897,-7.941088 -6.367433 -0.3023598,-8.411002 -5.13569 -0.9862764,-8.300945 -5.076055 -0.3582188,-8.228564 -5.938993 -0.2424762,-8.199295 -6.521812 -0.3065751,-8.788959 -5.376074 -0.780338,-8.664485 -5.277951 -0.3372439,-8.541043 -5.930683 -0.2298566,-8.459078 -6.375726 -0.2633293,2.510, 2
-1.598415 -8.086399 -0.4291277,-2.019835 -7.947884 0.04511741,-2.393987 -7.430292 0.4306137,-2.31513 -6.938475 0.7821558,-1.978908 -6.594141 1.10001,-2.206726 -6.014049 0.4428254,-2.312304 -5.317576 0.9214923,-2.361869 -4.834768 1.206571,-2.372828 -4.33724 1.411926,-1.832529 -5.736712 0.4374009,-1.773355 -6.162254 1.035947,-1.773355 -6.162254 1.035947,-1.859415 -7.4129 1.175993,-1.476551 -5.792078 0.4655268,-1.459289 -6.438631 0.9987184,-1.540129 -7.134265 1.025062,-1.64086 -7.528169 0.9508128,-1.169304 -6.018579 0.5493066,-1.14613 -6.359638 0.8756186,-1.270162 -6.960414 0.846514,-1.40422 -7.319 0.7598325,-8.399824 -7.463451 -1.585941,-7.924274 -7.373029 -1.1512,-7.450747 -6.799196 -0.7349266,-7.400626 -6.159449 -0.3419098,-7.736616 -5.726265 0.06110096,-7.598889 -5.174781 -1.119977,-7.415417 -4.18661 -0.6694985,-7.325226 -3.515771 -0.3191534,-7.256527 -2.937792 -0.06663251,-7.990442 -5.035397 -1.028288,-7.880509 -4.792764 -0.3539916,-7.877402 -5.733882 -0.168225,-7.910581 -6.380468 -0.2067205,-8.381406 -5.145433 -0.8623909,-8.265637 -5.077907 -0.2136443,-8.198954 -5.959008 -0.1185168,-8.17783 -6.523637 -0.2110896,-8.766516 -5.393795 -0.6481649,-8.627957 -5.28055 -0.2016155,-8.505478 -5.941255 -0.1145777,-8.433321 -6.371519 -0.1718051,2.610, 2
-1.614594 -8.080915 -0.5015237,-2.042815 -7.970128 -0.02175021,-2.419612 -7.457058 0.3715361,-2.344152 -6.968245 0.7354014,-2.017221 -6.615534 1.059124,-2.245902 -6.035287 0.3996221,-2.349488 -5.333393 0.907289,-2.389087 -4.848938 1.217549,-2.396056 -4.340141 1.445099,-1.873568 -5.769116 0.3994927,-1.786363 -6.129388 1.012921,-1.786363 -6.129388 1.012921,-1.904849 -7.379238 1.206263,-1.513663 -5.823759 0.4333471,-1.47791 -6.447246 0.9736347,-1.575315 -7.15177 1.004961,-1.697185 -7.537776 0.9357505,-1.204895 -6.04486 0.5253035,-1.178081 -6.384147 0.8540403,-1.311589 -6.974054 0.8241347,-1.460788 -7.31476 0.7376624,-8.423999 -7.447027 -1.492065,-7.937182 -7.378105 -1.08437,-7.449585 -6.787096 -0.6990836,-7.392033 -6.144216 -0.3308229,-7.713108 -5.721122 0.05029714,-7.595694 -5.133132 -1.069909,-7.407064 -4.088487 -0.6321074,-7.30631 -3.385989 -0.2978706,-7.226371 -2.809031 -0.05622017,-7.984258 -4.988239 -0.9711655,-7.864452 -4.740566 -0.3072217,-7.872356 -5.69121 -0.09991276,-7.915256 -6.376878 -0.1322601,-8.368915 -5.087482 -0.7941,-8.244189 -5.051235 -0.1630156,-8.197096 -5.945455 -0.0324415,-8.183132 -6.544986 -0.1010414,-8.748928 -5.317974 -0.5752971,-8.603675 -5.261693 -0.1334354,-8.504116 -5.945991 -0.02592599,-8.445164 -6.393352 -0.07175529,2.710, 2
-1.632664 -8.109064 -0.4570849,-2.069765 -8.000656 0.0246371,-2.455899 -7.496954 0.422999,-2.396886 -7.016469 0.7895563,-2.065759 -6.658441 1.122446,-2.285218 -6.059232 0.4384791,-2.390158 -5.347986 0.9535078,-2.432438 -4.861005 1.268751,-2.439715 -4.351298 1.499654,-1.904586 -5.782795 0.4380984,-1.838339 -6.174055 1.073344,-1.838339 -6.174055 1.073344,-1.938073 -7.427368 1.228086,-1.537988 -5.838325 0.4745933,-1.515633 -6.470508 1.030205,-1.606961 -7.17612 1.049076,-1.716689 -7.549621 0.9698704,-1.222849 -6.06058 0.5706912,-1.206216 -6.382659 0.9067838,-1.339832 -6.979322 0.8735409,-1.481347 -7.319288 0.7844069,-8.437154 -7.497748 -1.363946,-7.93853 -7.41358 -0.9620841,-7.431848 -6.834957 -0.5685948,-7.35504 -6.190797 -0.1804057,-7.697634 -5.775148 0.2237147,-7.599963 -5.126766 -1.004487,-7.395581 -4.065202 -0.5701617,-7.295527 -3.361875 -0.2464474,-7.220068 -2.780293 -0.0276736,-7.997515 -4.989729 -0.9005709,-7.883621 -4.774358 -0.2161027,-7.898802 -5.768152 -0.01960731,-7.944406 -6.459577 -0.08073986,-8.386073 -5.101362 -0.7152608,-8.259535 -5.036449 -0.06715167,-8.211386 -5.955546 0.05112612,-8.199418 -6.566367 -0.0396899,-8.76718 -5.346252 -0.4869041,-8.614669 -5.263492 -0.0553143,-8.510061 -5.953634 0.04612958,-8.450299 -6.406037 -0.01441407,2.810, 2
-1.672844 -8.123581 -0.4205585,-2.11429 -8.004614 0.05940834,-2.50231 -7.464023 0.4252742,-2.450885 -6.952648 0.769328,-2.123273 -6.596357 1.087962,-2.317169 -6.027369 0.3859322,-2.430716 -5.30882 0.8503678,-2.491043 -4.799032 1.126685,-2.51198 -4.295011 1.329963,-1.938531 -5.750396 0.3774067,-1.873545 -6.174877 0.9849632,-1.873545 -6.174877 0.9849632,-1.938004 -7.452392 1.116057,-1.576658 -5.801225 0.4104299,-1.548645 -6.413932 0.9588856,-1.621259 -7.125514 1.012733,-1.716311 -7.54372 0.9325091,-1.25053 -6.022136 0.4942459,-1.220308 -6.228307 0.8525966,-1.341718 -6.832999 0.8568748,-1.471212 -7.218204 0.7760201,-8.450521 -7.527479 -1.376912,-7.945724 -7.45614 -0.9795228,-7.423822 -6.893835 -0.5766152,-7.327222 -6.28143 -0.1771951,-7.67153 -5.863592 0.2338684,-7.591655 -5.164169 -0.994489,-7.387495 -4.114852 -0.5653248,-7.290084 -3.417604 -0.2384906,-7.213527 -2.831466 -0.01214385,-7.994383 -5.030946 -0.8888594,-7.872782 -4.829263 -0.2105858,-7.890061 -5.81768 -0.01877189,-7.938196 -6.504001 -0.07360923,-8.38702 -5.145823 -0.7034772,-8.262797 -5.087754 -0.06148756,-8.210402 -5.99331 0.04877508,-8.193401 -6.596813 -0.02844512,-8.772266 -5.388429 -0.4758595,-8.624212 -5.310972 -0.04990494,-8.513879 -5.999176 0.05381513,-8.447934 -6.451735 0.004973173,2.910, 2
-1.75213 -8.081455 -0.5613637,-2.224014 -7.930395 -0.1012102,-2.62503 -7.381952 0.2342197,-2.59858 -6.848475 0.5526048,-2.261656 -6.505798 0.8434356,-2.4231 -5.992565 0.1758649,-2.566389 -5.205793 0.5942795,-2.650996 -4.64743 0.830261,-2.702646 -4.135353 1.011048,-2.043425 -5.731679 0.1679812,-2.004384 -6.049565 0.7415742,-2.004384 -6.049565 0.7415742,-2.050938 -7.394063 0.8433441,-1.67666 -5.771136 0.2001417,-1.682214 -6.27485 0.733348,-1.739262 -6.976245 0.8004749,-1.816033 -7.462816 0.7229842,-1.330805 -5.967798 0.2788427,-1.325953 -5.944437 0.6542666,-1.437691 -6.494346 0.6881846,-1.553719 -6.931148 0.6259009,-8.385181 -7.620801 -1.022454,-7.877014 -7.530328 -0.6193784,-7.358451 -6.928049 -0.1907589,-7.284415 -6.286006 0.2284224,-7.650147 -5.898872 0.6734991,-7.527758 -5.207966 -0.558293,-7.331047 -4.169546 -0.07663852,-7.228582 -3.481346 0.2849611,-7.144169 -2.907226 0.535468,-7.94426 -5.035139 -0.4457383,-7.812415 -4.860333 0.2319821,-7.812523 -5.81748 0.4368454,-7.855083 -6.49719 0.412524,-8.350586 -5.150917 -0.2577857,-8.217516 -5.198069 0.3736619,-8.15194 -6.075465 0.4656391,-8.136069 -6.669869 0.3829566,-8.742163 -5.418245 -0.02518481,-8.578112 -5.449956 0.4097122,-8.45548 -6.127859 0.5041435,-8.387361 -6.561093 0.4520129,3.010, 2
-1.86189 -7.858928 -0.888524,-2.358538 -7.802993 -0.4383627,-2.757391 -7.302902 -0.07001108,-2.744657 -6.802177 0.2410803,-2.470356 -6.480556 0.5395571,-2.562851 -5.958435 -0.05069762,-2.740361 -5.283901 0.3790565,-2.850293 -4.621941 0.6310115,-2.947062 -4.024681 0.8248496,-2.179112 -5.638858 -0.07903188,-2.209283 -5.77149 0.4973186,-2.209283 -5.77149 0.4973186,-2.208629 -7.018251 0.5807595,-1.793103 -5.608997 -0.05119991,-1.830357 -6.025937 0.5189329,-1.888529 -6.779851 0.504151,-1.960351 -7.349163 0.3639754,-1.429923 -5.785395 0.005395114,-1.464926 -5.921299 0.3548235,-1.580831 -6.553045 0.2907727,-1.686641 -6.995968 0.1758946,-8.357995 -7.625838 -0.9597652,-7.839907 -7.494058 -0.5256045,-7.328131 -6.895887 -0.05487019,-7.236022 -6.285766 0.4065547,-7.593725 -5.884933 0.8843901,-7.478902 -5.163351 -0.4502959,-7.284035 -4.100111 0.02145302,-7.17825 -3.404736 0.3606302,-7.097075 -2.814491 0.5996368,-7.910739 -5.034224 -0.3329571,-7.781732 -4.774257 0.3679733,-7.774303 -5.75963 0.5636597,-7.819989 -6.455621 0.5246958,-8.324409 -5.175122 -0.1409423,-8.194551 -5.144439 0.520066,-8.115408 -6.052537 0.5986583,-8.106882 -6.662607 0.4880341,-8.720839 -5.46415 0.09437215,-8.567949 -5.37334 0.56099,-8.430316 -6.052088 0.6471798,-8.364673 -6.523408 0.583577,3.110, 2
-1.985965 -7.812555 -0.3745091,-2.479918 -7.74023 0.1373504,-2.8788 -7.220705 0.5526102,-2.830629 -6.767225 0.9173607,-2.54065 -6.436239 1.250022,-2.686028 -5.795633 0.511808,-2.843663 -5.095761 0.9922765,-2.963062 -4.454069 1.308568,-3.06214 -3.818994 1.541553,-2.2693 -5.450761 0.4897529,-2.289124 -5.832971 1.126887,-2.289124 -5.832971 1.126887,-2.309552 -7.239381 1.176874,-1.862781 -5.454816 0.5317253,-1.898231 -6.103199 1.127048,-1.989803 -6.876532 1.10094,-2.081469 -7.407969 0.9388098,-1.48591 -5.663798 0.6109332,-1.518313 -5.937728 0.9344178,-1.649623 -6.609182 0.8262595,-1.76741 -7.036317 0.6715977,-8.361074 -7.633937 -0.7337415,-7.824056 -7.460275 -0.3298844,-7.307328 -6.847439 0.129405,-7.218372 -6.229508 0.58823,-7.577034 -5.842592 1.069803,-7.470584 -5.122358 -0.2502048,-7.274506 -4.075017 0.2371058,-7.164389 -3.376194 0.5927154,-7.07433 -2.769575 0.8466982,-7.90627 -4.97409 -0.116448,-7.758921 -4.785135 0.5865787,-7.741848 -5.763206 0.7922961,-7.781656 -6.424566 0.7684803,-8.321836 -5.113406 0.09220093,-8.169708 -5.150021 0.7377524,-8.080914 -6.050171 0.809267,-8.066665 -6.631329 0.7091622,-8.722721 -5.409355 0.3438041,-8.549118 -5.384296 0.778173,-8.398345 -6.072439 0.8534774,-8.320093 -6.524168 0.7878153,3.210, 2
-2.091063 -7.837913 0.3080947,-2.584675 -7.777349 0.9061195,-3.004812 -7.244915 1.387119,-2.990193 -6.772101 1.841919,-2.638429 -6.37474 2.232904,-2.862033 -5.644742 1.263659,-3.014591 -4.9298 1.847822,-3.104952 -4.367931 2.222214,-3.171638 -3.792858 2.484972,-2.424747 -5.302272 1.251482,-2.40085 -5.863109 1.967639,-2.40085 -5.863109 1.967639,-2.439884 -7.227688 2.053156,-1.999144 -5.36612 1.322352,-1.978015 -6.035751 1.949469,-2.07253 -6.844938 1.932969,-2.16968 -7.230237 1.806474,-1.612438 -5.610711 1.449679,-1.567421 -5.849119 1.798699,-1.7079 -6.52001 1.765299,-1.849812 -6.880258 1.680648,-8.355611 -7.701048 -0.476229,-7.814906 -7.579372 -0.0480985,-7.266973 -6.961565 0.4446681,-7.15793 -6.333229 0.927955,-7.530858 -5.916606 1.432219,-7.442829 -5.141083 0.06363583,-7.244601 -4.074558 0.5394626,-7.14234 -3.358762 0.9025674,-7.061167 -2.744476 1.178455,-7.890057 -4.981979 0.2058011,-7.741898 -4.805261 0.915983,-7.708337 -5.794376 1.163123,-7.738876 -6.494956 1.185312,-8.318293 -5.125848 0.4134623,-8.165022 -5.191652 1.073034,-8.062002 -6.112854 1.175406,-8.033518 -6.727417 1.116037,-8.729479 -5.424632 0.669376,-8.563105 -5.448269 1.110541,-8.407494 -6.162868 1.193583,-8.320097 -6.628444 1.147236,3.310, 2
-2.185371 -7.874185 0.8988612,-2.668499 -7.720054 1.503978,-3.085646 -7.162272 1.986674,-3.041191 -6.695375 2.421828,-2.651749 -6.316207 2.78959,-2.900393 -5.525514 1.92664,-3.07037 -4.863473 2.542285,-3.182083 -4.303171 2.932746,-3.25251 -3.70729 3.194461,-2.453979 -5.168031 1.890802,-2.470957 -5.852733 2.589075,-2.470957 -5.852733 2.589075,-2.524404 -7.216402 2.606653,-2.021761 -5.248428 1.940629,-2.040787 -6.034332 2.559989,-2.160321 -6.836078 2.535973,-2.256233 -7.210422 2.407745,-1.631454 -5.53012 2.0473,-1.620795 -5.836296 2.377291,-1.785653 -6.509923 2.325951,-1.921914 -6.852958 2.241662,-8.423043 -7.82069 -0.387999,-7.877689 -7.72882 0.06831512,-7.299369 -7.079371 0.5608751,-7.199125 -6.461449 1.042689,-7.581257 -6.068241 1.511165,-7.477395 -5.221529 0.1945072,-7.281546 -4.10362 0.7268637,-7.164049 -3.350887 1.095788,-7.069897 -2.732831 1.372081,-7.932604 -5.092434 0.3434954,-7.807079 -4.907427 1.13657,-7.77473 -5.936523 1.31967,-7.805397 -6.634428 1.250971,-8.36937 -5.273357 0.5646747,-8.251368 -5.32307 1.290655,-8.153516 -6.255132 1.345992,-8.128451 -6.833927 1.214472,-8.790785 -5.60665 0.8421021,-8.660892 -5.588131 1.316672,-8.512115 -6.308181 1.369088,-8.441489 -6.762081 1.276447,3.410, 2
-2.193815 -7.850741 1.10178,-2.687732 -7.695241 1.73498,-3.123651 -7.141966 2.248787,-3.07102 -6.702289 2.707577,-2.658879 -6.325937 3.093612,-2.934425 -5.466264 2.202735,-3.098151 -4.838561 2.85334,-3.202643 -4.266631 3.256128,-3.26428 -3.642592 3.524333,-2.46808 -5.1084 2.16145,-2.493336 -5.802656 2.893372,-2.493336 -5.802656 2.893372,-2.562626 -7.198034 2.877407,-2.021021 -5.192777 2.211495,-2.044674 -6.005891 2.835395,-2.181164 -6.822448 2.771179,-2.285732 -7.182352 2.614808,-1.626861 -5.49493 2.323946,-1.625373 -5.900304 2.64069,-1.801642 -6.591859 2.569906,-1.942307 -6.914148 2.468301,-8.434473 -7.858837 -0.2314854,-7.869022 -7.738092 0.2216333,-7.300319 -7.064264 0.7082488,-7.215101 -6.432434 1.18505,-7.617469 -6.04265 1.663639,-7.512629 -5.192115 0.3479134,-7.300804 -4.081563 0.8470361,-7.182393 -3.334616 1.195401,-7.089689 -2.721694 1.463862,-7.973248 -5.078104 0.4983135,-7.848144 -4.867891 1.25197,-7.80793 -5.892908 1.469889,-7.831072 -6.635603 1.441797,-8.41034 -5.2728 0.7106707,-8.284302 -5.327413 1.430919,-8.17153 -6.266819 1.513979,-8.136521 -6.905366 1.400248,-8.830408 -5.626571 0.9796709,-8.70013 -5.589628 1.473982,-8.538899 -6.31484 1.548719,-8.452982 -6.827707 1.465363,3.510, 2
-2.235563 -7.79692 1.431474,-2.734426 -7.656183 2.108217,-3.1622 -7.093296 2.665292,-3.091694 -6.670883 3.150306,-2.675895 -6.32304 3.562975,-2.965147 -5.353645 2.665483,-3.130036 -4.72878 3.368909,-3.235786 -4.159367 3.792138,-3.297606 -3.515973 4.072742,-2.480086 -4.994091 2.601176,-2.48794 -5.682436 3.346493,-2.48794 -5.682436 3.346493,-2.592904 -7.027292 3.37278,-2.018842 -5.090984 2.626678,-2.036439 -5.955984 3.284937,-2.196373 -6.78513 3.213921,-2.314546 -7.153232 3.044857,-1.615425 -5.422224 2.71531,-1.605675 -5.753979 3.055032,-1.805356 -6.443029 2.953189,-1.965228 -6.787637 2.817786,-8.460984 -7.958749 0.3325545,-7.8819 -7.760874 0.7928566,-7.313944 -7.067052 1.345012,-7.218429 -6.476316 1.911861,-7.621408 -6.137395 2.496491,-7.547638 -5.13961 0.9307554,-7.344584 -4.035532 1.48967,-7.223588 -3.300744 1.8549,-7.120916 -2.685195 2.120626,-8.029111 -5.015804 1.103691,-7.861652 -4.886437 1.921936,-7.809432 -5.936742 2.145078,-7.836533 -6.646865 2.106361,-8.476234 -5.215318 1.346464,-8.303601 -5.354544 2.096754,-8.18442 -6.312772 2.147615,-8.162172 -6.916284 2.012376,-8.89637 -5.592081 1.644836,-8.729762 -5.629934 2.158672,-8.556452 -6.355422 2.233198,-8.468782 -6.831765 2.155815,3.610, 2
-2.205689 -7.725938 1.401833,-2.721061 -7.628118 2.05075,-3.182514 -7.071323 2.586411,-3.135182 -6.610523 3.051366,-2.707518 -6.226705 3.453866,-2.976568 -5.294336 2.596958,-3.131924 -4.651647 3.265364,-3.228474 -4.05327 3.662579,-3.289211 -3.414687 3.933619,-2.494857 -4.927486 2.549756,-2.488817 -5.600389 3.276313,-2.488817 -5.600389 3.276313,-2.559224 -6.986034 3.323962,-2.033567 -5.005889 2.584239,-2.045486 -5.900535 3.225268,-2.176089 -6.727689 3.176152,-2.295721 -7.137599 3.027534,-1.628678 -5.323295 2.683114,-1.607879 -5.788042 3.014316,-1.783383 -6.505989 2.938324,-1.943529 -6.871528 2.827529,-8.484786 -7.976099 0.415204,-7.875185 -7.732809 0.9692734,-7.310963 -7.051754 1.581868,-7.195644 -6.469692 2.185915,-7.601527 -6.137619 2.812503,-7.532085 -5.144062 1.121785,-7.339427 -4.046093 1.720674,-7.232038 -3.300391 2.130312,-7.140912 -2.63533 2.439374,-8.02502 -5.034957 1.267487,-7.889793 -4.786989 2.135767,-7.822764 -5.838979 2.415136,-7.819118 -6.577853 2.435551,-8.48742 -5.229116 1.488353,-8.347049 -5.296688 2.29821,-8.193352 -6.281585 2.371217,-8.130482 -6.928771 2.243587,-8.919773 -5.619173 1.76902,-8.770173 -5.585371 2.335368,-8.567495 -6.325008 2.438552,-8.437998 -6.832798 2.370005,3.710, 2
-2.197796 -7.658489 1.468994,-2.726303 -7.503387 2.11042,-3.191587 -6.919701 2.64516,-3.108306 -6.492891 3.107731,-2.649054 -6.146009 3.484555,-2.956256 -5.172785 2.67001,-3.118727 -4.457916 3.363634,-3.209207 -3.844583 3.761594,-3.259887 -3.181708 4.051539,-2.457835 -4.840788 2.62774,-2.459678 -5.474798 3.403769,-2.459678 -5.474798 3.403769,-2.550784 -6.950887 3.383648,-1.98846 -4.935508 2.668625,-2.030157 -5.802602 3.352668,-2.18266 -6.643219 3.288687,-2.32216 -7.070673 3.095767,-1.584737 -5.263933 2.776202,-1.590282 -5.724688 3.125641,-1.782671 -6.44856 3.037314,-1.962103 -6.827446 2.889495,-8.487121 -7.948883 0.5845197,-7.871633 -7.697562 1.140957,-7.311346 -6.970909 1.731989,-7.232231 -6.390631 2.313237,-7.656484 -6.068292 2.920088,-7.545364 -5.026386 1.267852,-7.361653 -3.92638 1.830577,-7.251597 -3.180971 2.212926,-7.154855 -2.534482 2.507354,-8.052958 -4.947141 1.415836,-7.941176 -4.659221 2.262721,-7.851801 -5.724956 2.548527,-7.830465 -6.514051 2.570426,-8.523032 -5.171342 1.631699,-8.392844 -5.260216 2.443696,-8.229551 -6.265243 2.525949,-8.167026 -6.93129 2.387272,-8.955527 -5.605403 1.908959,-8.821628 -5.557883 2.499999,-8.622745 -6.296258 2.605477,-8.504475 -6.821048 2.523257,3.810, 2
-2.201504 -7.595594 1.544333,-2.722053 -7.416664 2.200078,-3.170797 -6.804195 2.731572,-3.072804 -6.345693 3.212827,-2.627903 -5.996605 3.617187,-2.928716 -5.038867 2.702378,-3.091499 -4.293266 3.384621,-3.16744 -3.702521 3.775718,-3.207349 -3.094854 4.058043,-2.437497 -4.741615 2.676077,-2.432902 -5.292516 3.455698,-2.432902 -5.292516 3.455698,-2.515724 -6.79631 3.538137,-1.973386 -4.859565 2.729987,-2.00543 -5.679733 3.441694,-2.13438 -6.561183 3.449658,-2.268599 -7.024415 3.306847,-1.565558 -5.192056 2.850846,-1.544464 -5.533523 3.250935,-1.727406 -6.272987 3.202217,-1.907637 -6.694978 3.08412,-8.546835 -7.939733 0.6380971,-7.954996 -7.75731 1.173547,-7.360721 -7.082548 1.768092,-7.25466 -6.509302 2.354093,-7.689514 -6.143585 2.937124,-7.623113 -5.018795 1.326637,-7.437113 -3.836991 1.909462,-7.330042 -3.069603 2.282441,-7.239882 -2.423821 2.564981,-8.123487 -4.925404 1.487133,-8.001131 -4.740661 2.353539,-7.932787 -5.852415 2.579093,-7.942787 -6.61905 2.510232,-8.589211 -5.16781 1.713385,-8.479477 -5.314245 2.510056,-8.333026 -6.311454 2.546853,-8.276568 -6.940082 2.375816,-9.024364 -5.609563 2.004881,-8.922759 -5.631616 2.559818,-8.731877 -6.356289 2.650826,-8.618032 -6.861347 2.559972,3.910, 2
-2.187778 -7.610241 1.510501,-2.703899 -7.433851 2.187396,-3.143436 -6.81055 2.754369,-3.066257 -6.388258 3.282434,-2.631882 -6.093233 3.709592,-2.888102 -5.043613 2.660923,-3.069738 -4.265647 3.39794,-3.167528 -3.68638 3.809641,-3.220469 -3.076557 4.08929,-2.400805 -4.765964 2.645007,-2.431637 -5.382867 3.520464,-2.431637 -5.382867 3.520464,-2.535093 -6.834499 3.528425,-1.938651 -4.905729 2.72675,-1.986717 -5.699893 3.493659,-2.147927 -6.563973 3.456805,-2.278834 -6.947113 3.285695,-1.533311 -5.241794 2.887113,-1.52665 -5.44444 3.299023,-1.731083 -6.125333 3.259139,-1.907884 -6.497121 3.155664,-8.567141 -7.962651 0.8081777,-7.982572 -7.817745 1.377981,-7.375905 -7.147857 1.996213,-7.26535 -6.566032 2.599442,-7.710657 -6.176931 3.188144,-7.637865 -5.015214 1.506604,-7.458838 -3.838621 2.116288,-7.367385 -3.065361 2.503309,-7.297273 -2.422402 2.791179,-8.139244 -4.900875 1.667271,-8.025393 -4.738967 2.567719,-7.964922 -5.854014 2.814628,-7.972515 -6.622522 2.756583,-8.609505 -5.13705 1.899021,-8.509325 -5.33209 2.733739,-8.365886 -6.349618 2.796948,-8.301061 -6.98478 2.638195,-9.05303 -5.584563 2.199797,-8.954733 -5.658983 2.777687,-8.764413 -6.405943 2.898967,-8.640311 -6.907392 2.819036,4.010, 2
-2.13661 -7.629697 0.9358452,-2.649087 -7.505317 1.699975,-3.098304 -7.003528 2.287002,-2.966445 -6.478681 2.764782,-2.595747 -6.114711 3.172747,-2.844884 -5.225755 2.108485,-3.001069 -4.480327 2.763762,-3.060507 -3.828405 3.061414,-3.148937 -3.072578 3.258356,-2.37371 -4.946882 2.025959,-2.379047 -5.228642 2.989369,-2.379047 -5.228642 2.989369,-2.55334 -6.629163 3.157755,-1.925561 -5.031724 2.048026,-1.970857 -5.801221 2.982435,-2.162786 -6.677623 3.041073,-2.314681 -7.211762 2.808245,-1.519566 -5.366285 2.133489,-1.526948 -5.646394 2.6195,-1.686133 -6.214527 2.603857,-1.821507 -6.569484 2.495784,-8.582058 -8.060282 1.033191,-7.986963 -7.909274 1.632655,-7.370789 -7.225093 2.288457,-7.245079 -6.628118 2.925082,-7.70196 -6.230474 3.516856,-7.646252 -5.06458 1.734132,-7.468274 -3.887442 2.387147,-7.371603 -3.112809 2.789949,-7.298229 -2.434059 3.074585,-8.153166 -4.93086 1.890695,-8.036118 -4.832747 2.856659,-7.974537 -5.97615 3.093251,-7.982687 -6.692458 3.002395,-8.626951 -5.153339 2.134378,-8.517989 -5.389091 3.006994,-8.365819 -6.418424 3.042884,-8.300675 -6.994327 2.853039,-9.072536 -5.596256 2.449331,-8.957836 -5.722391 3.019517,-8.757476 -6.486103 3.113606,-8.636646 -6.947337 3.019208,4.110, 2
-2.174779 -7.616125 1.530796,-2.693606 -7.403469 2.159329,-3.117494 -6.812164 2.702693,-2.984618 -6.415395 3.185483,-2.542577 -6.122031 3.596035,-2.859335 -5.055925 2.735108,-3.022402 -4.292747 3.403711,-3.094826 -3.688942 3.754883,-3.135151 -3.049751 3.997908,-2.359602 -4.781597 2.709391,-2.344939 -5.294145 3.50347,-2.344939 -5.294145 3.50347,-2.431254 -6.737883 3.631082,-1.89441 -4.900352 2.749673,-1.95364 -5.783753 3.509436,-2.121725 -6.640634 3.532105,-2.285878 -7.128667 3.368176,-1.500842 -5.260198 2.840508,-1.52195 -5.704072 3.238241,-1.729234 -6.424173 3.152477,-1.935622 -6.838064 2.979561,-8.57399 -8.067495 0.7444435,-7.962871 -7.835866 1.353127,-7.37726 -7.149182 2.015481,-7.281193 -6.57055 2.65135,-7.720018 -6.205408 3.283443,-7.605448 -5.107624 1.503975,-7.426613 -3.932037 2.134136,-7.338264 -3.141745 2.570224,-7.263406 -2.444227 2.888837,-8.118453 -5.041635 1.647794,-8.029107 -4.790725 2.596947,-7.95451 -5.941366 2.896543,-7.927971 -6.714506 2.884847,-8.597366 -5.276714 1.863471,-8.514303 -5.274513 2.715647,-8.345304 -6.317673 2.78655,-8.249774 -6.987827 2.640311,-9.038911 -5.695568 2.148595,-8.956419 -5.63451 2.737657,-8.745555 -6.399696 2.850631,-8.592136 -6.917141 2.773141,4.210, 2
-1.983796 -7.727148 1.251844,-2.516939 -7.538416 1.91323,-2.947751 -6.990482 2.444045,-2.868145 -6.532368 2.928721,-2.484138 -6.170009 3.335776,-2.726953 -5.235075 2.397648,-2.912457 -4.33617 3.02212,-2.981045 -3.74377 3.383364,-3.036298 -3.131283 3.65964,-2.242664 -4.972219 2.399514,-2.264073 -5.270591 3.245447,-2.264073 -5.270591 3.245447,-2.335151 -6.681011 3.537823,-1.790264 -5.054981 2.466073,-1.853906 -5.926751 3.268859,-1.977159 -6.763032 3.342656,-2.137015 -7.232459 3.239181,-1.401524 -5.358154 2.593515,-1.428536 -5.654368 3.053283,-1.605854 -6.294048 3.031861,-1.795457 -6.693609 2.946998,-8.512951 -8.067408 0.8011671,-7.913637 -7.838262 1.397493,-7.324847 -7.16798 2.037265,-7.224392 -6.624707 2.661997,-7.649076 -6.25822 3.27413,-7.561593 -5.098657 1.492163,-7.376016 -3.938818 2.064724,-7.269866 -3.18703 2.419856,-7.175885 -2.529436 2.678436,-8.072377 -5.004297 1.64142,-7.964423 -4.808192 2.532701,-7.898135 -5.912065 2.81884,-7.88686 -6.674675 2.806262,-8.545792 -5.228164 1.867144,-8.437574 -5.383142 2.740459,-8.27845 -6.402626 2.829864,-8.202349 -7.064153 2.678735,-8.987132 -5.667697 2.154696,-8.870138 -5.676225 2.759327,-8.669596 -6.419336 2.890808,-8.536969 -6.954723 2.818742,4.310, 2
-1.910504 -7.930779 1.322093,-2.43155 -7.749444 1.896634,-2.871768 -7.209558 2.386002,-2.85291 -6.722162 2.857451,-2.477182 -6.348299 3.258756,-2.623233 -5.451032 2.441895,-2.800449 -4.5878 3.15039,-2.866882 -4.023841 3.565047,-2.899822 -3.435035 3.828774,-2.15111 -5.150301 2.464453,-2.141097 -5.641506 3.293233,-2.141097 -5.641506 3.293233,-2.265013 -7.029601 3.561759,-1.707066 -5.253878 2.538385,-1.764846 -6.177223 3.294178,-1.920758 -6.941377 3.344599,-2.078529 -7.323929 3.232327,-1.331659 -5.563675 2.667563,-1.371024 -6.011316 3.103726,-1.582148 -6.608808 3.075714,-1.786411 -6.949199 2.976552,-8.55591 -8.11879 1.193512,-7.992881 -7.945446 1.743467,-7.39399 -7.313068 2.378867,-7.257464 -6.786084 3.01445,-7.657538 -6.41045 3.622334,-7.614161 -5.095964 1.878024,-7.433086 -3.97196 2.503133,-7.331202 -3.270961 2.869211,-7.240184 -2.694197 3.106446,-8.118113 -4.938451 2.034806,-8.006471 -4.967737 2.915641,-7.953794 -6.067314 3.170982,-7.968879 -6.768262 3.123497,-8.578159 -5.181704 2.262347,-8.470964 -5.602159 3.067507,-8.335443 -6.594238 3.113936,-8.28342 -7.129608 2.95699,-9.005661 -5.651191 2.556155,-8.884382 -5.957593 3.099589,-8.703427 -6.695863 3.224475,-8.599383 -7.108184 3.158218,4.410, 2
-1.901856 -7.987008 1.271249,-2.429094 -7.781804 1.852966,-2.870386 -7.213587 2.339631,-2.814593 -6.773782 2.817437,-2.415439 -6.44395 3.212241,-2.639733 -5.497646 2.320758,-2.79022 -4.655565 3.010991,-2.84898 -4.091976 3.396558,-2.875709 -3.516277 3.650263,-2.168357 -5.189678 2.325024,-2.159547 -5.767452 3.099191,-2.159547 -5.767452 3.099191,-2.291776 -7.128555 3.2043,-1.72324 -5.300111 2.402255,-1.763658 -6.176832 3.090167,-1.91006 -6.954832 3.103484,-2.055583 -7.310122 2.987567,-1.343082 -5.610586 2.544197,-1.3557 -5.92131 2.932938,-1.550791 -6.540703 2.907104,-1.731858 -6.880452 2.815105,-8.597236 -8.143988 1.12342,-8.016817 -7.986885 1.600547,-7.41842 -7.337383 2.208093,-7.30215 -6.790837 2.822527,-7.695471 -6.427902 3.407427,-7.649964 -5.17522 1.801733,-7.474012 -4.046236 2.425484,-7.366809 -3.328426 2.790582,-7.268093 -2.738552 3.038159,-8.149491 -4.989687 1.978743,-8.024883 -5.067268 2.860269,-7.973268 -6.128956 3.0914,-7.99238 -6.760545 3.045871,-8.600412 -5.213512 2.230101,-8.473322 -5.690271 3.027142,-8.353694 -6.647434 3.050722,-8.315095 -7.107677 2.904335,-9.022848 -5.653658 2.539454,-8.873763 -5.982889 3.047564,-8.700236 -6.717297 3.146199,-8.608342 -7.072043 3.082435,4.510, 2
-1.889252 -7.997538 1.100332,-2.374438 -7.762983 1.679983,-2.795182 -7.189012 2.14989,-2.71207 -6.717323 2.584709,-2.338147 -6.335674 2.942532,-2.57813 -5.545345 2.130672,-2.72515 -4.732225 2.758602,-2.794222 -4.171712 3.129422,-2.81774 -3.602858 3.39968,-2.137248 -5.233232 2.106845,-2.1196 -5.815298 2.814353,-2.1196 -5.815298 2.814353,-2.251754 -7.206392 2.842119,-1.711431 -5.326417 2.156356,-1.720334 -6.08384 2.780162,-1.847596 -6.868712 2.747857,-1.989939 -7.227402 2.618329,-1.345333 -5.603156 2.273885,-1.329099 -5.901639 2.648002,-1.513684 -6.550907 2.612027,-1.690016 -6.895357 2.519088,-8.576408 -8.138329 0.5837479,-7.988214 -7.916408 1.035841,-7.406424 -7.250331 1.594849,-7.262577 -6.683969 2.165434,-7.650181 -6.371055 2.775546,-7.652523 -5.248727 1.129425,-7.444784 -4.224573 1.651266,-7.34194 -3.5249 2.044042,-7.253929 -2.924703 2.351532,-8.134209 -5.109636 1.304653,-7.988937 -4.946596 2.037796,-7.914507 -5.961243 2.374074,-7.905552 -6.715387 2.478689,-8.575318 -5.31612 1.546395,-8.417674 -5.511548 2.271357,-8.269561 -6.486323 2.422717,-8.203783 -7.130531 2.384608,-8.992072 -5.711769 1.835475,-8.813977 -5.831356 2.359581,-8.621568 -6.571934 2.502435,-8.499711 -7.060335 2.486027,4.610, 2
-1.885778 -7.862363 0.7660833,-2.366023 -7.641143 1.295444,-2.78771 -7.073375 1.745953,-2.742183 -6.539349 2.186571,-2.39148 -6.11708 2.577906,-2.560822 -5.442221 1.682556,-2.707986 -4.607601 2.261057,-2.778464 -4.00629 2.60323,-2.814344 -3.407367 2.842174,-2.127062 -5.169518 1.688804,-2.10069 -5.662315 2.389349,-2.10069 -5.662315 2.389349,-2.211439 -7.098205 2.527135,-1.720906 -5.26229 1.751541,-1.759238 -5.987549 2.40217,-1.863664 -6.760604 2.437751,-1.998946 -7.202871 2.321381,-1.361423 -5.547294 1.870864,-1.377282 -5.822484 2.283787,-1.537848 -6.484453 2.26751,-1.706102 -6.893785 2.152548,-8.537115 -8.07279 -0.08836266,-7.953591 -7.788187 0.2820343,-7.428535 -7.07983 0.731957,-7.341131 -6.435421 1.203516,-7.71375 -6.120429 1.699421,-7.666706 -5.280204 0.360083,-7.46647 -4.194995 0.8262585,-7.344823 -3.470932 1.180508,-7.234862 -2.861701 1.443275,-8.131363 -5.215841 0.5370129,-7.956211 -4.859972 1.23139,-7.897879 -5.864551 1.516997,-7.922887 -6.64156 1.573093,-8.553148 -5.416233 0.7815444,-8.361145 -5.367977 1.445666,-8.240192 -6.313724 1.589061,-8.222009 -6.971937 1.528604,-8.951806 -5.77289 1.066031,-8.759129 -5.638649 1.547146,-8.587434 -6.345987 1.653544,-8.504605 -6.843595 1.614616,4.710, 2
-1.889151 -7.820343 0.5436921,-2.369937 -7.578409 1.0583,-2.786129 -6.989755 1.493853,-2.73475 -6.42933 1.933383,-2.388746 -5.994571 2.324619,-2.565819 -5.410923 1.396076,-2.708358 -4.555121 1.955292,-2.770564 -3.963533 2.292212,-2.813668 -3.366326 2.521808,-2.132945 -5.177616 1.414579,-2.117011 -5.598658 2.139165,-2.117011 -5.598658 2.139165,-2.209378 -7.056933 2.309062,-1.732384 -5.275675 1.485424,-1.782907 -5.94319 2.144707,-1.882566 -6.69339 2.193491,-2.017855 -7.155502 2.081535,-1.378645 -5.548378 1.608179,-1.414187 -5.841024 2.031061,-1.569821 -6.471591 2.027256,-1.731294 -6.878658 1.914936,-8.533134 -8.032814 -0.3424162,-7.95936 -7.727098 0.0157156,-7.434167 -7.017265 0.452324,-7.333892 -6.365421 0.9210893,-7.688444 -6.016351 1.40304,-7.672738 -5.296018 0.04961899,-7.467395 -4.168702 0.4894622,-7.343785 -3.424076 0.8142127,-7.232126 -2.788105 1.048527,-8.122601 -5.239951 0.2283964,-7.924747 -4.840408 0.922312,-7.887392 -5.851823 1.191122,-7.92834 -6.602662 1.212899,-8.534236 -5.421002 0.4763248,-8.328037 -5.29487 1.147438,-8.227407 -6.245256 1.285429,-8.222875 -6.894414 1.204884,-8.930653 -5.74291 0.7580562,-8.715951 -5.530939 1.243115,-8.563887 -6.238313 1.348683,-8.501257 -6.745868 1.299046,4.810, 2
-1.922639 -7.748355 0.09534474,-2.38312 -7.609183 0.6536866,-2.794612 -7.051664 1.095346,-2.752974 -6.49121 1.511818,-2.415469 -6.04995 1.883515,-2.593812 -5.488691 0.9735149,-2.717292 -4.682476 1.492441,-2.772832 -4.078553 1.821057,-2.812853 -3.465473 2.067141,-2.177402 -5.240934 0.9619705,-2.126474 -5.60173 1.651393,-2.126474 -5.60173 1.651393,-2.210307 -7.054005 1.811975,-1.790344 -5.308269 1.007167,-1.804783 -5.968807 1.672642,-1.896493 -6.740432 1.724323,-2.031446 -7.210656 1.592722,-1.443624 -5.560535 1.102273,-1.453295 -5.868217 1.523272,-1.591457 -6.533908 1.490177,-1.748636 -6.94216 1.362124,-8.521405 -8.009674 -0.3610217,-7.96323 -7.707643 -0.04523751,-7.443857 -6.989929 0.3344571,-7.330544 -6.324401 0.7589093,-7.65173 -5.96468 1.189129,-7.6643 -5.277235 -0.1135262,-7.455574 -4.174245 0.3065802,-7.339509 -3.452316 0.5984845,-7.231009 -2.830723 0.7972299,-8.094597 -5.198001 0.05847484,-7.875017 -4.935838 0.7482417,-7.867681 -5.968486 0.9811651,-7.92451 -6.661873 0.9367644,-8.485233 -5.375007 0.309585,-8.259557 -5.319352 0.9583521,-8.190837 -6.258018 1.070613,-8.203057 -6.836168 0.9651115,-8.856396 -5.691759 0.5930928,-8.604213 -5.576087 1.034381,-8.485125 -6.277644 1.105646,-8.45735 -6.720222 1.026239,4.910, 2
-1.905685 -7.91683 -0.08355723,-2.366045 -7.777332 0.4164217,-2.760992 -7.20478 0.8186209,-2.747658 -6.641726 1.221409,-2.437672 -6.245069 1.575292,-2.58629 -5.684218 0.7166227,-2.728455 -4.896523 1.263628,-2.778113 -4.357928 1.621353,-2.803177 -3.799903 1.862206,-2.18999 -5.451822 0.7386148,-2.151983 -5.758188 1.443691,-2.151983 -5.758188 1.443691,-2.231787 -7.115623 1.628758,-1.805383 -5.529008 0.8191708,-1.793262 -6.056821 1.437127,-1.882397 -6.804925 1.469874,-1.990939 -7.187395 1.391402,-1.452729 -5.750174 0.9512715,-1.426406 -5.955262 1.335024,-1.564378 -6.555608 1.34296,-1.693391 -6.891178 1.298365,-8.512702 -8.12812 -0.3528486,-7.947756 -7.873249 -0.04619405,-7.407113 -7.192293 0.3359896,-7.305062 -6.564998 0.7476469,-7.641521 -6.218332 1.161158,-7.614539 -5.468458 -0.07810652,-7.400728 -4.458985 0.3719078,-7.286212 -3.79866 0.7051874,-7.174775 -3.2345 0.95672,-8.039183 -5.324073 0.08275682,-7.799072 -5.188574 0.7717099,-7.799854 -6.202896 0.9985147,-7.855971 -6.856382 0.9812772,-8.417051 -5.475793 0.3254051,-8.187167 -5.53292 0.9740914,-8.136646 -6.473782 1.050642,-8.151848 -7.029281 0.9480417,-8.786922 -5.77571 0.6050389,-8.529505 -5.778381 1.037486,-8.418571 -6.498008 1.093924,-8.390835 -6.923261 1.008888,5.010, 2
-1.907963 -7.977193 -0.05153813,-2.368667 -7.81767 0.4962711,-2.769815 -7.263368 0.9047102,-2.761228 -6.696016 1.291196,-2.44387 -6.303452 1.621257,-2.5651 -5.75918 0.8296667,-2.713186 -5.011741 1.357316,-2.784374 -4.487733 1.69746,-2.830337 -3.948172 1.951925,-2.170824 -5.515607 0.8161957,-2.13668 -5.852252 1.473903,-2.13668 -5.852252 1.473903,-2.219741 -7.212671 1.599548,-1.797801 -5.598326 0.8704786,-1.79283 -6.099525 1.489041,-1.886286 -6.8332 1.5107,-1.985326 -7.24628 1.433399,-1.456788 -5.837624 0.9834356,-1.410417 -5.790897 1.382882,-1.536805 -6.313846 1.412264,-1.653082 -6.674415 1.381046,-8.53285 -8.175398 -0.3444573,-7.982303 -7.91831 -0.08437154,-7.439745 -7.288948 0.2970439,-7.303741 -6.720241 0.7171682,-7.601881 -6.367692 1.151159,-7.650434 -5.560848 -0.04456678,-7.420498 -4.64372 0.4093972,-7.285147 -4.045077 0.7675207,-7.15516 -3.552763 1.048855,-8.071058 -5.375768 0.1448785,-7.813676 -5.24286 0.7961826,-7.810386 -6.196997 1.04923,-7.870993 -6.866466 1.071209,-8.445831 -5.500339 0.4111476,-8.210141 -5.629364 1.03902,-8.153684 -6.541762 1.135562,-8.16813 -7.127934 1.053749,-8.808227 -5.794644 0.7020204,-8.558155 -5.847398 1.156571,-8.431649 -6.550819 1.227269,-8.386176 -6.99525 1.140824,5.110, 2
-1.873865 -7.929983 -0.2007501,-2.336668 -7.752382 0.2453948,-2.765439 -7.256616 0.611451,-2.758906 -6.727466 0.949641,-2.44311 -6.373281 1.250983,-2.560684 -5.799013 0.6375635,-2.706278 -5.179037 1.138853,-2.762554 -4.741672 1.448017,-2.797599 -4.28165 1.665885,-2.170487 -5.508092 0.6395348,-2.145617 -5.829896 1.232835,-2.145617 -5.829896 1.232835,-2.209266 -7.113533 1.419126,-1.788127 -5.549673 0.6825524,-1.792748 -6.155838 1.236396,-1.863495 -6.874282 1.273307,-1.962903 -7.277753 1.196455,-1.43997 -5.766872 0.7713975,-1.441552 -6.017349 1.126882,-1.566791 -6.630674 1.11917,-1.692576 -6.993611 1.041898,-8.58165 -8.180866 -0.5752768,-8.017852 -7.920599 -0.310331,-7.448201 -7.398414 0.0672124,-7.284805 -6.866759 0.4884049,-7.593849 -6.491064 0.9118483,-7.661054 -5.676157 -0.3171582,-7.446003 -4.951812 0.1673579,-7.291705 -4.603536 0.5276822,-7.125324 -4.374399 0.763142,-8.061542 -5.447748 -0.1575397,-7.80868 -5.368684 0.454561,-7.792385 -6.249723 0.7540348,-7.854714 -6.869945 0.8231982,-8.430549 -5.545107 0.07460833,-8.196881 -5.81635 0.6548463,-8.158334 -6.683428 0.8004452,-8.19837 -7.191865 0.7551039,-8.792455 -5.823493 0.3359309,-8.545977 -5.989603 0.7851675,-8.428477 -6.659326 0.8964472,-8.405509 -7.046611 0.8571569,5.210, 2
-1.81115 -7.876527 -0.5593598,-2.268974 -7.669234 -0.04489458,-2.649317 -7.214468 0.3356196,-2.621687 -6.677909 0.6799839,-2.355996 -6.268239 1.016107,-2.521378 -5.768576 0.2269119,-2.628982 -5.194064 0.6301571,-2.634068 -4.810438 0.8618431,-2.637899 -4.483332 1.040946,-2.14152 -5.542116 0.2045818,-2.151176 -5.52278 0.7812829,-2.151176 -5.52278 0.7812829,-2.184548 -6.590782 1.218065,-1.760322 -5.568603 0.2254705,-1.768414 -5.956872 0.8624636,-1.816049 -6.699399 1.019254,-1.90017 -7.261371 0.9823933,-1.390464 -5.796468 0.2908925,-1.429209 -5.845731 0.7788616,-1.545113 -6.440703 0.8641117,-1.669687 -6.899577 0.8317828,-8.527365 -8.045246 -0.6443673,-7.98611 -7.83818 -0.3589184,-7.442021 -7.354217 0.06064332,-7.283454 -6.852373 0.5038916,-7.59479 -6.468978 0.9718922,-7.630314 -5.574131 -0.2081313,-7.465677 -4.879405 0.3234632,-7.330236 -4.629666 0.7437924,-7.199744 -4.614082 1.037168,-8.027061 -5.35804 -0.06759828,-7.797709 -5.349477 0.5423832,-7.779172 -6.258323 0.8241223,-7.835976 -6.94934 0.9075242,-8.399456 -5.476534 0.1493762,-8.185157 -5.749679 0.6939716,-8.142738 -6.622039 0.8171657,-8.162797 -7.172498 0.7784462,-8.766858 -5.780862 0.3930304,-8.560534 -5.905563 0.8613729,-8.45018 -6.586818 0.9748507,-8.412453 -7.009193 0.9412113,5.310, 2
-1.755564 -7.654642 -0.4780985,-2.178549 -7.536767 0.03993356,-2.544519 -7.057332 0.4444788,-2.488725 -6.53762 0.829321,-2.218861 -6.131667 1.23452,-2.434839 -5.524333 0.337825,-2.489572 -5.015025 0.9232949,-2.468409 -4.722169 1.290131,-2.410047 -4.638198 1.499198,-2.044924 -5.295036 0.3004772,-1.967799 -5.595771 0.9553212,-1.967799 -5.595771 0.9553212,-2.069382 -6.94836 1.289657,-1.660055 -5.357734 0.3277088,-1.627569 -5.844843 0.9448135,-1.708335 -6.58956 1.000271,-1.824745 -7.024705 0.9052454,-1.312071 -5.599381 0.4016817,-1.302492 -5.789169 0.8537186,-1.440318 -6.399571 0.8771338,-1.59769 -6.74474 0.8121185,-8.433619 -7.78922 -0.8912727,-7.941988 -7.728789 -0.489856,-7.413266 -7.220699 0.03738153,-7.300366 -6.699815 0.5865854,-7.657305 -6.341081 1.176739,-7.562072 -5.38931 -0.2956254,-7.417525 -4.502943 0.4207424,-7.314254 -4.482513 0.933619,-7.307329 -4.881599 1.213768,-7.976057 -5.203588 -0.1700256,-7.778789 -5.11131 0.6095581,-7.754556 -6.002346 0.8941891,-7.809896 -6.583895 0.9168657,-8.371208 -5.355476 0.0391649,-8.155022 -5.633606 0.6791354,-8.108781 -6.51827 0.7602718,-8.137339 -6.943222 0.6830945,-8.746767 -5.675672 0.2892545,-8.501465 -5.893705 0.7319758,-8.388224 -6.58693 0.7651256,-8.372355 -6.886829 0.6655258,5.410, 1
-1.699 -7.623003 -0.4501272,-2.131049 -7.459672 0.1173208,-2.514349 -7.016155 0.5645032,-2.455762 -6.530945 0.9721267,-2.167562 -6.10512 1.376559,-2.379862 -5.523128 0.4585596,-2.479851 -4.907951 0.9826944,-2.464656 -4.593306 1.320423,-2.442264 -4.391683 1.58139,-1.964169 -5.290718 0.4374251,-1.893221 -5.404922 1.117193,-1.893221 -5.404922 1.117193,-1.873014 -6.329593 1.630936,-1.579461 -5.327141 0.4555522,-1.597334 -5.94911 1.11877,-1.704731 -6.687212 1.238096,-1.843176 -7.210821 1.160152,-1.246717 -5.547702 0.5310545,-1.279651 -5.890684 0.9639506,-1.425927 -6.494165 0.9416087,-1.591867 -6.882658 0.8267984,-8.432855 -7.680078 -0.85413,-7.927983 -7.586607 -0.4872153,-7.400918 -7.088254 0.004639626,-7.269929 -6.577829 0.5098231,-7.623677 -6.238132 1.053893,-7.583622 -5.26752 -0.3265787,-7.420523 -4.363213 0.3610046,-7.336348 -4.356851 0.8639582,-7.338453 -4.728595 1.151731,-7.985678 -5.062925 -0.203231,-7.785378 -5.092264 0.5539716,-7.778722 -6.011362 0.7944676,-7.823039 -6.595246 0.7843275,-8.367105 -5.194877 0.007596612,-8.169015 -5.451215 0.6377829,-8.126773 -6.340221 0.6966295,-8.126507 -6.842525 0.6124279,-8.734039 -5.498239 0.2590021,-8.507989 -5.667854 0.700448,-8.387662 -6.361319 0.7438816,-8.338781 -6.739747 0.6260163,5.510, 1
-1.736343 -7.650656 -0.156225,-2.158995 -7.449505 0.3879677,-2.526821 -6.989891 0.8210502,-2.455087 -6.562035 1.214008,-2.141309 -6.162157 1.591905,-2.375974 -5.507198 0.8113997,-2.492555 -4.979084 1.331842,-2.51581 -4.585691 1.651075,-2.524329 -4.169893 1.900918,-1.963286 -5.242221 0.7782705,-1.943317 -5.641274 1.406283,-1.943317 -5.641274 1.406283,-2.009634 -6.956549 1.679262,-1.579492 -5.309016 0.8001856,-1.610711 -5.975927 1.414021,-1.714053 -6.690067 1.502701,-1.829826 -7.163685 1.446001,-1.246603 -5.584609 0.8721273,-1.281351 -5.817608 1.248581,-1.430546 -6.379234 1.241442,-1.562307 -6.746274 1.162159,-8.44774 -7.643167 -0.991751,-7.9364 -7.554529 -0.6603498,-7.407504 -7.04071 -0.1882724,-7.276547 -6.524415 0.3052713,-7.622567 -6.208601 0.8499141,-7.594381 -5.248744 -0.5195154,-7.419378 -4.320003 0.1158186,-7.331012 -4.217006 0.6131123,-7.33086 -4.533023 0.9103762,-7.996757 -5.057921 -0.3812464,-7.800183 -5.001047 0.3271642,-7.785368 -5.879236 0.6002061,-7.829183 -6.509676 0.6311326,-8.374564 -5.189907 -0.1644607,-8.17211 -5.411272 0.4360431,-8.12388 -6.292228 0.5267825,-8.125569 -6.812435 0.4674019,-8.732869 -5.497159 0.08698726,-8.497457 -5.657928 0.5249901,-8.377123 -6.343524 0.5879209,-8.329695 -6.715663 0.5022609,5.610, 1
-1.717327 -7.58057 -0.4183175,-2.144933 -7.48109 0.1076295,-2.539818 -7.024591 0.5547737,-2.472727 -6.538763 0.9733282,-2.143584 -6.119386 1.358667,-2.403241 -5.532607 0.5289962,-2.536145 -4.945045 1.030967,-2.565869 -4.498546 1.325584,-2.572734 -4.006153 1.547119,-2.008842 -5.266082 0.5310129,-1.973991 -5.541207 1.16453,-1.973991 -5.541207 1.16453,-1.979288 -6.826858 1.429821,-1.622737 -5.298691 0.5781232,-1.618598 -5.893749 1.192766,-1.684816 -6.644666 1.277782,-1.783485 -7.095817 1.202747,-1.271528 -5.530501 0.6678345,-1.27324 -5.78203 1.051626,-1.405596 -6.391908 1.030758,-1.542503 -6.770248 0.9465874,-8.451529 -7.752624 -1.181501,-7.949636 -7.634628 -0.822141,-7.404391 -7.131434 -0.3886378,-7.273334 -6.611887 0.03515184,-7.599137 -6.231752 0.4660881,-7.599665 -5.442273 -0.7506185,-7.390694 -4.641927 -0.3490577,-7.274237 -4.141704 -0.01400006,-7.150923 -3.714827 0.2784811,-7.999187 -5.215732 -0.6071956,-7.785401 -5.075639 0.01570404,-7.74574 -5.959981 0.2932924,-7.77647 -6.676219 0.4022233,-8.379148 -5.300388 -0.3980545,-8.16892 -5.478605 0.2061591,-8.08113 -6.337676 0.342837,-8.074277 -6.974303 0.3258942,-8.75301 -5.559307 -0.1603146,-8.531658 -5.668097 0.3119255,-8.379759 -6.336307 0.4333019,-8.301529 -6.813877 0.4254581,5.710, 2
-1.716886 -7.616758 -0.2023393,-2.15445 -7.468959 0.3643733,-2.553065 -7.008649 0.8233646,-2.486298 -6.527214 1.229888,-2.16576 -6.087087 1.638129,-2.424584 -5.521842 0.7964435,-2.512045 -5.003459 1.355022,-2.492525 -4.657573 1.691293,-2.444052 -4.370302 1.943631,-2.010536 -5.244726 0.7697685,-1.920252 -5.453536 1.414642,-1.920252 -5.453536 1.414642,-1.892097 -6.535581 1.877295,-1.610857 -5.273014 0.7838965,-1.603254 -5.897087 1.41914,-1.695912 -6.677598 1.519872,-1.807827 -7.199089 1.459511,-1.254484 -5.521088 0.8521577,-1.280478 -5.870792 1.268682,-1.432538 -6.520833 1.244848,-1.585624 -6.90559 1.161319,-8.441466 -7.775499 -1.259062,-7.968686 -7.642431 -0.915448,-7.420726 -7.161582 -0.4978422,-7.252162 -6.652502 -0.07650936,-7.546012 -6.256174 0.3737633,-7.618366 -5.491934 -0.8963843,-7.428208 -4.719743 -0.5034679,-7.309452 -4.23365 -0.2058376,-7.182756 -3.850153 0.02936673,-7.999479 -5.245538 -0.7515743,-7.790645 -5.179433 -0.139465,-7.775548 -6.03384 0.1486893,-7.822317 -6.707934 0.2248383,-8.370511 -5.301364 -0.5440226,-8.15917 -5.570578 0.04444218,-8.092288 -6.406601 0.217775,-8.094576 -6.996852 0.1848993,-8.74292 -5.542417 -0.3040532,-8.518476 -5.722776 0.1585528,-8.388985 -6.378419 0.3091362,-8.329129 -6.821197 0.3027875,5.810, 2
-1.712694 -7.612268 -0.4944553,-2.133802 -7.481451 0.06249624,-2.52211 -7.018024 0.5051446,-2.454544 -6.533491 0.8910354,-2.14678 -6.10769 1.242756,-2.36822 -5.538341 0.4118038,-2.513043 -4.909538 0.842302,-2.533602 -4.44882 1.066066,-2.525954 -3.944816 1.252639,-1.97537 -5.292847 0.3917614,-1.915542 -5.359892 0.986524,-1.915542 -5.359892 0.986524,-1.78944 -6.076187 1.408879,-1.60216 -5.325485 0.4052413,-1.626723 -5.887489 1.050429,-1.707723 -6.63783 1.191101,-1.802393 -7.200632 1.121059,-1.264499 -5.582372 0.4678694,-1.316514 -5.927804 0.8762763,-1.464157 -6.547863 0.8627362,-1.608924 -6.969459 0.747057,-8.420494 -7.74971 -1.269566,-7.959427 -7.656658 -0.8867482,-7.415609 -7.193417 -0.4235212,-7.252578 -6.70099 0.03206038,-7.534624 -6.284349 0.5174593,-7.579326 -5.524821 -0.784958,-7.41502 -4.694404 -0.3659818,-7.317944 -4.116957 -0.04204834,-7.215336 -3.6113 0.2222407,-7.969978 -5.248785 -0.6527167,-7.778213 -5.242784 0.01005101,-7.76482 -6.116838 0.252357,-7.816629 -6.745157 0.2841321,-8.357255 -5.290025 -0.4606345,-8.180634 -5.567518 0.1324991,-8.109901 -6.419466 0.2570467,-8.104364 -6.982407 0.1876969,-8.743876 -5.519308 -0.2333412,-8.544785 -5.711848 0.215608,-8.419372 -6.382768 0.3228362,-8.361087 -6.804165 0.2769269,5.910, 2
-1.717863 -7.573752 -0.4232974,-2.155577 -7.459749 0.1367033,-2.542393 -7.019285 0.5836049,-2.453914 -6.559225 0.9944236,-2.134163 -6.113475 1.367157,-2.410313 -5.516372 0.5147954,-2.549767 -4.868692 0.9883046,-2.581494 -4.408428 1.276569,-2.589578 -3.915488 1.5061,-2.013529 -5.25141 0.5013129,-1.977076 -5.555981 1.143895,-1.977076 -5.555981 1.143895,-1.977468 -6.838718 1.461674,-1.632647 -5.274623 0.5302536,-1.631598 -5.936706 1.139335,-1.697983 -6.674104 1.25478,-1.80233 -7.150381 1.19727,-1.284988 -5.484809 0.6029129,-1.290968 -5.77053 0.9842019,-1.415414 -6.391098 0.9738243,-1.548543 -6.791077 0.8908815,-8.444005 -7.703435 -1.344522,-7.957835 -7.660892 -0.9484068,-7.406589 -7.147218 -0.5081183,-7.256966 -6.629051 -0.07637835,-7.585256 -6.23861 0.3608944,-7.593521 -5.457948 -0.8691673,-7.376139 -4.537701 -0.4620728,-7.257748 -3.929136 -0.1527604,-7.15781 -3.399269 0.1275388,-7.99472 -5.227493 -0.7163563,-7.770013 -5.132703 -0.06789017,-7.732168 -5.999592 0.2011114,-7.772421 -6.677255 0.2870004,-8.384582 -5.302833 -0.5031662,-8.148884 -5.55347 0.1549519,-8.062185 -6.40245 0.310414,-8.061442 -7.033001 0.2882214,-8.759974 -5.564127 -0.2569828,-8.51392 -5.761388 0.2340782,-8.369531 -6.422906 0.3691999,-8.302017 -6.898101 0.3548983,6.010, 2
-1.716535 -7.56883 -0.4009797,-2.158129 -7.459349 0.1166093,-2.549359 -7.020721 0.5499796,-2.47641 -6.568478 0.9531126,-2.152896 -6.167649 1.323176,-2.410228 -5.512333 0.5210747,-2.55674 -4.862842 1.016409,-2.595486 -4.413562 1.307702,-2.605482 -3.935711 1.520788,-2.016346 -5.237628 0.5172771,-1.975798 -5.569244 1.147842,-1.975798 -5.569244 1.147842,-1.987673 -6.827272 1.449814,-1.635735 -5.269567 0.5488576,-1.641583 -5.957239 1.12802,-1.707023 -6.678054 1.227578,-1.809379 -7.117152 1.169671,-1.296411 -5.486631 0.6266149,-1.315202 -5.828733 0.9826652,-1.444149 -6.431043 0.9646466,-1.579032 -6.80684 0.8774923,-8.449081 -7.726388 -1.219187,-7.959095 -7.651727 -0.8316773,-7.415843 -7.139328 -0.3924668,-7.275336 -6.615579 0.03702152,-7.605702 -6.235788 0.4786841,-7.582994 -5.432105 -0.7463402,-7.369173 -4.518028 -0.3442514,-7.253425 -3.911901 -0.02318537,-7.148172 -3.389221 0.2570521,-7.990207 -5.212206 -0.6010778,-7.779218 -5.063287 0.005529284,-7.728518 -5.907521 0.2936474,-7.753448 -6.590244 0.4177299,-8.379051 -5.296553 -0.3987462,-8.151944 -5.537124 0.2215209,-8.055715 -6.37428 0.3834455,-8.050653 -6.997181 0.3754885,-8.750429 -5.570409 -0.1637167,-8.508336 -5.735247 0.3198711,-8.358714 -6.393031 0.4523741,-8.288157 -6.862938 0.4391247,6.110, 2
-1.715995 -7.583501 -0.3735943,-2.159689 -7.472087 0.143408,-2.557633 -7.032438 0.5780649,-2.492611 -6.580869 0.9911205,-2.163751 -6.154458 1.368321,-2.418577 -5.507589 0.4999496,-2.559516 -4.892586 0.9966481,-2.609773 -4.447406 1.308057,-2.628424 -3.986269 1.541838,-2.028728 -5.228136 0.4990366,-1.980405 -5.642917 1.144229,-1.980405 -5.642917 1.144229,-2.002964 -6.971294 1.402472,-1.648485 -5.265926 0.5442615,-1.638371 -5.879375 1.102288,-1.702198 -6.611179 1.171749,-1.805599 -7.053964 1.098023,-1.306062 -5.476108 0.6402899,-1.299923 -5.73843 0.9961619,-1.424253 -6.346366 0.9990366,-1.560031 -6.73193 0.9261322,-8.455059 -7.762886 -1.146594,-7.961071 -7.658379 -0.7922338,-7.420854 -7.131287 -0.3604116,-7.289333 -6.627543 0.07826781,-7.61584 -6.266918 0.5382562,-7.601366 -5.439987 -0.7029294,-7.378041 -4.5291 -0.2867524,-7.251058 -3.923149 0.03816032,-7.137121 -3.413307 0.3205419,-8.006448 -5.222351 -0.5403417,-7.785165 -5.187425 0.1066471,-7.755118 -6.062782 0.3848237,-7.791985 -6.75107 0.4740946,-8.390942 -5.315872 -0.3205016,-8.15878 -5.594417 0.3212457,-8.07956 -6.43074 0.4681242,-8.078141 -7.065855 0.4435633,-8.758904 -5.584619 -0.07039547,-8.518476 -5.776922 0.4046602,-8.374795 -6.434077 0.5317013,-8.302521 -6.910738 0.5143086,6.210, 2
-1.687732 -7.67077 -0.4002336,-2.132085 -7.602 0.0929507,-2.548617 -7.163446 0.526134,-2.527271 -6.72687 0.9518486,-2.191681 -6.325588 1.315676,-2.404198 -5.623763 0.47645,-2.585152 -4.9851 0.9977623,-2.653178 -4.544245 1.293181,-2.67892 -4.087682 1.490625,-2.019974 -5.334381 0.4939877,-1.986935 -5.731819 1.144186,-1.986935 -5.731819 1.144186,-2.028715 -6.977502 1.342706,-1.639965 -5.367243 0.5653856,-1.646171 -6.04178 1.153144,-1.729624 -6.740766 1.203414,-1.831456 -7.135644 1.117726,-1.294971 -5.578194 0.6879119,-1.30983 -5.818882 1.028474,-1.446666 -6.377004 1.036317,-1.577599 -6.72585 0.9776886,-8.489847 -7.809333 -1.294638,-7.98055 -7.755583 -0.9940298,-7.416807 -7.233401 -0.6008896,-7.300149 -6.700508 -0.197225,-7.630669 -6.28753 0.2147541,-7.578084 -5.566205 -0.8972619,-7.347648 -4.642486 -0.4872332,-7.209197 -4.045566 -0.1549995,-7.077481 -3.525319 0.1368138,-7.974051 -5.320199 -0.7126091,-7.74072 -5.264688 -0.1057775,-7.717633 -6.132152 0.1525716,-7.766969 -6.799181 0.2333914,-8.355195 -5.393753 -0.4757359,-8.125572 -5.64883 0.1394185,-8.065072 -6.484897 0.2724524,-8.075821 -7.099033 0.2474462,-8.726512 -5.637022 -0.2025247,-8.479297 -5.820953 0.24476,-8.35526 -6.486737 0.3515766,-8.302274 -6.966047 0.3200711,6.310, 2
-1.646938 -7.666977 -1.496532,-2.111683 -7.648227 -0.9790601,-2.522295 -7.249671 -0.6120482,-2.566771 -6.765216 -0.2915245,-2.298135 -6.405086 -0.003005624,-2.455755 -5.868143 -0.7002013,-2.685745 -5.083353 -0.3828133,-2.785379 -4.57422 -0.2096597,-2.860719 -4.097518 -0.07153869,-2.080662 -5.641935 -0.7236286,-2.081231 -5.480316 -0.1887155,-2.081231 -5.480316 -0.1887155,-2.017893 -6.522459 0.2491969,-1.710879 -5.621101 -0.719169,-1.715227 -5.819881 -0.1334549,-1.721773 -6.46617 0.09325457,-1.757527 -7.009284 0.1170286,-1.349797 -5.737026 -0.6881189,-1.374579 -5.576921 -0.2436149,-1.444625 -6.048791 -0.09525192,-1.51875 -6.481778 -0.07707894,-8.536515 -7.89254 -1.439311,-8.015468 -7.890205 -1.118756,-7.422838 -7.506622 -0.6773626,-7.199607 -7.128601 -0.2028836,-7.44233 -6.744906 0.2729458,-7.516138 -5.761693 -1.035586,-7.228843 -4.838745 -0.6503689,-7.036634 -4.246429 -0.3253677,-6.850775 -3.717243 -0.01397705,-7.907089 -5.479653 -0.8319601,-7.611531 -5.290145 -0.2661082,-7.550961 -6.104002 -0.002838492,-7.588607 -6.734636 0.09366131,-8.291075 -5.514474 -0.5584812,-8.01506 -5.790816 0.05883026,-7.950721 -6.614763 0.2206931,-7.973736 -7.188964 0.2273377,-8.653876 -5.738588 -0.2614626,-8.37738 -5.933303 0.1922572,-8.258021 -6.570924 0.3058985,-8.219381 -7.031396 0.3055325,6.410, 2
-1.522033 -7.524444 -1.905785,-2.108147 -7.72192 -1.727126,-2.638611 -7.570332 -1.436859,-2.922961 -7.312946 -1.101667,-2.917051 -7.014421 -0.7901485,-2.684062 -6.03944 -1.514991,-3.058083 -5.401527 -1.1299,-3.30031 -5.010143 -0.8543699,-3.512494 -4.608579 -0.6731857,-2.334786 -5.676841 -1.350612,-2.553429 -6.148223 -0.7832614,-2.553429 -6.148223 -0.7832614,-2.356225 -7.188339 -0.5065144,-1.973966 -5.657363 -1.161572,-2.154011 -6.151618 -0.6897703,-2.101451 -6.746727 -0.5421152,-2.026452 -7.056346 -0.5147905,-1.601821 -5.758171 -0.9603822,-1.781437 -6.105829 -0.6344099,-1.822716 -6.623985 -0.5237696,-1.810769 -6.920982 -0.4817165,-8.795086 -8.021128 -2.34715,-8.05241 -8.130661 -2.369757,-7.449052 -7.999044 -2.124461,-7.09809 -7.758182 -1.791867,-7.058702 -7.334507 -1.476511,-7.321093 -6.362487 -2.253143,-6.867411 -5.642917 -1.872368,-6.488075 -5.243612 -1.532034,-6.144646 -4.921518 -1.245031,-7.601788 -6.092083 -1.924467,-7.107388 -5.926761 -1.290719,-6.992174 -6.675076 -0.8674279,-7.074429 -7.353933 -0.6827416,-7.917633 -6.046112 -1.564739,-7.453648 -5.96686 -1.037584,-7.324142 -6.685917 -0.7810938,-7.388022 -7.372528 -0.6727597,-8.254598 -6.181602 -1.200058,-7.86854 -6.133136 -0.8002284,-7.634912 -6.624907 -0.5926316,-7.557236 -7.181421 -0.4901736,6.510, 3
-1.681021 -7.742878 -1.92572,-2.119757 -7.976789 -1.778061,-2.56825 -7.715125 -1.480872,-2.844267 -7.470708 -1.121733,-3.071552 -7.273927 -0.7719535,-2.60472 -6.206451 -1.392753,-3.053378 -5.780975 -0.9447331,-3.440925 -5.388198 -0.5857687,-3.759193 -5.071482 -0.2988011,-2.345998 -5.912421 -1.173651,-2.836388 -6.70569 -0.6934661,-2.836388 -6.70569 -0.6934661,-2.525545 -7.995696 -0.951396,-2.050611 -5.990651 -0.8829305,-2.502415 -6.877405 -0.3464134,-2.423045 -7.603232 -0.4617008,-2.270812 -7.971373 -0.6252916,-1.770076 -6.265987 -0.5842329,-2.151643 -6.917983 -0.216616,-2.216622 -7.475734 -0.2985288,-2.154996 -7.800041 -0.3924817,-8.520225 -8.322636 -2.186924,-7.868822 -8.581882 -2.351124,-7.25404 -8.404852 -2.195469,-6.865357 -8.206137 -1.915285,-6.621958 -7.761571 -1.631681,-7.1333 -6.56334 -2.323522,-6.537594 -6.075797 -2.016814,-6.108912 -5.823747 -1.793828,-5.740083 -5.586898 -1.605994,-7.392358 -6.270998 -1.952053,-6.705037 -6.530161 -1.543573,-6.772358 -7.34526 -1.324216,-7.004336 -7.783914 -1.300917,-7.667944 -6.290267 -1.533934,-6.984984 -6.626277 -1.093108,-7.035202 -7.433122 -1.048313,-7.259918 -7.904088 -1.149428,-7.944776 -6.541053 -1.105698,-7.386337 -6.772266 -0.8099586,-7.251737 -7.345327 -0.8068012,-7.305796 -7.742031 -0.876281,6.610, 4
-1.619544 -7.898034 -1.440667,-2.060035 -8.034967 -1.316509,-2.510962 -7.761325 -0.9740909,-2.820946 -7.548675 -0.604825,-3.089178 -7.406085 -0.2440484,-2.462403 -6.147422 -0.8429562,-2.906758 -5.971988 -0.4777473,-3.287221 -5.626112 -0.2258217,-3.6008 -5.300159 0.008149981,-2.234912 -5.919488 -0.6266798,-2.826413 -6.80817 -0.2582626,-2.826413 -6.80817 -0.2582626,-2.537215 -8.170589 -0.653663,-1.982796 -6.084829 -0.3489585,-2.525762 -7.049955 0.1081585,-2.467057 -7.818962 -0.07639039,-2.29749 -8.215578 -0.2653799,-1.758049 -6.467266 -0.0560354,-2.207946 -7.127104 0.252375,-2.277017 -7.666484 0.1165813,-2.198804 -7.960963 0.001487374,-8.442599 -8.407398 -1.796546,-7.794641 -8.596153 -2.052146,-7.223894 -8.384184 -1.951722,-6.814389 -8.205187 -1.722383,-6.539931 -7.783683 -1.477735,-7.103375 -6.499887 -2.088633,-6.503882 -6.058954 -1.871766,-6.083866 -5.795671 -1.718156,-5.72089 -5.536827 -1.556761,-7.344833 -6.20351 -1.689148,-6.600304 -6.724945 -1.4336,-6.720835 -7.582054 -1.330184,-6.978349 -7.98871 -1.343857,-7.578288 -6.252662 -1.237779,-6.835651 -6.842561 -0.8906636,-6.999441 -7.693422 -0.91861,-7.281339 -8.126362 -1.051229,-7.804793 -6.56133 -0.7870227,-7.18476 -6.937901 -0.5320332,-7.164938 -7.546747 -0.6024904,-7.309884 -7.883384 -0.7272129,6.710, 4
-1.435852 -7.964759 -1.414352,-1.971729 -8.143501 -1.372965,-2.469251 -7.85942 -0.9833039,-2.842891 -7.625825 -0.5622792,-3.078077 -7.336681 -0.1618726,-2.438612 -6.252994 -0.9107745,-3.025605 -5.913181 -0.6205295,-3.412348 -5.536735 -0.4250369,-3.702808 -5.166152 -0.2134002,-2.180079 -6.010482 -0.6289707,-2.82579 -7.057365 -0.2718439,-2.82579 -7.057365 -0.2718439,-2.45274 -8.219303 -0.6926564,-1.926796 -6.186612 -0.3121581,-2.544497 -7.187528 0.0157994,-2.38953 -7.861961 -0.2417665,-2.188406 -8.02614 -0.3681622,-1.716363 -6.567977 0.006294489,-2.209506 -7.268639 0.1504568,-2.180554 -7.795173 -0.05721271,-2.054201 -7.951794 -0.1173066,-8.403814 -8.459538 -1.58008,-7.728252 -8.565268 -1.882476,-7.18784 -8.259808 -1.799529,-6.788459 -8.06617 -1.575659,-6.472087 -7.66253 -1.335736,-7.133787 -6.389394 -1.910585,-6.538776 -5.944661 -1.712297,-6.120911 -5.687688 -1.565067,-5.764307 -5.443985 -1.411691,-7.36964 -6.156 -1.498634,-6.557607 -6.604924 -1.297214,-6.658899 -7.499995 -1.248531,-6.909462 -7.922342 -1.288245,-7.576567 -6.284578 -1.042164,-6.765229 -6.785289 -0.7567582,-6.92043 -7.670587 -0.8344139,-7.206644 -8.09272 -0.984534,-7.755529 -6.671804 -0.5971545,-7.074256 -6.993268 -0.4076796,-7.072476 -7.574584 -0.5576568,-7.253644 -7.849456 -0.7081246,6.810, 4
-1.494596 -7.93987 -1.468848,-2.028203 -8.113832 -1.449601,-2.528827 -7.819515 -1.058052,-2.902265 -7.587537 -0.6292031,-3.121635 -7.27923 -0.2265887,-2.48152 -6.221824 -0.9841228,-3.04995 -5.793333 -0.6909203,-3.447515 -5.394829 -0.4723374,-3.741535 -5.013974 -0.2512521,-2.219604 -5.990955 -0.6964809,-2.886531 -7.04651 -0.341948,-2.886531 -7.04651 -0.341948,-2.500663 -8.13341 -0.711976,-1.978648 -6.173833 -0.3780428,-2.60885 -7.182188 -0.0728277,-2.441383 -7.83558 -0.3292327,-2.224326 -7.959362 -0.4429103,-1.780478 -6.55731 -0.05671155,-2.292458 -7.297925 0.04084444,-2.238688 -7.806294 -0.1964577,-2.086119 -7.921905 -0.2773452,-8.410901 -8.42453 -1.533787,-7.716887 -8.509682 -1.871911,-7.175443 -8.193787 -1.802701,-6.7676 -7.998325 -1.58539,-6.451115 -7.595544 -1.35181,-7.138041 -6.318564 -1.860358,-6.54039 -5.8353 -1.651021,-6.124772 -5.557811 -1.502115,-5.775965 -5.299448 -1.364232,-7.374696 -6.107662 -1.444789,-6.542722 -6.585487 -1.241155,-6.648808 -7.471022 -1.206564,-6.905348 -7.87364 -1.270249,-7.574946 -6.258527 -0.988129,-6.744226 -6.752623 -0.7147782,-6.895109 -7.616447 -0.8163419,-7.178181 -8.013695 -0.9895929,-7.745438 -6.663551 -0.5430899,-7.056602 -6.943798 -0.3803703,-7.040849 -7.4986 -0.5402465,-7.211375 -7.761898 -0.6999735,6.910, 4
-1.456496 -7.919331 -1.459205,-1.996611 -8.058525 -1.52494,-2.502132 -7.711311 -1.216257,-2.878158 -7.41649 -0.8532679,-3.128599 -7.115092 -0.5047141,-2.51487 -6.220037 -1.006624,-3.061018 -5.754755 -0.6287642,-3.477839 -5.347013 -0.3444264,-3.807868 -5.003355 -0.09244084,-2.256561 -5.995689 -0.6893054,-2.937717 -6.96405 -0.3097064,-2.937717 -6.96405 -0.3097064,-2.520913 -8.055876 -0.6691245,-2.013233 -6.146156 -0.3306242,-2.65652 -7.199874 0.04202878,-2.463407 -7.815025 -0.1890342,-2.233618 -7.953995 -0.3387597,-1.805981 -6.49122 0.03049982,-2.349549 -7.342582 0.1887382,-2.307987 -7.850879 -0.03995979,-2.161469 -7.99942 -0.1457715,-8.418813 -8.385178 -1.516952,-7.704082 -8.487602 -1.869069,-7.159345 -8.177444 -1.798211,-6.758728 -7.967393 -1.574474,-6.440661 -7.55998 -1.328847,-7.118635 -6.291003 -1.873346,-6.536691 -5.811573 -1.678553,-6.130465 -5.542133 -1.545821,-5.784637 -5.281744 -1.423773,-7.354775 -6.074911 -1.450153,-6.524199 -6.513553 -1.271967,-6.611763 -7.392637 -1.237288,-6.859003 -7.803932 -1.287785,-7.555319 -6.225346 -0.9896203,-6.720995 -6.70434 -0.727549,-6.860298 -7.570211 -0.8280046,-7.144446 -7.977726 -1.000949,-7.721127 -6.636892 -0.5397822,-7.020987 -6.921749 -0.3835486,-7.005614 -7.477217 -0.5480721,-7.186394 -7.73906 -0.7097198,7.010, 4
-1.593198 -8.042992 -1.2621,-2.145724 -8.122459 -1.312387,-2.57932 -7.717735 -1.054818,-2.880061 -7.355038 -0.7160387,-3.128559 -7.042243 -0.4302216,-2.483434 -6.14759 -0.9300035,-2.982157 -5.832772 -0.5191247,-3.433212 -5.437952 -0.246923,-3.796825 -5.088838 -0.03874934,-2.250904 -5.958999 -0.6215464,-2.934112 -6.873767 -0.2585433,-2.934112 -6.873767 -0.2585433,-2.595509 -8.034958 -0.7065997,-2.031835 -6.149099 -0.2543856,-2.677176 -7.141706 0.1453483,-2.522103 -7.861337 -0.1805565,-2.283258 -8.091475 -0.4447323,-1.861362 -6.53617 0.1165051,-2.390773 -7.347236 0.3591937,-2.377865 -7.879426 0.102766,-2.223197 -8.031424 -0.08328593,-8.406821 -8.395075 -1.492454,-7.695201 -8.480408 -1.860988,-7.144209 -8.144968 -1.813498,-6.742733 -7.919373 -1.612989,-6.425037 -7.528978 -1.390327,-7.115354 -6.28565 -1.846629,-6.513266 -5.817668 -1.652475,-6.107999 -5.540472 -1.523885,-5.763817 -5.269254 -1.396785,-7.35224 -6.07287 -1.423707,-6.500041 -6.520778 -1.234869,-6.601229 -7.396898 -1.19902,-6.861717 -7.797712 -1.253376,-7.552661 -6.22171 -0.9641398,-6.699678 -6.683816 -0.7060931,-6.846084 -7.539149 -0.8299549,-7.134686 -7.927871 -1.016657,-7.721807 -6.623929 -0.5181739,-7.019743 -6.881795 -0.3726737,-6.998411 -7.415848 -0.5506524,-7.170539 -7.656436 -0.720781,7.110, 4
-1.59914 -8.041477 -1.333543,-2.115469 -8.131592 -1.393276,-2.54958 -7.726245 -1.142897,-2.843775 -7.352407 -0.8016464,-3.104999 -7.045591 -0.4998271,-2.462698 -6.160022 -1.015123,-2.964616 -5.832645 -0.6128358,-3.415433 -5.439819 -0.3327757,-3.784376 -5.099009 -0.1160272,-2.248502 -5.972469 -0.7082604,-2.933895 -6.857929 -0.3573235,-2.933895 -6.857929 -0.3573235,-2.594475 -8.039896 -0.7833077,-2.042824 -6.161317 -0.3449088,-2.692682 -7.145433 0.04260993,-2.527056 -7.876379 -0.268986,-2.288101 -8.118303 -0.5175623,-1.877892 -6.540686 0.02129304,-2.401156 -7.361923 0.2408875,-2.363461 -7.900497 -0.01989603,-2.19774 -8.050102 -0.2055824,-8.403703 -8.377668 -1.429655,-7.691728 -8.461418 -1.768024,-7.147144 -8.134108 -1.695077,-6.751466 -7.914993 -1.473604,-6.431527 -7.514701 -1.225383,-7.109262 -6.255327 -1.770657,-6.52028 -5.772512 -1.565424,-6.113647 -5.488286 -1.426053,-5.770144 -5.207626 -1.301867,-7.344013 -6.038409 -1.350765,-6.509002 -6.466955 -1.141115,-6.595623 -7.367895 -1.081926,-6.844921 -7.789684 -1.129122,-7.546116 -6.182729 -0.891179,-6.70898 -6.641588 -0.6157684,-6.844525 -7.52287 -0.712405,-7.126207 -7.932315 -0.8866018,-7.716289 -6.587926 -0.4424059,-7.024206 -6.87322 -0.2771417,-7.013557 -7.441028 -0.4395432,-7.196536 -7.698509 -0.6056334,7.210, 4
-1.588309 -8.17679 -1.059467,-2.144464 -8.251167 -1.110219,-2.584576 -7.865251 -0.8395939,-2.906557 -7.527349 -0.4877941,-3.158352 -7.236007 -0.1787048,-2.472724 -6.207906 -0.7973081,-2.960833 -5.845106 -0.390137,-3.404602 -5.432464 -0.1153972,-3.762357 -5.098911 0.0982976,-2.249352 -6.013984 -0.4779447,-2.928134 -6.862342 -0.1085473,-2.928134 -6.862342 -0.1085473,-2.616461 -7.999429 -0.5043208,-2.037803 -6.203573 -0.09724271,-2.688864 -7.140855 0.3479332,-2.551786 -7.873533 0.0608443,-2.321238 -8.119242 -0.1874907,-1.877062 -6.601865 0.289134,-2.412972 -7.389812 0.5672287,-2.4094 -7.942726 0.3366225,-2.263329 -8.108999 0.162949,-8.42187 -8.371603 -1.33502,-7.696758 -8.419773 -1.720437,-7.152974 -8.071711 -1.660436,-6.773306 -7.858715 -1.439644,-6.466981 -7.471445 -1.187323,-7.143741 -6.200311 -1.688053,-6.56023 -5.703969 -1.491498,-6.149172 -5.427068 -1.368017,-5.806912 -5.15397 -1.253341,-7.378155 -5.99563 -1.253753,-6.539076 -6.353088 -1.070821,-6.604041 -7.258047 -1.035998,-6.846047 -7.683574 -1.097898,-7.571284 -6.15138 -0.7856025,-6.725926 -6.557594 -0.5467601,-6.84227 -7.440854 -0.6514562,-7.116185 -7.844282 -0.8104711,-7.724337 -6.566206 -0.3304058,-7.026049 -6.820961 -0.2025928,-7.014861 -7.389789 -0.3657139,-7.202914 -7.649833 -0.5190485,7.310, 4
-1.581132 -8.093328 -1.400503,-2.147882 -8.109669 -1.60869,-2.601772 -7.713351 -1.351022,-2.939279 -7.472051 -1.024081,-3.224949 -7.254272 -0.7286626,-2.495039 -6.190767 -1.069236,-3.073581 -5.742172 -0.8246714,-3.485952 -5.338045 -0.6377873,-3.793345 -4.932833 -0.417814,-2.270771 -6.081435 -0.7044292,-3.073858 -6.901069 -0.4799885,-3.073858 -6.901069 -0.4799885,-2.706544 -7.888929 -0.8977662,-2.095415 -6.33582 -0.3270602,-2.858765 -7.183057 -0.1165919,-2.669446 -7.774217 -0.4314097,-2.420076 -7.85135 -0.5720629,-1.964196 -6.780129 0.03695178,-2.589539 -7.470384 0.07783008,-2.500171 -7.915039 -0.1918123,-2.293337 -7.972476 -0.2904491,-8.322176 -8.221224 -0.7649103,-7.592403 -8.156509 -1.243608,-7.065961 -7.646745 -1.237209,-6.694443 -7.339413 -1.045148,-6.351457 -6.887986 -0.7970629,-7.216291 -5.766469 -1.273619,-6.677833 -5.204954 -1.177037,-6.276632 -4.874978 -1.087618,-5.938499 -4.556423 -0.9731641,-7.443686 -5.605741 -0.8007097,-6.55509 -5.726388 -0.703001,-6.527933 -6.629709 -0.6636681,-6.730584 -7.125447 -0.6847427,-7.618195 -5.77108 -0.3122934,-6.696542 -5.944923 -0.1557182,-6.713723 -6.878887 -0.2821974,-6.961802 -7.392751 -0.4523869,-7.723728 -6.197529 0.1593922,-6.961061 -6.229366 0.2480873,-6.856599 -6.79814 0.05494088,-7.008143 -7.147851 -0.09878486,7.410, 4
-1.642204 -8.169083 -1.014936,-2.242051 -8.169443 -1.292113,-2.687254 -7.710725 -1.092041,-3.023106 -7.419882 -0.8272408,-3.348026 -7.225582 -0.6154486,-2.538938 -6.084466 -0.7356738,-3.097253 -5.662536 -0.4877601,-3.507862 -5.265968 -0.3186394,-3.82519 -4.872463 -0.1167788,-2.298341 -6.018342 -0.3393703,-3.137891 -6.863699 -0.1170338,-3.137891 -6.863699 -0.1170338,-2.695643 -7.771964 -0.5441285,-2.133909 -6.332094 0.0688194,-2.953599 -7.1681 0.2495018,-2.742235 -7.728054 -0.1176316,-2.479723 -7.729017 -0.2842171,-2.01394 -6.822164 0.4685653,-2.678142 -7.490146 0.4611195,-2.588985 -7.931974 0.1651604,-2.372268 -7.932716 0.04782784,-8.219875 -8.238462 -0.5979581,-7.482051 -8.073112 -1.168612,-6.988048 -7.543655 -1.175367,-6.63194 -7.234886 -0.9530689,-6.301812 -6.829244 -0.6875637,-7.230556 -5.658894 -1.152607,-6.666552 -5.092649 -1.084911,-6.2445 -4.755588 -1.008705,-5.905586 -4.426942 -0.9082054,-7.42692 -5.546257 -0.6493362,-6.520532 -5.682176 -0.6536613,-6.494509 -6.460695 -0.6598032,-6.702223 -6.830899 -0.6675628,-7.534231 -5.761356 -0.1546329,-6.603329 -5.985658 -0.09827137,-6.627033 -6.826043 -0.2223473,-6.872728 -7.266906 -0.3299952,-7.553618 -6.218226 0.3271252,-6.749188 -6.374485 0.3313991,-6.709361 -6.944903 0.1196023,-6.91569 -7.254001 -0.03142273,7.510, 4
-1.724035 -8.284592 -0.8021172,-2.342643 -8.199198 -1.181375,-2.78594 -7.59865 -1.08849,-3.122482 -7.202381 -0.9198135,-3.449853 -6.873291 -0.8386285,-2.565939 -6.037501 -0.6632568,-3.161136 -5.59852 -0.4827153,-3.557852 -5.212551 -0.3448664,-3.858469 -4.796062 -0.1439083,-2.344914 -6.024429 -0.2472593,-3.245831 -6.774023 -0.1004599,-3.245831 -6.774023 -0.1004599,-2.815534 -7.636325 -0.436685,-2.229107 -6.362337 0.1791824,-3.098354 -7.132822 0.2687129,-2.874418 -7.688869 -0.07467139,-2.611914 -7.698471 -0.1848316,-2.165555 -6.881931 0.6043965,-2.859985 -7.508075 0.4824401,-2.72916 -7.959686 0.200811,-2.487537 -7.967325 0.1280184,-8.039752 -8.346987 -0.5261631,-7.274669 -8.144325 -1.346167,-6.86096 -7.459239 -1.480262,-6.58839 -7.037194 -1.375166,-6.356661 -6.60522 -1.218322,-7.150168 -5.69067 -1.081395,-6.612455 -4.997377 -1.097348,-6.235457 -4.625316 -1.120509,-5.938521 -4.319479 -1.083854,-7.322779 -5.611892 -0.5285528,-6.266347 -5.895035 -0.6209027,-6.306942 -6.718184 -0.7977556,-6.58381 -7.073541 -0.9074794,-7.379186 -5.895812 -0.01259649,-6.303436 -6.162757 -0.1354335,-6.393105 -6.999086 -0.4036141,-6.676802 -7.317565 -0.5421786,-7.349982 -6.391771 0.4650472,-6.470867 -6.604833 0.299963,-6.48892 -7.183259 -0.002212644,-6.739717 -7.416162 -0.1806861,7.610, 4
-1.809675 -8.330635 -0.6356184,-2.338547 -8.040812 -1.137076,-2.794917 -7.386342 -1.034085,-3.190779 -7.012368 -0.828065,-3.531284 -6.764275 -0.6809913,-2.524844 -5.91497 -0.5684035,-3.170498 -5.469244 -0.4447548,-3.589778 -5.073557 -0.3474437,-3.900967 -4.659923 -0.1762122,-2.359897 -5.9967 -0.1035238,-3.338723 -6.646142 -0.02742857,-3.338723 -6.646142 -0.02742857,-2.889317 -7.370611 -0.3585286,-2.315913 -6.390636 0.3536195,-3.236284 -7.063752 0.3360685,-3.021927 -7.587232 -0.02380717,-2.752165 -7.568341 -0.1222447,-2.328862 -6.934948 0.7985048,-3.066854 -7.510619 0.6018738,-2.922831 -7.943626 0.3285932,-2.675083 -7.932243 0.2825589,-7.921254 -8.396309 -0.3968491,-7.315998 -7.863678 -1.476627,-7.005829 -7.218271 -1.743002,-6.796438 -6.841939 -1.727621,-6.598313 -6.520227 -1.673025,-7.17778 -5.600111 -1.10436,-6.629394 -4.824417 -1.179307,-6.276172 -4.395957 -1.199584,-6.010823 -4.074248 -1.146216,-7.274467 -5.607175 -0.4868729,-6.228732 -5.851295 -0.7121066,-6.259312 -6.628273 -0.934516,-6.524509 -6.95016 -0.9991314,-7.237528 -5.9254 0.08119792,-6.212753 -6.151945 -0.1936132,-6.309407 -6.927976 -0.4814743,-6.588534 -7.198512 -0.5651551,-7.137752 -6.423156 0.5929953,-6.301616 -6.597263 0.3053206,-6.35852 -7.155334 -0.006276608,-6.613397 -7.379894 -0.1253433,7.710, 4
