TiagoOliveira98/Thesis-Project/Difficulty_1/Motor_Task/Unity_Project/DataLogging/JointData/Logs(1647318224)_Tiago_Motor.csv
WRIST,THUMB_CMC,THUMB_MCP,THUMB_IP,THUMB_TIP,INDEX_FINGER_MCP,INDEX_FINGER_PIP,INDEX_FINGER_DIP,INDEX_FINGER_TIP,MIDDLE_FINGER_MCP,MIDDLE_FINGER_PIP,MIDDLE_FINGER_DIP,MIDDLE_FINGER_TIP,RING_FINGER_MCP,RING_FINGER_PIP,RING_FINGER_DIP,RING_FINGER_TIP,PINKY_MCP,PINKY_PIP,PINKY_DIP,PINKY_TIP,WRIST2,THUMB_CMC2,THUMB_MCP2,THUMB_IP2,THUMB_TIP2,INDEX_FINGER_MCP2,INDEX_FINGER_PIP2,INDEX_FINGER_DIP2,INDEX_FINGER_TIP2,MIDDLE_FINGER_MCP2,MIDDLE_FINGER_PIP2,MIDDLE_FINGER_DIP2,MIDDLE_FINGER_TIP2,RING_FINGER_MCP2,RING_FINGER_PIP2,RING_FINGER_DIP2,RING_FINGER_TIP2,PINKY_MCP2,PINKY_PIP2,PINKY_DIP2,PINKY_TIP2,Timestamp,Event
-2.002675 -7.097663 -0.02548455,-2.501931 -6.79897 0.3211378,-2.911578 -6.19103 0.5212047,-3.196829 -5.705104 0.6886115,-3.462793 -5.376844 0.8631901,-2.435113 -4.778412 0.3832868,-2.535239 -3.820248 0.6493784,-2.596315 -3.247487 0.841041,-2.650809 -2.732105 0.9856778,-2.112464 -4.695133 0.4101921,-2.131174 -3.619126 0.7079842,-2.131174 -3.619126 0.7079842,-2.165707 -2.309083 1.079569,-1.814738 -4.83184 0.4922356,-1.775928 -3.851066 0.7940098,-1.772142 -3.188593 1.004187,-1.783628 -2.619553 1.167215,-1.528401 -5.169473 0.6051549,-1.385311 -4.427629 0.8538168,-1.30688 -3.934174 1.030704,-1.259129 -3.450288 1.186572,-8.102064 -7.235202 0.003042672,-7.618674 -6.997578 0.3088793,-7.225088 -6.377679 0.5721266,-6.979855 -5.855409 0.836525,-6.741388 -5.495007 1.117109,-7.707721 -5.019197 0.43399,-7.68865 -4.115173 0.7067431,-7.703484 -3.569596 0.9161873,-7.725239 -3.067861 1.052794,-8.031243 -4.938306 0.4921566,-8.03651 -3.929775 0.7187992,-8.05394 -3.25794 0.9628923,-8.077934 -2.643702 1.171513,-8.332237 -5.088874 0.5700364,-8.359921 -4.13594 0.7854847,-8.384748 -3.487257 0.9901421,-8.403313 -2.909429 1.165652,-8.6321 -5.424623 0.6749263,-8.75155 -4.662762 0.86503,-8.825351 -4.165102 1.01019,-8.874599 -3.678222 1.147619,0.010,20  0
-1.997523 -7.102513 -0.02979256,-2.501944 -6.798966 0.3088285,-2.912619 -6.201873 0.5095097,-3.194062 -5.718408 0.6815369,-3.457646 -5.372901 0.8616314,-2.426812 -4.780265 0.3661219,-2.534005 -3.821879 0.6276275,-2.597687 -3.253417 0.8150123,-2.65337 -2.741349 0.957373,-2.104413 -4.70054 0.4029173,-2.121705 -3.623825 0.6939079,-2.121705 -3.623825 0.6939079,-2.153061 -2.328242 1.054566,-1.808302 -4.84173 0.4959762,-1.767313 -3.856699 0.7942806,-1.762315 -3.18899 1.004673,-1.773692 -2.616075 1.170075,-1.524423 -5.183259 0.6205392,-1.378992 -4.435871 0.8677786,-1.300906 -3.937343 1.04462,-1.256526 -3.453719 1.199634,-8.110735 -7.222499 -0.03764796,-7.625845 -6.992173 0.2732718,-7.228814 -6.390565 0.5486187,-6.981203 -5.876945 0.8156106,-6.747557 -5.514083 1.095561,-7.710186 -5.034886 0.4486744,-7.68849 -4.116374 0.7391821,-7.707901 -3.554885 0.9551604,-7.733905 -3.034513 1.097446,-8.035595 -4.948678 0.5005236,-8.033542 -3.935177 0.7551281,-8.052436 -3.254356 1.007339,-8.078646 -2.634809 1.220006,-8.339773 -5.092958 0.5685468,-8.361123 -4.129787 0.8010596,-8.38488 -3.467326 1.013817,-8.39902 -2.878979 1.193995,-8.64425 -5.42016 0.6591826,-8.757751 -4.649036 0.8577184,-8.827183 -4.144359 1.010867,-8.872301 -3.650984 1.153644,0.110,20  0
-2.016458 -7.137323 -0.009651903,-2.516341 -6.814146 0.3432541,-2.909156 -6.211281 0.5430006,-3.180317 -5.70804 0.7072234,-3.433087 -5.358448 0.8764967,-2.413367 -4.81547 0.4153819,-2.522466 -3.869254 0.6778535,-2.584194 -3.309675 0.8593344,-2.634623 -2.79235 0.9943591,-2.098705 -4.731031 0.4368077,-2.124146 -3.671676 0.740935,-2.124146 -3.671676 0.740935,-2.153291 -2.394638 1.106259,-1.812514 -4.870067 0.5141321,-1.769015 -3.8964 0.8235991,-1.766788 -3.232976 1.044469,-1.778632 -2.654953 1.216695,-1.537056 -5.212968 0.6248581,-1.389135 -4.483635 0.8749508,-1.312724 -3.988898 1.060185,-1.262355 -3.50456 1.221442,-8.059668 -7.246808 0.04843039,-7.594004 -6.999839 0.323766,-7.225365 -6.39653 0.57708,-6.998901 -5.877096 0.834419,-6.755295 -5.50004 1.18605,-7.713528 -5.023495 0.5036982,-7.698217 -4.10991 0.780605,-7.721358 -3.551141 0.9966184,-7.749162 -3.03334 1.140201,-8.035945 -4.939947 0.5573713,-8.040024 -3.92995 0.7919999,-8.059177 -3.250056 1.038607,-8.084273 -2.63415 1.247456,-8.338018 -5.093336 0.6291058,-8.359526 -4.127336 0.8495188,-8.382292 -3.460666 1.063115,-8.396387 -2.871605 1.241709,-8.641395 -5.434792 0.7276112,-8.754558 -4.659327 0.9178408,-8.822964 -4.153075 1.070013,-8.867224 -3.666084 1.207551,0.210,20  0
-2.022895 -7.143488 -0.06553428,-2.517913 -6.828361 0.2895211,-2.910242 -6.219684 0.4815741,-3.17517 -5.710264 0.6372483,-3.428444 -5.368799 0.7914166,-2.406249 -4.840983 0.3641173,-2.505476 -3.907777 0.6169355,-2.560477 -3.341194 0.798857,-2.604546 -2.812498 0.9348422,-2.088218 -4.752491 0.3785065,-2.115452 -3.695247 0.6812728,-2.115452 -3.695247 0.6812728,-2.142402 -2.395171 1.044976,-1.797773 -4.889324 0.4467428,-1.753059 -3.913736 0.7526612,-1.74719 -3.255594 0.9622661,-1.755706 -2.671474 1.129793,-1.515903 -5.229036 0.544948,-1.372765 -4.48943 0.7973926,-1.295543 -3.990039 0.9773318,-1.249701 -3.500927 1.134503,-8.060808 -7.268219 0.07007612,-7.597242 -7.025629 0.3429804,-7.227275 -6.412008 0.5865051,-7.001576 -5.880548 0.8367871,-6.760148 -5.567633 1.121075,-7.69811 -5.018081 0.4363157,-7.679223 -4.127594 0.6589318,-7.701822 -3.574042 0.8480091,-7.725364 -3.060239 0.9791039,-8.027066 -4.937086 0.4886051,-8.039745 -3.935485 0.665477,-8.060178 -3.25302 0.8858595,-8.079829 -2.640254 1.087955,-8.334188 -5.087644 0.5594957,-8.354736 -4.143421 0.7217216,-8.37874 -3.486845 0.8958317,-8.393974 -2.911091 1.04887,-8.631512 -5.430149 0.657443,-8.751008 -4.664931 0.8074468,-8.827291 -4.156067 0.9344059,-8.876634 -3.664033 1.054311,0.310,20  0
-2.015571 -7.137173 -0.07890688,-2.50944 -6.81941 0.301713,-2.905794 -6.216772 0.5126219,-3.171745 -5.718048 0.6868567,-3.416908 -5.377952 0.8635912,-2.401104 -4.843044 0.3926713,-2.495409 -3.915103 0.6588838,-2.550648 -3.350904 0.8390232,-2.596457 -2.821413 0.972568,-2.083266 -4.757299 0.4022184,-2.103097 -3.70295 0.7147002,-2.103097 -3.70295 0.7147002,-2.127004 -2.407875 1.077613,-1.795391 -4.899889 0.4688844,-1.744958 -3.928255 0.7877972,-1.738736 -3.269172 1.004547,-1.747174 -2.684118 1.178112,-1.51906 -5.246473 0.5669425,-1.37076 -4.522972 0.8245856,-1.292888 -4.027185 1.008867,-1.244969 -3.544958 1.166204,-8.06499 -7.264183 0.06375581,-7.601004 -7.010747 0.3472119,-7.230295 -6.417245 0.6118947,-7.001471 -5.904814 0.8797708,-6.765114 -5.590534 1.181614,-7.700875 -5.017152 0.4676549,-7.685768 -4.122509 0.7159002,-7.706242 -3.573534 0.9218159,-7.726821 -3.055503 1.061069,-8.028898 -4.942297 0.5214506,-8.046897 -3.93181 0.719894,-8.068089 -3.256643 0.9479287,-8.088192 -2.644479 1.148514,-8.335855 -5.099254 0.5950408,-8.365896 -4.147056 0.7752094,-8.389955 -3.491874 0.9606493,-8.406995 -2.914894 1.124673,-8.634758 -5.447576 0.6944379,-8.752865 -4.68397 0.8571154,-8.82647 -4.172273 0.9958586,-8.874842 -3.674646 1.126381,0.410,20  0
-2.016489 -7.146879 -0.08214869,-2.508663 -6.830808 0.2874397,-2.900371 -6.227548 0.4919918,-3.167854 -5.725051 0.6592341,-3.417379 -5.377271 0.8314703,-2.401086 -4.853357 0.3690656,-2.496394 -3.917981 0.6242318,-2.555761 -3.34873 0.8030037,-2.605843 -2.821624 0.938682,-2.081042 -4.763771 0.3783977,-2.099805 -3.709009 0.6731622,-2.099805 -3.709009 0.6731622,-2.123672 -2.411525 1.020609,-1.78926 -4.902383 0.442861,-1.742937 -3.929977 0.7437597,-1.739008 -3.273345 0.9522235,-1.745065 -2.694744 1.117973,-1.507568 -5.239213 0.5384438,-1.361732 -4.502962 0.782393,-1.283039 -4.006275 0.9595333,-1.230414 -3.521482 1.112516,-8.062676 -7.280902 0.06586999,-7.596087 -7.037709 0.3352171,-7.227851 -6.426466 0.5849217,-7.003795 -5.901449 0.8441139,-6.763469 -5.590641 1.138074,-7.703546 -5.028839 0.4502273,-7.687008 -4.133745 0.6845385,-7.706767 -3.591703 0.8783527,-7.72793 -3.080333 1.011823,-8.032649 -4.955764 0.5104201,-8.050787 -3.945974 0.6984787,-8.070817 -3.264238 0.9245011,-8.090998 -2.645132 1.125716,-8.339197 -5.113136 0.5891353,-8.369585 -4.164332 0.7605028,-8.393126 -3.507143 0.9429089,-8.410208 -2.925916 1.105124,-8.637374 -5.458675 0.6933191,-8.758146 -4.687788 0.855531,-8.834648 -4.171159 0.9922017,-8.886312 -3.668874 1.120467,0.510,20  0
-2.007895 -7.146536 -0.04024912,-2.499552 -6.825532 0.3506995,-2.896835 -6.229021 0.5735845,-3.167422 -5.732482 0.7564241,-3.42208 -5.378644 0.9433848,-2.399773 -4.845153 0.4570337,-2.490316 -3.909092 0.7267267,-2.543996 -3.341173 0.9143984,-2.591194 -2.815931 1.054438,-2.077784 -4.760693 0.4662318,-2.098437 -3.708333 0.7808079,-2.098437 -3.708333 0.7808079,-2.122686 -2.410232 1.145862,-1.783169 -4.903546 0.5307,-1.737236 -3.932603 0.8473174,-1.732252 -3.27597 1.065994,-1.739882 -2.688602 1.239682,-1.499824 -5.247346 0.6274772,-1.360038 -4.519638 0.8865442,-1.284734 -4.019572 1.072974,-1.236782 -3.529933 1.234105,-8.078468 -7.282869 0.09207587,-7.606426 -7.035799 0.3542566,-7.231053 -6.431236 0.5972997,-7.004242 -5.89966 0.8490219,-6.765566 -5.588403 1.132247,-7.699984 -5.03171 0.4550489,-7.68201 -4.147703 0.6772578,-7.707114 -3.60939 0.8634732,-7.734265 -3.103123 0.9898329,-8.029724 -4.945863 0.5119628,-8.047631 -3.947543 0.6844542,-8.070204 -3.269633 0.9047211,-8.091816 -2.65751 1.105337,-8.334664 -5.093147 0.5864826,-8.36766 -4.16036 0.7447941,-8.393614 -3.5145 0.920994,-8.411553 -2.94569 1.078857,-8.628616 -5.433774 0.6871636,-8.75289 -4.68152 0.8356561,-8.828581 -4.173387 0.9640828,-8.877797 -3.674982 1.085955,0.610,20  0
-2.009252 -7.152833 -0.09453227,-2.505747 -6.839651 0.2926597,-2.900405 -6.2363 0.5075332,-3.16758 -5.726372 0.6802647,-3.416353 -5.375762 0.8529035,-2.391045 -4.865122 0.3796972,-2.48605 -3.92996 0.6393435,-2.541242 -3.359309 0.8203389,-2.584826 -2.831995 0.9562145,-2.072169 -4.776147 0.3804972,-2.095152 -3.721748 0.6847128,-2.095152 -3.721748 0.6847128,-2.118104 -2.431462 1.038345,-1.782626 -4.917156 0.4381062,-1.734356 -3.948229 0.7470881,-1.730289 -3.292797 0.9584361,-1.739304 -2.710934 1.126388,-1.505406 -5.259859 0.5276052,-1.359096 -4.536634 0.7763854,-1.282892 -4.043331 0.9557027,-1.235086 -3.561178 1.111875,-8.071558 -7.29932 0.04802705,-7.602891 -7.060757 0.2870867,-7.232983 -6.444378 0.5170264,-7.011485 -5.906271 0.7574243,-6.776953 -5.592661 1.032758,-7.706895 -5.054731 0.3773043,-7.689232 -4.16419 0.5904637,-7.709518 -3.614975 0.7751365,-7.730786 -3.100924 0.9042096,-8.037143 -4.969944 0.4397773,-8.05595 -3.96534 0.6084719,-8.077097 -3.278338 0.8266985,-8.097264 -2.659583 1.024245,-8.344324 -5.121662 0.5196213,-8.373919 -4.173217 0.6727612,-8.399211 -3.511448 0.8449482,-8.416409 -2.92938 1.001867,-8.641619 -5.467367 0.6226159,-8.7693 -4.705934 0.7644565,-8.847697 -4.192838 0.891592,-8.899656 -3.695049 1.014668,0.710,20  0
-2.000881 -7.19318 -0.08667216,-2.496609 -6.868614 0.2975758,-2.891839 -6.270192 0.5094389,-3.155664 -5.762824 0.684939,-3.401276 -5.399156 0.8623852,-2.378943 -4.904929 0.3911403,-2.47719 -3.976902 0.6619107,-2.535754 -3.406958 0.8501826,-2.583105 -2.876674 0.9922024,-2.059141 -4.815961 0.3977357,-2.080667 -3.764677 0.7093609,-2.080667 -3.764677 0.7093609,-2.105527 -2.469697 1.074847,-1.769143 -4.958896 0.4601251,-1.722829 -3.989366 0.7734582,-1.719112 -3.333112 0.9933293,-1.728104 -2.75082 1.170734,-1.489323 -5.305904 0.5537565,-1.34535 -4.579797 0.811139,-1.272449 -4.085315 1.001007,-1.231973 -3.606214 1.163392,-8.094584 -7.321573 0.1012899,-7.626366 -7.0662 0.3650808,-7.255096 -6.456129 0.6211042,-7.027493 -5.922031 0.8843579,-6.791916 -5.605873 1.178987,-7.725325 -5.068026 0.4954895,-7.709266 -4.182697 0.7299652,-7.734856 -3.642615 0.9226291,-7.765717 -3.135789 1.052775,-8.055031 -4.987447 0.5519801,-8.081576 -3.98224 0.7392269,-8.110547 -3.301523 0.9664785,-8.140821 -2.684496 1.171177,-8.361621 -5.137146 0.6236995,-8.403191 -4.197746 0.7871404,-8.433293 -3.551093 0.9684026,-8.456271 -2.982519 1.132853,-8.659744 -5.478136 0.720166,-8.789476 -4.724359 0.8694505,-8.869449 -4.214841 0.9995413,-8.924376 -3.716448 1.125923,0.810,20  0
-1.996024 -7.21963 -0.06299526,-2.481167 -6.892538 0.318852,-2.871025 -6.294145 0.5304513,-3.13669 -5.797897 0.7078073,-3.380442 -5.450708 0.8859018,-2.364492 -4.919422 0.4299027,-2.460286 -3.989687 0.7021709,-2.510838 -3.423066 0.8959392,-2.550858 -2.891904 1.042636,-2.046945 -4.840198 0.4446201,-2.069295 -3.796402 0.7670662,-2.069295 -3.796402 0.7670662,-2.084562 -2.516094 1.144867,-1.75669 -4.98954 0.5152204,-1.712961 -4.022531 0.8384954,-1.704843 -3.376239 1.066745,-1.709519 -2.796319 1.247444,-1.475379 -5.343826 0.6155983,-1.33096 -4.61738 0.8862383,-1.252305 -4.125687 1.084612,-1.203908 -3.644753 1.253109,-8.083258 -7.330364 0.09240753,-7.623017 -7.075542 0.3803141,-7.263569 -6.471155 0.6509276,-7.052395 -5.944915 0.9253629,-6.820643 -5.622968 1.235077,-7.739213 -5.076578 0.5129709,-7.72225 -4.187979 0.7657723,-7.74611 -3.650844 0.9630187,-7.776408 -3.14024 1.092337,-8.07128 -5.002706 0.5642618,-8.096169 -4.001594 0.7714272,-8.125322 -3.324171 1.003751,-8.158173 -2.711745 1.205907,-8.381552 -5.161651 0.6369205,-8.422106 -4.218772 0.8115947,-8.456772 -3.570848 0.9927269,-8.487187 -2.999083 1.154306,-8.682943 -5.512533 0.7368724,-8.805992 -4.742925 0.8949402,-8.880777 -4.22924 1.032826,-8.933002 -3.734926 1.164233,0.910,20  0
-1.970326 -7.265139 -0.1018026,-2.45231 -6.943502 0.3243459,-2.842805 -6.364728 0.5635951,-3.103718 -5.868481 0.759535,-3.343872 -5.505446 0.9600046,-2.340716 -4.989997 0.4499584,-2.430211 -4.074978 0.743152,-2.47247 -3.507678 0.9560816,-2.502549 -2.967764 1.120823,-2.021363 -4.906458 0.4477961,-2.033144 -3.867722 0.7763864,-2.033144 -3.867722 0.7763864,-2.029658 -2.577758 1.180275,-1.728702 -5.058929 0.5014328,-1.678898 -4.096923 0.8225449,-1.664306 -3.453676 1.06798,-1.661812 -2.875373 1.266677,-1.442681 -5.41472 0.5861286,-1.294431 -4.694723 0.8579606,-1.212415 -4.210644 1.065791,-1.161579 -3.732338 1.241587,-8.121782 -7.379797 0.06724771,-7.657636 -7.121679 0.3786905,-7.302139 -6.512303 0.6579913,-7.094483 -5.979757 0.9299837,-6.870523 -5.647121 1.229252,-7.789639 -5.140827 0.5326198,-7.785429 -4.248853 0.8009526,-7.812127 -3.703825 1.013501,-7.84586 -3.183734 1.152552,-8.118383 -5.068683 0.5823767,-8.15257 -4.068588 0.8162411,-8.190063 -3.393188 1.069343,-8.228257 -2.777147 1.281529,-8.423575 -5.234375 0.6522813,-8.471404 -4.284416 0.8500142,-8.513551 -3.633892 1.058951,-8.548851 -3.057319 1.24057,-8.724307 -5.594159 0.7470735,-8.855393 -4.828218 0.9301026,-8.938539 -4.320741 1.086242,-8.997425 -3.833467 1.233487,1.010,20  0
-1.962434 -7.285719 -0.1195995,-2.44795 -6.972207 0.313372,-2.841912 -6.39447 0.5565546,-3.104833 -5.897912 0.7564642,-3.343992 -5.53123 0.9610673,-2.334918 -5.019451 0.448572,-2.424344 -4.105274 0.7460999,-2.469066 -3.533933 0.9590913,-2.503359 -2.993774 1.1199,-2.013629 -4.935396 0.4433371,-2.027545 -3.894723 0.7751183,-2.027545 -3.894723 0.7751183,-2.035209 -2.600698 1.181614,-1.718679 -5.086136 0.4962596,-1.668126 -4.129516 0.8231083,-1.655998 -3.484529 1.075521,-1.658194 -2.901315 1.27823,-1.432176 -5.44077 0.5768484,-1.284472 -4.730069 0.8531577,-1.209135 -4.248265 1.06378,-1.167564 -3.772274 1.245152,-8.137277 -7.395704 0.03320279,-7.674922 -7.144048 0.3282441,-7.32465 -6.540372 0.5980673,-7.124739 -6.000885 0.8604308,-6.910057 -5.670394 1.149322,-7.817381 -5.164618 0.4678084,-7.81127 -4.276556 0.7189753,-7.845471 -3.733941 0.9228516,-7.885777 -3.216878 1.056413,-8.148617 -5.08772 0.5166188,-8.185582 -4.080244 0.7338276,-8.230962 -3.399762 0.9734075,-8.276413 -2.786592 1.180344,-8.455044 -5.25109 0.5836629,-8.498953 -4.287896 0.7708086,-8.544875 -3.62833 0.9738604,-8.58422 -3.049823 1.15457,-8.753839 -5.613743 0.6750216,-8.880128 -4.851612 0.8407539,-8.962315 -4.342794 0.9906126,-9.021235 -3.853117 1.135777,1.110,20  0
-1.9429 -7.56794 0.1741253,-2.467814 -7.183502 0.6272928,-2.8243 -6.547891 0.9179214,-3.053096 -6.032367 1.148642,-3.331825 -5.656352 1.393196,-2.366197 -5.246341 0.8417118,-2.394815 -4.586084 1.194977,-2.432028 -3.988692 1.43198,-2.444242 -3.402354 1.639361,-2.036587 -5.14538 0.7896818,-2.020327 -4.332812 1.130013,-2.020327 -4.332812 1.130013,-2.017405 -3.049975 1.53801,-1.722636 -5.251764 0.7741549,-1.656093 -4.448783 1.06046,-1.647211 -3.825943 1.228401,-1.626558 -3.21031 1.341754,-1.409227 -5.571245 0.7961741,-1.289358 -4.913926 0.9941316,-1.211543 -4.430357 1.105227,-1.13284 -3.888601 1.185349,-8.170553 -7.443572 0.1164248,-7.706096 -7.196487 0.4184379,-7.361758 -6.582605 0.6979545,-7.167321 -6.035115 0.9758117,-6.964811 -5.700728 1.276972,-7.868927 -5.175171 0.5574625,-7.879449 -4.287542 0.8067849,-7.919212 -3.753449 1.011599,-7.960735 -3.243597 1.146805,-8.196255 -5.113407 0.6093647,-8.2515 -4.107896 0.8255087,-8.300139 -3.442704 1.062471,-8.343878 -2.833867 1.264474,-8.495544 -5.291339 0.6825274,-8.562333 -4.33673 0.8732255,-8.612969 -3.682525 1.076808,-8.651332 -3.108356 1.25819,-8.783248 -5.670248 0.7789648,-8.933049 -4.912521 0.9531361,-9.028059 -4.401374 1.106219,-9.097397 -3.908539 1.249664,1.210,20  0
-1.9429 -7.56794 0.1741253,-2.467814 -7.183502 0.6272928,-2.8243 -6.547891 0.9179214,-3.053096 -6.032367 1.148642,-3.331825 -5.656352 1.393196,-2.366197 -5.246341 0.8417118,-2.394815 -4.586084 1.194977,-2.432028 -3.988692 1.43198,-2.444242 -3.402354 1.639361,-2.036587 -5.14538 0.7896818,-2.020327 -4.332812 1.130013,-2.020327 -4.332812 1.130013,-2.017405 -3.049975 1.53801,-1.722636 -5.251764 0.7741549,-1.656093 -4.448783 1.06046,-1.647211 -3.825943 1.228401,-1.626558 -3.21031 1.341754,-1.409227 -5.571245 0.7961741,-1.289358 -4.913926 0.9941316,-1.211543 -4.430357 1.105227,-1.13284 -3.888601 1.185349,-8.205963 -7.458815 0.1184525,-7.733444 -7.208544 0.3905962,-7.384984 -6.588224 0.6515133,-7.194456 -6.037107 0.9147331,-6.999359 -5.706299 1.198787,-7.888497 -5.184503 0.5098665,-7.904422 -4.290653 0.7353722,-7.951936 -3.752489 0.9282319,-7.998312 -3.240871 1.060569,-8.216159 -5.11894 0.5667638,-8.270439 -4.104559 0.7640285,-8.324812 -3.445353 0.9887768,-8.374823 -2.844986 1.185099,-8.516315 -5.292865 0.6409813,-8.57634 -4.322164 0.8181345,-8.626753 -3.66046 1.016107,-8.666261 -3.079982 1.194532,-8.805681 -5.669054 0.7369872,-8.950603 -4.904481 0.892914,-9.043406 -4.396163 1.037281,-9.109531 -3.901743 1.177081,1.310,20  0
-1.986035 -7.730164 0.9743525,-2.473462 -7.264022 1.250471,-2.880398 -6.536863 1.423036,-3.15539 -5.968532 1.581298,-3.424501 -5.643651 1.721401,-2.405636 -5.084194 1.272664,-2.505 -4.157102 1.549693,-2.558291 -3.6119 1.734577,-2.604119 -3.080096 1.885244,-2.094247 -5.029861 1.359713,-2.125806 -3.94737 1.692088,-2.125806 -3.94737 1.692088,-2.153837 -2.662172 2.147477,-1.808005 -5.195924 1.498881,-1.757392 -4.197217 1.851078,-1.747879 -3.576571 2.122386,-1.757418 -2.986726 2.320733,-1.532811 -5.569291 1.660225,-1.368489 -4.853261 1.973319,-1.290982 -4.381725 2.174863,-1.238311 -3.894044 2.342762,-8.172359 -7.476739 0.1545724,-7.720173 -7.211557 0.4534232,-7.386205 -6.585958 0.7218086,-7.202495 -6.032584 0.9915786,-7.00745 -5.709898 1.283536,-7.897701 -5.183202 0.5549634,-7.911717 -4.291789 0.7925019,-7.958603 -3.762416 0.997102,-8.006241 -3.253253 1.137427,-8.224429 -5.127162 0.6040733,-8.285727 -4.111338 0.8054369,-8.344799 -3.448909 1.043319,-8.399878 -2.848098 1.247982,-8.521341 -5.307281 0.6767396,-8.590471 -4.346941 0.8560179,-8.651837 -3.694801 1.05586,-8.702054 -3.122116 1.237125,-8.805223 -5.693368 0.7747079,-8.950894 -4.928514 0.9401111,-9.048691 -4.41673 1.090742,-9.121201 -3.930128 1.232381,1.410,20  0
-1.986035 -7.730164 0.9743525,-2.473462 -7.264022 1.250471,-2.880398 -6.536863 1.423036,-3.15539 -5.968532 1.581298,-3.424501 -5.643651 1.721401,-2.405636 -5.084194 1.272664,-2.505 -4.157102 1.549693,-2.558291 -3.6119 1.734577,-2.604119 -3.080096 1.885244,-2.094247 -5.029861 1.359713,-2.125806 -3.94737 1.692088,-2.125806 -3.94737 1.692088,-2.153837 -2.662172 2.147477,-1.808005 -5.195924 1.498881,-1.757392 -4.197217 1.851078,-1.747879 -3.576571 2.122386,-1.757418 -2.986726 2.320733,-1.532811 -5.569291 1.660225,-1.368489 -4.853261 1.973319,-1.290982 -4.381725 2.174863,-1.238311 -3.894044 2.342762,-8.201597 -7.500877 0.1733903,-7.740045 -7.230295 0.45843,-7.402272 -6.601308 0.7262005,-7.220379 -6.044481 0.9988585,-7.023729 -5.71327 1.290521,-7.912199 -5.207803 0.5740416,-7.929348 -4.316984 0.8069623,-7.979504 -3.778986 1.007928,-8.031663 -3.260133 1.144094,-8.238526 -5.146732 0.6291975,-8.303825 -4.13025 0.8289753,-8.364428 -3.463109 1.069815,-8.42302 -2.863625 1.273979,-8.533662 -5.320489 0.7054361,-8.610814 -4.360281 0.8796318,-8.674024 -3.709342 1.078487,-8.726651 -3.145591 1.257536,-8.816169 -5.695699 0.8060597,-8.968075 -4.923292 0.965672,-9.06454 -4.409029 1.114154,-9.1382 -3.918909 1.249836,1.510,20  0
-1.986035 -7.730164 0.9743525,-2.473462 -7.264022 1.250471,-2.880398 -6.536863 1.423036,-3.15539 -5.968532 1.581298,-3.424501 -5.643651 1.721401,-2.405636 -5.084194 1.272664,-2.505 -4.157102 1.549693,-2.558291 -3.6119 1.734577,-2.604119 -3.080096 1.885244,-2.094247 -5.029861 1.359713,-2.125806 -3.94737 1.692088,-2.125806 -3.94737 1.692088,-2.153837 -2.662172 2.147477,-1.808005 -5.195924 1.498881,-1.757392 -4.197217 1.851078,-1.747879 -3.576571 2.122386,-1.757418 -2.986726 2.320733,-1.532811 -5.569291 1.660225,-1.368489 -4.853261 1.973319,-1.290982 -4.381725 2.174863,-1.238311 -3.894044 2.342762,-8.202935 -7.501398 0.2052106,-7.753585 -7.227298 0.5378217,-7.418355 -6.606628 0.8364137,-7.235411 -6.055398 1.133233,-7.039078 -5.718137 1.451285,-7.929787 -5.198485 0.671023,-7.950159 -4.312174 0.9344079,-7.999186 -3.787304 1.155513,-8.051481 -3.274239 1.302241,-8.25425 -5.14965 0.7164832,-8.327235 -4.133944 0.9421358,-8.390785 -3.479864 1.192141,-8.450976 -2.878576 1.396839,-8.544569 -5.331793 0.7891911,-8.627698 -4.374874 0.986963,-8.69152 -3.736606 1.19774,-8.744261 -3.177122 1.381438,-8.822502 -5.715382 0.8890272,-8.976253 -4.946327 1.066104,-9.077033 -4.435892 1.218046,-9.155646 -3.946583 1.355343,1.610,20  0
-1.986035 -7.730164 0.9743525,-2.473462 -7.264022 1.250471,-2.880398 -6.536863 1.423036,-3.15539 -5.968532 1.581298,-3.424501 -5.643651 1.721401,-2.405636 -5.084194 1.272664,-2.505 -4.157102 1.549693,-2.558291 -3.6119 1.734577,-2.604119 -3.080096 1.885244,-2.094247 -5.029861 1.359713,-2.125806 -3.94737 1.692088,-2.125806 -3.94737 1.692088,-2.153837 -2.662172 2.147477,-1.808005 -5.195924 1.498881,-1.757392 -4.197217 1.851078,-1.747879 -3.576571 2.122386,-1.757418 -2.986726 2.320733,-1.532811 -5.569291 1.660225,-1.368489 -4.853261 1.973319,-1.290982 -4.381725 2.174863,-1.238311 -3.894044 2.342762,-8.234987 -7.532998 0.236988,-7.780582 -7.244163 0.5437356,-7.449593 -6.604169 0.8222429,-7.274676 -6.04482 1.101675,-7.073707 -5.709019 1.400771,-7.963058 -5.218407 0.674356,-7.978969 -4.336071 0.9270765,-8.030412 -3.812533 1.136544,-8.08863 -3.299852 1.274604,-8.287765 -5.16719 0.7256442,-8.360994 -4.158412 0.9376047,-8.425691 -3.503438 1.183286,-8.488545 -2.903592 1.386861,-8.578593 -5.344105 0.8017515,-8.668329 -4.403069 0.9848202,-8.736763 -3.77601 1.181675,-8.794206 -3.229148 1.353422,-8.855674 -5.721159 0.9051744,-9.011752 -4.951445 1.072928,-9.109847 -4.438016 1.216539,-9.18702 -3.946825 1.345196,1.710,20  0
-1.986035 -7.730164 0.9743525,-2.473462 -7.264022 1.250471,-2.880398 -6.536863 1.423036,-3.15539 -5.968532 1.581298,-3.424501 -5.643651 1.721401,-2.405636 -5.084194 1.272664,-2.505 -4.157102 1.549693,-2.558291 -3.6119 1.734577,-2.604119 -3.080096 1.885244,-2.094247 -5.029861 1.359713,-2.125806 -3.94737 1.692088,-2.125806 -3.94737 1.692088,-2.153837 -2.662172 2.147477,-1.808005 -5.195924 1.498881,-1.757392 -4.197217 1.851078,-1.747879 -3.576571 2.122386,-1.757418 -2.986726 2.320733,-1.532811 -5.569291 1.660225,-1.368489 -4.853261 1.973319,-1.290982 -4.381725 2.174863,-1.238311 -3.894044 2.342762,-8.286404 -7.543235 0.2720757,-7.824903 -7.258043 0.5968988,-7.496578 -6.613982 0.8836213,-7.326537 -6.051977 1.170511,-7.129326 -5.697701 1.467669,-8.005476 -5.217269 0.7190565,-8.024229 -4.334737 0.9750428,-8.075385 -3.811742 1.183282,-8.132787 -3.312858 1.313626,-8.334305 -5.167062 0.7605788,-8.417943 -4.145555 0.9756767,-8.485749 -3.486539 1.216625,-8.549534 -2.897932 1.411686,-8.62652 -5.341312 0.8290925,-8.724372 -4.381622 1.01512,-8.794484 -3.747594 1.218117,-8.848804 -3.202221 1.392235,-8.903745 -5.715575 0.9260982,-9.064491 -4.952097 1.08863,-9.166466 -4.440904 1.236092,-9.244636 -3.957853 1.368832,1.810,20  0
-1.986035 -7.730164 0.9743525,-2.473462 -7.264022 1.250471,-2.880398 -6.536863 1.423036,-3.15539 -5.968532 1.581298,-3.424501 -5.643651 1.721401,-2.405636 -5.084194 1.272664,-2.505 -4.157102 1.549693,-2.558291 -3.6119 1.734577,-2.604119 -3.080096 1.885244,-2.094247 -5.029861 1.359713,-2.125806 -3.94737 1.692088,-2.125806 -3.94737 1.692088,-2.153837 -2.662172 2.147477,-1.808005 -5.195924 1.498881,-1.757392 -4.197217 1.851078,-1.747879 -3.576571 2.122386,-1.757418 -2.986726 2.320733,-1.532811 -5.569291 1.660225,-1.368489 -4.853261 1.973319,-1.290982 -4.381725 2.174863,-1.238311 -3.894044 2.342762,-8.298426 -7.543478 0.2915354,-7.840576 -7.249979 0.6004445,-7.519736 -6.61271 0.8739104,-7.353491 -6.052958 1.149698,-7.161304 -5.702844 1.434105,-8.033355 -5.203911 0.6998042,-8.056723 -4.318844 0.9422713,-8.113193 -3.79639 1.145829,-8.174068 -3.297789 1.276255,-8.361032 -5.155134 0.7454503,-8.450628 -4.136493 0.9496307,-8.525513 -3.476582 1.186659,-8.595577 -2.886495 1.380136,-8.652198 -5.334125 0.8185752,-8.753263 -4.383814 0.9931445,-8.827018 -3.753253 1.185504,-8.885522 -3.210727 1.354346,-8.926994 -5.716213 0.9197616,-9.087584 -4.95998 1.077904,-9.191112 -4.450449 1.218183,-9.271666 -3.96869 1.34198,1.910,20  0
-1.986035 -7.730164 0.9743525,-2.473462 -7.264022 1.250471,-2.880398 -6.536863 1.423036,-3.15539 -5.968532 1.581298,-3.424501 -5.643651 1.721401,-2.405636 -5.084194 1.272664,-2.505 -4.157102 1.549693,-2.558291 -3.6119 1.734577,-2.604119 -3.080096 1.885244,-2.094247 -5.029861 1.359713,-2.125806 -3.94737 1.692088,-2.125806 -3.94737 1.692088,-2.153837 -2.662172 2.147477,-1.808005 -5.195924 1.498881,-1.757392 -4.197217 1.851078,-1.747879 -3.576571 2.122386,-1.757418 -2.986726 2.320733,-1.532811 -5.569291 1.660225,-1.368489 -4.853261 1.973319,-1.290982 -4.381725 2.174863,-1.238311 -3.894044 2.342762,-8.318122 -7.53758 0.2818872,-7.870637 -7.223498 0.5854529,-7.55646 -6.589683 0.8527859,-7.393695 -6.023383 1.126843,-7.206688 -5.674726 1.407004,-8.087796 -5.186973 0.6608555,-8.114176 -4.294485 0.8880122,-8.172246 -3.772096 1.084838,-8.238496 -3.280869 1.212791,-8.409046 -5.147018 0.7032351,-8.509684 -4.113928 0.8915427,-8.586557 -3.453164 1.118871,-8.658848 -2.863866 1.30668,-8.690596 -5.330123 0.7740867,-8.80969 -4.375711 0.9353284,-8.891433 -3.748399 1.113972,-8.958365 -3.204423 1.275552,-8.952374 -5.713537 0.874188,-9.124165 -4.956851 1.025494,-9.232025 -4.446585 1.161413,-9.316443 -3.962457 1.279625,2.010,20  0
-0.4931192 -8.622015 -4.911443,-0.1788144 -8.379429 -5.333157,0.1459465 -8.222534 -5.538074,0.3925996 -8.232143 -5.657809,0.5913153 -8.332375 -5.764127,0.3069744 -7.9015 -5.303153,0.7094078 -7.948445 -5.465504,0.9522982 -7.991403 -5.565639,1.143864 -8.019075 -5.62129,0.3226547 -7.995733 -5.113947,0.7578926 -8.027203 -5.200391,0.7578926 -8.027203 -5.200391,1.241714 -8.099583 -5.343338,0.3149934 -8.172724 -4.950862,0.723361 -8.18784 -5.031893,0.9859524 -8.208984 -5.093794,1.181749 -8.222223 -5.129095,0.3000798 -8.417528 -4.813278,0.636291 -8.415751 -4.87039,0.8206291 -8.429815 -4.887462,0.9792051 -8.445408 -4.900086,-8.358529 -7.57949 0.3904886,-7.899046 -7.257161 0.6721129,-7.57817 -6.603559 0.931834,-7.410869 -6.022172 1.205111,-7.224807 -5.66624 1.483134,-8.117314 -5.198623 0.7421992,-8.135284 -4.30751 0.9595822,-8.196683 -3.780248 1.146302,-8.265273 -3.285649 1.271348,-8.43717 -5.154005 0.7944638,-8.531974 -4.111719 0.9743801,-8.612095 -3.447522 1.193999,-8.686632 -2.857517 1.382051,-8.718394 -5.334477 0.8735576,-8.834108 -4.372715 1.030784,-8.918728 -3.739587 1.199417,-8.987751 -3.191108 1.359727,-8.980214 -5.718402 0.9809747,-9.152344 -4.953979 1.129203,-9.261879 -4.442429 1.26485,-9.346576 -3.959165 1.384124,2.110,20  0
-0.4931192 -8.622015 -4.911443,-0.1788144 -8.379429 -5.333157,0.1459465 -8.222534 -5.538074,0.3925996 -8.232143 -5.657809,0.5913153 -8.332375 -5.764127,0.3069744 -7.9015 -5.303153,0.7094078 -7.948445 -5.465504,0.9522982 -7.991403 -5.565639,1.143864 -8.019075 -5.62129,0.3226547 -7.995733 -5.113947,0.7578926 -8.027203 -5.200391,0.7578926 -8.027203 -5.200391,1.241714 -8.099583 -5.343338,0.3149934 -8.172724 -4.950862,0.723361 -8.18784 -5.031893,0.9859524 -8.208984 -5.093794,1.181749 -8.222223 -5.129095,0.3000798 -8.417528 -4.813278,0.636291 -8.415751 -4.87039,0.8206291 -8.429815 -4.887462,0.9792051 -8.445408 -4.900086,-8.353887 -7.578969 0.4309422,-7.899992 -7.246875 0.7236893,-7.575586 -6.601137 0.9910138,-7.407719 -6.025611 1.272842,-7.22155 -5.677875 1.561221,-8.123909 -5.181308 0.7885424,-8.143373 -4.294387 1.002822,-8.202344 -3.772729 1.19124,-8.267683 -3.286956 1.314541,-8.445012 -5.142177 0.8348534,-8.54166 -4.110376 1.006971,-8.619138 -3.454004 1.231456,-8.691653 -2.870599 1.422448,-8.725691 -5.323334 0.9083601,-8.841729 -4.372871 1.054419,-8.922853 -3.751207 1.217839,-8.98531 -3.213243 1.370517,-8.98674 -5.704575 1.011429,-9.162226 -4.949118 1.148471,-9.271271 -4.445316 1.270898,-9.35431 -3.963812 1.379239,2.210,20  0
-0.4931192 -8.622015 -4.911443,-0.1788144 -8.379429 -5.333157,0.1459465 -8.222534 -5.538074,0.3925996 -8.232143 -5.657809,0.5913153 -8.332375 -5.764127,0.3069744 -7.9015 -5.303153,0.7094078 -7.948445 -5.465504,0.9522982 -7.991403 -5.565639,1.143864 -8.019075 -5.62129,0.3226547 -7.995733 -5.113947,0.7578926 -8.027203 -5.200391,0.7578926 -8.027203 -5.200391,1.241714 -8.099583 -5.343338,0.3149934 -8.172724 -4.950862,0.723361 -8.18784 -5.031893,0.9859524 -8.208984 -5.093794,1.181749 -8.222223 -5.129095,0.3000798 -8.417528 -4.813278,0.636291 -8.415751 -4.87039,0.8206291 -8.429815 -4.887462,0.9792051 -8.445408 -4.900086,-8.332932 -7.578928 0.3545464,-7.882868 -7.256942 0.6663955,-7.565344 -6.614526 0.9451708,-7.401899 -6.031919 1.222875,-7.213361 -5.682001 1.5067,-8.109492 -5.22331 0.7905537,-8.139746 -4.340057 1.03738,-8.203557 -3.822589 1.246058,-8.276617 -3.319669 1.386052,-8.4377 -5.176904 0.8250688,-8.535763 -4.146366 1.029829,-8.611652 -3.489402 1.267886,-8.682425 -2.877491 1.466063,-8.722896 -5.355609 0.8863358,-8.840752 -4.404699 1.054863,-8.926385 -3.782367 1.229081,-8.993424 -3.233083 1.392408,-8.987566 -5.737672 0.9744091,-9.158943 -4.979615 1.122131,-9.27331 -4.469162 1.250088,-9.361809 -3.976795 1.366401,2.310,20  0
-0.4931192 -8.622015 -4.911443,-0.1788144 -8.379429 -5.333157,0.1459465 -8.222534 -5.538074,0.3925996 -8.232143 -5.657809,0.5913153 -8.332375 -5.764127,0.3069744 -7.9015 -5.303153,0.7094078 -7.948445 -5.465504,0.9522982 -7.991403 -5.565639,1.143864 -8.019075 -5.62129,0.3226547 -7.995733 -5.113947,0.7578926 -8.027203 -5.200391,0.7578926 -8.027203 -5.200391,1.241714 -8.099583 -5.343338,0.3149934 -8.172724 -4.950862,0.723361 -8.18784 -5.031893,0.9859524 -8.208984 -5.093794,1.181749 -8.222223 -5.129095,0.3000798 -8.417528 -4.813278,0.636291 -8.415751 -4.87039,0.8206291 -8.429815 -4.887462,0.9792051 -8.445408 -4.900086,-8.326632 -7.571732 0.3439744,-7.877113 -7.251876 0.6662155,-7.563354 -6.605472 0.9479418,-7.404269 -6.0261 1.226131,-7.216119 -5.682067 1.505376,-8.106565 -5.225597 0.7933344,-8.134638 -4.348807 1.0479,-8.198136 -3.839384 1.261705,-8.271709 -3.35103 1.402555,-8.434836 -5.175426 0.8268093,-8.533598 -4.139118 1.035793,-8.610412 -3.47825 1.279971,-8.683805 -2.865287 1.484596,-8.720175 -5.357452 0.8860832,-8.838396 -4.390638 1.062814,-8.923873 -3.762059 1.247135,-8.993826 -3.20874 1.419638,-8.984784 -5.744121 0.9736864,-9.158651 -4.977743 1.129707,-9.276592 -4.467678 1.264823,-9.370811 -3.972159 1.387708,2.410,20  0
-0.4931192 -8.622015 -4.911443,-0.1788144 -8.379429 -5.333157,0.1459465 -8.222534 -5.538074,0.3925996 -8.232143 -5.657809,0.5913153 -8.332375 -5.764127,0.3069744 -7.9015 -5.303153,0.7094078 -7.948445 -5.465504,0.9522982 -7.991403 -5.565639,1.143864 -8.019075 -5.62129,0.3226547 -7.995733 -5.113947,0.7578926 -8.027203 -5.200391,0.7578926 -8.027203 -5.200391,1.241714 -8.099583 -5.343338,0.3149934 -8.172724 -4.950862,0.723361 -8.18784 -5.031893,0.9859524 -8.208984 -5.093794,1.181749 -8.222223 -5.129095,0.3000798 -8.417528 -4.813278,0.636291 -8.415751 -4.87039,0.8206291 -8.429815 -4.887462,0.9792051 -8.445408 -4.900086,-8.328885 -7.571226 0.3509009,-7.875697 -7.253789 0.6435747,-7.564632 -6.60436 0.9115728,-7.410763 -6.024881 1.180997,-7.228662 -5.678671 1.451862,-8.110727 -5.218435 0.7683568,-8.138529 -4.350024 1.00492,-8.200216 -3.847343 1.206291,-8.272093 -3.357424 1.340243,-8.436043 -5.168338 0.8108206,-8.534594 -4.137861 1.004439,-8.611503 -3.485759 1.235169,-8.685905 -2.880534 1.4272,-8.71944 -5.347988 0.876089,-8.837102 -4.387418 1.037835,-8.922906 -3.758565 1.209674,-8.995151 -3.205207 1.373531,-8.981953 -5.735916 0.9657637,-9.155057 -4.969139 1.110084,-9.269386 -4.45823 1.235748,-9.362807 -3.967952 1.351098,2.510,20  0
-0.4931192 -8.622015 -4.911443,-0.1788144 -8.379429 -5.333157,0.1459465 -8.222534 -5.538074,0.3925996 -8.232143 -5.657809,0.5913153 -8.332375 -5.764127,0.3069744 -7.9015 -5.303153,0.7094078 -7.948445 -5.465504,0.9522982 -7.991403 -5.565639,1.143864 -8.019075 -5.62129,0.3226547 -7.995733 -5.113947,0.7578926 -8.027203 -5.200391,0.7578926 -8.027203 -5.200391,1.241714 -8.099583 -5.343338,0.3149934 -8.172724 -4.950862,0.723361 -8.18784 -5.031893,0.9859524 -8.208984 -5.093794,1.181749 -8.222223 -5.129095,0.3000798 -8.417528 -4.813278,0.636291 -8.415751 -4.87039,0.8206291 -8.429815 -4.887462,0.9792051 -8.445408 -4.900086,-8.348637 -7.56906 0.3301048,-7.898032 -7.249367 0.654063,-7.579345 -6.610279 0.943268,-7.418015 -6.034595 1.23032,-7.232533 -5.68474 1.522922,-8.121555 -5.224047 0.7859184,-8.150774 -4.34424 1.044459,-8.213646 -3.82927 1.262873,-8.28599 -3.331877 1.406131,-8.447495 -5.178323 0.8225133,-8.549274 -4.143308 1.034498,-8.627338 -3.483169 1.281445,-8.700937 -2.872476 1.488502,-8.732821 -5.355713 0.8831666,-8.850789 -4.390827 1.059873,-8.933033 -3.763217 1.237465,-8.99806 -3.214971 1.404798,-8.997704 -5.734938 0.9728672,-9.167531 -4.966705 1.124179,-9.280117 -4.453681 1.248829,-9.368626 -3.959991 1.364145,2.610,20  0
-0.4931192 -8.622015 -4.911443,-0.1788144 -8.379429 -5.333157,0.1459465 -8.222534 -5.538074,0.3925996 -8.232143 -5.657809,0.5913153 -8.332375 -5.764127,0.3069744 -7.9015 -5.303153,0.7094078 -7.948445 -5.465504,0.9522982 -7.991403 -5.565639,1.143864 -8.019075 -5.62129,0.3226547 -7.995733 -5.113947,0.7578926 -8.027203 -5.200391,0.7578926 -8.027203 -5.200391,1.241714 -8.099583 -5.343338,0.3149934 -8.172724 -4.950862,0.723361 -8.18784 -5.031893,0.9859524 -8.208984 -5.093794,1.181749 -8.222223 -5.129095,0.3000798 -8.417528 -4.813278,0.636291 -8.415751 -4.87039,0.8206291 -8.429815 -4.887462,0.9792051 -8.445408 -4.900086,-8.372866 -7.547748 0.3074368,-7.909821 -7.242046 0.6157355,-7.584497 -6.602145 0.8969731,-7.419445 -6.022031 1.177454,-7.24002 -5.667089 1.459049,-8.124571 -5.212439 0.7470758,-8.149032 -4.339122 1.002125,-8.21096 -3.826128 1.215464,-8.281756 -3.338243 1.351646,-8.450353 -5.160526 0.7884337,-8.54944 -4.121086 0.9922021,-8.625282 -3.459767 1.22991,-8.695997 -2.851058 1.431466,-8.73623 -5.336912 0.8517376,-8.853038 -4.365751 1.029198,-8.933246 -3.736425 1.207759,-8.995914 -3.184063 1.374166,-9.002725 -5.715032 0.9416888,-9.175585 -4.952474 1.091551,-9.290215 -4.447444 1.215486,-9.380481 -3.958154 1.32908,2.710,20  0
-0.4931192 -8.622015 -4.911443,-0.1788144 -8.379429 -5.333157,0.1459465 -8.222534 -5.538074,0.3925996 -8.232143 -5.657809,0.5913153 -8.332375 -5.764127,0.3069744 -7.9015 -5.303153,0.7094078 -7.948445 -5.465504,0.9522982 -7.991403 -5.565639,1.143864 -8.019075 -5.62129,0.3226547 -7.995733 -5.113947,0.7578926 -8.027203 -5.200391,0.7578926 -8.027203 -5.200391,1.241714 -8.099583 -5.343338,0.3149934 -8.172724 -4.950862,0.723361 -8.18784 -5.031893,0.9859524 -8.208984 -5.093794,1.181749 -8.222223 -5.129095,0.3000798 -8.417528 -4.813278,0.636291 -8.415751 -4.87039,0.8206291 -8.429815 -4.887462,0.9792051 -8.445408 -4.900086,-8.401651 -7.452536 0.3105561,-7.941344 -7.137002 0.6301487,-7.621517 -6.507007 0.9235969,-7.459492 -5.934541 1.219471,-7.290476 -5.56933 1.518444,-8.155406 -5.114603 0.7611067,-8.177881 -4.223159 1.036065,-8.241549 -3.709016 1.259801,-8.318032 -3.221422 1.403934,-8.477055 -5.068918 0.8138677,-8.582291 -4.008235 1.044242,-8.666488 -3.329999 1.29781,-8.74999 -2.711158 1.507347,-8.756777 -5.249487 0.8884739,-8.884284 -4.271205 1.089011,-8.970762 -3.625929 1.292793,-9.043985 -3.060746 1.477085,-9.017485 -5.632441 0.9939637,-9.192034 -4.878502 1.159445,-9.305964 -4.37244 1.306151,-9.397322 -3.878368 1.43559,2.810,20  0
-0.4931192 -8.622015 -4.911443,-0.1788144 -8.379429 -5.333157,0.1459465 -8.222534 -5.538074,0.3925996 -8.232143 -5.657809,0.5913153 -8.332375 -5.764127,0.3069744 -7.9015 -5.303153,0.7094078 -7.948445 -5.465504,0.9522982 -7.991403 -5.565639,1.143864 -8.019075 -5.62129,0.3226547 -7.995733 -5.113947,0.7578926 -8.027203 -5.200391,0.7578926 -8.027203 -5.200391,1.241714 -8.099583 -5.343338,0.3149934 -8.172724 -4.950862,0.723361 -8.18784 -5.031893,0.9859524 -8.208984 -5.093794,1.181749 -8.222223 -5.129095,0.3000798 -8.417528 -4.813278,0.636291 -8.415751 -4.87039,0.8206291 -8.429815 -4.887462,0.9792051 -8.445408 -4.900086,-8.427121 -7.324052 0.3150463,-7.967668 -6.993839 0.6333726,-7.656352 -6.345939 0.9166881,-7.503881 -5.755594 1.207692,-7.330006 -5.37676 1.502625,-8.202111 -4.970279 0.7222466,-8.230858 -4.058677 0.9711621,-8.296057 -3.515786 1.198351,-8.366199 -3.011249 1.349439,-8.524265 -4.928367 0.7602229,-8.625861 -3.866949 0.9578637,-8.704589 -3.192592 1.200222,-8.780143 -2.58842 1.403405,-8.804526 -5.097242 0.821084,-8.918306 -4.110038 0.9860727,-8.99499 -3.470678 1.164424,-9.054025 -2.915609 1.326036,-9.068229 -5.463743 0.9135502,-9.233117 -4.691297 1.050837,-9.34167 -4.186788 1.164113,-9.432282 -3.697965 1.262786,2.910,20  0
-1.946232 -7.496585 1.173137,-2.467585 -7.008361 1.482434,-2.87446 -6.294048 1.706324,-3.134725 -5.760148 1.912181,-3.378977 -5.413722 2.079038,-2.427767 -4.813625 1.620406,-2.522686 -3.807532 1.989969,-2.588182 -3.324452 2.241212,-2.626486 -2.895454 2.417444,-2.108597 -4.770916 1.729084,-2.141405 -3.648233 2.12251,-2.141405 -3.648233 2.12251,-2.196604 -2.570747 2.563097,-1.823493 -4.948823 1.894991,-1.769918 -3.915127 2.295631,-1.761197 -3.342551 2.589001,-1.774632 -2.812658 2.795623,-1.550915 -5.367342 2.074126,-1.3795 -4.587886 2.444976,-1.32238 -4.091486 2.711389,-1.299286 -3.585828 2.938785,-8.439725 -7.280661 0.3457382,-7.974724 -6.962888 0.646714,-7.661757 -6.297792 0.9092067,-7.509972 -5.70343 1.173697,-7.342603 -5.333911 1.437122,-8.21272 -4.924161 0.7489705,-8.238422 -4.01461 0.9894109,-8.301964 -3.478281 1.199075,-8.372529 -2.975889 1.337945,-8.532482 -4.875385 0.7882488,-8.627213 -3.802955 0.9842038,-8.700895 -3.138344 1.215339,-8.772223 -2.53329 1.408272,-8.810299 -5.038665 0.8436481,-8.915367 -4.029191 1.015735,-8.997035 -3.379527 1.195442,-9.064683 -2.813882 1.361791,-9.070748 -5.401108 0.9263864,-9.235189 -4.622592 1.066459,-9.348525 -4.120649 1.184824,-9.443598 -3.634027 1.290786,3.010,20  0
-1.946232 -7.496585 1.173137,-2.467585 -7.008361 1.482434,-2.87446 -6.294048 1.706324,-3.134725 -5.760148 1.912181,-3.378977 -5.413722 2.079038,-2.427767 -4.813625 1.620406,-2.522686 -3.807532 1.989969,-2.588182 -3.324452 2.241212,-2.626486 -2.895454 2.417444,-2.108597 -4.770916 1.729084,-2.141405 -3.648233 2.12251,-2.141405 -3.648233 2.12251,-2.196604 -2.570747 2.563097,-1.823493 -4.948823 1.894991,-1.769918 -3.915127 2.295631,-1.761197 -3.342551 2.589001,-1.774632 -2.812658 2.795623,-1.550915 -5.367342 2.074126,-1.3795 -4.587886 2.444976,-1.32238 -4.091486 2.711389,-1.299286 -3.585828 2.938785,-8.436193 -7.28651 0.4378302,-7.975704 -6.971239 0.7585974,-7.660039 -6.304666 1.025403,-7.504053 -5.700162 1.298402,-7.339795 -5.327948 1.56619,-8.21352 -4.897602 0.8169633,-8.233932 -3.990629 1.047081,-8.295261 -3.456834 1.249724,-8.365007 -2.961158 1.381857,-8.525281 -4.848659 0.8477699,-8.62157 -3.773962 1.036681,-8.695848 -3.108871 1.262567,-8.771294 -2.508754 1.444699,-8.799504 -5.015357 0.9059102,-8.910733 -4.019202 1.070244,-8.994816 -3.377525 1.240004,-9.066525 -2.81924 1.396861,-9.05466 -5.385782 0.992072,-9.226681 -4.612236 1.136368,-9.341587 -4.107877 1.259127,-9.439692 -3.626246 1.359212,3.110,20  0
-1.946232 -7.496585 1.173137,-2.467585 -7.008361 1.482434,-2.87446 -6.294048 1.706324,-3.134725 -5.760148 1.912181,-3.378977 -5.413722 2.079038,-2.427767 -4.813625 1.620406,-2.522686 -3.807532 1.989969,-2.588182 -3.324452 2.241212,-2.626486 -2.895454 2.417444,-2.108597 -4.770916 1.729084,-2.141405 -3.648233 2.12251,-2.141405 -3.648233 2.12251,-2.196604 -2.570747 2.563097,-1.823493 -4.948823 1.894991,-1.769918 -3.915127 2.295631,-1.761197 -3.342551 2.589001,-1.774632 -2.812658 2.795623,-1.550915 -5.367342 2.074126,-1.3795 -4.587886 2.444976,-1.32238 -4.091486 2.711389,-1.299286 -3.585828 2.938785,-8.442347 -7.321283 0.5217887,-7.981961 -6.991625 0.8290443,-7.659948 -6.32465 1.095331,-7.501541 -5.714487 1.372529,-7.339631 -5.334177 1.643172,-8.209973 -4.911502 0.8935162,-8.228502 -4.015081 1.125816,-8.290664 -3.485652 1.332177,-8.360266 -2.995556 1.467197,-8.526682 -4.857947 0.9258378,-8.617634 -3.784332 1.107059,-8.690598 -3.114854 1.33258,-8.763752 -2.514536 1.518707,-8.80529 -5.020015 0.9802927,-8.911764 -4.025304 1.133536,-8.990654 -3.382711 1.291769,-9.055958 -2.827763 1.444929,-9.064861 -5.389858 1.063441,-9.232922 -4.619678 1.18938,-9.340858 -4.117719 1.296404,-9.43017 -3.638288 1.389988,3.210,20  0
-1.946232 -7.496585 1.173137,-2.467585 -7.008361 1.482434,-2.87446 -6.294048 1.706324,-3.134725 -5.760148 1.912181,-3.378977 -5.413722 2.079038,-2.427767 -4.813625 1.620406,-2.522686 -3.807532 1.989969,-2.588182 -3.324452 2.241212,-2.626486 -2.895454 2.417444,-2.108597 -4.770916 1.729084,-2.141405 -3.648233 2.12251,-2.141405 -3.648233 2.12251,-2.196604 -2.570747 2.563097,-1.823493 -4.948823 1.894991,-1.769918 -3.915127 2.295631,-1.761197 -3.342551 2.589001,-1.774632 -2.812658 2.795623,-1.550915 -5.367342 2.074126,-1.3795 -4.587886 2.444976,-1.32238 -4.091486 2.711389,-1.299286 -3.585828 2.938785,-8.445075 -7.336327 0.5125452,-7.991982 -6.987217 0.833603,-7.672265 -6.323571 1.109344,-7.508825 -5.713111 1.391418,-7.34084 -5.331203 1.665259,-8.220778 -4.924783 0.8947069,-8.23602 -4.02553 1.130572,-8.295719 -3.488024 1.342361,-8.3653 -2.983581 1.48631,-8.53022 -4.877609 0.9278692,-8.622345 -3.805555 1.126148,-8.697058 -3.13148 1.364347,-8.771874 -2.519883 1.554195,-8.802156 -5.046686 0.9895874,-8.913365 -4.063266 1.157653,-8.997063 -3.416544 1.33032,-9.065557 -2.853199 1.488783,-9.056622 -5.420757 1.079601,-9.226809 -4.646432 1.229989,-9.337838 -4.138729 1.355868,-9.430109 -3.656025 1.456869,3.310,20  0
-1.716812 -7.587272 2.441291,-2.285867 -6.835895 2.493079,-2.685317 -5.987026 2.567118,-2.921618 -5.335254 2.7235,-3.172865 -4.918561 2.925188,-2.170251 -4.472206 2.414398,-2.261798 -3.473638 2.587164,-2.308148 -2.90555 2.674034,-2.348484 -2.352588 2.753874,-1.849948 -4.444535 2.584509,-1.853893 -3.331001 2.808614,-1.853893 -3.331001 2.808614,-1.848638 -2.041915 3.150013,-1.564832 -4.636449 2.804579,-1.49073 -3.636067 3.070377,-1.499223 -3.016765 3.274619,-1.517034 -2.444438 3.403498,-1.286824 -5.053834 3.031636,-1.129028 -4.316673 3.277614,-1.072515 -3.820715 3.477481,-1.043935 -3.272945 3.616951,-8.436194 -7.316747 0.5199001,-7.980129 -6.973017 0.8263214,-7.661762 -6.300573 1.083943,-7.507353 -5.689458 1.350517,-7.348565 -5.315451 1.609687,-8.211236 -4.906492 0.8883935,-8.22401 -4.011392 1.118608,-8.284651 -3.480175 1.327393,-8.354441 -2.983598 1.467738,-8.527471 -4.854219 0.9239068,-8.620456 -3.783252 1.104149,-8.696567 -3.117127 1.333677,-8.771945 -2.513278 1.516398,-8.803833 -5.019367 0.9825234,-8.912987 -4.032337 1.131582,-8.999941 -3.392063 1.294297,-9.071832 -2.834593 1.446787,-9.058397 -5.393496 1.072613,-9.228397 -4.628269 1.194116,-9.341091 -4.127265 1.300277,-9.43702 -3.647476 1.39226,3.410,20  0
-1.716812 -7.587272 2.441291,-2.285867 -6.835895 2.493079,-2.685317 -5.987026 2.567118,-2.921618 -5.335254 2.7235,-3.172865 -4.918561 2.925188,-2.170251 -4.472206 2.414398,-2.261798 -3.473638 2.587164,-2.308148 -2.90555 2.674034,-2.348484 -2.352588 2.753874,-1.849948 -4.444535 2.584509,-1.853893 -3.331001 2.808614,-1.853893 -3.331001 2.808614,-1.848638 -2.041915 3.150013,-1.564832 -4.636449 2.804579,-1.49073 -3.636067 3.070377,-1.499223 -3.016765 3.274619,-1.517034 -2.444438 3.403498,-1.286824 -5.053834 3.031636,-1.129028 -4.316673 3.277614,-1.072515 -3.820715 3.477481,-1.043935 -3.272945 3.616951,-8.442454 -7.318326 0.5310824,-7.978087 -6.978761 0.8309132,-7.660565 -6.30681 1.094131,-7.506573 -5.69553 1.366638,-7.346069 -5.319253 1.633428,-8.211835 -4.906412 0.9057354,-8.232671 -4.007932 1.13421,-8.297194 -3.477879 1.338093,-8.369503 -2.979233 1.476119,-8.52693 -4.854012 0.9454229,-8.624522 -3.780916 1.131672,-8.698443 -3.114173 1.357592,-8.770883 -2.507915 1.539013,-8.803061 -5.019832 1.011015,-8.91665 -4.026039 1.170585,-8.997042 -3.38245 1.33668,-9.06327 -2.820673 1.493542,-9.058435 -5.392633 1.104089,-9.232826 -4.623902 1.240073,-9.345968 -4.121156 1.358624,-9.441586 -3.637752 1.456366,3.510,20  0
-1.716812 -7.587272 2.441291,-2.285867 -6.835895 2.493079,-2.685317 -5.987026 2.567118,-2.921618 -5.335254 2.7235,-3.172865 -4.918561 2.925188,-2.170251 -4.472206 2.414398,-2.261798 -3.473638 2.587164,-2.308148 -2.90555 2.674034,-2.348484 -2.352588 2.753874,-1.849948 -4.444535 2.584509,-1.853893 -3.331001 2.808614,-1.853893 -3.331001 2.808614,-1.848638 -2.041915 3.150013,-1.564832 -4.636449 2.804579,-1.49073 -3.636067 3.070377,-1.499223 -3.016765 3.274619,-1.517034 -2.444438 3.403498,-1.286824 -5.053834 3.031636,-1.129028 -4.316673 3.277614,-1.072515 -3.820715 3.477481,-1.043935 -3.272945 3.616951,-8.433398 -7.332262 0.5157699,-7.962513 -6.982677 0.7656288,-7.644727 -6.316598 1.00775,-7.490351 -5.699849 1.258162,-7.334352 -5.327142 1.499146,-8.206372 -4.92139 0.8754957,-8.233382 -4.006574 1.093889,-8.299106 -3.475309 1.28508,-8.370255 -2.979953 1.413947,-8.527449 -4.870628 0.9172624,-8.622643 -3.778295 1.099796,-8.699088 -3.101537 1.31437,-8.772762 -2.491534 1.493384,-8.807379 -5.039196 0.972705,-8.916524 -4.027241 1.124199,-9.001608 -3.367279 1.276015,-9.071849 -2.798501 1.425345,-9.063546 -5.416549 1.049516,-9.233685 -4.636386 1.165922,-9.344701 -4.123481 1.271979,-9.435505 -3.632813 1.365072,3.610,20  0
-1.716812 -7.587272 2.441291,-2.285867 -6.835895 2.493079,-2.685317 -5.987026 2.567118,-2.921618 -5.335254 2.7235,-3.172865 -4.918561 2.925188,-2.170251 -4.472206 2.414398,-2.261798 -3.473638 2.587164,-2.308148 -2.90555 2.674034,-2.348484 -2.352588 2.753874,-1.849948 -4.444535 2.584509,-1.853893 -3.331001 2.808614,-1.853893 -3.331001 2.808614,-1.848638 -2.041915 3.150013,-1.564832 -4.636449 2.804579,-1.49073 -3.636067 3.070377,-1.499223 -3.016765 3.274619,-1.517034 -2.444438 3.403498,-1.286824 -5.053834 3.031636,-1.129028 -4.316673 3.277614,-1.072515 -3.820715 3.477481,-1.043935 -3.272945 3.616951,-8.433028 -7.340189 0.5721242,-7.965603 -6.994787 0.863472,-7.644297 -6.317317 1.124186,-7.485806 -5.700555 1.393279,-7.3238 -5.320466 1.65271,-8.206645 -4.913196 0.951839,-8.227998 -4.003541 1.18686,-8.289266 -3.470933 1.391189,-8.36002 -2.968464 1.528486,-8.521873 -4.865123 0.9921665,-8.612916 -3.788742 1.186473,-8.688053 -3.118309 1.414123,-8.764591 -2.50451 1.598775,-8.797437 -5.033333 1.054961,-8.903996 -4.03211 1.219722,-8.988638 -3.383579 1.382861,-9.060769 -2.820123 1.539339,-9.053344 -5.410213 1.14264,-9.222968 -4.625208 1.279687,-9.33604 -4.114135 1.394238,-9.432384 -3.625009 1.493858,3.710,20  0
-1.716812 -7.587272 2.441291,-2.285867 -6.835895 2.493079,-2.685317 -5.987026 2.567118,-2.921618 -5.335254 2.7235,-3.172865 -4.918561 2.925188,-2.170251 -4.472206 2.414398,-2.261798 -3.473638 2.587164,-2.308148 -2.90555 2.674034,-2.348484 -2.352588 2.753874,-1.849948 -4.444535 2.584509,-1.853893 -3.331001 2.808614,-1.853893 -3.331001 2.808614,-1.848638 -2.041915 3.150013,-1.564832 -4.636449 2.804579,-1.49073 -3.636067 3.070377,-1.499223 -3.016765 3.274619,-1.517034 -2.444438 3.403498,-1.286824 -5.053834 3.031636,-1.129028 -4.316673 3.277614,-1.072515 -3.820715 3.477481,-1.043935 -3.272945 3.616951,-8.402473 -7.340806 0.5764295,-7.941776 -6.984439 0.8753058,-7.623672 -6.30961 1.139204,-7.46294 -5.697887 1.414954,-7.302992 -5.317585 1.682579,-8.191354 -4.900941 0.9420923,-8.212746 -4.000146 1.171068,-8.272142 -3.473953 1.371631,-8.340712 -2.984766 1.505908,-8.504077 -4.863395 0.9869672,-8.599339 -3.796715 1.173748,-8.674947 -3.133976 1.404151,-8.752531 -2.528846 1.589433,-8.775534 -5.042621 1.05726,-8.889972 -4.060506 1.219277,-8.974131 -3.422553 1.39069,-9.046549 -2.863882 1.548106,-9.025961 -5.427671 1.154734,-9.206017 -4.664453 1.301489,-9.322599 -4.163379 1.427477,-9.422715 -3.682294 1.529541,3.810,20  0
-1.716812 -7.587272 2.441291,-2.285867 -6.835895 2.493079,-2.685317 -5.987026 2.567118,-2.921618 -5.335254 2.7235,-3.172865 -4.918561 2.925188,-2.170251 -4.472206 2.414398,-2.261798 -3.473638 2.587164,-2.308148 -2.90555 2.674034,-2.348484 -2.352588 2.753874,-1.849948 -4.444535 2.584509,-1.853893 -3.331001 2.808614,-1.853893 -3.331001 2.808614,-1.848638 -2.041915 3.150013,-1.564832 -4.636449 2.804579,-1.49073 -3.636067 3.070377,-1.499223 -3.016765 3.274619,-1.517034 -2.444438 3.403498,-1.286824 -5.053834 3.031636,-1.129028 -4.316673 3.277614,-1.072515 -3.820715 3.477481,-1.043935 -3.272945 3.616951,-8.389808 -7.341712 0.529551,-7.926727 -6.992563 0.8158581,-7.608986 -6.321527 1.077059,-7.453819 -5.709661 1.344883,-7.297031 -5.333582 1.602789,-8.174825 -4.930196 0.9464594,-8.201155 -4.016891 1.194949,-8.262423 -3.491813 1.399776,-8.333036 -2.995748 1.535947,-8.490872 -4.887071 0.9919401,-8.585519 -3.80642 1.207233,-8.661712 -3.13745 1.443509,-8.739082 -2.523424 1.636021,-8.768078 -5.062013 1.056107,-8.878789 -4.066957 1.232684,-8.964313 -3.419153 1.403998,-9.036984 -2.853631 1.566754,-9.024171 -5.445973 1.141843,-9.198487 -4.667515 1.291099,-9.315387 -4.155523 1.419068,-9.412764 -3.662604 1.529999,3.910,20  0
-1.63657 -7.43054 1.077343,-2.118037 -6.900259 1.353444,-2.4873 -6.159322 1.525781,-2.696386 -5.531827 1.695536,-2.892396 -5.138083 1.845264,-1.960856 -4.728273 1.417087,-2.022456 -3.751842 1.681797,-2.043969 -3.18662 1.841799,-2.064657 -2.625841 1.955754,-1.635387 -4.702507 1.491683,-1.626694 -3.580409 1.824523,-1.626694 -3.580409 1.824523,-1.623261 -2.324401 2.237923,-1.343408 -4.883274 1.612865,-1.273278 -3.877244 1.958451,-1.240798 -3.26439 2.202582,-1.229971 -2.694108 2.382278,-1.070986 -5.264587 1.760321,-0.9063077 -4.525751 2.057637,-0.8158813 -4.046232 2.262843,-0.7606907 -3.557559 2.423022,-8.36449 -7.316709 0.5007582,-7.882977 -6.98981 0.8294111,-7.558207 -6.325887 1.09956,-7.40196 -5.723638 1.369871,-7.232083 -5.333414 1.633757,-8.11473 -4.928775 0.940772,-8.14063 -4.018874 1.20451,-8.199908 -3.492857 1.427463,-8.263241 -2.987831 1.570955,-8.43826 -4.872295 0.9779977,-8.534679 -3.806476 1.192406,-8.61407 -3.155439 1.432577,-8.688056 -2.553778 1.625383,-8.721949 -5.040837 1.042167,-8.829575 -4.041222 1.24031,-8.91391 -3.40395 1.439975,-8.983456 -2.841856 1.617851,-8.985305 -5.418455 1.133345,-9.151142 -4.656759 1.307801,-9.267947 -4.161344 1.445897,-9.35978 -3.680263 1.565141,4.010,20  0
-1.569384 -7.332674 0.7294922,-2.059891 -6.855457 1.013654,-2.435322 -6.143848 1.187809,-2.640523 -5.522014 1.35812,-2.831783 -5.107866 1.510952,-1.900527 -4.743928 1.092166,-1.966037 -3.756545 1.326941,-1.987374 -3.176794 1.47328,-1.99887 -2.610561 1.580916,-1.578639 -4.706115 1.149352,-1.587665 -3.580497 1.452498,-1.587665 -3.580497 1.452498,-1.575102 -2.273073 1.805109,-1.287743 -4.883026 1.255487,-1.216465 -3.868742 1.564718,-1.185382 -3.235352 1.752512,-1.167888 -2.65483 1.90034,-1.009924 -5.245691 1.387256,-0.8426933 -4.484295 1.630019,-0.7438898 -4.009045 1.795079,-0.6717358 -3.542087 1.926576,-8.331565 -7.30814 0.5017486,-7.863144 -6.974692 0.8379499,-7.542922 -6.304714 1.112797,-7.383326 -5.709228 1.384611,-7.208728 -5.330571 1.648478,-8.092533 -4.913844 0.9497471,-8.115614 -4.007144 1.215613,-8.178612 -3.478183 1.435394,-8.247996 -2.973464 1.585011,-8.41197 -4.865786 0.9896007,-8.498917 -3.810606 1.220319,-8.57883 -3.153161 1.471971,-8.658793 -2.544769 1.677321,-8.695456 -5.039061 1.057424,-8.798124 -4.05281 1.267764,-8.879098 -3.409368 1.478053,-8.950285 -2.841136 1.665205,-8.963058 -5.421186 1.15108,-9.125648 -4.650207 1.337061,-9.23844 -4.143099 1.488103,-9.330778 -3.64874 1.61767,4.110,20  0
-1.542419 -7.267101 0.5603247,-2.02424 -6.819591 0.8645611,-2.386696 -6.116731 1.047281,-2.57771 -5.503433 1.22218,-2.770019 -5.108523 1.378243,-1.851123 -4.718078 0.9508832,-1.912848 -3.735754 1.192196,-1.924864 -3.156027 1.344194,-1.923426 -2.584078 1.45814,-1.522709 -4.691722 0.9929059,-1.523047 -3.590262 1.302807,-1.523047 -3.590262 1.302807,-1.496861 -2.310436 1.648472,-1.231932 -4.876586 1.087188,-1.158219 -3.864318 1.401395,-1.127054 -3.22509 1.597735,-1.105556 -2.650913 1.754733,-0.9567871 -5.24761 1.209159,-0.7881165 -4.491522 1.457224,-0.6914101 -4.015434 1.636707,-0.6219397 -3.549108 1.785865,-8.299515 -7.27275 0.4851599,-7.827004 -6.957704 0.8081846,-7.50035 -6.296033 1.082508,-7.335144 -5.704897 1.354568,-7.164874 -5.320188 1.618243,-8.037377 -4.882087 0.9293182,-8.059796 -3.972328 1.188083,-8.115871 -3.438874 1.405479,-8.17923 -2.934182 1.546987,-8.360238 -4.834459 0.9720548,-8.444636 -3.771677 1.190839,-8.516273 -3.108256 1.434953,-8.588917 -2.500679 1.632774,-8.649978 -5.010991 1.040862,-8.747756 -4.016998 1.239565,-8.82211 -3.366091 1.444907,-8.886946 -2.794676 1.628765,-8.923039 -5.394368 1.133873,-9.081717 -4.615232 1.31102,-9.190889 -4.1044 1.459339,-9.2798 -3.6099 1.587517,4.210,20  0
-1.619434 -7.311832 0.8055773,-2.095199 -6.866585 1.113529,-2.43308 -6.099061 1.279803,-2.620124 -5.432857 1.432267,-2.807882 -4.964994 1.527753,-1.87892 -4.658779 1.096361,-1.901625 -3.550905 1.316725,-1.913407 -2.99018 1.512646,-1.908598 -2.49467 1.675444,-1.555364 -4.653213 1.149941,-1.514516 -3.437822 1.394249,-1.514516 -3.437822 1.394249,-1.500274 -2.295434 1.786915,-1.26755 -4.860105 1.2674,-1.155351 -3.775444 1.510942,-1.103063 -3.17897 1.726902,-1.066035 -2.636234 1.918101,-1.004769 -5.259105 1.40659,-0.7875671 -4.471385 1.643081,-0.6924877 -3.992391 1.843237,-0.6311951 -3.508832 2.02444,-8.245702 -7.281078 0.5069873,-7.776368 -6.952604 0.8338826,-7.455407 -6.285606 1.11007,-7.292946 -5.695552 1.382299,-7.120089 -5.317836 1.647219,-7.994197 -4.885015 0.9637594,-8.016655 -3.971607 1.228459,-8.072004 -3.436546 1.452241,-8.132971 -2.921706 1.605158,-8.315169 -4.840595 1.013196,-8.399955 -3.776313 1.246074,-8.473105 -3.108086 1.496552,-8.543963 -2.492116 1.699717,-8.605627 -5.023517 1.088945,-8.701352 -4.021539 1.298575,-8.776593 -3.359643 1.512731,-8.842373 -2.776444 1.703358,-8.880127 -5.415977 1.19008,-9.04556 -4.632045 1.375197,-9.157495 -4.116798 1.530899,-9.246202 -3.61927 1.667863,4.310,20  0
-1.67323 -7.37605 1.026817,-2.17096 -6.862165 1.307848,-2.541738 -6.10417 1.472473,-2.766686 -5.50113 1.626979,-2.976376 -5.110239 1.772382,-2.000645 -4.676061 1.315017,-2.072229 -3.745196 1.571333,-2.072406 -3.18288 1.728332,-2.062283 -2.645765 1.853309,-1.66583 -4.65238 1.366715,-1.66048 -3.601961 1.661202,-1.66048 -3.601961 1.661202,-1.615534 -2.367275 2.049468,-1.366341 -4.835827 1.479744,-1.275962 -3.865673 1.759597,-1.242792 -3.258028 1.996543,-1.214242 -2.711093 2.170108,-1.085588 -5.221674 1.606323,-0.9080353 -4.508882 1.883588,-0.8324113 -4.031353 2.09031,-0.7818995 -3.557469 2.245959,-8.230711 -7.271558 0.5117195,-7.751189 -6.947595 0.8516228,-7.42275 -6.289956 1.135909,-7.257723 -5.701824 1.414259,-7.087662 -5.313936 1.685873,-7.968118 -4.880313 0.9853222,-7.985626 -3.960225 1.255539,-8.038507 -3.423531 1.483527,-8.096026 -2.90684 1.631808,-8.295292 -4.831232 1.026026,-8.372996 -3.765719 1.25594,-8.442677 -3.101583 1.503055,-8.510714 -2.486845 1.703952,-8.590336 -5.01152 1.092507,-8.679902 -4.007944 1.298004,-8.751375 -3.349046 1.508952,-8.812513 -2.770239 1.697384,-8.868613 -5.401329 1.187627,-9.028295 -4.624584 1.366265,-9.137367 -4.112442 1.518306,-9.221124 -3.618285 1.655098,4.410,20  0
-1.67323 -7.37605 1.026817,-2.17096 -6.862165 1.307848,-2.541738 -6.10417 1.472473,-2.766686 -5.50113 1.626979,-2.976376 -5.110239 1.772382,-2.000645 -4.676061 1.315017,-2.072229 -3.745196 1.571333,-2.072406 -3.18288 1.728332,-2.062283 -2.645765 1.853309,-1.66583 -4.65238 1.366715,-1.66048 -3.601961 1.661202,-1.66048 -3.601961 1.661202,-1.615534 -2.367275 2.049468,-1.366341 -4.835827 1.479744,-1.275962 -3.865673 1.759597,-1.242792 -3.258028 1.996543,-1.214242 -2.711093 2.170108,-1.085588 -5.221674 1.606323,-0.9080353 -4.508882 1.883588,-0.8324113 -4.031353 2.09031,-0.7818995 -3.557469 2.245959,-8.160501 -7.210598 0.4726751,-7.666281 -6.89587 0.7989202,-7.326807 -6.234546 1.071409,-7.156806 -5.646662 1.340595,-6.980696 -5.244853 1.603278,-7.877494 -4.839458 0.9292523,-7.892863 -3.896541 1.193585,-7.93634 -3.357178 1.416504,-7.984332 -2.833944 1.556664,-8.208262 -4.780481 0.9832294,-8.277679 -3.709648 1.205543,-8.340345 -3.039404 1.451347,-8.402568 -2.419317 1.647487,-8.507958 -4.963279 1.060678,-8.590427 -3.94243 1.268548,-8.657479 -3.268599 1.493296,-8.713951 -2.668581 1.686627,-8.793854 -5.357097 1.16544,-8.956154 -4.569643 1.355525,-9.061935 -4.051835 1.519149,-9.142523 -3.547555 1.662409,4.510,20  0
-1.67323 -7.37605 1.026817,-2.17096 -6.862165 1.307848,-2.541738 -6.10417 1.472473,-2.766686 -5.50113 1.626979,-2.976376 -5.110239 1.772382,-2.000645 -4.676061 1.315017,-2.072229 -3.745196 1.571333,-2.072406 -3.18288 1.728332,-2.062283 -2.645765 1.853309,-1.66583 -4.65238 1.366715,-1.66048 -3.601961 1.661202,-1.66048 -3.601961 1.661202,-1.615534 -2.367275 2.049468,-1.366341 -4.835827 1.479744,-1.275962 -3.865673 1.759597,-1.242792 -3.258028 1.996543,-1.214242 -2.711093 2.170108,-1.085588 -5.221674 1.606323,-0.9080353 -4.508882 1.883588,-0.8324113 -4.031353 2.09031,-0.7818995 -3.557469 2.245959,-8.067733 -7.105268 0.4130496,-7.565652 -6.794517 0.6624837,-7.223349 -6.134293 0.8915008,-7.047998 -5.548105 1.124981,-6.862867 -5.157123 1.360316,-7.772714 -4.742959 0.7672337,-7.775507 -3.787401 0.9808405,-7.802211 -3.237996 1.169113,-7.832223 -2.708166 1.297532,-8.109819 -4.675134 0.8336606,-8.169686 -3.602427 1.007653,-8.212823 -2.919388 1.233506,-8.254309 -2.297382 1.424267,-8.415471 -4.85543 0.913725,-8.483172 -3.832307 1.079076,-8.526735 -3.144922 1.272626,-8.562119 -2.536779 1.447756,-8.709014 -5.236228 1.019654,-8.858731 -4.439428 1.174934,-8.952875 -3.912706 1.318999,-9.022647 -3.395486 1.444885,4.610,20  0
-2.300944 -7.43272 1.41993,-2.872378 -6.969163 1.748404,-3.293454 -6.223695 2.049493,-3.580864 -5.618051 2.353209,-3.869295 -5.15366 2.628516,-2.825766 -4.690408 1.915702,-2.945906 -3.536614 2.279051,-3.059357 -3.139901 2.5663,-3.152098 -2.90261 2.766957,-2.480855 -4.657426 2.074584,-2.506413 -3.393443 2.436496,-2.506413 -3.393443 2.436496,-2.670603 -2.461563 2.952637,-2.172847 -4.890386 2.286458,-2.089265 -3.767622 2.669594,-2.118618 -3.157478 3.005446,-2.190047 -2.615331 3.288234,-1.902164 -5.380706 2.515056,-1.719991 -4.567345 2.905485,-1.698796 -4.03153 3.225028,-1.740692 -3.518976 3.521393,-8.029831 -7.091455 0.3702374,-7.509152 -6.790781 0.58037,-7.160145 -6.11197 0.7796783,-6.980607 -5.520311 0.9892967,-6.787355 -5.135526 1.2005,-7.70633 -4.74345 0.6761105,-7.710254 -3.770875 0.8785835,-7.738914 -3.209169 1.055279,-7.774337 -2.674406 1.172671,-8.048868 -4.666051 0.746008,-8.111609 -3.578229 0.9110926,-8.157421 -2.875998 1.137195,-8.201864 -2.249012 1.329472,-8.358743 -4.83673 0.8245267,-8.430893 -3.799115 0.9823294,-8.475204 -3.100896 1.175768,-8.51283 -2.493442 1.353973,-8.65269 -5.206156 0.9255942,-8.803754 -4.403602 1.072447,-8.896519 -3.873231 1.223936,-8.962317 -3.359425 1.354083,4.710,20  0
-2.508377 -7.550884 0.8381571,-3.030963 -7.103553 1.091442,-3.441154 -6.407453 1.318079,-3.746962 -5.871498 1.567037,-4.024552 -5.503957 1.849328,-2.961058 -4.932223 1.14841,-3.092793 -3.936083 1.458417,-3.192097 -3.3656 1.659973,-3.296753 -2.836095 1.813925,-2.644629 -4.90159 1.289274,-2.681127 -3.835626 1.669836,-2.681127 -3.835626 1.669836,-2.815202 -2.613529 2.10155,-2.35756 -5.101358 1.499137,-2.306318 -4.14454 1.880687,-2.33172 -3.52167 2.198822,-2.394701 -2.970033 2.404402,-2.092005 -5.49854 1.718782,-1.931011 -4.79549 2.070719,-1.888432 -4.288017 2.32506,-1.89079 -3.775676 2.519978,-7.953976 -7.127496 0.3839261,-7.426764 -6.823755 0.5437919,-7.067137 -6.140058 0.7135934,-6.87898 -5.531369 0.8963087,-6.685629 -5.155963 1.077245,-7.60326 -4.77311 0.6411368,-7.604411 -3.783886 0.8250917,-7.630503 -3.190742 0.9867792,-7.656668 -2.647247 1.101976,-7.947359 -4.690687 0.7078737,-7.993538 -3.595824 0.8510201,-8.029736 -2.871788 1.059103,-8.066855 -2.230047 1.248922,-8.265185 -4.848887 0.7804006,-8.321546 -3.819416 0.9132829,-8.362288 -3.113241 1.065441,-8.399487 -2.50045 1.209993,-8.567823 -5.203739 0.867013,-8.718687 -4.388727 0.9864444,-8.809978 -3.837406 1.10457,-8.873472 -3.308589 1.205727,4.810,20  0
-2.607562 -7.498183 0.3109292,-3.133026 -7.106095 0.5517345,-3.553055 -6.472105 0.7817653,-3.878166 -5.989746 1.034163,-4.163581 -5.642454 1.315784,-3.073366 -5.038285 0.6389213,-3.202812 -4.042619 0.9241185,-3.310182 -3.473809 1.112102,-3.424805 -2.960985 1.259558,-2.76588 -5.008213 0.7886455,-2.81564 -3.956615 1.148717,-2.81564 -3.956615 1.148717,-2.975828 -2.767601 1.528016,-2.478133 -5.210452 1.002771,-2.445337 -4.256076 1.379555,-2.486789 -3.626424 1.667997,-2.566344 -3.072597 1.865662,-2.209566 -5.610999 1.23494,-2.070918 -4.899862 1.56561,-2.042473 -4.396101 1.79886,-2.056726 -3.888827 1.989333,-7.924063 -7.147693 0.4338582,-7.408394 -6.838888 0.5627699,-7.050007 -6.151306 0.7185773,-6.854713 -5.553916 0.8951015,-6.654537 -5.200592 1.067421,-7.57715 -4.764957 0.6486675,-7.584635 -3.784374 0.8144124,-7.612584 -3.203601 0.9611128,-7.637771 -2.67047 1.068041,-7.914774 -4.692773 0.7281994,-7.9689 -3.606678 0.8597347,-8.003958 -2.885952 1.062972,-8.037582 -2.246038 1.25074,-8.228468 -4.859539 0.8141177,-8.291403 -3.837923 0.9347547,-8.336348 -3.128446 1.093667,-8.376334 -2.506479 1.245509,-8.52529 -5.223081 0.9084808,-8.681749 -4.433697 1.019396,-8.776928 -3.89151 1.142533,-8.844511 -3.366674 1.249969,4.910,20  0
-2.607562 -7.498183 0.3109292,-3.133026 -7.106095 0.5517345,-3.553055 -6.472105 0.7817653,-3.878166 -5.989746 1.034163,-4.163581 -5.642454 1.315784,-3.073366 -5.038285 0.6389213,-3.202812 -4.042619 0.9241185,-3.310182 -3.473809 1.112102,-3.424805 -2.960985 1.259558,-2.76588 -5.008213 0.7886455,-2.81564 -3.956615 1.148717,-2.81564 -3.956615 1.148717,-2.975828 -2.767601 1.528016,-2.478133 -5.210452 1.002771,-2.445337 -4.256076 1.379555,-2.486789 -3.626424 1.667997,-2.566344 -3.072597 1.865662,-2.209566 -5.610999 1.23494,-2.070918 -4.899862 1.56561,-2.042473 -4.396101 1.79886,-2.056726 -3.888827 1.989333,-7.883033 -7.207462 0.452784,-7.361292 -6.896553 0.5881752,-6.991383 -6.206625 0.7482318,-6.789876 -5.59843 0.9310504,-6.586411 -5.23674 1.114862,-7.515453 -4.820068 0.6720776,-7.522174 -3.828332 0.8386014,-7.548326 -3.24092 0.9862575,-7.570045 -2.704726 1.09201,-7.855525 -4.746789 0.7435198,-7.903543 -3.650836 0.8688997,-7.934439 -2.926883 1.068535,-7.962798 -2.287026 1.249843,-8.172211 -4.912081 0.8214538,-8.227287 -3.882932 0.9363831,-8.268401 -3.173698 1.08908,-8.30048 -2.554317 1.232988,-8.473777 -5.274072 0.9067414,-8.624092 -4.479176 1.013359,-8.716819 -3.935028 1.1342,-8.779929 -3.410179 1.239619,5.010,20  0
-2.625209 -7.80518 1.262035,-3.195087 -7.267027 1.384158,-3.632687 -6.577119 1.560782,-3.972172 -6.027675 1.802678,-4.250273 -5.613244 2.070029,-3.148054 -5.049181 1.397721,-3.315651 -4.004844 1.675677,-3.4243 -3.446852 1.836637,-3.537029 -2.917913 1.949737,-2.850262 -5.024877 1.617678,-2.925013 -3.901243 1.991007,-2.925013 -3.901243 1.991007,-3.139123 -2.73378 2.407211,-2.572613 -5.223552 1.901945,-2.566129 -4.193738 2.285633,-2.639734 -3.581823 2.593452,-2.753148 -3.053801 2.779811,-2.311157 -5.632226 2.190497,-2.172827 -4.860399 2.547563,-2.165688 -4.323572 2.818264,-2.203565 -3.775897 3.021709,-7.860312 -7.230975 0.4647374,-7.346174 -6.910156 0.5912564,-6.966556 -6.231893 0.754175,-6.751271 -5.630335 0.946875,-6.531535 -5.282124 1.148617,-7.47261 -4.841359 0.6683323,-7.470701 -3.864193 0.8397328,-7.493342 -3.281239 0.9924685,-7.512405 -2.749885 1.106679,-7.81061 -4.766706 0.7513416,-7.856791 -3.680515 0.8880716,-7.888268 -2.95559 1.099955,-7.917383 -2.314052 1.296919,-8.127028 -4.922395 0.8447635,-8.183515 -3.913949 0.9655641,-8.224487 -3.210929 1.118131,-8.256517 -2.598209 1.264393,-8.429094 -5.273646 0.9456091,-8.58042 -4.488737 1.048454,-8.675799 -3.951356 1.165432,-8.74155 -3.430584 1.271137,5.110,20  0
-2.658315 -7.125482 -0.5191231,-3.199554 -6.883457 -0.1462996,-3.591223 -6.398314 0.1685411,-3.895157 -5.934146 0.4627445,-4.247557 -5.577426 0.7561799,-3.203995 -4.975973 0.09362859,-3.372084 -3.865052 0.4720529,-3.498934 -3.355846 0.693252,-3.626049 -2.948791 0.7993116,-2.86748 -4.94088 0.1786608,-2.981846 -3.730914 0.5774083,-2.981846 -3.730914 0.5774083,-3.170789 -2.725459 1.003474,-2.561349 -5.1326 0.3158098,-2.553199 -4.054602 0.677204,-2.637015 -3.485102 0.9832643,-2.738802 -3.036704 1.207807,-2.274024 -5.507171 0.4563825,-2.12664 -4.732717 0.7854916,-2.111481 -4.226306 1.073734,-2.15716 -3.775283 1.329526,-7.853922 -7.235604 0.4427873,-7.327529 -6.911228 0.5949498,-6.943469 -6.234249 0.7772993,-6.725426 -5.638025 0.9838433,-6.504373 -5.281374 1.193323,-7.450007 -4.853145 0.6973178,-7.455606 -3.865982 0.8882902,-7.474203 -3.281126 1.049715,-7.485526 -2.74789 1.167449,-7.788296 -4.784467 0.7800619,-7.840641 -3.698194 0.9372225,-7.869678 -2.972296 1.160777,-7.891269 -2.325815 1.36196,-8.104143 -4.945156 0.8706785,-8.16587 -3.929241 1.014632,-8.202701 -3.223055 1.181296,-8.224681 -2.603795 1.332983,-8.406351 -5.298547 0.9698438,-8.562668 -4.511021 1.091367,-8.659585 -3.972717 1.214884,-8.72506 -3.452496 1.323857,5.210,20  0
-2.772715 -7.401474 -0.08715286,-3.286302 -7.104963 0.2497853,-3.685841 -6.528299 0.5026874,-3.993184 -6.029109 0.7580554,-4.283665 -5.608758 1.036605,-3.205775 -5.088487 0.3353286,-3.346664 -4.110591 0.6241451,-3.467642 -3.509362 0.8177556,-3.579273 -2.988068 0.9766582,-2.899249 -5.02968 0.4099524,-2.969487 -3.964096 0.7317706,-2.969487 -3.964096 0.7317706,-3.152636 -2.715477 1.163649,-2.613667 -5.207817 0.5426301,-2.60722 -4.236118 0.8618482,-2.67307 -3.583593 1.162998,-2.764902 -3.014852 1.388921,-2.349988 -5.579817 0.6990097,-2.23014 -4.866882 1.006051,-2.208059 -4.345705 1.258707,-2.220872 -3.814245 1.490138,-7.814417 -7.257715 0.4728844,-7.301356 -6.941719 0.6234758,-6.924535 -6.260814 0.8045141,-6.71026 -5.670915 1.012568,-6.486673 -5.32731 1.234055,-7.425039 -4.86141 0.7087637,-7.426641 -3.891383 0.89525,-7.442802 -3.311984 1.054436,-7.449651 -2.779024 1.169274,-7.762112 -4.795989 0.7984203,-7.815278 -3.72381 0.950004,-7.841365 -3.00667 1.172924,-7.857822 -2.36267 1.368752,-8.0778 -4.958665 0.8982427,-8.139319 -3.959735 1.042218,-8.174198 -3.263732 1.209038,-8.192002 -2.648168 1.354212,-8.381086 -5.31135 1.006513,-8.537197 -4.540744 1.132347,-8.63352 -4.005373 1.253534,-8.696914 -3.484631 1.357696,5.310,20  0
-2.772715 -7.401474 -0.08715286,-3.286302 -7.104963 0.2497853,-3.685841 -6.528299 0.5026874,-3.993184 -6.029109 0.7580554,-4.283665 -5.608758 1.036605,-3.205775 -5.088487 0.3353286,-3.346664 -4.110591 0.6241451,-3.467642 -3.509362 0.8177556,-3.579273 -2.988068 0.9766582,-2.899249 -5.02968 0.4099524,-2.969487 -3.964096 0.7317706,-2.969487 -3.964096 0.7317706,-3.152636 -2.715477 1.163649,-2.613667 -5.207817 0.5426301,-2.60722 -4.236118 0.8618482,-2.67307 -3.583593 1.162998,-2.764902 -3.014852 1.388921,-2.349988 -5.579817 0.6990097,-2.23014 -4.866882 1.006051,-2.208059 -4.345705 1.258707,-2.220872 -3.814245 1.490138,-7.812342 -7.261896 0.444208,-7.293694 -6.955312 0.6540782,-6.913006 -6.27654 0.8695382,-6.698016 -5.679334 1.097265,-6.475722 -5.310642 1.329852,-7.413155 -4.891866 0.7846055,-7.404505 -3.923564 1.023219,-7.413429 -3.338267 1.213906,-7.421145 -2.791835 1.348579,-7.748684 -4.821945 0.8574775,-7.787249 -3.743035 1.057569,-7.809311 -3.024723 1.305661,-7.831797 -2.370178 1.519487,-8.064356 -4.987257 0.9448805,-8.117229 -3.977773 1.123199,-8.15118 -3.275528 1.311948,-8.174998 -2.648372 1.478368,-8.373853 -5.345657 1.040758,-8.519189 -4.560991 1.19303,-8.608198 -4.025687 1.333491,-8.671093 -3.512318 1.455949,5.410,20  0
-2.711724 -7.883663 0.9954251,-3.303456 -7.423023 1.09049,-3.7543 -6.737117 1.284985,-4.098839 -6.214199 1.540724,-4.423551 -5.881633 1.823339,-3.307416 -5.21873 1.219287,-3.494855 -4.201111 1.503138,-3.635638 -3.663398 1.644622,-3.789591 -3.165187 1.735059,-3.001083 -5.200609 1.444868,-3.086452 -4.092943 1.842044,-3.086452 -4.092943 1.842044,-3.292035 -2.888106 2.291131,-2.713757 -5.401123 1.708586,-2.720885 -4.384183 2.12423,-2.784379 -3.768569 2.45133,-2.883433 -3.201641 2.669756,-2.441964 -5.802541 1.973532,-2.34731 -5.003013 2.348478,-2.34504 -4.491834 2.641483,-2.378709 -3.955832 2.875117,-7.803428 -7.264489 0.4169739,-7.2853 -6.956346 0.5973357,-6.903181 -6.281393 0.7981447,-6.686118 -5.685279 1.015846,-6.469989 -5.323659 1.24117,-7.408785 -4.895223 0.7063826,-7.400873 -3.931932 0.9213656,-7.408516 -3.350807 1.099803,-7.410542 -2.810678 1.22799,-7.745347 -4.824655 0.7824115,-7.786379 -3.748009 0.9531789,-7.80787 -3.03236 1.182176,-7.825858 -2.38126 1.384395,-8.061616 -4.98744 0.8704,-8.114841 -3.982548 1.021956,-8.148046 -3.2847 1.193385,-8.168535 -2.663092 1.35038,-8.369642 -5.340959 0.9668729,-8.51803 -4.568006 1.096313,-8.610447 -4.033195 1.225595,-8.674364 -3.517926 1.341574,5.510,20  0
-2.860094 -7.899977 0.470864,-3.396105 -7.463163 0.6793089,-3.836029 -6.812622 0.9126458,-4.185156 -6.343744 1.17932,-4.485437 -6.044374 1.473084,-3.371503 -5.410549 0.8373967,-3.536901 -4.450408 1.142786,-3.668833 -3.91539 1.333937,-3.814575 -3.419153 1.485549,-3.07082 -5.380049 1.012427,-3.153166 -4.338531 1.40344,-3.153166 -4.338531 1.40344,-3.375572 -3.182011 1.814741,-2.794647 -5.594577 1.243088,-2.78453 -4.626927 1.64425,-2.843721 -4.016275 1.961016,-2.947659 -3.478125 2.182137,-2.543277 -6.011456 1.493982,-2.416906 -5.28133 1.846084,-2.396229 -4.765733 2.112187,-2.418153 -4.241155 2.330787,-7.787596 -7.283662 0.4102834,-7.279483 -6.965522 0.591157,-6.900511 -6.294888 0.7935313,-6.684209 -5.705338 1.012403,-6.463954 -5.353549 1.243955,-7.405713 -4.909856 0.7086198,-7.394471 -3.950651 0.923393,-7.400415 -3.368928 1.100073,-7.400743 -2.826065 1.225706,-7.744439 -4.846746 0.7842882,-7.78214 -3.771274 0.9598449,-7.801414 -3.054542 1.190955,-7.818313 -2.402886 1.39177,-8.063748 -5.016356 0.8716022,-8.115179 -4.012593 1.027948,-8.145648 -3.314837 1.196644,-8.163431 -2.691285 1.345569,-8.37502 -5.37618 0.9664012,-8.521147 -4.593078 1.104962,-8.609638 -4.05235 1.232931,-8.668191 -3.530891 1.344137,5.610,20  0
-2.910851 -7.950237 0.3383698,-3.445166 -7.591226 0.5596212,-3.881548 -6.956604 0.7821881,-4.233368 -6.527492 1.027483,-4.553698 -6.252622 1.317337,-3.479897 -5.541134 0.7579579,-3.664464 -4.653361 1.126203,-3.807995 -4.179378 1.367451,-3.977055 -3.734901 1.557889,-3.172737 -5.488468 0.9421453,-3.262773 -4.52272 1.392961,-3.262773 -4.52272 1.392961,-3.527743 -3.461624 1.879635,-2.891301 -5.701498 1.183588,-2.900839 -4.814151 1.625361,-2.986915 -4.26721 1.982353,-3.121507 -3.789144 2.225548,-2.63534 -6.120513 1.435786,-2.537078 -5.456298 1.846862,-2.548336 -4.982584 2.148332,-2.605597 -4.499542 2.390413,-7.783642 -7.311 0.3973111,-7.27358 -6.998703 0.5605837,-6.896356 -6.323689 0.7445399,-6.678587 -5.733883 0.9505334,-6.453218 -5.392396 1.170619,-7.400182 -4.933485 0.644591,-7.395761 -3.968022 0.8385196,-7.406217 -3.388195 1.000817,-7.410628 -2.857505 1.115971,-7.737702 -4.871406 0.7263737,-7.783364 -3.79543 0.883075,-7.804962 -3.075154 1.105603,-7.822361 -2.433665 1.298063,-8.054725 -5.04085 0.818682,-8.112422 -4.034387 0.9697141,-8.143241 -3.334426 1.136577,-8.158916 -2.715585 1.281876,-8.361181 -5.399034 0.9181604,-8.514109 -4.619016 1.056744,-8.606414 -4.079792 1.186181,-8.666039 -3.559513 1.296611,5.710,20  0
-2.988809 -7.965209 0.1456262,-3.511202 -7.652056 0.3190398,-3.938058 -7.024248 0.5296577,-4.266336 -6.571641 0.7834944,-4.580863 -6.241031 1.095822,-3.593988 -5.602013 0.4920255,-3.752474 -4.753704 0.8457087,-3.896751 -4.308582 1.11368,-4.094849 -3.909483 1.320138,-3.281548 -5.554071 0.7082338,-3.348205 -4.658042 1.169379,-3.348205 -4.658042 1.169379,-3.720459 -3.894844 1.785649,-2.986599 -5.771708 0.9674598,-2.973119 -4.915308 1.403017,-3.099675 -4.449262 1.790028,-3.300316 -4.15187 2.059396,-2.711938 -6.184806 1.246651,-2.623365 -5.508197 1.636705,-2.693309 -5.078509 1.953986,-2.838625 -4.732227 2.215082,-7.794959 -7.358354 0.4322648,-7.287125 -7.047177 0.6213884,-6.907035 -6.365615 0.822375,-6.691289 -5.774818 1.038336,-6.46975 -5.427646 1.270129,-7.412489 -4.978778 0.7345661,-7.401998 -4.018171 0.9493989,-7.407585 -3.438202 1.123058,-7.408611 -2.898277 1.244719,-7.749627 -4.916077 0.8124606,-7.786485 -3.840724 0.988591,-7.806756 -3.129249 1.217239,-7.824302 -2.483411 1.413644,-8.066629 -5.0906 0.9036669,-8.11562 -4.082746 1.065631,-8.147931 -3.384782 1.242308,-8.166009 -2.761428 1.398735,-8.373862 -5.456954 1.002253,-8.524715 -4.67593 1.149079,-8.617648 -4.142377 1.284659,-8.678863 -3.633649 1.405233,5.810,20  0
-3.014899 -7.991703 0.1811803,-3.532791 -7.685359 0.3497202,-3.957134 -7.045299 0.561484,-4.275597 -6.59139 0.8191432,-4.587988 -6.265214 1.146558,-3.626837 -5.625067 0.5280845,-3.802544 -4.78951 0.8625895,-3.953077 -4.336668 1.125774,-4.156102 -3.944793 1.335072,-3.307493 -5.569879 0.7430499,-3.375604 -4.683479 1.182323,-3.375604 -4.683479 1.182323,-3.762469 -4.001943 1.817979,-3.009424 -5.78049 0.9970505,-3.003803 -4.926839 1.412477,-3.160719 -4.510225 1.790661,-3.380386 -4.305691 2.048802,-2.734931 -6.184691 1.271359,-2.661562 -5.509166 1.647807,-2.765591 -5.115718 1.949735,-2.940695 -4.859188 2.188015,-7.791759 -7.377077 0.468141,-7.288202 -7.066129 0.6983587,-6.915287 -6.383895 0.9238501,-6.703386 -5.792077 1.159904,-6.477365 -5.426372 1.408513,-7.417975 -4.993567 0.816734,-7.408597 -4.042269 1.053539,-7.413559 -3.470044 1.241203,-7.417896 -2.932935 1.371117,-7.752349 -4.931462 0.8918804,-7.79218 -3.867634 1.090197,-7.811756 -3.159634 1.335909,-7.831202 -2.507602 1.543097,-8.065866 -5.105611 0.9854347,-8.122032 -4.101268 1.165096,-8.157858 -3.406405 1.358842,-8.181988 -2.778341 1.526943,-8.372472 -5.472227 1.087805,-8.526681 -4.686834 1.250314,-8.619044 -4.152799 1.392339,-8.683493 -3.639349 1.517116,5.910,20  0
-3.012289 -8.00985 -0.07488615,-3.530939 -7.751998 0.1214804,-3.984534 -7.13619 0.334141,-4.306483 -6.687865 0.5926114,-4.608966 -6.340627 0.9297758,-3.676205 -5.724132 0.2125894,-3.87818 -4.905001 0.5119517,-4.036031 -4.458523 0.7699519,-4.22347 -4.128559 0.9694277,-3.350889 -5.651893 0.4056145,-3.43392 -4.746606 0.798146,-3.43392 -4.746606 0.798146,-3.821394 -4.277574 1.438805,-3.047521 -5.830665 0.6475132,-3.058413 -4.969889 1.021857,-3.249131 -4.652971 1.394411,-3.469728 -4.654922 1.654602,-2.758864 -6.197367 0.9104043,-2.692201 -5.493339 1.24935,-2.834734 -5.197624 1.530548,-3.02796 -5.148601 1.765512,-7.807344 -7.405813 0.4383833,-7.30052 -7.100669 0.6590071,-6.927831 -6.41872 0.8849611,-6.716647 -5.825454 1.117477,-6.492186 -5.469726 1.363002,-7.430512 -5.035469 0.7883118,-7.422205 -4.080986 1.024884,-7.430501 -3.511138 1.211827,-7.437448 -2.976664 1.341816,-7.766933 -4.968848 0.8621774,-7.806437 -3.906581 1.058928,-7.828436 -3.201553 1.299909,-7.850972 -2.555116 1.504282,-8.082588 -5.139358 0.9519931,-8.138214 -4.137167 1.126891,-8.17543 -3.44478 1.311647,-8.203412 -2.823278 1.476507,-8.390802 -5.504405 1.051346,-8.542633 -4.724226 1.201477,-8.633692 -4.192007 1.338302,-8.69779 -3.680346 1.463366,6.010,20  0
-3.018916 -7.97448 -0.358842,-3.52446 -7.766142 -0.1312617,-3.977186 -7.182443 0.1476139,-4.312219 -6.731736 0.4713005,-4.630682 -6.38447 0.8726594,-3.723881 -5.793131 0.03438279,-3.947098 -4.971931 0.3987067,-4.050496 -4.519805 0.7215501,-4.115412 -4.281831 0.9895569,-3.400285 -5.730056 0.2200533,-3.515568 -4.82405 0.7822084,-3.515568 -4.82405 0.7822084,-3.641158 -4.857029 1.496772,-3.085072 -5.887073 0.4396508,-3.126685 -5.057806 0.9212314,-3.281099 -4.900177 1.304619,-3.389179 -5.12778 1.53622,-2.761893 -6.227641 0.6896565,-2.733819 -5.526588 1.111231,-2.886752 -5.350288 1.443086,-3.037277 -5.477641 1.705571,-7.810712 -7.416008 0.356739,-7.308247 -7.097511 0.5460444,-6.934136 -6.431612 0.7510098,-6.715928 -5.849881 0.9713904,-6.489534 -5.51465 1.212042,-7.448757 -5.051763 0.6595975,-7.450071 -4.090609 0.8654789,-7.462799 -3.522554 1.03059,-7.469516 -2.997494 1.145363,-7.786008 -4.995523 0.7385325,-7.828681 -3.936286 0.9086642,-7.852019 -3.232746 1.127722,-7.870861 -2.590996 1.322323,-8.102279 -5.175815 0.8288989,-8.156771 -4.182281 0.9874892,-8.19096 -3.492609 1.159328,-8.209281 -2.874498 1.312145,-8.407751 -5.546572 0.9284424,-8.562088 -4.775224 1.068635,-8.658321 -4.243923 1.196585,-8.720294 -3.728197 1.314272,6.110,20  0
-3.00934 -7.929454 -0.6168637,-3.516251 -7.75307 -0.3724003,-3.977407 -7.211018 -0.07676536,-4.299204 -6.745695 0.255805,-4.628542 -6.416847 0.6468284,-3.756097 -5.82765 -0.273332,-3.947499 -5.055591 0.1184801,-4.066668 -4.626276 0.5384086,-4.159442 -4.43324 0.88234,-3.43856 -5.753948 -0.1072363,-3.555953 -4.835989 0.4889145,-3.555953 -4.835989 0.4889145,-3.60891 -5.0362 1.263052,-3.121395 -5.871896 0.1009206,-3.185911 -5.049016 0.5975444,-3.287925 -5.057249 0.9762269,-3.31386 -5.38385 1.190283,-2.779514 -6.150122 0.3406788,-2.81891 -5.510311 0.7828254,-2.958889 -5.56392 1.081068,-3.041295 -5.871747 1.300975,-7.820094 -7.431179 0.3544796,-7.308988 -7.122009 0.536341,-6.935609 -6.448081 0.7391802,-6.72056 -5.863834 0.9552703,-6.49505 -5.519317 1.19009,-7.452504 -5.070249 0.6634775,-7.453613 -4.104425 0.8714443,-7.465133 -3.533815 1.036084,-7.472149 -3.008379 1.14862,-7.791295 -5.012252 0.7416933,-7.836646 -3.947061 0.9158433,-7.858982 -3.239658 1.134046,-7.877317 -2.595225 1.325927,-8.108359 -5.190653 0.8286017,-8.162313 -4.184328 0.9843978,-8.196137 -3.490615 1.155066,-8.217165 -2.870641 1.306275,-8.414784 -5.557332 0.9214022,-8.564259 -4.774686 1.054651,-8.65915 -4.238195 1.178896,-8.722298 -3.721676 1.29338,6.210,20  0
-3.01959 -8.010597 -0.9370091,-3.528537 -7.854229 -0.6780796,-3.958595 -7.290088 -0.4103519,-4.264685 -6.828916 -0.1088495,-4.619318 -6.478553 0.2309093,-3.791821 -6.010195 -0.6138839,-3.975286 -5.303885 -0.2637832,-4.082667 -4.859961 0.08527994,-4.164097 -4.481365 0.3926339,-3.482897 -5.932058 -0.4527509,-3.599518 -5.13356 0.1256783,-3.599518 -5.13356 0.1256783,-3.614082 -5.078434 0.8352406,-3.15914 -6.032978 -0.2515937,-3.194959 -5.316116 0.2666794,-3.299524 -5.361498 0.6611421,-3.342187 -5.642629 0.8719386,-2.812184 -6.289261 -0.01189011,-2.792416 -5.70261 0.4564999,-2.916045 -5.794696 0.7748314,-3.001633 -6.11684 0.9887073,-7.821187 -7.449914 0.3380887,-7.312708 -7.133365 0.5015873,-6.939157 -6.465225 0.6924689,-6.72446 -5.884593 0.9008268,-6.503073 -5.550577 1.128136,-7.453938 -5.087417 0.6098945,-7.455032 -4.129805 0.8033001,-7.471529 -3.553689 0.9624525,-7.478629 -3.023017 1.073068,-7.795231 -5.030389 0.690646,-7.840029 -3.966468 0.8494801,-7.865 -3.257636 1.063269,-7.884943 -2.61911 1.252436,-8.114808 -5.208613 0.779907,-8.169082 -4.202751 0.925684,-8.203183 -3.511512 1.089293,-8.221816 -2.893768 1.233102,-8.423305 -5.578788 0.8748235,-8.576435 -4.801744 1.001326,-8.6706 -4.270236 1.12072,-8.729966 -3.754903 1.229988,6.310,20  0
-3.024694 -8.105217 -1.070569,-3.538212 -7.903551 -0.8267478,-3.954477 -7.338753 -0.5740689,-4.256044 -6.882501 -0.2884979,-4.604384 -6.507356 0.03906548,-3.791071 -6.145565 -0.6958184,-3.9798 -5.447488 -0.325837,-4.096792 -5.013153 0.0238173,-4.175352 -4.607078 0.3392876,-3.493768 -6.081827 -0.5321606,-3.602137 -5.315713 0.0312444,-3.602137 -5.315713 0.0312444,-3.572241 -5.067104 0.7291324,-3.176574 -6.195623 -0.3249407,-3.196451 -5.484819 0.1922548,-3.271345 -5.438788 0.5749336,-3.290171 -5.631455 0.787843,-2.839923 -6.466003 -0.09053475,-2.783988 -5.869907 0.3916612,-2.876624 -5.866281 0.7207799,-2.934433 -6.102655 0.9543563,-7.815062 -7.461298 0.3531635,-7.312563 -7.148459 0.5493791,-6.943034 -6.477706 0.7586954,-6.728662 -5.903753 0.9821335,-6.507169 -5.569239 1.223097,-7.457255 -5.09324 0.656969,-7.458143 -4.140768 0.8641082,-7.471916 -3.575326 1.035249,-7.478074 -3.052308 1.155159,-7.795193 -5.04231 0.7382731,-7.841003 -3.988792 0.9091959,-7.866187 -3.284218 1.138083,-7.887377 -2.643813 1.341194,-8.111679 -5.226135 0.8325084,-8.16829 -4.234507 0.9889772,-8.205004 -3.542968 1.169338,-8.225797 -2.919023 1.330518,-8.418571 -5.60325 0.9365867,-8.572896 -4.827045 1.078242,-8.668403 -4.299175 1.208906,-8.729852 -3.78582 1.331395,6.410,20  0
-2.990563 -8.182003 -1.415384,-3.549451 -7.986108 -1.170734,-3.963736 -7.446302 -0.9088066,-4.250496 -7.000445 -0.620407,-4.586821 -6.572381 -0.3067963,-3.80448 -6.384973 -0.8346353,-3.99591 -5.691259 -0.3329241,-4.16453 -5.271742 0.09293652,-4.302547 -4.880931 0.4519944,-3.507174 -6.354932 -0.6500479,-3.61687 -5.581642 0.048244,-3.61687 -5.581642 0.048244,-3.651075 -5.322643 0.8302776,-3.178041 -6.480655 -0.4242599,-3.211717 -5.758176 0.2046444,-3.284039 -5.704769 0.6086787,-3.293592 -5.809478 0.8378254,-2.831864 -6.74572 -0.1859362,-2.77244 -6.127681 0.3708255,-2.841198 -6.047206 0.7256798,-2.871672 -6.156202 0.9906882,-7.821332 -7.477185 0.306429,-7.317626 -7.171655 0.5297987,-6.946628 -6.508169 0.7521532,-6.73409 -5.929054 0.9829376,-6.514819 -5.574223 1.233344,-7.45647 -5.128297 0.648835,-7.454508 -4.170745 0.8692534,-7.468233 -3.604649 1.043,-7.477198 -3.086502 1.160098,-7.797528 -5.075506 0.7142597,-7.84133 -4.016006 0.8959131,-7.863871 -3.309631 1.124984,-7.88388 -2.669506 1.32474,-8.117947 -5.259477 0.7949098,-8.174349 -4.256675 0.9597578,-8.210958 -3.56579 1.143742,-8.233716 -2.946285 1.303577,-8.430229 -5.63323 0.8861594,-8.582474 -4.843261 1.033319,-8.680336 -4.307123 1.171138,-8.743425 -3.791187 1.295799,6.510,20  0
-2.976467 -8.141548 -1.602421,-3.583185 -7.984588 -1.350129,-3.976572 -7.469923 -1.07333,-4.253937 -7.071392 -0.7800706,-4.592799 -6.679698 -0.4779148,-3.785671 -6.41806 -0.9123536,-3.995552 -5.75975 -0.3901265,-4.20952 -5.354665 0.03037626,-4.414753 -4.996532 0.3806641,-3.473585 -6.426241 -0.7161566,-3.563015 -5.535888 0.03657502,-3.563015 -5.535888 0.03657502,-3.765282 -5.654293 0.8006912,-3.147005 -6.591016 -0.4808282,-3.16025 -5.766006 0.1836756,-3.312126 -5.813035 0.5672536,-3.395952 -6.035617 0.7480579,-2.822779 -6.894777 -0.2330468,-2.772629 -6.219707 0.3304973,-2.891144 -6.178239 0.6883493,-2.964991 -6.336893 0.9236882,-7.812653 -7.48286 0.2626015,-7.313386 -7.170666 0.4643658,-6.944644 -6.510166 0.6819881,-6.73169 -5.936908 0.9111222,-6.5151 -5.592815 1.156945,-7.461997 -5.14289 0.5823123,-7.465354 -4.185094 0.7964935,-7.480999 -3.614349 0.9675082,-7.489902 -3.088571 1.085163,-7.800663 -5.091558 0.6571383,-7.84457 -4.026508 0.8378356,-7.868174 -3.317478 1.06495,-7.8886 -2.673439 1.262371,-8.118674 -5.277232 0.7440481,-8.171849 -4.267539 0.9075105,-8.208359 -3.569922 1.087708,-8.231146 -2.943958 1.24666,-8.427845 -5.655263 0.8398141,-8.581255 -4.867284 0.983532,-8.679657 -4.334512 1.117404,-8.74418 -3.819217 1.241634,6.610,20  0
-3.04481 -8.179359 -1.600244,-3.570372 -8.052399 -1.302846,-3.955941 -7.521226 -1.0685,-4.211922 -7.123264 -0.8031034,-4.547701 -6.824272 -0.5116199,-3.794662 -6.395639 -1.122128,-4.008259 -5.899691 -0.5974931,-4.242335 -5.594409 -0.187288,-4.467674 -5.323312 0.1173954,-3.48719 -6.340817 -0.9672056,-3.63173 -5.644563 -0.2017977,-3.63173 -5.644563 -0.2017977,-3.796015 -6.801362 0.2571144,-3.165895 -6.473186 -0.7606529,-3.233505 -5.802871 -0.07532001,-3.40424 -6.451879 0.09670389,-3.464964 -6.921859 0.05280352,-2.839152 -6.745248 -0.5296162,-2.879991 -6.309499 0.02686954,-3.047817 -6.741848 0.1920146,-3.135429 -7.103104 0.2128811,-7.8178 -7.498834 0.2837019,-7.321295 -7.190019 0.5135601,-6.956539 -6.531218 0.7485836,-6.745313 -5.964981 0.9902912,-6.527674 -5.619915 1.253271,-7.469206 -5.160445 0.6466243,-7.471833 -4.210538 0.8794106,-7.486876 -3.64686 1.06093,-7.496789 -3.122756 1.179208,-7.808649 -5.108528 0.71922,-7.857554 -4.04911 0.9184406,-7.881423 -3.345134 1.156765,-7.900327 -2.704992 1.358347,-8.128017 -5.292756 0.8063395,-8.187727 -4.283281 0.985843,-8.225712 -3.589365 1.180984,-8.247935 -2.968121 1.34924,-8.439635 -5.668025 0.9040084,-8.596024 -4.88055 1.063383,-8.69381 -4.343423 1.20769,-8.754951 -3.827359 1.340177,6.710,20  0
-2.863476 -8.542006 -0.296222,-3.518673 -8.194611 -0.1506319,-3.988829 -7.62021 0.03032717,-4.303679 -7.169385 0.2715836,-4.618616 -6.886172 0.5293054,-3.902319 -6.373031 -0.001345217,-4.245836 -5.565692 0.6577914,-4.438801 -5.419079 1.146941,-4.542076 -5.387077 1.435347,-3.56087 -6.339838 0.2188011,-3.735981 -5.763906 1.047527,-3.735981 -5.763906 1.047527,-3.757996 -7.258235 1.102288,-3.215093 -6.4801 0.5110349,-3.327253 -5.849999 1.22138,-3.432028 -6.795612 1.207056,-3.453629 -7.279572 1.075007,-2.874956 -6.756353 0.8229413,-2.976155 -6.359287 1.27021,-3.13579 -6.995937 1.309262,-3.211008 -7.347396 1.264067,-7.815268 -7.487774 0.2316276,-7.318329 -7.195859 0.4448427,-6.953493 -6.535259 0.6607971,-6.743533 -5.958913 0.8847731,-6.523594 -5.612966 1.129504,-7.467319 -5.164737 0.5658264,-7.469916 -4.206949 0.7818748,-7.480982 -3.648796 0.9523455,-7.4891 -3.134955 1.066253,-7.807222 -5.107866 0.6405117,-7.853808 -4.047325 0.8287672,-7.874861 -3.347228 1.059654,-7.89251 -2.714771 1.259033,-8.124286 -5.294625 0.7292672,-8.178833 -4.288547 0.904849,-8.215884 -3.593148 1.102161,-8.239716 -2.96877 1.273237,-8.432687 -5.672098 0.8263124,-8.58796 -4.896993 0.9842616,-8.684888 -4.368322 1.134751,-8.747198 -3.855904 1.26987,6.810,20  0
-2.863476 -8.542006 -0.296222,-3.518673 -8.194611 -0.1506319,-3.988829 -7.62021 0.03032717,-4.303679 -7.169385 0.2715836,-4.618616 -6.886172 0.5293054,-3.902319 -6.373031 -0.001345217,-4.245836 -5.565692 0.6577914,-4.438801 -5.419079 1.146941,-4.542076 -5.387077 1.435347,-3.56087 -6.339838 0.2188011,-3.735981 -5.763906 1.047527,-3.735981 -5.763906 1.047527,-3.757996 -7.258235 1.102288,-3.215093 -6.4801 0.5110349,-3.327253 -5.849999 1.22138,-3.432028 -6.795612 1.207056,-3.453629 -7.279572 1.075007,-2.874956 -6.756353 0.8229413,-2.976155 -6.359287 1.27021,-3.13579 -6.995937 1.309262,-3.211008 -7.347396 1.264067,-7.805356 -7.499401 0.2333426,-7.312186 -7.205316 0.4772334,-6.952998 -6.542366 0.7102379,-6.744081 -5.9677 0.9468664,-6.518671 -5.617534 1.207247,-7.466977 -5.176528 0.5991714,-7.46922 -4.223739 0.8313087,-7.479761 -3.661714 1.013087,-7.487868 -3.139163 1.133813,-7.805349 -5.123859 0.6696855,-7.852331 -4.06171 0.8696536,-7.873734 -3.361673 1.111671,-7.892484 -2.722862 1.315639,-8.122997 -5.313164 0.7563843,-8.181114 -4.300884 0.9401906,-8.220568 -3.606921 1.145911,-8.245736 -2.981826 1.320219,-8.432943 -5.692879 0.855206,-8.589925 -4.907726 1.025296,-8.688341 -4.376542 1.178977,-8.751246 -3.86367 1.315785,6.910,20  0
-2.862583 -8.706999 -0.514605,-3.583799 -8.318602 -0.4401225,-4.054222 -7.661396 -0.2952183,-4.348946 -7.199321 -0.06146351,-4.678173 -6.980671 0.1648982,-3.961096 -6.639316 -0.3406823,-4.160911 -6.098189 0.2099916,-4.356815 -5.896536 0.5649765,-4.561832 -5.715613 0.7349908,-3.644753 -6.574155 -0.1287325,-3.807238 -5.888753 0.6245253,-3.807238 -5.888753 0.6245253,-3.837427 -7.349702 0.9063252,-3.301496 -6.668332 0.1334479,-3.401112 -6.015987 0.775305,-3.497637 -6.920698 0.8606144,-3.509648 -7.467052 0.7373544,-2.950572 -6.925123 0.4060565,-3.048537 -6.479796 0.8686905,-3.176807 -7.074739 0.9925222,-3.214066 -7.492601 0.9654399,-7.80923 -7.495113 0.2558538,-7.313749 -7.200795 0.4818762,-6.952818 -6.544776 0.7091112,-6.745184 -5.972089 0.9429932,-6.525548 -5.624084 1.198319,-7.468741 -5.162857 0.5975287,-7.470197 -4.21886 0.8189961,-7.481236 -3.662633 0.9943228,-7.488669 -3.14732 1.112453,-7.808825 -5.109063 0.6700001,-7.856245 -4.054872 0.8647314,-7.878195 -3.356997 1.101091,-7.895585 -2.720216 1.303368,-8.127846 -5.298999 0.7575206,-8.18374 -4.294076 0.9339724,-8.21963 -3.601689 1.128955,-8.241874 -2.978227 1.298647,-8.438221 -5.680919 0.8559815,-8.593658 -4.90566 1.012771,-8.689862 -4.373085 1.159967,-8.750071 -3.856229 1.294105,7.010,20  0
-3.012662 -8.624508 -0.7190397,-3.660383 -8.293787 -0.4957716,-4.115644 -7.644098 -0.2915935,-4.392394 -7.185688 -0.02760029,-4.701392 -6.950088 0.2414157,-4.005392 -6.606769 -0.4153113,-4.19673 -6.097636 0.1818379,-4.386287 -5.948933 0.5863934,-4.568894 -5.83604 0.8010349,-3.694193 -6.538937 -0.2397552,-3.829302 -5.901887 0.566287,-3.829302 -5.901887 0.566287,-3.892635 -7.370739 0.8309482,-3.340916 -6.651258 -0.0007238984,-3.40811 -5.995224 0.6949598,-3.543343 -6.909379 0.7541215,-3.579517 -7.455669 0.6169053,-2.978628 -6.929164 0.273011,-3.024635 -6.474014 0.7909907,-3.189884 -7.092807 0.9119378,-3.258826 -7.537241 0.8823084,-7.805405 -7.49645 0.2484859,-7.314829 -7.192422 0.4789104,-6.954565 -6.542128 0.717039,-6.740545 -5.975505 0.9592879,-6.516833 -5.628595 1.226292,-7.47173 -5.167951 0.6174886,-7.471986 -4.214854 0.8443621,-7.479533 -3.665759 1.020968,-7.486171 -3.15341 1.142846,-7.807895 -5.11853 0.695775,-7.851377 -4.068145 0.894614,-7.872869 -3.378938 1.129071,-7.89336 -2.744674 1.328719,-8.124864 -5.318574 0.7900666,-8.179125 -4.320334 0.9719622,-8.215276 -3.630641 1.167888,-8.241046 -3.003658 1.341692,-8.434033 -5.710642 0.8939726,-8.589878 -4.938115 1.057874,-8.688361 -4.407768 1.210055,-8.751562 -3.887032 1.347939,7.110,20  0
-3.012662 -8.624508 -0.7190397,-3.660383 -8.293787 -0.4957716,-4.115644 -7.644098 -0.2915935,-4.392394 -7.185688 -0.02760029,-4.701392 -6.950088 0.2414157,-4.005392 -6.606769 -0.4153113,-4.19673 -6.097636 0.1818379,-4.386287 -5.948933 0.5863934,-4.568894 -5.83604 0.8010349,-3.694193 -6.538937 -0.2397552,-3.829302 -5.901887 0.566287,-3.829302 -5.901887 0.566287,-3.892635 -7.370739 0.8309482,-3.340916 -6.651258 -0.0007238984,-3.40811 -5.995224 0.6949598,-3.543343 -6.909379 0.7541215,-3.579517 -7.455669 0.6169053,-2.978628 -6.929164 0.273011,-3.024635 -6.474014 0.7909907,-3.189884 -7.092807 0.9119378,-3.258826 -7.537241 0.8823084,-7.814768 -7.500936 0.1884361,-7.314926 -7.203298 0.4136209,-6.952856 -6.558919 0.6481634,-6.744946 -5.990648 0.888328,-6.527981 -5.636732 1.151132,-7.471 -5.192731 0.5482692,-7.472435 -4.238671 0.7750236,-7.482843 -3.680674 0.9505413,-7.491196 -3.166512 1.068899,-7.814108 -5.137269 0.6184776,-7.857284 -4.084411 0.8108705,-7.878794 -3.391825 1.041924,-7.899059 -2.76391 1.239717,-8.135709 -5.327333 0.7028552,-8.186597 -4.324729 0.8749417,-8.221706 -3.636391 1.07003,-8.245164 -3.023309 1.240478,-8.449838 -5.709074 0.7979301,-8.601669 -4.932027 0.9516388,-8.696916 -4.401412 1.099606,-8.755408 -3.888407 1.237853,7.210,20  0
-3.012662 -8.624508 -0.7190397,-3.660383 -8.293787 -0.4957716,-4.115644 -7.644098 -0.2915935,-4.392394 -7.185688 -0.02760029,-4.701392 -6.950088 0.2414157,-4.005392 -6.606769 -0.4153113,-4.19673 -6.097636 0.1818379,-4.386287 -5.948933 0.5863934,-4.568894 -5.83604 0.8010349,-3.694193 -6.538937 -0.2397552,-3.829302 -5.901887 0.566287,-3.829302 -5.901887 0.566287,-3.892635 -7.370739 0.8309482,-3.340916 -6.651258 -0.0007238984,-3.40811 -5.995224 0.6949598,-3.543343 -6.909379 0.7541215,-3.579517 -7.455669 0.6169053,-2.978628 -6.929164 0.273011,-3.024635 -6.474014 0.7909907,-3.189884 -7.092807 0.9119378,-3.258826 -7.537241 0.8823084,-7.835124 -7.5191 0.1922381,-7.328882 -7.224296 0.3828691,-6.962379 -6.571653 0.590764,-6.74848 -5.994161 0.8106522,-6.524951 -5.642919 1.054314,-7.477236 -5.203012 0.4791176,-7.475354 -4.25015 0.6742923,-7.486922 -3.690145 0.8296449,-7.496163 -3.179798 0.9347366,-7.816734 -5.143155 0.5550015,-7.862469 -4.086761 0.7220058,-7.886237 -3.384663 0.9391949,-7.906966 -2.756505 1.128118,-8.134633 -5.326919 0.6435524,-8.191412 -4.319674 0.7982782,-8.228571 -3.627087 0.9780164,-8.25337 -3.010461 1.137067,-8.444472 -5.70096 0.7396806,-8.602126 -4.925338 0.8811132,-8.701202 -4.391416 1.020344,-8.764706 -3.872993 1.147973,7.310,20  0
-3.012662 -8.624508 -0.7190397,-3.660383 -8.293787 -0.4957716,-4.115644 -7.644098 -0.2915935,-4.392394 -7.185688 -0.02760029,-4.701392 -6.950088 0.2414157,-4.005392 -6.606769 -0.4153113,-4.19673 -6.097636 0.1818379,-4.386287 -5.948933 0.5863934,-4.568894 -5.83604 0.8010349,-3.694193 -6.538937 -0.2397552,-3.829302 -5.901887 0.566287,-3.829302 -5.901887 0.566287,-3.892635 -7.370739 0.8309482,-3.340916 -6.651258 -0.0007238984,-3.40811 -5.995224 0.6949598,-3.543343 -6.909379 0.7541215,-3.579517 -7.455669 0.6169053,-2.978628 -6.929164 0.273011,-3.024635 -6.474014 0.7909907,-3.189884 -7.092807 0.9119378,-3.258826 -7.537241 0.8823084,-7.815187 -7.528888 0.206098,-7.314609 -7.223559 0.4394099,-6.954264 -6.571451 0.6850426,-6.745412 -6.003185 0.9352689,-6.524731 -5.649122 1.211698,-7.478323 -5.208766 0.5964981,-7.482235 -4.249805 0.8291752,-7.49805 -3.685445 1.014711,-7.509771 -3.166869 1.135525,-7.822159 -5.164608 0.6602341,-7.869949 -4.104203 0.8578371,-7.895471 -3.404563 1.085168,-7.92062 -2.772398 1.282848,-8.143822 -5.362491 0.7381716,-8.201562 -4.358251 0.9086134,-8.240857 -3.669664 1.093487,-8.268046 -3.056254 1.255593,-8.457294 -5.751264 0.8263144,-8.608894 -4.962358 0.9768243,-8.705868 -4.430742 1.113531,-8.766439 -3.921152 1.240306,7.410,20  0
-3.012662 -8.624508 -0.7190397,-3.660383 -8.293787 -0.4957716,-4.115644 -7.644098 -0.2915935,-4.392394 -7.185688 -0.02760029,-4.701392 -6.950088 0.2414157,-4.005392 -6.606769 -0.4153113,-4.19673 -6.097636 0.1818379,-4.386287 -5.948933 0.5863934,-4.568894 -5.83604 0.8010349,-3.694193 -6.538937 -0.2397552,-3.829302 -5.901887 0.566287,-3.829302 -5.901887 0.566287,-3.892635 -7.370739 0.8309482,-3.340916 -6.651258 -0.0007238984,-3.40811 -5.995224 0.6949598,-3.543343 -6.909379 0.7541215,-3.579517 -7.455669 0.6169053,-2.978628 -6.929164 0.273011,-3.024635 -6.474014 0.7909907,-3.189884 -7.092807 0.9119378,-3.258826 -7.537241 0.8823084,-7.840097 -7.544864 0.1930936,-7.343165 -7.252351 0.4253113,-6.976315 -6.600378 0.6601008,-6.760152 -6.024724 0.9010655,-6.535067 -5.664381 1.168223,-7.489721 -5.236451 0.550032,-7.484335 -4.276596 0.7715011,-7.494764 -3.71518 0.9446226,-7.505037 -3.19709 1.057943,-7.831367 -5.179214 0.6194767,-7.875779 -4.111587 0.8118641,-7.900963 -3.405999 1.045935,-7.923586 -2.771239 1.243636,-8.148727 -5.364496 0.7023435,-8.207791 -4.350536 0.8808221,-8.247719 -3.652073 1.082126,-8.273769 -3.030419 1.253968,-8.457603 -5.73903 0.7960132,-8.6157 -4.959907 0.9583338,-8.714442 -4.429884 1.112187,-8.776543 -3.917724 1.251718,7.510,20  0
-3.012662 -8.624508 -0.7190397,-3.660383 -8.293787 -0.4957716,-4.115644 -7.644098 -0.2915935,-4.392394 -7.185688 -0.02760029,-4.701392 -6.950088 0.2414157,-4.005392 -6.606769 -0.4153113,-4.19673 -6.097636 0.1818379,-4.386287 -5.948933 0.5863934,-4.568894 -5.83604 0.8010349,-3.694193 -6.538937 -0.2397552,-3.829302 -5.901887 0.566287,-3.829302 -5.901887 0.566287,-3.892635 -7.370739 0.8309482,-3.340916 -6.651258 -0.0007238984,-3.40811 -5.995224 0.6949598,-3.543343 -6.909379 0.7541215,-3.579517 -7.455669 0.6169053,-2.978628 -6.929164 0.273011,-3.024635 -6.474014 0.7909907,-3.189884 -7.092807 0.9119378,-3.258826 -7.537241 0.8823084,-7.817085 -7.541438 0.2055092,-7.319532 -7.232822 0.4042464,-6.962794 -6.585181 0.6232235,-6.749002 -6.014883 0.8528818,-6.517925 -5.671349 1.110212,-7.485593 -5.215901 0.5250701,-7.492583 -4.262088 0.7280656,-7.504216 -3.719408 0.8873327,-7.516932 -3.220242 0.9930971,-7.825391 -5.166784 0.600854,-7.873798 -4.113154 0.7776514,-7.895146 -3.422472 0.995412,-7.915188 -2.798103 1.183109,-8.141369 -5.364153 0.689567,-8.203064 -4.365446 0.8476589,-8.240553 -3.675991 1.026629,-8.270328 -3.060286 1.188039,-8.446841 -5.750704 0.7868934,-8.60163 -4.982601 0.9245501,-8.699514 -4.450785 1.062595,-8.764388 -3.935304 1.188939,7.610,20  0
-3.012662 -8.624508 -0.7190397,-3.660383 -8.293787 -0.4957716,-4.115644 -7.644098 -0.2915935,-4.392394 -7.185688 -0.02760029,-4.701392 -6.950088 0.2414157,-4.005392 -6.606769 -0.4153113,-4.19673 -6.097636 0.1818379,-4.386287 -5.948933 0.5863934,-4.568894 -5.83604 0.8010349,-3.694193 -6.538937 -0.2397552,-3.829302 -5.901887 0.566287,-3.829302 -5.901887 0.566287,-3.892635 -7.370739 0.8309482,-3.340916 -6.651258 -0.0007238984,-3.40811 -5.995224 0.6949598,-3.543343 -6.909379 0.7541215,-3.579517 -7.455669 0.6169053,-2.978628 -6.929164 0.273011,-3.024635 -6.474014 0.7909907,-3.189884 -7.092807 0.9119378,-3.258826 -7.537241 0.8823084,-7.825723 -7.550576 0.200057,-7.324671 -7.250732 0.3928577,-6.964644 -6.601241 0.6050588,-6.754045 -6.026918 0.8295329,-6.52672 -5.681623 1.081642,-7.484646 -5.228543 0.4945384,-7.487638 -4.272494 0.6859851,-7.497545 -3.719798 0.8386598,-7.505555 -3.219294 0.939231,-7.823891 -5.173246 0.5689368,-7.870018 -4.112407 0.733494,-7.891762 -3.419261 0.9430455,-7.908875 -2.798122 1.126049,-8.139949 -5.36283 0.6572861,-8.197343 -4.353441 0.8071945,-8.232406 -3.662636 0.9869835,-8.255404 -3.047717 1.145692,-8.446815 -5.742803 0.752409,-8.606116 -4.97626 0.88994,-8.705758 -4.448878 1.032448,-8.769135 -3.937212 1.163546,7.710,20  0
-3.012662 -8.624508 -0.7190397,-3.660383 -8.293787 -0.4957716,-4.115644 -7.644098 -0.2915935,-4.392394 -7.185688 -0.02760029,-4.701392 -6.950088 0.2414157,-4.005392 -6.606769 -0.4153113,-4.19673 -6.097636 0.1818379,-4.386287 -5.948933 0.5863934,-4.568894 -5.83604 0.8010349,-3.694193 -6.538937 -0.2397552,-3.829302 -5.901887 0.566287,-3.829302 -5.901887 0.566287,-3.892635 -7.370739 0.8309482,-3.340916 -6.651258 -0.0007238984,-3.40811 -5.995224 0.6949598,-3.543343 -6.909379 0.7541215,-3.579517 -7.455669 0.6169053,-2.978628 -6.929164 0.273011,-3.024635 -6.474014 0.7909907,-3.189884 -7.092807 0.9119378,-3.258826 -7.537241 0.8823084,-7.836395 -7.577366 0.2073878,-7.335395 -7.284921 0.4300986,-6.967611 -6.630882 0.6625613,-6.754692 -6.056858 0.9012846,-6.531549 -5.700532 1.164339,-7.483725 -5.263864 0.5657234,-7.480989 -4.306959 0.7913859,-7.492208 -3.739566 0.9715159,-7.50029 -3.221472 1.088422,-7.828105 -5.20735 0.6326419,-7.87234 -4.141941 0.8232644,-7.896727 -3.438573 1.053826,-7.921329 -2.802671 1.255461,-8.149307 -5.393453 0.7121829,-8.20256 -4.383728 0.8797515,-8.241213 -3.692342 1.071306,-8.269715 -3.073845 1.241799,-8.46207 -5.767921 0.8007598,-8.614961 -4.992412 0.9508473,-8.711059 -4.464649 1.095068,-8.772741 -3.952677 1.232419,7.810,20  0
-3.012662 -8.624508 -0.7190397,-3.660383 -8.293787 -0.4957716,-4.115644 -7.644098 -0.2915935,-4.392394 -7.185688 -0.02760029,-4.701392 -6.950088 0.2414157,-4.005392 -6.606769 -0.4153113,-4.19673 -6.097636 0.1818379,-4.386287 -5.948933 0.5863934,-4.568894 -5.83604 0.8010349,-3.694193 -6.538937 -0.2397552,-3.829302 -5.901887 0.566287,-3.829302 -5.901887 0.566287,-3.892635 -7.370739 0.8309482,-3.340916 -6.651258 -0.0007238984,-3.40811 -5.995224 0.6949598,-3.543343 -6.909379 0.7541215,-3.579517 -7.455669 0.6169053,-2.978628 -6.929164 0.273011,-3.024635 -6.474014 0.7909907,-3.189884 -7.092807 0.9119378,-3.258826 -7.537241 0.8823084,-7.847761 -7.566503 0.1863683,-7.34478 -7.277148 0.3966767,-6.973547 -6.629995 0.6214833,-6.754236 -6.060708 0.8555729,-6.531756 -5.706916 1.113503,-7.494256 -5.260431 0.5249299,-7.486516 -4.313654 0.7381475,-7.496623 -3.756908 0.9095272,-7.502306 -3.252302 1.020856,-7.837648 -5.19936 0.5931473,-7.879623 -4.140218 0.7702092,-7.906341 -3.445055 0.9873015,-7.93086 -2.8172 1.183175,-8.156872 -5.383474 0.6715029,-8.207358 -4.376697 0.8297324,-8.24691 -3.683645 1.012314,-8.275425 -3.065463 1.178594,-8.466518 -5.756177 0.759823,-8.617662 -4.990575 0.8913506,-8.716409 -4.466641 1.022928,-8.780038 -3.957553 1.153822,7.910,20  0
