TiagoOliveira98/Thesis-Project/Difficulty_1/Motor_Task/Unity_Project/DataLogging/JointData/Logs(1647314916)_tttt_Motor.csv
WRIST,THUMB_CMC,THUMB_MCP,THUMB_IP,THUMB_TIP,INDEX_FINGER_MCP,INDEX_FINGER_PIP,INDEX_FINGER_DIP,INDEX_FINGER_TIP,MIDDLE_FINGER_MCP,MIDDLE_FINGER_PIP,MIDDLE_FINGER_DIP,MIDDLE_FINGER_TIP,RING_FINGER_MCP,RING_FINGER_PIP,RING_FINGER_DIP,RING_FINGER_TIP,PINKY_MCP,PINKY_PIP,PINKY_DIP,PINKY_TIP,WRIST2,THUMB_CMC2,THUMB_MCP2,THUMB_IP2,THUMB_TIP2,INDEX_FINGER_MCP2,INDEX_FINGER_PIP2,INDEX_FINGER_DIP2,INDEX_FINGER_TIP2,MIDDLE_FINGER_MCP2,MIDDLE_FINGER_PIP2,MIDDLE_FINGER_DIP2,MIDDLE_FINGER_TIP2,RING_FINGER_MCP2,RING_FINGER_PIP2,RING_FINGER_DIP2,RING_FINGER_TIP2,PINKY_MCP2,PINKY_PIP2,PINKY_DIP2,PINKY_TIP2,Timestamp,Event
-2.388648 -7.200846 4.872252E-05,-3.014726 -7.062622 0.3313769,-3.596153 -6.669969 0.5315684,-4.078433 -6.314331 0.7193576,-4.439972 -6.183182 0.9468171,-3.259066 -4.896792 0.257868,-3.526584 -3.915201 0.4545286,-3.675183 -3.295302 0.627593,-3.792497 -2.715847 0.7634847,-2.938729 -4.597819 0.2879581,-3.103954 -3.402129 0.4223825,-3.103954 -3.402129 0.4223825,-3.260233 -2.016946 0.7194384,-2.600228 -4.565916 0.367141,-2.650972 -3.414641 0.5206025,-2.705511 -2.686832 0.6799122,-2.78075 -2.096578 0.8151017,-2.243993 -4.785503 0.5007442,-2.091882 -3.947973 0.6530133,-2.002026 -3.402406 0.7695659,-1.936007 -2.889566 0.8825882,-7.800066 -7.07324 0.0008398295,-7.246601 -6.826701 0.2828679,-6.757225 -6.23282 0.5273517,-6.401337 -5.699008 0.7906227,-6.049344 -5.423674 1.069751,-7.172242 -4.6191 0.3299548,-7.062211 -3.516034 0.5367329,-7.021125 -2.844208 0.7278494,-6.993759 -2.25212 0.8750778,-7.509696 -4.478359 0.3944011,-7.415446 -3.236949 0.6057692,-7.349194 -2.451178 0.8419856,-7.29254 -1.788105 1.039504,-7.838095 -4.571945 0.4869766,-7.79584 -3.432559 0.6844901,-7.751191 -2.701778 0.8731346,-7.686181 -2.077947 1.017504,-8.170255 -4.860988 0.6020628,-8.244111 -3.988389 0.8038656,-8.260659 -3.423962 0.9545028,-8.24184 -2.888422 1.062478,0.010,48  0
-2.401604 -7.261751 0.08947302,-3.016077 -7.094671 0.4216394,-3.581882 -6.696233 0.6212223,-4.057741 -6.32794 0.8123785,-4.417181 -6.217527 1.04288,-3.258413 -4.933284 0.2785872,-3.528308 -3.951419 0.4660532,-3.679211 -3.327772 0.6470212,-3.801643 -2.747869 0.795739,-2.944261 -4.624126 0.3066995,-3.110821 -3.421318 0.430217,-3.110821 -3.421318 0.430217,-3.268 -2.012934 0.7400795,-2.613955 -4.586587 0.3881041,-2.669532 -3.431575 0.5339059,-2.722782 -2.692613 0.7012902,-2.799677 -2.091505 0.8386047,-2.26242 -4.808902 0.5231283,-2.102011 -3.97925 0.6821683,-2.009959 -3.432971 0.8047934,-1.938718 -2.920961 0.91575,-7.814145 -7.065967 0.03032199,-7.255357 -6.833021 0.2921818,-6.765898 -6.25447 0.5224051,-6.400943 -5.720579 0.7780514,-6.041196 -5.437562 1.053382,-7.164686 -4.611129 0.2920998,-7.0555 -3.53308 0.4851418,-7.019145 -2.868062 0.6755455,-6.995381 -2.286308 0.8204858,-7.498799 -4.457454 0.3672026,-7.403254 -3.226764 0.551668,-7.33943 -2.438025 0.7834026,-7.283877 -1.775409 0.9800344,-7.826694 -4.546279 0.4730581,-7.793355 -3.412858 0.6478857,-7.753959 -2.687665 0.8325802,-7.693427 -2.068998 0.9749191,-8.157971 -4.833854 0.602352,-8.240591 -3.971885 0.7975435,-8.260544 -3.403514 0.9512418,-8.244493 -2.860868 1.057346,0.110,48  0
-2.37899 -7.222103 0.06638114,-3.006928 -7.063384 0.3889403,-3.585896 -6.684032 0.5791003,-4.06666 -6.325376 0.7536771,-4.427015 -6.191364 0.9578983,-3.261015 -4.907503 0.2988669,-3.528732 -3.934968 0.4770429,-3.682977 -3.309527 0.6394382,-3.804728 -2.743612 0.7713196,-2.942218 -4.598711 0.3185892,-3.114393 -3.427986 0.4310473,-3.114393 -3.427986 0.4310473,-3.280579 -2.040533 0.7151141,-2.60571 -4.566049 0.3834793,-2.660146 -3.438427 0.5136675,-2.705416 -2.710471 0.6790453,-2.772624 -2.123722 0.8194835,-2.252038 -4.790008 0.5005096,-2.100694 -3.964033 0.6435478,-2.012807 -3.421443 0.763014,-1.947626 -2.920646 0.8763293,-7.813573 -7.106772 0.09145192,-7.262928 -6.858492 0.3689086,-6.773602 -6.259094 0.6218685,-6.408935 -5.71777 0.8946865,-6.053171 -5.431644 1.187607,-7.173979 -4.640248 0.4206817,-7.058345 -3.549811 0.6248485,-7.012679 -2.88598 0.807381,-6.979844 -2.301285 0.9468989,-7.512032 -4.48664 0.4841301,-7.403285 -3.25448 0.6955585,-7.330855 -2.460567 0.9262296,-7.269466 -1.78037 1.12576,-7.848299 -4.57656 0.5746966,-7.791447 -3.433383 0.7684801,-7.739902 -2.692687 0.9526261,-7.669708 -2.06036 1.094832,-8.191793 -4.867918 0.6867545,-8.257619 -3.98423 0.881932,-8.271522 -3.408628 1.032017,-8.251019 -2.862895 1.137623,0.210,48  0
-2.365509 -7.247968 0.1849918,-2.990107 -7.087304 0.5317383,-3.578135 -6.701509 0.7405241,-4.076086 -6.335017 0.9349,-4.455624 -6.215812 1.173427,-3.265188 -4.905456 0.3967143,-3.532755 -3.923544 0.5762094,-3.68839 -3.295243 0.7478051,-3.813451 -2.730845 0.8938736,-2.949087 -4.591408 0.4065267,-3.11949 -3.410045 0.5177485,-3.11949 -3.410045 0.5177485,-3.285611 -2.005174 0.8293713,-2.613358 -4.558577 0.467605,-2.674062 -3.430726 0.5970103,-2.723446 -2.698816 0.7752129,-2.795064 -2.108221 0.922881,-2.257101 -4.784647 0.5801489,-2.104847 -3.97363 0.7255171,-2.019806 -3.44601 0.8498391,-1.955356 -2.957024 0.9643196,-7.810355 -7.104488 0.09830267,-7.259398 -6.849927 0.3785762,-6.771617 -6.245466 0.6265821,-6.406816 -5.696048 0.8964202,-6.042796 -5.432998 1.187954,-7.170007 -4.635767 0.4322354,-7.063457 -3.560966 0.6237394,-7.01821 -2.901872 0.7989045,-6.982537 -2.328124 0.9322157,-7.509523 -4.481864 0.4880724,-7.415186 -3.253064 0.6852266,-7.349936 -2.459058 0.9062575,-7.293101 -1.786794 1.097848,-7.841379 -4.56689 0.5700867,-7.799735 -3.444997 0.7492394,-7.755703 -2.719813 0.911688,-7.689652 -2.103051 1.039455,-8.177794 -4.851337 0.6770287,-8.254281 -3.983383 0.8687457,-8.277929 -3.414725 1.006474,-8.2651 -2.872348 1.103186,0.310,48  0
-2.408034 -7.25558 0.1352246,-3.015201 -7.097665 0.4739854,-3.582512 -6.695474 0.6798306,-4.06723 -6.33363 0.8759968,-4.437891 -6.222454 1.118879,-3.256311 -4.907655 0.3876054,-3.540059 -3.919971 0.5766003,-3.698339 -3.283454 0.7485193,-3.819622 -2.706562 0.8881059,-2.939426 -4.607244 0.405975,-3.116416 -3.414552 0.5331203,-3.116416 -3.414552 0.5331203,-3.279814 -1.999698 0.8337443,-2.606884 -4.578634 0.4697124,-2.668131 -3.434446 0.6226375,-2.723151 -2.691719 0.7975571,-2.800845 -2.095698 0.9341719,-2.26082 -4.806414 0.5811492,-2.108726 -3.979049 0.7463166,-2.022129 -3.443382 0.8657615,-1.958231 -2.946493 0.9721209,-7.812002 -7.107708 0.08556215,-7.262419 -6.854146 0.3673373,-6.776527 -6.249527 0.6193992,-6.409448 -5.706757 0.8922095,-6.041257 -5.433235 1.1961,-7.174907 -4.635231 0.4102949,-7.066949 -3.54759 0.6087436,-7.021976 -2.881379 0.7902805,-6.988235 -2.298316 0.9269118,-7.515447 -4.487876 0.4724436,-7.417961 -3.256054 0.6739037,-7.35102 -2.463108 0.8961402,-7.293134 -1.790095 1.084103,-7.849234 -4.581386 0.5618627,-7.802645 -3.442127 0.7511443,-7.755765 -2.70956 0.9290412,-7.687135 -2.08192 1.063146,-8.187166 -4.874251 0.6735905,-8.262233 -3.999639 0.8735694,-8.281188 -3.429738 1.019763,-8.2643 -2.887648 1.12019,0.410,48  0
-2.39082 -7.274442 0.210608,-3.005644 -7.106103 0.5656483,-3.588711 -6.707429 0.7717223,-4.083797 -6.33595 0.9648733,-4.464741 -6.22421 1.200532,-3.25507 -4.913126 0.4353009,-3.51929 -3.934013 0.6170223,-3.676199 -3.304898 0.7824369,-3.809147 -2.733117 0.9232662,-2.944053 -4.605369 0.449128,-3.103947 -3.427872 0.5618526,-3.103947 -3.427872 0.5618526,-3.274309 -2.03002 0.8629544,-2.613868 -4.571947 0.5130235,-2.664683 -3.444597 0.6473294,-2.717405 -2.720775 0.8119615,-2.800436 -2.126276 0.955287,-2.263381 -4.800262 0.6312051,-2.10002 -4.002431 0.7826929,-2.008818 -3.479766 0.8970374,-1.943136 -2.992141 1.010915,-7.821327 -7.108531 0.07583506,-7.27033 -6.858488 0.357357,-6.778859 -6.265407 0.6101241,-6.405215 -5.727059 0.8816301,-6.03417 -5.477425 1.182415,-7.18018 -4.645933 0.4111964,-7.071526 -3.566911 0.6116784,-7.02674 -2.908765 0.7927045,-6.991302 -2.336472 0.9215556,-7.524558 -4.492139 0.466712,-7.429632 -3.255937 0.6607586,-7.363997 -2.466291 0.8770592,-7.307181 -1.793118 1.061829,-7.860344 -4.584704 0.5460141,-7.822256 -3.453983 0.7291547,-7.780874 -2.730888 0.8952065,-7.715382 -2.105294 1.018252,-8.195464 -4.879329 0.6477635,-8.27152 -4.010451 0.8467484,-8.291461 -3.448916 0.9869456,-8.270864 -2.912327 1.083606,0.510,48  0
-2.357826 -7.270435 0.1959562,-2.985141 -7.088672 0.5309486,-3.564937 -6.695052 0.7332189,-4.056627 -6.319877 0.9238153,-4.431412 -6.196573 1.155131,-3.234646 -4.909959 0.4004997,-3.498087 -3.920475 0.5722869,-3.64953 -3.292212 0.7340188,-3.770166 -2.726415 0.8693951,-2.920238 -4.605395 0.4087684,-3.092424 -3.423387 0.5115836,-3.092424 -3.423387 0.5115836,-3.251602 -2.016061 0.8041705,-2.589095 -4.577718 0.4633107,-2.648873 -3.445039 0.5907986,-2.697353 -2.720222 0.7582591,-2.770053 -2.13347 0.8908194,-2.238764 -4.809138 0.5700167,-2.09131 -3.99046 0.7164662,-2.00684 -3.463372 0.836325,-1.944639 -2.971941 0.9416596,-7.825058 -7.130687 0.1067424,-7.278156 -6.88397 0.3996255,-6.789504 -6.282086 0.661845,-6.411878 -5.732038 0.9059001,-6.043419 -5.461061 1.204122,-7.181236 -4.653694 0.4272878,-7.074971 -3.566008 0.6174629,-7.028127 -2.908109 0.7897326,-6.991862 -2.333963 0.9146564,-7.523959 -4.504479 0.4885568,-7.43081 -3.267303 0.6811321,-7.364269 -2.476975 0.8979875,-7.306965 -1.805054 1.080382,-7.858933 -4.599613 0.5771322,-7.817555 -3.456108 0.7591327,-7.772924 -2.725742 0.9339486,-7.706488 -2.097772 1.065324,-8.196485 -4.898279 0.6871391,-8.27319 -4.017553 0.8856919,-8.292198 -3.445646 1.033917,-8.274871 -2.905283 1.135221,0.610,48  0
-2.343973 -7.283393 0.231831,-2.965126 -7.117137 0.5750847,-3.54598 -6.701507 0.780735,-4.037223 -6.320697 0.9766949,-4.427371 -6.207851 1.22015,-3.219791 -4.909906 0.4512802,-3.490839 -3.905345 0.6257271,-3.650925 -3.264616 0.7881142,-3.776489 -2.684464 0.9264212,-2.910451 -4.610082 0.4609224,-3.080568 -3.418501 0.5763303,-3.080568 -3.418501 0.5763303,-3.251587 -1.994583 0.8752093,-2.582393 -4.584194 0.5142278,-2.637168 -3.449292 0.6520052,-2.691971 -2.722785 0.8166366,-2.766673 -2.121017 0.9534934,-2.236122 -4.814386 0.6212054,-2.081511 -4.001023 0.7853707,-1.99861 -3.473094 0.907055,-1.9372 -2.971837 1.01711,-7.836761 -7.131838 0.1005999,-7.282631 -6.872144 0.369954,-6.796367 -6.259914 0.6191577,-6.430948 -5.717641 0.8918315,-6.062356 -5.464821 1.195712,-7.1954 -4.657432 0.4396545,-7.091286 -3.578125 0.641908,-7.048715 -2.917501 0.8274652,-7.015996 -2.340667 0.9614975,-7.536133 -4.511706 0.511048,-7.44681 -3.27494 0.7195567,-7.382277 -2.481359 0.9461051,-7.326608 -1.808072 1.137133,-7.867276 -4.602279 0.6059591,-7.828074 -3.47068 0.8001219,-7.781474 -2.74197 0.9726936,-7.714867 -2.117568 1.100455,-8.201757 -4.893119 0.7223768,-8.275119 -4.012763 0.9313564,-8.293672 -3.439976 1.074115,-8.278303 -2.893503 1.171099,0.710,48  0
-2.384119 -7.255317 0.1051812,-2.985143 -7.084842 0.4735285,-3.559317 -6.666557 0.694665,-4.039877 -6.296478 0.8979779,-4.42317 -6.191076 1.145674,-3.235476 -4.915706 0.392866,-3.489994 -3.94321 0.5998628,-3.634318 -3.320293 0.7733071,-3.752325 -2.75208 0.912919,-2.921034 -4.61992 0.4042952,-3.086636 -3.454931 0.5490481,-3.086636 -3.454931 0.5490481,-3.247173 -2.057182 0.8590705,-2.590458 -4.599205 0.4688824,-2.646785 -3.46486 0.6414378,-2.702892 -2.735183 0.8154156,-2.781651 -2.139161 0.9673455,-2.238729 -4.843927 0.5850843,-2.076688 -4.034311 0.7713162,-1.986951 -3.513074 0.9101447,-1.920278 -3.030157 1.031761,-7.84845 -7.130399 0.1250997,-7.295285 -6.879972 0.3992976,-6.805181 -6.283689 0.6452113,-6.442294 -5.737575 0.913245,-6.07617 -5.474115 1.208004,-7.198465 -4.651478 0.446317,-7.092356 -3.564901 0.6356763,-7.051195 -2.902162 0.8081869,-7.019196 -2.324735 0.9343089,-7.539974 -4.499761 0.5071054,-7.449296 -3.257457 0.7004576,-7.389343 -2.463897 0.9136521,-7.336371 -1.792205 1.093187,-7.87375 -4.585889 0.5935287,-7.828345 -3.445875 0.7677105,-7.78342 -2.723035 0.924634,-7.713251 -2.103634 1.040683,-8.210587 -4.872371 0.7019283,-8.281983 -3.993068 0.8931962,-8.299168 -3.427015 1.029839,-8.278004 -2.891059 1.118339,0.810,48  0
-2.357023 -7.262819 0.1861655,-2.966261 -7.101085 0.5521977,-3.545828 -6.68081 0.7695893,-4.02622 -6.283044 0.9701389,-4.406963 -6.140985 1.217576,-3.223617 -4.907796 0.4418551,-3.481612 -3.938893 0.6242644,-3.623304 -3.317298 0.7848507,-3.73699 -2.746377 0.9198649,-2.906923 -4.601675 0.4405087,-3.082268 -3.447972 0.5597867,-3.082268 -3.447972 0.5597867,-3.249186 -2.051046 0.8607267,-2.573604 -4.571863 0.487194,-2.641564 -3.455059 0.6333492,-2.698912 -2.738795 0.8031706,-2.775831 -2.143398 0.9505694,-2.218276 -4.803283 0.5893948,-2.075716 -3.986054 0.7533809,-1.995632 -3.452123 0.8907258,-1.934877 -2.942814 1.014035,-7.835759 -7.151523 0.1285315,-7.289889 -6.890935 0.3963014,-6.804133 -6.272731 0.6311022,-6.442354 -5.725982 0.894367,-6.088416 -5.455598 1.183823,-7.207542 -4.658771 0.4131667,-7.09404 -3.575794 0.6048755,-7.046925 -2.913853 0.7839295,-7.012139 -2.33277 0.9096075,-7.546308 -4.513822 0.4829171,-7.45257 -3.267734 0.6757881,-7.390615 -2.477291 0.8952237,-7.337891 -1.803823 1.071557,-7.875622 -4.606524 0.5814725,-7.836248 -3.450383 0.7646521,-7.791856 -2.718752 0.9341137,-7.726973 -2.088627 1.056541,-8.20777 -4.898834 0.7023998,-8.279646 -4.008722 0.8981467,-8.295645 -3.43406 1.037043,-8.278497 -2.891817 1.125899,0.910,48  0
-2.377605 -7.266208 0.1158823,-2.987741 -7.088242 0.4149386,-3.544401 -6.610163 0.5971161,-4.000293 -6.171748 0.778497,-4.369843 -6.035181 1.005776,-3.223736 -4.899934 0.3026509,-3.474735 -3.917715 0.4666969,-3.61821 -3.283102 0.6140544,-3.727254 -2.707624 0.7374144,-2.902259 -4.617702 0.3384176,-3.078536 -3.447826 0.4564495,-3.078536 -3.447826 0.4564495,-3.247009 -2.039372 0.7464374,-2.571451 -4.603808 0.4205158,-2.647234 -3.466051 0.565454,-2.712337 -2.732107 0.7242786,-2.793521 -2.143022 0.8625759,-2.222863 -4.840968 0.5517196,-2.095003 -4.010576 0.7171607,-2.025175 -3.465995 0.8450812,-1.971265 -2.958855 0.9559072,-7.873202 -7.146581 0.1534043,-7.310338 -6.887254 0.41989,-6.816797 -6.263668 0.6641929,-6.452456 -5.709143 0.9350951,-6.090122 -5.42212 1.227157,-7.227427 -4.650829 0.4350803,-7.121449 -3.559345 0.63074,-7.080616 -2.89791 0.811673,-7.051696 -2.321926 0.9412534,-7.570098 -4.503008 0.5062596,-7.476465 -3.252377 0.7026285,-7.413502 -2.464052 0.9186448,-7.357716 -1.795492 1.092238,-7.902198 -4.589361 0.6062891,-7.854756 -3.417059 0.7897114,-7.805556 -2.689277 0.9604683,-7.736211 -2.064722 1.081842,-8.237824 -4.875391 0.7279447,-8.295765 -3.971289 0.9228112,-8.306086 -3.388258 1.062863,-8.286046 -2.842449 1.154906,1.010,48  0
-2.369888 -7.324672 0.2689825,-2.974037 -7.103336 0.503341,-3.487783 -6.488412 0.6194481,-3.833144 -5.825313 0.7626427,-4.164148 -5.447458 0.9459435,-3.190674 -4.877586 0.3193152,-3.440243 -3.904442 0.4630348,-3.576204 -3.301414 0.5687816,-3.681623 -2.704809 0.6668978,-2.876269 -4.620897 0.3740726,-3.045857 -3.444171 0.4777774,-3.045857 -3.444171 0.4777774,-3.201223 -2.028965 0.7736005,-2.559531 -4.61807 0.4906237,-2.630838 -3.464746 0.6047198,-2.711535 -2.73266 0.764748,-2.800771 -2.10631 0.9237039,-2.217933 -4.853357 0.6452624,-2.106314 -3.980535 0.7682025,-2.062265 -3.411086 0.9167072,-2.041013 -2.880939 1.049875,-7.92461 -7.185767 0.3609189,-7.362478 -6.908725 0.6038203,-6.869971 -6.239858 0.8304115,-6.514174 -5.65905 1.091638,-6.157015 -5.37339 1.366471,-7.260848 -4.635301 0.5982527,-7.156754 -3.592214 0.7610098,-7.117104 -2.969241 0.9223101,-7.089172 -2.424041 1.034886,-7.611188 -4.478011 0.6714766,-7.529387 -3.261879 0.8252097,-7.479247 -2.492417 1.025226,-7.43977 -1.838842 1.189117,-7.948336 -4.561919 0.7725844,-7.914122 -3.426939 0.9262322,-7.874646 -2.712915 1.067273,-7.81546 -2.100969 1.167413,-8.288327 -4.845956 0.8929307,-8.349566 -3.960732 1.072587,-8.359739 -3.386573 1.190225,-8.338345 -2.84285 1.263986,1.110,48  0
-2.378503 -7.376894 0.3902006,-2.975454 -7.136859 0.6548332,-3.463592 -6.517478 0.7757515,-3.728497 -5.831016 0.9224082,-3.981058 -5.344402 1.092481,-3.196182 -4.897847 0.4864529,-3.452511 -3.894845 0.6382706,-3.603274 -3.270733 0.7378017,-3.721829 -2.680345 0.8188977,-2.866503 -4.635735 0.5233455,-3.030263 -3.433744 0.6069908,-3.030263 -3.433744 0.6069908,-3.213821 -2.028601 0.8658382,-2.543134 -4.637398 0.6330279,-2.603589 -3.490489 0.7438072,-2.674863 -2.745033 0.9066412,-2.768154 -2.122713 1.06164,-2.197603 -4.881221 0.7782645,-2.106167 -4.002292 0.9051549,-2.074501 -3.431363 1.053714,-2.067235 -2.925078 1.173996,-7.926929 -7.193944 0.3529464,-7.379394 -6.909135 0.6317923,-6.898299 -6.24179 0.8746477,-6.558695 -5.650692 1.15038,-6.202534 -5.350981 1.438307,-7.292551 -4.641072 0.6413301,-7.187531 -3.575306 0.8236998,-7.151325 -2.933286 0.9916002,-7.128311 -2.369793 1.11475,-7.63674 -4.490974 0.7052615,-7.555263 -3.268207 0.8815898,-7.500877 -2.50246 1.090977,-7.456442 -1.844831 1.259672,-7.968769 -4.576242 0.7990828,-7.938901 -3.423777 0.9764813,-7.90131 -2.709284 1.141967,-7.842685 -2.091156 1.261599,-8.307344 -4.861215 0.9160035,-8.368802 -3.968116 1.107237,-8.376378 -3.394374 1.237909,-8.351992 -2.850667 1.322844,1.210,48  0
-2.312964 -7.453599 0.5344821,-2.933873 -7.145969 0.7746081,-3.419014 -6.522436 0.9103718,-3.674457 -5.795084 1.071305,-3.864546 -5.203917 1.254879,-3.165002 -4.928458 0.5373785,-3.411621 -3.896304 0.6643369,-3.556325 -3.28391 0.7670262,-3.666704 -2.702587 0.8544046,-2.83532 -4.674113 0.5851925,-3.003504 -3.475818 0.6359407,-3.003504 -3.475818 0.6359407,-3.196644 -2.078797 0.879568,-2.508047 -4.667705 0.7064331,-2.577696 -3.5227 0.7735701,-2.649766 -2.785475 0.9310534,-2.730115 -2.174817 1.071862,-2.155294 -4.890904 0.8650745,-2.081814 -3.992899 0.9716506,-2.07253 -3.426085 1.114449,-2.078117 -2.928946 1.240074,-7.967577 -7.19617 0.3632727,-7.423573 -6.900173 0.6525185,-6.946967 -6.231462 0.8927982,-6.612269 -5.61455 1.163593,-6.262455 -5.278337 1.442122,-7.337726 -4.641996 0.6642073,-7.225287 -3.574408 0.8444676,-7.188129 -2.932686 1.013025,-7.16896 -2.362258 1.136403,-7.684877 -4.491107 0.7285254,-7.603148 -3.265841 0.8974502,-7.554847 -2.508804 1.101546,-7.515483 -1.861685 1.262959,-8.016994 -4.574115 0.8231667,-7.993287 -3.426812 0.9926094,-7.963361 -2.720735 1.151769,-7.914639 -2.11062 1.266137,-8.354494 -4.859745 0.941564,-8.415466 -3.970964 1.13396,-8.422049 -3.399671 1.262465,-8.395645 -2.862876 1.341482,1.310,48  0
-2.240305 -7.47346 0.627937,-2.885825 -7.12387 0.8051984,-3.355688 -6.431896 0.8868688,-3.574488 -5.643461 1.024556,-3.795036 -5.034944 1.187335,-3.107308 -4.896999 0.5348047,-3.341772 -3.859426 0.6413803,-3.486488 -3.24636 0.7258028,-3.593703 -2.663028 0.7948914,-2.780042 -4.669746 0.6108073,-2.948028 -3.487174 0.6472151,-2.948028 -3.487174 0.6472151,-3.147409 -2.137702 0.8464386,-2.451016 -4.673551 0.7577325,-2.522317 -3.538162 0.8256701,-2.603533 -2.82719 0.9723399,-2.685724 -2.233118 1.088737,-2.094596 -4.891436 0.9395448,-2.039588 -4.000736 1.047508,-2.055518 -3.439681 1.178139,-2.081698 -2.939032 1.284823,-8.058743 -7.205637 0.4122061,-7.508022 -6.889293 0.7375906,-7.036583 -6.206871 0.995774,-6.705113 -5.58809 1.271634,-6.347223 -5.255081 1.551184,-7.421744 -4.639703 0.7931739,-7.324437 -3.569049 0.991156,-7.296554 -2.941602 1.158818,-7.284436 -2.375291 1.278681,-7.777021 -4.494766 0.8357689,-7.708362 -3.27251 1.02987,-7.666717 -2.51873 1.245567,-7.634207 -1.867362 1.419079,-8.11816 -4.586826 0.9040889,-8.097186 -3.427945 1.101781,-8.072695 -2.715756 1.281848,-8.030278 -2.098222 1.413203,-8.466206 -4.875053 0.9959474,-8.518099 -3.982068 1.204906,-8.519332 -3.413394 1.344988,-8.494057 -2.873806 1.436859,1.410,48  0
-2.212892 -7.476568 0.7645901,-2.852803 -7.090105 0.9881011,-3.312023 -6.380538 1.115542,-3.512058 -5.558523 1.30744,-3.723497 -4.900454 1.527527,-3.084345 -4.827255 0.6726049,-3.302967 -3.817094 0.7949492,-3.440394 -3.216747 0.8988973,-3.547544 -2.642299 0.9655917,-2.741129 -4.630949 0.7428671,-2.901545 -3.486759 0.7746247,-2.901545 -3.486759 0.7746247,-3.109221 -2.20581 0.9672616,-2.407993 -4.661813 0.8857186,-2.463552 -3.575366 0.9436308,-2.548997 -2.905076 1.092149,-2.6399 -2.343341 1.21047,-2.056214 -4.897439 1.078494,-2.016803 -4.046408 1.18418,-2.053321 -3.511348 1.317099,-2.100277 -3.034196 1.426746,-8.098279 -7.220424 0.4750476,-7.554911 -6.904154 0.7932043,-7.098532 -6.215915 1.04399,-6.790586 -5.574804 1.313423,-6.443626 -5.221019 1.590702,-7.48654 -4.628541 0.8284252,-7.389105 -3.56684 1.014704,-7.361474 -2.941808 1.184726,-7.351646 -2.382644 1.313548,-7.840098 -4.485004 0.8723911,-7.777298 -3.281405 1.043227,-7.740027 -2.545139 1.251636,-7.709833 -1.908992 1.420358,-8.175923 -4.57999 0.9458234,-8.166996 -3.456705 1.113656,-8.153062 -2.76733 1.285453,-8.12291 -2.16613 1.41566,-8.517447 -4.869371 1.041734,-8.572629 -3.996056 1.223555,-8.580124 -3.431848 1.35694,-8.562116 -2.899269 1.442569,1.510,48  0
-2.207712 -7.493551 0.7434941,-2.840604 -7.080719 1.000054,-3.289697 -6.352003 1.150472,-3.473358 -5.506631 1.356014,-3.703899 -4.84117 1.581082,-3.057522 -4.824589 0.7080673,-3.289827 -3.832954 0.8536769,-3.432023 -3.218107 0.976073,-3.547981 -2.616843 1.054025,-2.711247 -4.64953 0.7602593,-2.89914 -3.545822 0.8414322,-2.89914 -3.545822 0.8414322,-3.124765 -2.316374 1.067693,-2.377575 -4.691875 0.8830079,-2.447626 -3.64775 0.9822989,-2.533746 -3.005149 1.166241,-2.628832 -2.460217 1.307257,-2.026299 -4.927598 1.054437,-2.021634 -4.105907 1.1959,-2.07328 -3.600029 1.367497,-2.133072 -3.13771 1.504704,-8.160099 -7.248277 0.5291469,-7.608556 -6.911834 0.8288386,-7.150819 -6.217244 1.065964,-6.843369 -5.588455 1.333714,-6.495736 -5.240197 1.596595,-7.535936 -4.633893 0.8348588,-7.430222 -3.557011 1.014093,-7.40433 -2.918797 1.173904,-7.398188 -2.353174 1.28831,-7.888069 -4.493385 0.8891498,-7.830903 -3.297473 1.055759,-7.811581 -2.554529 1.265292,-7.807498 -1.925938 1.430654,-8.223399 -4.58578 0.9757264,-8.210485 -3.464735 1.1406,-8.201728 -2.764133 1.308711,-8.185581 -2.167556 1.433447,-8.565167 -4.881044 1.08488,-8.623142 -4.003091 1.260623,-8.63718 -3.444948 1.393564,-8.635424 -2.917151 1.478428,1.610,48  0
-2.156672 -7.411574 0.4808719,-2.77703 -7.048532 0.7239866,-3.210777 -6.25204 0.8347398,-3.343922 -5.358762 1.007828,-3.560514 -4.640865 1.18646,-3.009631 -4.797903 0.3543856,-3.217875 -3.850452 0.4214399,-3.336645 -3.256819 0.5046084,-3.425045 -2.642261 0.5934424,-2.664402 -4.645431 0.4073775,-2.863807 -3.686559 0.4625582,-2.863807 -3.686559 0.4625582,-3.058168 -2.707667 0.7347356,-2.324692 -4.700735 0.528137,-2.423462 -3.780495 0.6408656,-2.497956 -3.279453 0.8876851,-2.582684 -2.927432 1.073109,-1.958622 -4.907833 0.7032815,-1.991981 -4.150292 0.8579748,-2.057705 -3.732059 1.06384,-2.128485 -3.394388 1.237196,-8.237748 -7.302301 0.6472749,-7.691944 -6.934232 0.9572064,-7.236359 -6.210284 1.201906,-6.938021 -5.562412 1.467812,-6.586708 -5.212281 1.750977,-7.621757 -4.642187 0.9591992,-7.520281 -3.614285 1.135245,-7.491121 -3.002653 1.300739,-7.475265 -2.442745 1.424849,-7.983471 -4.511789 1.009091,-7.938725 -3.406217 1.163295,-7.929273 -2.726486 1.364006,-7.928528 -2.143692 1.520302,-8.31986 -4.603187 1.097326,-8.318505 -3.557245 1.258506,-8.319872 -2.915821 1.417239,-8.309537 -2.36574 1.52981,-8.65981 -4.881223 1.210605,-8.715954 -4.046935 1.386567,-8.734857 -3.49957 1.504014,-8.737074 -2.969479 1.577664,1.710,48  0
-2.152472 -7.302518 0.2187689,-2.757978 -7.006645 0.462992,-3.181194 -6.176198 0.5583192,-3.296437 -5.285846 0.7123075,-3.500235 -4.565303 0.8612331,-2.99239 -4.761133 0.03592639,-3.202854 -3.826205 0.04559295,-3.32863 -3.22305 0.09340198,-3.42652 -2.61483 0.1695805,-2.640041 -4.610992 0.08786263,-2.821704 -3.678265 0.1182162,-2.821704 -3.678265 0.1182162,-2.991254 -2.85459 0.3784609,-2.299469 -4.666111 0.2068652,-2.402184 -3.782728 0.3124886,-2.47311 -3.316223 0.5903943,-2.559012 -3.059258 0.7965207,-1.93442 -4.862436 0.3826083,-1.987472 -4.138109 0.5175223,-2.061568 -3.748342 0.7254391,-2.144063 -3.471983 0.9108973,-8.265492 -7.2595 0.3446395,-7.711805 -6.909887 0.6464341,-7.258213 -6.192657 0.8819934,-6.947792 -5.557942 1.131096,-6.602551 -5.156555 1.401845,-7.683579 -4.653823 0.6284671,-7.563031 -3.612558 0.8003719,-7.52776 -3.012477 0.9828416,-7.507854 -2.453176 1.122561,-8.051099 -4.549808 0.6805355,-8.018806 -3.523822 0.875191,-8.02665 -2.95476 1.103844,-8.033693 -2.506023 1.26496,-8.38041 -4.638143 0.7702296,-8.391378 -3.657976 0.9457254,-8.390556 -3.085443 1.132681,-8.374577 -2.607698 1.257421,-8.698074 -4.898893 0.8898838,-8.764886 -4.112091 1.055614,-8.781321 -3.603647 1.176771,-8.766695 -3.112009 1.261434,1.810,48  0
-2.159574 -7.263582 0.09759228,-2.75946 -6.94905 0.3331829,-3.166046 -6.129954 0.4209257,-3.274775 -5.253475 0.5650205,-3.485617 -4.552811 0.7059171,-2.97371 -4.743087 -0.09129548,-3.189009 -3.821352 -0.07296677,-3.320604 -3.212192 -0.01299118,-3.424614 -2.591471 0.07621279,-2.623396 -4.602691 -0.0262676,-2.798669 -3.673522 0.02304105,-2.798669 -3.673522 0.02304105,-2.96369 -2.87864 0.3219515,-2.285331 -4.665201 0.10707,-2.382839 -3.789634 0.2332677,-2.454623 -3.328865 0.5322475,-2.539705 -3.091783 0.7536958,-1.92184 -4.863479 0.2915959,-1.962212 -4.144294 0.4477276,-2.035603 -3.76419 0.6674863,-2.117322 -3.5142 0.8644154,-8.285319 -7.264923 0.3269118,-7.727293 -6.930574 0.635974,-7.284187 -6.186156 0.8742601,-6.984357 -5.545599 1.117305,-6.65302 -5.1277 1.385975,-7.712554 -4.648667 0.5861087,-7.603647 -3.610395 0.7695037,-7.568316 -3.00204 0.9706169,-7.543183 -2.453362 1.114005,-8.087066 -4.555983 0.6363291,-8.079268 -3.558147 0.8395832,-8.09409 -3.017526 1.082857,-8.101984 -2.645616 1.248064,-8.42021 -4.659893 0.7337059,-8.447611 -3.713908 0.9023438,-8.445903 -3.169769 1.103968,-8.428664 -2.75373 1.239101,-8.742414 -4.936517 0.8613538,-8.812231 -4.167047 1.019657,-8.82795 -3.667684 1.155136,-8.807899 -3.199827 1.259062,1.910,48  0
-2.165651 -7.223947 -0.1435755,-2.749602 -6.943409 0.1509737,-3.136903 -6.130099 0.268789,-3.229077 -5.265409 0.4205573,-3.433552 -4.540456 0.5776163,-2.938835 -4.759145 -0.2498763,-3.155759 -3.823089 -0.2189589,-3.282555 -3.20746 -0.1369989,-3.381383 -2.589724 -0.02692933,-2.583809 -4.623159 -0.2065749,-2.738549 -3.687455 -0.09636235,-2.738549 -3.687455 -0.09636235,-2.85013 -2.953039 0.3042678,-2.249199 -4.6874 -0.1001849,-2.33376 -3.791299 0.05816802,-2.383416 -3.324554 0.3996589,-2.439744 -3.115966 0.6584798,-1.894371 -4.891421 0.05645882,-1.929048 -4.156797 0.2360384,-1.984441 -3.7821 0.4779152,-2.040026 -3.558666 0.6954653,-8.342232 -7.258752 0.3211867,-7.797479 -6.954196 0.6651409,-7.365218 -6.203451 0.8956494,-7.081388 -5.534015 1.124177,-6.787576 -5.068532 1.365255,-7.779501 -4.628603 0.5391217,-7.675982 -3.619845 0.6883346,-7.665172 -3.007326 0.8634714,-7.662416 -2.452313 0.9844608,-8.158676 -4.543462 0.5618542,-8.171138 -3.632886 0.7256078,-8.21577 -3.206393 0.9478152,-8.238885 -2.942287 1.102418,-8.49262 -4.655663 0.6411358,-8.54337 -3.824567 0.7840183,-8.564632 -3.376585 1.002523,-8.557097 -3.06334 1.15592,-8.807518 -4.931529 0.7571582,-8.874333 -4.23936 0.9063003,-8.898504 -3.797565 1.086612,-8.876557 -3.39798 1.229797,2.010,48  0
-2.170213 -7.22186 -0.1954285,-2.759778 -6.957654 0.1317312,-3.147226 -6.165603 0.3053356,-3.235995 -5.31989 0.5003263,-3.437559 -4.564427 0.7126153,-2.946182 -4.784803 -0.1962825,-3.159658 -3.867851 -0.1248154,-3.285575 -3.250187 -0.007184222,-3.379551 -2.617548 0.1197107,-2.593255 -4.636287 -0.1655565,-2.739156 -3.733289 -0.03837101,-2.739156 -3.733289 -0.03837101,-2.853916 -2.895301 0.37295,-2.250576 -4.696964 -0.07264408,-2.33165 -3.835159 0.103218,-2.383073 -3.375876 0.4413706,-2.436351 -3.156209 0.7086259,-1.883901 -4.902799 0.0686605,-1.924006 -4.174274 0.2650579,-1.985496 -3.82018 0.5118396,-2.047098 -3.629209 0.7434333,-8.348022 -7.231376 0.2321738,-7.803953 -6.983243 0.6623976,-7.415753 -6.239537 0.9389133,-7.208549 -5.523311 1.195462,-6.954879 -4.959478 1.439262,-7.799264 -4.633216 0.4963201,-7.685209 -3.685041 0.6175019,-7.683633 -3.063334 0.8184536,-7.675327 -2.496489 0.9860964,-8.183176 -4.54141 0.4831419,-8.186294 -3.640438 0.680635,-8.244947 -3.418624 0.9945077,-8.27314 -3.391919 1.191324,-8.520407 -4.645875 0.5167435,-8.562183 -3.850599 0.6405897,-8.577553 -3.439381 0.9039741,-8.553269 -3.176977 1.100488,-8.839947 -4.925222 0.5969296,-8.90412 -4.248687 0.7257842,-8.918238 -3.857286 0.897949,-8.880129 -3.539284 1.039285,2.110,48  0
-2.170901 -7.228351 -0.2059897,-2.752835 -6.984934 0.1234999,-3.138358 -6.196908 0.2651321,-3.231512 -5.34403 0.4298152,-3.438729 -4.611993 0.6153064,-2.949926 -4.803302 -0.2508389,-3.151929 -3.882453 -0.1906953,-3.279098 -3.264703 -0.08431088,-3.379133 -2.635872 0.03437492,-2.600797 -4.646992 -0.2364625,-2.751674 -3.739214 -0.1512636,-2.751674 -3.739214 -0.1512636,-2.904829 -2.857296 0.2155946,-2.261082 -4.691593 -0.1577422,-2.343218 -3.823654 -0.01868156,-2.400707 -3.351623 0.2890965,-2.462821 -3.08901 0.5296462,-1.896992 -4.876733 -0.03035001,-1.938682 -4.157666 0.1404121,-1.995408 -3.777827 0.3675092,-2.047107 -3.519757 0.57273,-8.354975 -7.22776 0.1249381,-7.818796 -6.939525 0.5519294,-7.454976 -6.230133 0.8147042,-7.287937 -5.532444 1.053133,-7.095136 -4.929533 1.274484,-7.817215 -4.668818 0.3476464,-7.707995 -3.739262 0.4337951,-7.712676 -3.124318 0.6000624,-7.719063 -2.569427 0.7478834,-8.188358 -4.564053 0.3211265,-8.186699 -3.687935 0.4845904,-8.215031 -3.444089 0.7810487,-8.22732 -3.408065 0.9911101,-8.521385 -4.668796 0.3302826,-8.553305 -3.863087 0.4676868,-8.552259 -3.541328 0.7503904,-8.524663 -3.418698 0.9608054,-8.845455 -4.94794 0.3861955,-8.926898 -4.259236 0.5180176,-8.932674 -3.949998 0.6835762,-8.890978 -3.794359 0.8254925,2.210,48  0
-2.19277 -7.257375 -0.2544526,-2.775408 -7.008054 0.07488662,-3.154405 -6.231134 0.2340126,-3.243145 -5.383134 0.4174107,-3.447053 -4.638069 0.6244508,-2.939041 -4.829727 -0.2733546,-3.148205 -3.902887 -0.1889902,-3.273094 -3.286932 -0.06288812,-3.367775 -2.664977 0.06512654,-2.586627 -4.684074 -0.2494581,-2.733674 -3.766393 -0.1425762,-2.733674 -3.766393 -0.1425762,-2.877863 -2.90434 0.2636948,-2.246933 -4.746809 -0.1640093,-2.316559 -3.87388 -0.01066954,-2.372509 -3.396146 0.308512,-2.438703 -3.126481 0.5617599,-1.88458 -4.957857 -0.02853674,-1.905327 -4.232339 0.1487698,-1.961158 -3.85424 0.3795341,-2.02206 -3.608797 0.5897136,-8.391346 -7.301628 -0.7621785,-7.878424 -6.952932 -0.2470508,-7.520869 -6.261213 0.1051628,-7.426147 -5.532714 0.4025531,-7.503841 -4.848618 0.6516906,-7.896587 -4.983148 -0.2531457,-7.820912 -3.978698 -0.01169282,-7.839199 -3.365901 0.2246176,-7.849372 -2.833212 0.4238783,-8.263991 -4.929216 -0.2881468,-8.268251 -3.979304 0.07200181,-8.28124 -3.66715 0.4355239,-8.267847 -3.596503 0.6797482,-8.5763 -5.044507 -0.2953582,-8.619516 -4.174098 -0.003692567,-8.628667 -3.866407 0.3265839,-8.596255 -3.772007 0.5574135,-8.872322 -5.304426 -0.2559543,-8.968678 -4.579673 0.008140445,-8.985824 -4.290611 0.2453058,-8.935661 -4.164508 0.4363247,2.310,48  0
-2.185383 -7.272942 -0.1712154,-2.762881 -7.023452 0.1615517,-3.149427 -6.264562 0.3241017,-3.247061 -5.429294 0.5135501,-3.465895 -4.707349 0.7215523,-2.944712 -4.831358 -0.1486954,-3.146069 -3.916875 -0.03496118,-3.270762 -3.305458 0.1069582,-3.367001 -2.67462 0.2493873,-2.592118 -4.67813 -0.1169226,-2.741471 -3.769957 0.02037258,-2.741471 -3.769957 0.02037258,-2.896527 -2.851547 0.4518039,-2.250492 -4.743339 -0.02190731,-2.321135 -3.882934 0.1624227,-2.379147 -3.390597 0.4867023,-2.443625 -3.089736 0.7453049,-1.88326 -4.961669 0.1166704,-1.911787 -4.244903 0.3318064,-1.970195 -3.870311 0.5784424,-2.027996 -3.614944 0.8000628,-8.51763 -7.234487 -0.9265498,-7.999241 -6.95367 -0.3126816,-7.691768 -6.241526 0.07394469,-7.681755 -5.475029 0.3915101,-7.851022 -4.876832 0.6726538,-7.997506 -4.965669 -0.4050975,-7.965756 -4.050718 -0.125975,-7.997458 -3.449097 0.1724176,-8.024255 -2.934961 0.4451368,-8.374938 -4.914476 -0.4351767,-8.461642 -3.983789 0.1203392,-8.440781 -4.181504 0.6202513,-8.414402 -4.570577 0.9035149,-8.706409 -5.026448 -0.4215487,-8.801414 -4.139976 0.0467782,-8.786486 -4.253826 0.4956053,-8.748607 -4.552986 0.7550792,-9.026403 -5.26729 -0.3686558,-9.147061 -4.543783 -0.01261759,-9.155474 -4.340436 0.2796316,-9.117386 -4.350091 0.4822688,2.410,48  0
-2.174803 -7.267462 -0.2031929,-2.761991 -7.054306 0.1416098,-3.163594 -6.294435 0.3083655,-3.272519 -5.465271 0.49806,-3.462494 -4.731512 0.7039843,-2.950106 -4.845901 -0.2034563,-3.14715 -3.918662 -0.129088,-3.271965 -3.312492 -0.005971462,-3.37333 -2.697166 0.1225648,-2.597281 -4.683918 -0.1924177,-2.750564 -3.775575 -0.1010241,-2.750564 -3.775575 -0.1010241,-2.907375 -2.876441 0.2938214,-2.254948 -4.730087 -0.119955,-2.345083 -3.868495 0.01945883,-2.404143 -3.379801 0.3221197,-2.468493 -3.090897 0.5712705,-1.885276 -4.924987 0.005508944,-1.932059 -4.193351 0.1728575,-1.993615 -3.808862 0.3998448,-2.054324 -3.551149 0.6145669,-8.57 -7.17644 -0.991754,-8.076719 -6.943552 -0.3562496,-7.776908 -6.244188 0.03664994,-7.77062 -5.489107 0.3601071,-7.963634 -4.925497 0.641548,-8.055754 -4.920963 -0.4948107,-8.022103 -4.027631 -0.1800796,-8.055127 -3.44338 0.1272084,-8.087667 -2.956236 0.3919601,-8.427187 -4.868154 -0.5362929,-8.511052 -3.955802 0.08721161,-8.48 -4.346244 0.5714651,-8.446947 -4.853239 0.7905005,-8.766322 -4.982224 -0.5239333,-8.868925 -4.1 -0.01656103,-8.844622 -4.344911 0.4024717,-8.80174 -4.722436 0.59909,-9.091511 -5.224889 -0.4723767,-9.225685 -4.526947 -0.1163343,-9.234434 -4.359419 0.1462833,-9.201985 -4.393167 0.2985449,2.510,48  0
-2.203023 -7.274862 -0.2333672,-2.776787 -7.048106 0.1352907,-3.169519 -6.305716 0.3293784,-3.278357 -5.488882 0.5282854,-3.50008 -4.792891 0.7523571,-2.951543 -4.847868 -0.0622382,-3.154578 -3.923337 0.1166589,-3.286548 -3.313855 0.2874448,-3.396091 -2.691724 0.4386428,-2.592468 -4.701149 -0.0525215,-2.753563 -3.770619 0.1314364,-2.753563 -3.770619 0.1314364,-2.921744 -2.778105 0.5295427,-2.248317 -4.765316 0.02359241,-2.334055 -3.870334 0.2279497,-2.41143 -3.33196 0.5067333,-2.495876 -2.912063 0.7358968,-1.88233 -4.995386 0.1436934,-1.902635 -4.250237 0.3727099,-1.955604 -3.819774 0.6029498,-2.014181 -3.452687 0.8076444,-8.635618 -7.12078 -1.103812,-8.124227 -6.928367 -0.4097016,-7.830103 -6.217701 0.0265131,-7.909015 -5.473982 0.3684602,-8.159101 -4.977193 0.6650503,-8.120564 -4.926666 -0.4663635,-8.097053 -4.088081 -0.06027198,-8.132857 -3.517203 0.289655,-8.169619 -3.024873 0.5821313,-8.508514 -4.880739 -0.4935443,-8.614231 -4.023877 0.2275517,-8.603194 -4.339464 0.7505726,-8.588478 -4.781982 1.029723,-8.862501 -5.019174 -0.4608928,-8.98069 -4.177862 0.1575766,-8.9363 -4.428099 0.6290463,-8.880432 -4.803432 0.8637735,-9.19736 -5.284576 -0.3881584,-9.340435 -4.583973 0.03722262,-9.35531 -4.37742 0.3527049,-9.330698 -4.383703 0.5575922,2.610,48  0
-2.192303 -7.292612 -0.1612281,-2.779483 -7.066078 0.1703358,-3.171988 -6.311046 0.3473392,-3.282633 -5.482311 0.5412133,-3.534101 -4.791408 0.7646796,-2.949689 -4.842231 -0.06024852,-3.165592 -3.914644 0.1057312,-3.296583 -3.29986 0.2721656,-3.396989 -2.683773 0.4178926,-2.5893 -4.6957 -0.0397428,-2.740142 -3.751177 0.0958325,-2.740142 -3.751177 0.0958325,-2.89229 -2.730875 0.4714592,-2.245979 -4.767002 0.04976924,-2.308981 -3.862962 0.2099673,-2.380351 -3.303656 0.4678261,-2.454238 -2.864429 0.686615,-1.885625 -5.019229 0.1819908,-1.888613 -4.280569 0.381361,-1.933244 -3.836424 0.6013455,-1.981898 -3.448967 0.800325,-8.721729 -7.004547 -1.106711,-8.21621 -6.877321 -0.3437676,-7.930286 -6.210386 0.1150242,-8.033605 -5.515018 0.4766594,-8.288361 -5.037453 0.7878208,-8.195388 -4.828243 -0.4256415,-8.16888 -4.037609 0.08174396,-8.224627 -3.535551 0.4770982,-8.299213 -3.094582 0.7656592,-8.592027 -4.768678 -0.4847198,-8.695162 -3.990377 0.336588,-8.681334 -4.425153 0.8678061,-8.667531 -4.896348 1.103518,-8.960007 -4.895814 -0.4625414,-9.092911 -4.135316 0.2287047,-9.058106 -4.45273 0.665444,-9.005798 -4.81756 0.8409567,-9.31457 -5.156224 -0.3958175,-9.472483 -4.499326 0.08380163,-9.465713 -4.409503 0.4064376,-9.412426 -4.514675 0.5726188,2.710,48  0
-2.193686 -7.303607 -0.1447563,-2.772299 -7.058926 0.1827207,-3.163433 -6.306165 0.3598997,-3.280093 -5.492505 0.5559926,-3.536567 -4.815145 0.7837139,-2.934927 -4.848772 0.0204723,-3.151789 -3.917809 0.2064965,-3.282873 -3.300614 0.3725363,-3.387064 -2.683507 0.5201456,-2.575881 -4.704326 0.05212833,-2.730462 -3.739374 0.2281398,-2.730462 -3.739374 0.2281398,-2.902728 -2.677354 0.613343,-2.235595 -4.782979 0.149241,-2.28997 -3.861167 0.3438264,-2.364295 -3.277199 0.6109822,-2.445402 -2.811044 0.8307408,-1.882497 -5.045188 0.2851981,-1.874811 -4.305936 0.5109361,-1.918501 -3.843667 0.7469324,-1.974467 -3.43739 0.9494109,-8.707201 -7.092487 -1.198298,-8.199817 -6.949123 -0.4622221,-7.925486 -6.244384 -0.03783894,-8.058501 -5.562742 0.2835606,-8.323658 -5.124268 0.546064,-8.233315 -4.923858 -0.5293158,-8.205677 -4.153209 -0.08130801,-8.237976 -3.641669 0.297291,-8.28764 -3.211691 0.595365,-8.635434 -4.883434 -0.5684318,-8.747368 -4.044986 0.1518356,-8.735534 -4.289146 0.6838207,-8.737015 -4.707254 0.988699,-8.998874 -5.042473 -0.5390059,-9.139614 -4.194971 0.09651613,-9.109084 -4.347185 0.5799837,-9.072411 -4.641105 0.8168352,-9.340485 -5.341002 -0.4584697,-9.496449 -4.650524 -0.004934311,-9.511928 -4.417921 0.3340559,-9.486478 -4.381811 0.5617224,2.810,48  0
-2.178615 -7.284963 -0.1844507,-2.768249 -7.073705 0.1455148,-3.169804 -6.340597 0.3218927,-3.293646 -5.549752 0.5156019,-3.55609 -4.90323 0.7364367,-2.944292 -4.856552 0.01129375,-3.157415 -3.913959 0.2080366,-3.290186 -3.290031 0.3798587,-3.392592 -2.671499 0.5330811,-2.579217 -4.702143 0.03898092,-2.729149 -3.723989 0.2264591,-2.729149 -3.723989 0.2264591,-2.889227 -2.627068 0.6089199,-2.233392 -4.776546 0.1341769,-2.292529 -3.850936 0.3406167,-2.363277 -3.252566 0.5965583,-2.432021 -2.769229 0.8155771,-1.874244 -5.038377 0.2665286,-1.870565 -4.302238 0.499633,-1.912936 -3.841433 0.7362454,-1.964642 -3.436759 0.945834,-8.783137 -7.069839 -1.068436,-8.282251 -6.961168 -0.2864717,-7.976486 -6.312156 0.1577265,-8.073963 -5.649351 0.4879677,-8.343431 -5.192367 0.7604606,-8.280054 -4.94397 -0.2640824,-8.226149 -4.259657 0.2711101,-8.257443 -3.774471 0.7203968,-8.306456 -3.376572 1.073019,-8.687002 -4.856815 -0.3287481,-8.796078 -4.095444 0.4652443,-8.802979 -4.34213 1.047119,-8.82307 -4.749636 1.404412,-9.061011 -4.972072 -0.3222488,-9.198024 -4.223983 0.3747008,-9.168798 -4.485181 0.8363439,-9.127441 -4.86462 1.056306,-9.416575 -5.240905 -0.2602279,-9.567294 -4.591516 0.2591511,-9.566968 -4.500675 0.6157773,-9.518687 -4.649202 0.8412362,2.910,48  0
-2.18555 -7.298852 -0.1543624,-2.770568 -7.085972 0.179957,-3.168575 -6.346912 0.3651294,-3.298822 -5.55223 0.5684581,-3.570505 -4.92177 0.8025209,-2.940622 -4.859392 0.05740876,-3.161716 -3.914521 0.2543044,-3.296972 -3.286864 0.4242635,-3.399212 -2.665514 0.579053,-2.577193 -4.707281 0.08455122,-2.733527 -3.721366 0.2614458,-2.733527 -3.721366 0.2614458,-2.906914 -2.60247 0.6151806,-2.232832 -4.783334 0.1801879,-2.287856 -3.848036 0.3762282,-2.361567 -3.251225 0.6094162,-2.436202 -2.753038 0.8106595,-1.876527 -5.048815 0.3147404,-1.866491 -4.304753 0.5375893,-1.907352 -3.843839 0.7544425,-1.959555 -3.429312 0.9437096,-8.861908 -7.075251 -0.9644607,-8.361154 -7.021924 -0.1108146,-8.011212 -6.410051 0.364836,-8.109288 -5.720697 0.7107632,-8.399178 -5.279323 0.9626316,-8.299305 -5.051023 0.03381109,-8.238117 -4.449452 0.753638,-8.267059 -4.025368 1.262612,-8.302976 -3.639843 1.596851,-8.711649 -4.890869 -0.07015115,-8.819563 -4.171889 0.8844085,-8.819564 -4.73431 1.400756,-8.821087 -5.264738 1.638048,-9.104924 -4.924449 -0.09028047,-9.237967 -4.21681 0.7377632,-9.188589 -4.700531 1.117523,-9.135405 -5.157324 1.218923,-9.474648 -5.117021 -0.05410922,-9.642526 -4.448299 0.4992354,-9.620976 -4.404528 0.817412,-9.551346 -4.556827 0.9604391,3.010,48  0
-2.189714 -7.3012 -0.1915102,-2.776264 -7.079429 0.1361971,-3.172461 -6.352977 0.3237613,-3.31085 -5.571258 0.5362375,-3.583954 -4.957128 0.7884532,-2.94386 -4.868529 0.006347165,-3.161268 -3.913671 0.2146619,-3.297502 -3.285875 0.3914258,-3.402292 -2.663489 0.5518892,-2.583392 -4.720344 0.04328382,-2.742601 -3.716684 0.2365525,-2.742601 -3.716684 0.2365525,-2.922767 -2.58535 0.6031944,-2.240075 -4.796382 0.1501217,-2.303426 -3.842515 0.3620571,-2.389825 -3.236656 0.6061267,-2.472555 -2.739088 0.8103309,-1.883568 -5.06141 0.2915508,-1.874722 -4.305036 0.5281542,-1.918551 -3.832948 0.7563967,-1.972776 -3.413328 0.9539373,-8.883893 -7.100574 -0.7758201,-8.389227 -7.015819 0.0746268,-8.045118 -6.411012 0.5550163,-8.138436 -5.732195 0.9165226,-8.418724 -5.294958 1.19826,-8.289494 -4.986118 0.1654882,-8.226575 -4.380559 0.886322,-8.268107 -3.997308 1.406886,-8.317757 -3.712698 1.742252,-8.711869 -4.837989 0.0625248,-8.830031 -4.095701 1.012967,-8.828979 -4.715105 1.505602,-8.821572 -5.325183 1.701318,-9.108695 -4.903126 0.05574203,-9.253542 -4.188108 0.8797005,-9.198371 -4.710579 1.247688,-9.129668 -5.213232 1.32946,-9.47773 -5.132246 0.1064045,-9.670676 -4.485906 0.6617135,-9.663172 -4.418689 0.9875576,-9.592634 -4.535177 1.128271,3.110,48  0
-2.178079 -7.323743 -0.1441603,-2.764613 -7.105231 0.1692479,-3.173273 -6.383064 0.3407241,-3.308826 -5.600305 0.530652,-3.576519 -5.006088 0.7472847,-2.941675 -4.890934 0.05943726,-3.164427 -3.939331 0.267778,-3.298862 -3.316663 0.4219072,-3.400724 -2.704087 0.5460566,-2.583456 -4.731329 0.09410769,-2.741011 -3.72196 0.2859575,-2.741011 -3.72196 0.2859575,-2.918592 -2.551527 0.6067808,-2.241826 -4.80666 0.1972123,-2.298201 -3.855528 0.3999988,-2.373934 -3.239738 0.623502,-2.450114 -2.715244 0.8106496,-1.886399 -5.081657 0.332913,-1.877082 -4.334371 0.5605249,-1.918538 -3.84899 0.7859194,-1.972572 -3.394472 0.9757414,-8.896787 -7.062202 -0.6530648,-8.423744 -7.010012 0.2432574,-8.070381 -6.39347 0.7631791,-8.179893 -5.757257 1.167589,-8.481726 -5.325408 1.49458,-8.321617 -4.959201 0.3864186,-8.256063 -4.359183 1.214702,-8.294977 -4.034124 1.774239,-8.345233 -3.874639 2.104445,-8.751215 -4.791091 0.2653005,-8.865836 -4.026344 1.306392,-8.856237 -4.797451 1.735722,-8.830655 -5.49563 1.834575,-9.159841 -4.84522 0.2522369,-9.316558 -4.09387 1.177907,-9.242664 -4.818438 1.509688,-9.146807 -5.462859 1.510008,-9.53673 -5.064817 0.297529,-9.762157 -4.381984 0.9332345,-9.734639 -4.380741 1.262833,-9.639077 -4.570154 1.370911,3.210,48  0
-2.173855 -7.358089 -0.1387417,-2.761116 -7.144643 0.1750226,-3.165787 -6.405463 0.3494402,-3.303385 -5.626091 0.536554,-3.575434 -5.041687 0.7533314,-2.93173 -4.923267 0.1101695,-3.157559 -3.967819 0.3333974,-3.29533 -3.333106 0.4984743,-3.398844 -2.703887 0.6356816,-2.56951 -4.768015 0.1529358,-2.731257 -3.757909 0.3710949,-2.731257 -3.757909 0.3710949,-2.927255 -2.588954 0.7006036,-2.22323 -4.847932 0.2635217,-2.279741 -3.896731 0.490337,-2.358483 -3.277393 0.7219537,-2.437953 -2.748182 0.9149319,-1.867216 -5.127367 0.4034773,-1.853993 -4.381593 0.6517499,-1.895338 -3.883985 0.8805796,-1.951637 -3.414464 1.074015,-8.933359 -7.158704 -0.2276375,-8.446555 -7.07731 0.6672268,-8.09694 -6.37767 1.207516,-8.261507 -5.744129 1.6211,-8.585075 -5.361146 1.925716,-8.379784 -4.938794 0.8739365,-8.326342 -4.319564 1.740059,-8.385489 -4.004804 2.308004,-8.460022 -3.846256 2.652001,-8.832793 -4.78971 0.7781214,-8.954502 -4.007316 1.829944,-8.943449 -4.729108 2.278078,-8.924077 -5.395942 2.417055,-9.252295 -4.876503 0.7850109,-9.409134 -4.084043 1.694524,-9.340532 -4.687854 2.013088,-9.261879 -5.239061 2.043132,-9.636931 -5.158153 0.854104,-9.863639 -4.474109 1.480434,-9.841927 -4.419506 1.803729,-9.759481 -4.557445 1.922186,3.310,48  0
-2.164879 -7.385583 -0.1615279,-2.746634 -7.151718 0.1706255,-3.153131 -6.427263 0.3478141,-3.2924 -5.645668 0.5340766,-3.55308 -5.055507 0.7424096,-2.92083 -4.961633 0.09490651,-3.140026 -4.001781 0.3150061,-3.272116 -3.373872 0.4839476,-3.374144 -2.74911 0.623224,-2.562561 -4.801591 0.1221924,-2.722296 -3.792906 0.3320275,-2.722296 -3.792906 0.3320275,-2.909295 -2.619719 0.675945,-2.218996 -4.871103 0.2161158,-2.276286 -3.918693 0.4296069,-2.353863 -3.299634 0.6629037,-2.432758 -2.766343 0.8565911,-1.866337 -5.137599 0.3428691,-1.850125 -4.384433 0.5736364,-1.889741 -3.889792 0.7979612,-1.943137 -3.417109 0.9865458,-8.998129 -7.05144 -0.3150561,-8.496851 -7.0337 0.6018294,-8.137211 -6.37092 1.145917,-8.293208 -5.751634 1.574328,-8.622073 -5.313394 1.902848,-8.411528 -4.847798 0.7361686,-8.368669 -4.203428 1.615812,-8.420763 -3.899858 2.202613,-8.495893 -3.813919 2.540284,-8.87108 -4.6802 0.6161488,-9.012842 -3.904653 1.725689,-8.984494 -4.727355 2.176805,-8.954721 -5.472267 2.261729,-9.300259 -4.749111 0.6173385,-9.47401 -3.982261 1.579988,-9.384875 -4.747407 1.893739,-9.289618 -5.42774 1.86314,-9.698251 -4.997495 0.6739607,-9.933905 -4.324543 1.344718,-9.873433 -4.500672 1.664371,-9.751291 -4.872171 1.740752,3.410,48  0
-2.158853 -7.389009 -0.1420906,-2.740373 -7.157247 0.1422296,-3.13906 -6.434137 0.2939495,-3.280497 -5.657029 0.4675868,-3.547485 -5.076992 0.669503,-2.906383 -4.954555 0.02907346,-3.139682 -4.007036 0.217155,-3.275576 -3.381935 0.3666944,-3.373997 -2.763816 0.4975634,-2.551644 -4.792028 0.07303055,-2.712973 -3.78603 0.2550718,-2.712973 -3.78603 0.2550718,-2.885119 -2.608883 0.5631123,-2.208748 -4.866308 0.1826701,-2.261014 -3.92178 0.3687856,-2.3365 -3.310161 0.5848876,-2.408128 -2.786849 0.7649449,-1.857953 -5.138788 0.3237261,-1.838042 -4.39628 0.5349752,-1.875889 -3.90372 0.7453952,-1.929012 -3.43685 0.9229358,-9.063453 -7.131361 0.02135976,-8.55589 -7.100641 0.9998881,-8.193541 -6.411384 1.591247,-8.361831 -5.774436 2.040143,-8.714641 -5.330425 2.363421,-8.48692 -4.886615 1.243214,-8.454565 -4.230335 2.177762,-8.533579 -3.929326 2.786671,-8.630695 -3.842998 3.155886,-8.968376 -4.716505 1.100735,-9.130546 -3.946217 2.245699,-9.112062 -4.789171 2.674245,-9.07251 -5.521303 2.764793,-9.406183 -4.789035 1.073785,-9.596581 -4.01279 2.068641,-9.519381 -4.765279 2.371195,-9.420573 -5.417328 2.349398,-9.804254 -5.043931 1.108124,-10.04289 -4.351206 1.808443,-10.00127 -4.5039 2.124631,-9.888104 -4.838581 2.198376,3.510,48  0
-2.161352 -7.399757 -0.1743434,-2.73619 -7.170274 0.1458795,-3.132956 -6.447073 0.3147513,-3.271963 -5.674716 0.4984897,-3.529154 -5.089454 0.7078139,-2.891212 -4.9731 0.05177277,-3.112932 -4.015743 0.2599788,-3.24223 -3.389666 0.4200935,-3.340389 -2.770308 0.5544531,-2.532771 -4.812508 0.07986847,-2.692582 -3.808461 0.2789733,-2.692582 -3.808461 0.2789733,-2.868278 -2.649425 0.5978719,-2.190084 -4.883952 0.1757043,-2.250634 -3.936367 0.3822405,-2.328331 -3.326343 0.6078755,-2.406868 -2.805821 0.7902639,-1.86227 -5.178859 0.3813997,-1.844469 -4.440267 0.6433164,-1.883551 -3.941124 0.8912222,-1.93761 -3.460983 1.098952,-9.099054 -7.190086 0.3622799,-8.589135 -7.142276 1.39371,-8.224105 -6.418802 2.038127,-8.428992 -5.779297 2.50518,-8.801813 -5.370191 2.826774,-8.569636 -4.93312 1.770342,-8.54789 -4.327224 2.736091,-8.619154 -3.974418 3.35892,-8.715082 -3.758957 3.747927,-9.053734 -4.75167 1.620313,-9.221686 -3.961557 2.747298,-9.199987 -4.736415 3.196445,-9.167213 -5.385621 3.354804,-9.493426 -4.804512 1.57164,-9.689879 -4.022356 2.550837,-9.613413 -4.723384 2.84192,-9.522447 -5.29923 2.846968,-9.893816 -5.050245 1.593865,-10.1195 -4.327202 2.275268,-10.0557 -4.550334 2.545846,-9.929684 -4.945676 2.607412,3.610,48  0
-2.163297 -7.395362 -0.1849689,-2.74062 -7.176636 0.165785,-3.129571 -6.465407 0.3512548,-3.260706 -5.693431 0.548479,-3.520627 -5.101331 0.7742371,-2.902791 -4.971332 0.08604115,-3.121101 -4.018928 0.3004691,-3.252411 -3.393337 0.4735748,-3.351763 -2.772514 0.6292313,-2.539466 -4.816231 0.110125,-2.700212 -3.80564 0.3280058,-2.700212 -3.80564 0.3280058,-2.873629 -2.644035 0.6935784,-2.192134 -4.900072 0.2000028,-2.253234 -3.950665 0.4301888,-2.325836 -3.332637 0.6782067,-2.398208 -2.802647 0.8854824,-1.838636 -5.18551 0.3251762,-1.82528 -4.444406 0.5821695,-1.861618 -3.949848 0.8223805,-1.911385 -3.477926 1.025994,-9.174815 -7.228435 0.5679329,-8.660394 -7.131742 1.609795,-8.334625 -6.390944 2.275646,-8.581496 -5.783082 2.753008,-8.941202 -5.353839 3.078788,-8.667179 -4.886058 2.015569,-8.672387 -4.285268 3.033729,-8.759575 -3.942825 3.691062,-8.868145 -3.711742 4.090656,-9.169355 -4.743099 1.863942,-9.36413 -3.971894 3.02266,-9.331416 -4.764749 3.460797,-9.289474 -5.372692 3.60181,-9.614921 -4.832653 1.808217,-9.832002 -4.068138 2.807627,-9.73847 -4.756855 3.057585,-9.636035 -5.264923 3.03863,-10.00948 -5.118593 1.828026,-10.25201 -4.401416 2.497181,-10.19009 -4.566711 2.740044,-10.06643 -4.857408 2.771949,3.710,48  0
-2.151023 -7.404817 -0.1697092,-2.731224 -7.176303 0.1612024,-3.130459 -6.460622 0.3435204,-3.265557 -5.694973 0.5389571,-3.523144 -5.115488 0.7555959,-2.89992 -4.976392 0.06538196,-3.124403 -4.02577 0.2744193,-3.255827 -3.404236 0.443264,-3.35481 -2.793208 0.5894693,-2.537841 -4.819383 0.09340221,-2.694495 -3.817449 0.2976868,-2.694495 -3.817449 0.2976868,-2.86681 -2.667252 0.6396688,-2.194124 -4.899135 0.1889576,-2.24443 -3.958349 0.3972816,-2.3125 -3.346981 0.6272725,-2.382321 -2.828809 0.8210883,-1.846026 -5.17521 0.3188871,-1.827425 -4.435277 0.548318,-1.858585 -3.943826 0.7644817,-1.906299 -3.471065 0.9515591,-9.269085 -7.194702 0.5033703,-8.736654 -7.130056 1.563398,-8.388756 -6.396213 2.248507,-8.653611 -5.804153 2.740123,-9.04917 -5.381965 3.074335,-8.739487 -4.919044 2.021164,-8.746153 -4.287578 3.088584,-8.859869 -3.962467 3.775661,-9.001787 -3.819504 4.181506,-9.250896 -4.760341 1.854992,-9.467283 -3.985779 3.019394,-9.452519 -4.807201 3.404738,-9.41382 -5.447253 3.502108,-9.706921 -4.835616 1.793272,-9.945561 -4.075062 2.810477,-9.857117 -4.840459 3.013663,-9.748722 -5.407058 2.95169,-10.11045 -5.103937 1.803457,-10.38632 -4.371685 2.471387,-10.33851 -4.503471 2.681108,-10.21087 -4.756601 2.68509,3.810,48  0
-2.170265 -7.42959 -0.1771392,-2.741389 -7.19218 0.1515325,-3.125608 -6.467769 0.3268873,-3.261942 -5.687678 0.520837,-3.539089 -5.113706 0.7479389,-2.890958 -4.991163 0.05613486,-3.113518 -4.034336 0.2650864,-3.248161 -3.406499 0.4290612,-3.352272 -2.783539 0.5736657,-2.532668 -4.842639 0.08477026,-2.686425 -3.828258 0.2823199,-2.686425 -3.828258 0.2823199,-2.867851 -2.673536 0.6172658,-2.193549 -4.921443 0.1805953,-2.245961 -3.964978 0.3904115,-2.323594 -3.346815 0.6286722,-2.4013 -2.82089 0.8234431,-1.849382 -5.196928 0.3098509,-1.828618 -4.456575 0.5409358,-1.867931 -3.960168 0.7683311,-1.920988 -3.48344 0.9572264,-9.314155 -7.178319 0.6688092,-8.77739 -7.13808 1.74802,-8.414202 -6.404656 2.457633,-8.688355 -5.822965 2.97679,-9.114876 -5.401342 3.330707,-8.791742 -4.867542 2.238452,-8.803989 -4.23645 3.332431,-8.920953 -3.942813 4.024483,-9.064713 -3.849786 4.423186,-9.305143 -4.716945 2.068956,-9.521667 -3.97756 3.297307,-9.512879 -4.837257 3.723534,-9.47413 -5.50621 3.831828,-9.760329 -4.798418 2.001387,-10.00381 -4.077063 3.07094,-9.923986 -4.878013 3.306002,-9.820518 -5.473501 3.258945,-10.1605 -5.074779 1.998563,-10.43951 -4.351846 2.708204,-10.39217 -4.520749 2.95023,-10.26277 -4.806345 2.96595,3.910,48  0
-2.169572 -7.445882 -0.1883759,-2.742085 -7.217533 0.1260067,-3.133882 -6.487663 0.2945523,-3.270394 -5.72249 0.479697,-3.529793 -5.148242 0.6909688,-2.890273 -5.015186 0.0332533,-3.116196 -4.061079 0.2438237,-3.251212 -3.433628 0.4054788,-3.350542 -2.811873 0.543663,-2.532702 -4.862369 0.07420531,-2.691688 -3.850391 0.2909759,-2.691688 -3.850391 0.2909759,-2.87242 -2.684556 0.6342857,-2.191594 -4.939409 0.1819249,-2.241485 -3.983182 0.4059144,-2.312186 -3.367487 0.6466167,-2.383426 -2.835985 0.8437104,-1.847049 -5.21183 0.3217815,-1.827344 -4.462718 0.5613436,-1.862668 -3.961395 0.7871289,-1.916733 -3.474064 0.978376,-9.392158 -7.137163 0.6185105,-8.83339 -7.117162 1.728226,-8.459901 -6.383848 2.440963,-8.755093 -5.801704 2.961713,-9.198518 -5.39886 3.289252,-8.891482 -4.850426 2.197051,-8.913239 -4.25325 3.35427,-9.036421 -4.03853 4.026064,-9.178716 -3.929018 4.384243,-9.418325 -4.695362 2.023826,-9.639655 -4.084657 3.361145,-9.62291 -4.950496 3.816994,-9.586575 -5.468989 3.898775,-9.886891 -4.768608 1.95309,-10.11938 -4.182778 3.106927,-10.0367 -4.935911 3.269376,-9.936722 -5.352437 3.136592,-10.29024 -5.036401 1.953851,-10.55383 -4.414691 2.693267,-10.50542 -4.609788 2.897644,-10.38121 -4.814069 2.835781,4.010,48  0
-2.166497 -7.442209 -0.1858548,-2.741377 -7.194499 0.1544781,-3.131805 -6.487651 0.3425265,-3.268644 -5.717635 0.53857,-3.526104 -5.142453 0.7591208,-2.897168 -5.017181 0.08492664,-3.125257 -4.059592 0.2958663,-3.25897 -3.435489 0.4571016,-3.359058 -2.818057 0.5942687,-2.535027 -4.861507 0.1026594,-2.69604 -3.850744 0.306706,-2.69604 -3.850744 0.306706,-2.87205 -2.674119 0.641018,-2.191345 -4.938222 0.1839298,-2.244871 -3.993793 0.3949695,-2.314547 -3.376006 0.6317462,-2.381765 -2.843755 0.8303653,-1.84517 -5.210163 0.2993605,-1.82781 -4.461303 0.5286673,-1.8642 -3.965765 0.75664,-1.915252 -3.485322 0.952057,-9.416035 -7.230884 0.5112593,-8.848927 -7.14682 1.586551,-8.509136 -6.401475 2.337379,-8.806804 -5.799098 2.864234,-9.243682 -5.48167 3.213764,-8.965498 -5.106079 2.333508,-8.993406 -4.424528 3.388162,-9.113918 -4.09118 4.027369,-9.265275 -3.939476 4.441323,-9.48784 -4.987949 2.163479,-9.699207 -4.157377 3.329666,-9.675318 -4.754909 3.764702,-9.648811 -5.251549 3.986325,-9.944815 -5.045306 2.055954,-10.18474 -4.234696 3.055024,-10.1174 -4.659685 3.275247,-10.04722 -4.9635 3.304605,-10.33018 -5.285603 2.015004,-10.60876 -4.535032 2.683412,-10.59917 -4.457838 2.924366,-10.51258 -4.484809 2.996404,4.110,48  0
-2.165085 -7.449193 -0.152363,-2.73724 -7.216348 0.1955404,-3.124155 -6.494956 0.381927,-3.259981 -5.730464 0.5776157,-3.525471 -5.167962 0.7984297,-2.890849 -5.012589 0.13089,-3.113779 -4.055485 0.3493872,-3.24379 -3.430283 0.5169817,-3.341787 -2.812866 0.6591039,-2.53064 -4.859755 0.148544,-2.682792 -3.848941 0.362615,-2.682792 -3.848941 0.362615,-2.859727 -2.688452 0.692565,-2.186521 -4.943944 0.2334669,-2.233275 -4.001808 0.4547385,-2.299583 -3.392533 0.6914181,-2.367405 -2.86339 0.8837132,-1.841654 -5.227762 0.3521831,-1.8146 -4.489835 0.5925322,-1.844292 -3.9972 0.8218257,-1.89093 -3.516723 1.012048,-9.465711 -7.172046 0.7846893,-8.894717 -7.195203 1.942817,-8.497222 -6.468092 2.694023,-8.786403 -5.87067 3.249723,-9.266613 -5.487646 3.615811,-8.938637 -4.909637 2.453676,-8.97833 -4.277338 3.637047,-9.116687 -4.064992 4.310593,-9.266007 -3.989215 4.671705,-9.481501 -4.721006 2.267858,-9.711762 -4.057558 3.630426,-9.683352 -4.964099 4.119518,-9.632863 -5.557703 4.224582,-9.965684 -4.764814 2.185512,-10.20679 -4.153016 3.348494,-10.11562 -4.982545 3.514755,-10.00077 -5.498352 3.382933,-10.38369 -5.013409 2.175991,-10.66063 -4.379913 2.934761,-10.59028 -4.696062 3.135363,-10.43653 -5.052306 3.057562,4.210,48  0
-2.144402 -7.440002 -0.1953312,-2.71384 -7.212368 0.1522582,-3.103842 -6.505247 0.3480974,-3.237131 -5.749919 0.5510306,-3.499636 -5.170467 0.7853864,-2.882538 -5.014728 0.1063249,-3.10158 -4.063694 0.3348886,-3.228315 -3.443672 0.5116442,-3.323056 -2.819805 0.6662374,-2.515682 -4.86768 0.1366682,-2.670252 -3.868245 0.3758036,-2.670252 -3.868245 0.3758036,-2.834768 -2.713319 0.739296,-2.165801 -4.957227 0.2318649,-2.220543 -4.024685 0.480611,-2.28749 -3.419082 0.74132,-2.351943 -2.893091 0.9517986,-1.813095 -5.24308 0.3607671,-1.800704 -4.513839 0.6273295,-1.833068 -4.026971 0.8726667,-1.881821 -3.551315 1.08107,-9.323889 -7.226915 1.01148,-8.801893 -7.072437 2.072189,-8.43325 -6.372649 2.777533,-8.645081 -5.824609 3.351847,-9.107995 -5.456506 3.812904,-8.85449 -4.672999 2.371784,-8.905654 -3.956836 3.481771,-9.038901 -3.761745 4.176095,-9.173677 -3.801937 4.552034,-9.375518 -4.556285 2.214691,-9.577209 -3.855796 3.50016,-9.525633 -4.788367 4.027469,-9.427764 -5.500064 4.138295,-9.836905 -4.661742 2.169689,-10.06866 -4.034705 3.23175,-9.961521 -4.867269 3.525311,-9.809372 -5.477811 3.479873,-10.25499 -4.939619 2.193679,-10.57583 -4.310673 2.929399,-10.46644 -4.560953 3.213958,-10.25183 -4.927375 3.211432,4.310,48  0
-2.149088 -7.523778 -0.1531959,-2.70118 -7.271406 0.2103156,-3.087553 -6.564126 0.4198958,-3.230574 -5.819995 0.6292257,-3.490267 -5.244359 0.8671775,-2.847538 -5.084281 0.2054547,-3.076292 -4.140157 0.4441376,-3.209261 -3.523583 0.6221794,-3.30846 -2.905911 0.7785304,-2.48692 -4.941741 0.2302653,-2.63941 -3.942605 0.4818519,-2.63941 -3.942605 0.4818519,-2.802744 -2.771909 0.8565452,-2.141944 -5.036905 0.3170217,-2.19523 -4.096649 0.570519,-2.269892 -3.483927 0.8229956,-2.335174 -2.95527 1.037113,-1.793977 -5.330501 0.4362592,-1.776191 -4.587095 0.705449,-1.807226 -4.08924 0.9485778,-1.852579 -3.612276 1.155722,-9.133862 -7.138572 0.4049755,-8.66626 -6.911041 1.370484,-8.363893 -6.237792 1.978061,-8.516584 -5.545945 2.449022,-8.909249 -5.122488 2.86399,-8.659076 -4.706503 1.524093,-8.63157 -3.969985 2.392383,-8.730556 -3.561536 2.995608,-8.83338 -3.364853 3.389768,-9.130282 -4.561582 1.382859,-9.310223 -3.694102 2.422425,-9.295916 -4.46068 2.939631,-9.257491 -5.23344 3.137391,-9.559021 -4.654117 1.348269,-9.793926 -3.813696 2.246626,-9.707886 -4.557741 2.647248,-9.584455 -5.274703 2.690577,-9.970137 -4.929962 1.385643,-10.25888 -4.18839 2.068259,-10.17253 -4.433845 2.399107,-10.00168 -4.88956 2.500073,4.410,48  0
-2.152617 -7.654098 -0.1752124,-2.686566 -7.377373 0.1926198,-3.06488 -6.646554 0.3831656,-3.205721 -5.885307 0.5754036,-3.446229 -5.298953 0.7859247,-2.81282 -5.211692 0.1863934,-3.021561 -4.231197 0.4259307,-3.145245 -3.599 0.5981577,-3.23697 -2.971208 0.7438759,-2.455959 -5.072258 0.1949659,-2.591479 -4.045586 0.4270511,-2.591479 -4.045586 0.4270511,-2.754095 -2.833961 0.798277,-2.11256 -5.170697 0.2646925,-2.143266 -4.221222 0.4920508,-2.213623 -3.609407 0.734853,-2.288326 -3.081525 0.9385151,-1.77388 -5.458714 0.3656166,-1.72626 -4.721208 0.6148639,-1.753313 -4.224275 0.8449029,-1.806266 -3.746083 1.035048,-9.046598 -7.055659 0.1214861,-8.58703 -6.863153 1.062451,-8.291208 -6.180276 1.659954,-8.430086 -5.479779 2.119625,-8.791462 -5.035772 2.522097,-8.57218 -4.71376 1.246741,-8.540303 -3.951033 2.040258,-8.601037 -3.477617 2.594561,-8.659842 -3.146606 2.979678,-9.030314 -4.575019 1.123223,-9.187187 -3.68095 2.137915,-9.162577 -4.345056 2.682424,-9.128421 -5.067226 2.915922,-9.452327 -4.660221 1.097733,-9.667003 -3.792389 1.965933,-9.58145 -4.425552 2.416742,-9.475703 -5.10753 2.516284,-9.85434 -4.932456 1.135293,-10.13893 -4.201156 1.798349,-10.06629 -4.334546 2.165962,-9.912664 -4.726484 2.327766,4.510,48  0
-1.982935 -7.940562 -0.1365562,-2.529786 -7.688144 0.3153648,-2.939087 -7.009889 0.5666026,-3.09699 -6.299251 0.8052335,-3.306944 -5.709924 1.070379,-2.687844 -5.492631 0.3850832,-2.90944 -4.482646 0.6426576,-3.028804 -3.842723 0.8544414,-3.112083 -3.207281 1.027443,-2.309707 -5.372964 0.3673823,-2.449641 -4.360057 0.6264642,-2.449641 -4.360057 0.6264642,-2.611166 -3.179029 1.063188,-1.942567 -5.508971 0.404263,-1.95325 -4.582561 0.658428,-1.994539 -4.024934 0.9506067,-2.052929 -3.533561 1.192997,-1.588128 -5.842437 0.484446,-1.532141 -5.122787 0.7682354,-1.540884 -4.671964 1.04172,-1.58618 -4.230634 1.291776,-9.059728 -7.142047 -0.4516917,-8.542214 -7.025516 0.3751698,-8.238821 -6.356712 0.8240045,-8.284879 -5.577037 1.169356,-8.512026 -4.974725 1.502646,-8.524774 -4.821496 0.2698914,-8.491367 -4.006132 0.7647563,-8.548881 -3.415673 1.239559,-8.605053 -2.945581 1.635987,-8.948563 -4.71096 0.1687356,-9.085217 -3.823308 0.9369338,-9.090261 -4.115563 1.552176,-9.087646 -4.597074 1.909361,-9.338546 -4.798212 0.1548697,-9.523822 -3.912809 0.8145381,-9.474735 -4.226275 1.357778,-9.393106 -4.707742 1.614367,-9.7295 -5.025584 0.2037631,-9.918818 -4.257005 0.7732847,-9.856885 -4.290221 1.182789,-9.740686 -4.639196 1.432368,4.610,48  0
-1.754112 -8.789007 -0.4158715,-2.337327 -8.652912 0.00578621,-2.690524 -8.106352 0.3098528,-2.811873 -7.456843 0.4948325,-2.858091 -6.881208 0.6183161,-2.377401 -6.44046 0.3636621,-2.529757 -5.169179 0.5710902,-2.566667 -4.553051 0.6462561,-2.579181 -4.164218 0.6901535,-1.959496 -6.320335 0.2192474,-2.03893 -5.073524 0.4670681,-2.03893 -5.073524 0.4670681,-2.129995 -4.060302 0.6328593,-1.589457 -6.500799 0.08101121,-1.578702 -5.38581 0.3115629,-1.600429 -4.783821 0.4120325,-1.657313 -4.368013 0.5051043,-1.270649 -6.903023 -0.04761419,-1.153443 -6.049315 0.1541395,-1.134788 -5.586583 0.2885378,-1.183398 -5.219783 0.4053301,-9.134685 -7.359048 -0.7132075,-8.606529 -7.229266 0.09490228,-8.29914 -6.517118 0.5493515,-8.330574 -5.78247 0.8905958,-8.473069 -5.143657 1.225935,-8.634786 -5.07977 0.1780733,-8.618676 -4.191806 0.6203386,-8.643001 -3.556442 1.069468,-8.657312 -3.058507 1.473699,-9.059696 -5.058179 0.08536559,-9.155626 -4.141597 0.7433285,-9.151654 -4.003358 1.351322,-9.155069 -4.241898 1.793129,-9.445715 -5.237041 0.04319572,-9.571475 -4.323525 0.6190579,-9.547932 -4.279871 1.207123,-9.491282 -4.541861 1.589981,-9.834042 -5.535781 0.06696844,-9.994814 -4.724077 0.6273587,-9.955783 -4.581026 1.127171,-9.837772 -4.767761 1.506139,4.710,48  0
-1.754112 -8.789007 -0.4158715,-2.337327 -8.652912 0.00578621,-2.690524 -8.106352 0.3098528,-2.811873 -7.456843 0.4948325,-2.858091 -6.881208 0.6183161,-2.377401 -6.44046 0.3636621,-2.529757 -5.169179 0.5710902,-2.566667 -4.553051 0.6462561,-2.579181 -4.164218 0.6901535,-1.959496 -6.320335 0.2192474,-2.03893 -5.073524 0.4670681,-2.03893 -5.073524 0.4670681,-2.129995 -4.060302 0.6328593,-1.589457 -6.500799 0.08101121,-1.578702 -5.38581 0.3115629,-1.600429 -4.783821 0.4120325,-1.657313 -4.368013 0.5051043,-1.270649 -6.903023 -0.04761419,-1.153443 -6.049315 0.1541395,-1.134788 -5.586583 0.2885378,-1.183398 -5.219783 0.4053301,-9.460327 -7.558153 -2.728253,-8.942935 -7.314691 -2.396045,-8.610055 -6.909614 -1.90186,-8.446952 -6.546548 -1.560391,-8.356143 -6.219897 -1.253369,-8.888733 -6.900638 -0.9080963,-8.804403 -5.748718 -0.4292477,-8.808778 -5.166265 -0.3532735,-8.850247 -4.821515 -0.3174329,-9.319646 -6.887611 -0.9982066,-9.378961 -5.453832 -0.6067062,-9.393525 -5.250631 -0.8079095,-9.421206 -5.442529 -0.9050927,-9.712082 -6.898316 -1.143111,-9.809792 -5.557796 -0.8814419,-9.753884 -5.452404 -1.104993,-9.723279 -5.66196 -1.199543,-10.06511 -6.886507 -1.289662,-10.13844 -5.856691 -1.106678,-10.06065 -5.83863 -1.225687,-9.981213 -6.085055 -1.292664,4.810,48  0
-1.754112 -8.789007 -0.4158715,-2.337327 -8.652912 0.00578621,-2.690524 -8.106352 0.3098528,-2.811873 -7.456843 0.4948325,-2.858091 -6.881208 0.6183161,-2.377401 -6.44046 0.3636621,-2.529757 -5.169179 0.5710902,-2.566667 -4.553051 0.6462561,-2.579181 -4.164218 0.6901535,-1.959496 -6.320335 0.2192474,-2.03893 -5.073524 0.4670681,-2.03893 -5.073524 0.4670681,-2.129995 -4.060302 0.6328593,-1.589457 -6.500799 0.08101121,-1.578702 -5.38581 0.3115629,-1.600429 -4.783821 0.4120325,-1.657313 -4.368013 0.5051043,-1.270649 -6.903023 -0.04761419,-1.153443 -6.049315 0.1541395,-1.134788 -5.586583 0.2885378,-1.183398 -5.219783 0.4053301,-8.724184 -14.80792 3.281093,-8.074456 -13.80045 3.074117,-8.000696 -12.4714 2.923281,-8.106442 -11.44321 2.820789,-8.098282 -10.53444 2.671171,-8.574989 -11.20439 2.70904,-8.655587 -9.890762 2.581367,-8.686342 -9.249413 2.399846,-8.716311 -8.879843 2.200541,-9.047522 -11.27961 2.783847,-9.20773 -9.853638 2.515838,-9.152656 -9.483492 2.298177,-9.076359 -9.494215 2.053563,-9.440316 -11.57061 2.862401,-9.64162 -10.2446 2.632569,-9.565577 -9.829678 2.42314,-9.448418 -9.816193 2.28386,-9.783258 -12.03138 2.952973,-9.988602 -10.94339 2.771398,-9.932332 -10.49073 2.615314,-9.808855 -10.41271 2.451519,4.910,48  0
-1.754112 -8.789007 -0.4158715,-2.337327 -8.652912 0.00578621,-2.690524 -8.106352 0.3098528,-2.811873 -7.456843 0.4948325,-2.858091 -6.881208 0.6183161,-2.377401 -6.44046 0.3636621,-2.529757 -5.169179 0.5710902,-2.566667 -4.553051 0.6462561,-2.579181 -4.164218 0.6901535,-1.959496 -6.320335 0.2192474,-2.03893 -5.073524 0.4670681,-2.03893 -5.073524 0.4670681,-2.129995 -4.060302 0.6328593,-1.589457 -6.500799 0.08101121,-1.578702 -5.38581 0.3115629,-1.600429 -4.783821 0.4120325,-1.657313 -4.368013 0.5051043,-1.270649 -6.903023 -0.04761419,-1.153443 -6.049315 0.1541395,-1.134788 -5.586583 0.2885378,-1.183398 -5.219783 0.4053301,-8.724184 -14.80792 3.281093,-8.074456 -13.80045 3.074117,-8.000696 -12.4714 2.923281,-8.106442 -11.44321 2.820789,-8.098282 -10.53444 2.671171,-8.574989 -11.20439 2.70904,-8.655587 -9.890762 2.581367,-8.686342 -9.249413 2.399846,-8.716311 -8.879843 2.200541,-9.047522 -11.27961 2.783847,-9.20773 -9.853638 2.515838,-9.152656 -9.483492 2.298177,-9.076359 -9.494215 2.053563,-9.440316 -11.57061 2.862401,-9.64162 -10.2446 2.632569,-9.565577 -9.829678 2.42314,-9.448418 -9.816193 2.28386,-9.783258 -12.03138 2.952973,-9.988602 -10.94339 2.771398,-9.932332 -10.49073 2.615314,-9.808855 -10.41271 2.451519,5.010,48  0
-1.754112 -8.789007 -0.4158715,-2.337327 -8.652912 0.00578621,-2.690524 -8.106352 0.3098528,-2.811873 -7.456843 0.4948325,-2.858091 -6.881208 0.6183161,-2.377401 -6.44046 0.3636621,-2.529757 -5.169179 0.5710902,-2.566667 -4.553051 0.6462561,-2.579181 -4.164218 0.6901535,-1.959496 -6.320335 0.2192474,-2.03893 -5.073524 0.4670681,-2.03893 -5.073524 0.4670681,-2.129995 -4.060302 0.6328593,-1.589457 -6.500799 0.08101121,-1.578702 -5.38581 0.3115629,-1.600429 -4.783821 0.4120325,-1.657313 -4.368013 0.5051043,-1.270649 -6.903023 -0.04761419,-1.153443 -6.049315 0.1541395,-1.134788 -5.586583 0.2885378,-1.183398 -5.219783 0.4053301,-8.724184 -14.80792 3.281093,-8.074456 -13.80045 3.074117,-8.000696 -12.4714 2.923281,-8.106442 -11.44321 2.820789,-8.098282 -10.53444 2.671171,-8.574989 -11.20439 2.70904,-8.655587 -9.890762 2.581367,-8.686342 -9.249413 2.399846,-8.716311 -8.879843 2.200541,-9.047522 -11.27961 2.783847,-9.20773 -9.853638 2.515838,-9.152656 -9.483492 2.298177,-9.076359 -9.494215 2.053563,-9.440316 -11.57061 2.862401,-9.64162 -10.2446 2.632569,-9.565577 -9.829678 2.42314,-9.448418 -9.816193 2.28386,-9.783258 -12.03138 2.952973,-9.988602 -10.94339 2.771398,-9.932332 -10.49073 2.615314,-9.808855 -10.41271 2.451519,5.110,48  0
-1.754112 -8.789007 -0.4158715,-2.337327 -8.652912 0.00578621,-2.690524 -8.106352 0.3098528,-2.811873 -7.456843 0.4948325,-2.858091 -6.881208 0.6183161,-2.377401 -6.44046 0.3636621,-2.529757 -5.169179 0.5710902,-2.566667 -4.553051 0.6462561,-2.579181 -4.164218 0.6901535,-1.959496 -6.320335 0.2192474,-2.03893 -5.073524 0.4670681,-2.03893 -5.073524 0.4670681,-2.129995 -4.060302 0.6328593,-1.589457 -6.500799 0.08101121,-1.578702 -5.38581 0.3115629,-1.600429 -4.783821 0.4120325,-1.657313 -4.368013 0.5051043,-1.270649 -6.903023 -0.04761419,-1.153443 -6.049315 0.1541395,-1.134788 -5.586583 0.2885378,-1.183398 -5.219783 0.4053301,-8.724184 -14.80792 3.281093,-8.074456 -13.80045 3.074117,-8.000696 -12.4714 2.923281,-8.106442 -11.44321 2.820789,-8.098282 -10.53444 2.671171,-8.574989 -11.20439 2.70904,-8.655587 -9.890762 2.581367,-8.686342 -9.249413 2.399846,-8.716311 -8.879843 2.200541,-9.047522 -11.27961 2.783847,-9.20773 -9.853638 2.515838,-9.152656 -9.483492 2.298177,-9.076359 -9.494215 2.053563,-9.440316 -11.57061 2.862401,-9.64162 -10.2446 2.632569,-9.565577 -9.829678 2.42314,-9.448418 -9.816193 2.28386,-9.783258 -12.03138 2.952973,-9.988602 -10.94339 2.771398,-9.932332 -10.49073 2.615314,-9.808855 -10.41271 2.451519,5.210,48  0
-1.754112 -8.789007 -0.4158715,-2.337327 -8.652912 0.00578621,-2.690524 -8.106352 0.3098528,-2.811873 -7.456843 0.4948325,-2.858091 -6.881208 0.6183161,-2.377401 -6.44046 0.3636621,-2.529757 -5.169179 0.5710902,-2.566667 -4.553051 0.6462561,-2.579181 -4.164218 0.6901535,-1.959496 -6.320335 0.2192474,-2.03893 -5.073524 0.4670681,-2.03893 -5.073524 0.4670681,-2.129995 -4.060302 0.6328593,-1.589457 -6.500799 0.08101121,-1.578702 -5.38581 0.3115629,-1.600429 -4.783821 0.4120325,-1.657313 -4.368013 0.5051043,-1.270649 -6.903023 -0.04761419,-1.153443 -6.049315 0.1541395,-1.134788 -5.586583 0.2885378,-1.183398 -5.219783 0.4053301,-8.724184 -14.80792 3.281093,-8.074456 -13.80045 3.074117,-8.000696 -12.4714 2.923281,-8.106442 -11.44321 2.820789,-8.098282 -10.53444 2.671171,-8.574989 -11.20439 2.70904,-8.655587 -9.890762 2.581367,-8.686342 -9.249413 2.399846,-8.716311 -8.879843 2.200541,-9.047522 -11.27961 2.783847,-9.20773 -9.853638 2.515838,-9.152656 -9.483492 2.298177,-9.076359 -9.494215 2.053563,-9.440316 -11.57061 2.862401,-9.64162 -10.2446 2.632569,-9.565577 -9.829678 2.42314,-9.448418 -9.816193 2.28386,-9.783258 -12.03138 2.952973,-9.988602 -10.94339 2.771398,-9.932332 -10.49073 2.615314,-9.808855 -10.41271 2.451519,5.310,48  0
-1.754112 -8.789007 -0.4158715,-2.337327 -8.652912 0.00578621,-2.690524 -8.106352 0.3098528,-2.811873 -7.456843 0.4948325,-2.858091 -6.881208 0.6183161,-2.377401 -6.44046 0.3636621,-2.529757 -5.169179 0.5710902,-2.566667 -4.553051 0.6462561,-2.579181 -4.164218 0.6901535,-1.959496 -6.320335 0.2192474,-2.03893 -5.073524 0.4670681,-2.03893 -5.073524 0.4670681,-2.129995 -4.060302 0.6328593,-1.589457 -6.500799 0.08101121,-1.578702 -5.38581 0.3115629,-1.600429 -4.783821 0.4120325,-1.657313 -4.368013 0.5051043,-1.270649 -6.903023 -0.04761419,-1.153443 -6.049315 0.1541395,-1.134788 -5.586583 0.2885378,-1.183398 -5.219783 0.4053301,-8.724184 -14.80792 3.281093,-8.074456 -13.80045 3.074117,-8.000696 -12.4714 2.923281,-8.106442 -11.44321 2.820789,-8.098282 -10.53444 2.671171,-8.574989 -11.20439 2.70904,-8.655587 -9.890762 2.581367,-8.686342 -9.249413 2.399846,-8.716311 -8.879843 2.200541,-9.047522 -11.27961 2.783847,-9.20773 -9.853638 2.515838,-9.152656 -9.483492 2.298177,-9.076359 -9.494215 2.053563,-9.440316 -11.57061 2.862401,-9.64162 -10.2446 2.632569,-9.565577 -9.829678 2.42314,-9.448418 -9.816193 2.28386,-9.783258 -12.03138 2.952973,-9.988602 -10.94339 2.771398,-9.932332 -10.49073 2.615314,-9.808855 -10.41271 2.451519,5.410,48  0
-1.754112 -8.789007 -0.4158715,-2.337327 -8.652912 0.00578621,-2.690524 -8.106352 0.3098528,-2.811873 -7.456843 0.4948325,-2.858091 -6.881208 0.6183161,-2.377401 -6.44046 0.3636621,-2.529757 -5.169179 0.5710902,-2.566667 -4.553051 0.6462561,-2.579181 -4.164218 0.6901535,-1.959496 -6.320335 0.2192474,-2.03893 -5.073524 0.4670681,-2.03893 -5.073524 0.4670681,-2.129995 -4.060302 0.6328593,-1.589457 -6.500799 0.08101121,-1.578702 -5.38581 0.3115629,-1.600429 -4.783821 0.4120325,-1.657313 -4.368013 0.5051043,-1.270649 -6.903023 -0.04761419,-1.153443 -6.049315 0.1541395,-1.134788 -5.586583 0.2885378,-1.183398 -5.219783 0.4053301,-8.724184 -14.80792 3.281093,-8.074456 -13.80045 3.074117,-8.000696 -12.4714 2.923281,-8.106442 -11.44321 2.820789,-8.098282 -10.53444 2.671171,-8.574989 -11.20439 2.70904,-8.655587 -9.890762 2.581367,-8.686342 -9.249413 2.399846,-8.716311 -8.879843 2.200541,-9.047522 -11.27961 2.783847,-9.20773 -9.853638 2.515838,-9.152656 -9.483492 2.298177,-9.076359 -9.494215 2.053563,-9.440316 -11.57061 2.862401,-9.64162 -10.2446 2.632569,-9.565577 -9.829678 2.42314,-9.448418 -9.816193 2.28386,-9.783258 -12.03138 2.952973,-9.988602 -10.94339 2.771398,-9.932332 -10.49073 2.615314,-9.808855 -10.41271 2.451519,5.510,48  0
-1.754112 -8.789007 -0.4158715,-2.337327 -8.652912 0.00578621,-2.690524 -8.106352 0.3098528,-2.811873 -7.456843 0.4948325,-2.858091 -6.881208 0.6183161,-2.377401 -6.44046 0.3636621,-2.529757 -5.169179 0.5710902,-2.566667 -4.553051 0.6462561,-2.579181 -4.164218 0.6901535,-1.959496 -6.320335 0.2192474,-2.03893 -5.073524 0.4670681,-2.03893 -5.073524 0.4670681,-2.129995 -4.060302 0.6328593,-1.589457 -6.500799 0.08101121,-1.578702 -5.38581 0.3115629,-1.600429 -4.783821 0.4120325,-1.657313 -4.368013 0.5051043,-1.270649 -6.903023 -0.04761419,-1.153443 -6.049315 0.1541395,-1.134788 -5.586583 0.2885378,-1.183398 -5.219783 0.4053301,-8.724184 -14.80792 3.281093,-8.074456 -13.80045 3.074117,-8.000696 -12.4714 2.923281,-8.106442 -11.44321 2.820789,-8.098282 -10.53444 2.671171,-8.574989 -11.20439 2.70904,-8.655587 -9.890762 2.581367,-8.686342 -9.249413 2.399846,-8.716311 -8.879843 2.200541,-9.047522 -11.27961 2.783847,-9.20773 -9.853638 2.515838,-9.152656 -9.483492 2.298177,-9.076359 -9.494215 2.053563,-9.440316 -11.57061 2.862401,-9.64162 -10.2446 2.632569,-9.565577 -9.829678 2.42314,-9.448418 -9.816193 2.28386,-9.783258 -12.03138 2.952973,-9.988602 -10.94339 2.771398,-9.932332 -10.49073 2.615314,-9.808855 -10.41271 2.451519,5.610,48  0
-1.754112 -8.789007 -0.4158715,-2.337327 -8.652912 0.00578621,-2.690524 -8.106352 0.3098528,-2.811873 -7.456843 0.4948325,-2.858091 -6.881208 0.6183161,-2.377401 -6.44046 0.3636621,-2.529757 -5.169179 0.5710902,-2.566667 -4.553051 0.6462561,-2.579181 -4.164218 0.6901535,-1.959496 -6.320335 0.2192474,-2.03893 -5.073524 0.4670681,-2.03893 -5.073524 0.4670681,-2.129995 -4.060302 0.6328593,-1.589457 -6.500799 0.08101121,-1.578702 -5.38581 0.3115629,-1.600429 -4.783821 0.4120325,-1.657313 -4.368013 0.5051043,-1.270649 -6.903023 -0.04761419,-1.153443 -6.049315 0.1541395,-1.134788 -5.586583 0.2885378,-1.183398 -5.219783 0.4053301,-8.724184 -14.80792 3.281093,-8.074456 -13.80045 3.074117,-8.000696 -12.4714 2.923281,-8.106442 -11.44321 2.820789,-8.098282 -10.53444 2.671171,-8.574989 -11.20439 2.70904,-8.655587 -9.890762 2.581367,-8.686342 -9.249413 2.399846,-8.716311 -8.879843 2.200541,-9.047522 -11.27961 2.783847,-9.20773 -9.853638 2.515838,-9.152656 -9.483492 2.298177,-9.076359 -9.494215 2.053563,-9.440316 -11.57061 2.862401,-9.64162 -10.2446 2.632569,-9.565577 -9.829678 2.42314,-9.448418 -9.816193 2.28386,-9.783258 -12.03138 2.952973,-9.988602 -10.94339 2.771398,-9.932332 -10.49073 2.615314,-9.808855 -10.41271 2.451519,5.710,48  0
-1.754112 -8.789007 -0.4158715,-2.337327 -8.652912 0.00578621,-2.690524 -8.106352 0.3098528,-2.811873 -7.456843 0.4948325,-2.858091 -6.881208 0.6183161,-2.377401 -6.44046 0.3636621,-2.529757 -5.169179 0.5710902,-2.566667 -4.553051 0.6462561,-2.579181 -4.164218 0.6901535,-1.959496 -6.320335 0.2192474,-2.03893 -5.073524 0.4670681,-2.03893 -5.073524 0.4670681,-2.129995 -4.060302 0.6328593,-1.589457 -6.500799 0.08101121,-1.578702 -5.38581 0.3115629,-1.600429 -4.783821 0.4120325,-1.657313 -4.368013 0.5051043,-1.270649 -6.903023 -0.04761419,-1.153443 -6.049315 0.1541395,-1.134788 -5.586583 0.2885378,-1.183398 -5.219783 0.4053301,-8.724184 -14.80792 3.281093,-8.074456 -13.80045 3.074117,-8.000696 -12.4714 2.923281,-8.106442 -11.44321 2.820789,-8.098282 -10.53444 2.671171,-8.574989 -11.20439 2.70904,-8.655587 -9.890762 2.581367,-8.686342 -9.249413 2.399846,-8.716311 -8.879843 2.200541,-9.047522 -11.27961 2.783847,-9.20773 -9.853638 2.515838,-9.152656 -9.483492 2.298177,-9.076359 -9.494215 2.053563,-9.440316 -11.57061 2.862401,-9.64162 -10.2446 2.632569,-9.565577 -9.829678 2.42314,-9.448418 -9.816193 2.28386,-9.783258 -12.03138 2.952973,-9.988602 -10.94339 2.771398,-9.932332 -10.49073 2.615314,-9.808855 -10.41271 2.451519,5.810,48  0
-1.754112 -8.789007 -0.4158715,-2.337327 -8.652912 0.00578621,-2.690524 -8.106352 0.3098528,-2.811873 -7.456843 0.4948325,-2.858091 -6.881208 0.6183161,-2.377401 -6.44046 0.3636621,-2.529757 -5.169179 0.5710902,-2.566667 -4.553051 0.6462561,-2.579181 -4.164218 0.6901535,-1.959496 -6.320335 0.2192474,-2.03893 -5.073524 0.4670681,-2.03893 -5.073524 0.4670681,-2.129995 -4.060302 0.6328593,-1.589457 -6.500799 0.08101121,-1.578702 -5.38581 0.3115629,-1.600429 -4.783821 0.4120325,-1.657313 -4.368013 0.5051043,-1.270649 -6.903023 -0.04761419,-1.153443 -6.049315 0.1541395,-1.134788 -5.586583 0.2885378,-1.183398 -5.219783 0.4053301,-8.724184 -14.80792 3.281093,-8.074456 -13.80045 3.074117,-8.000696 -12.4714 2.923281,-8.106442 -11.44321 2.820789,-8.098282 -10.53444 2.671171,-8.574989 -11.20439 2.70904,-8.655587 -9.890762 2.581367,-8.686342 -9.249413 2.399846,-8.716311 -8.879843 2.200541,-9.047522 -11.27961 2.783847,-9.20773 -9.853638 2.515838,-9.152656 -9.483492 2.298177,-9.076359 -9.494215 2.053563,-9.440316 -11.57061 2.862401,-9.64162 -10.2446 2.632569,-9.565577 -9.829678 2.42314,-9.448418 -9.816193 2.28386,-9.783258 -12.03138 2.952973,-9.988602 -10.94339 2.771398,-9.932332 -10.49073 2.615314,-9.808855 -10.41271 2.451519,5.910,48  0
-1.754112 -8.789007 -0.4158715,-2.337327 -8.652912 0.00578621,-2.690524 -8.106352 0.3098528,-2.811873 -7.456843 0.4948325,-2.858091 -6.881208 0.6183161,-2.377401 -6.44046 0.3636621,-2.529757 -5.169179 0.5710902,-2.566667 -4.553051 0.6462561,-2.579181 -4.164218 0.6901535,-1.959496 -6.320335 0.2192474,-2.03893 -5.073524 0.4670681,-2.03893 -5.073524 0.4670681,-2.129995 -4.060302 0.6328593,-1.589457 -6.500799 0.08101121,-1.578702 -5.38581 0.3115629,-1.600429 -4.783821 0.4120325,-1.657313 -4.368013 0.5051043,-1.270649 -6.903023 -0.04761419,-1.153443 -6.049315 0.1541395,-1.134788 -5.586583 0.2885378,-1.183398 -5.219783 0.4053301,-8.724184 -14.80792 3.281093,-8.074456 -13.80045 3.074117,-8.000696 -12.4714 2.923281,-8.106442 -11.44321 2.820789,-8.098282 -10.53444 2.671171,-8.574989 -11.20439 2.70904,-8.655587 -9.890762 2.581367,-8.686342 -9.249413 2.399846,-8.716311 -8.879843 2.200541,-9.047522 -11.27961 2.783847,-9.20773 -9.853638 2.515838,-9.152656 -9.483492 2.298177,-9.076359 -9.494215 2.053563,-9.440316 -11.57061 2.862401,-9.64162 -10.2446 2.632569,-9.565577 -9.829678 2.42314,-9.448418 -9.816193 2.28386,-9.783258 -12.03138 2.952973,-9.988602 -10.94339 2.771398,-9.932332 -10.49073 2.615314,-9.808855 -10.41271 2.451519,6.010,48  0
-1.754112 -8.789007 -0.4158715,-2.337327 -8.652912 0.00578621,-2.690524 -8.106352 0.3098528,-2.811873 -7.456843 0.4948325,-2.858091 -6.881208 0.6183161,-2.377401 -6.44046 0.3636621,-2.529757 -5.169179 0.5710902,-2.566667 -4.553051 0.6462561,-2.579181 -4.164218 0.6901535,-1.959496 -6.320335 0.2192474,-2.03893 -5.073524 0.4670681,-2.03893 -5.073524 0.4670681,-2.129995 -4.060302 0.6328593,-1.589457 -6.500799 0.08101121,-1.578702 -5.38581 0.3115629,-1.600429 -4.783821 0.4120325,-1.657313 -4.368013 0.5051043,-1.270649 -6.903023 -0.04761419,-1.153443 -6.049315 0.1541395,-1.134788 -5.586583 0.2885378,-1.183398 -5.219783 0.4053301,-8.724184 -14.80792 3.281093,-8.074456 -13.80045 3.074117,-8.000696 -12.4714 2.923281,-8.106442 -11.44321 2.820789,-8.098282 -10.53444 2.671171,-8.574989 -11.20439 2.70904,-8.655587 -9.890762 2.581367,-8.686342 -9.249413 2.399846,-8.716311 -8.879843 2.200541,-9.047522 -11.27961 2.783847,-9.20773 -9.853638 2.515838,-9.152656 -9.483492 2.298177,-9.076359 -9.494215 2.053563,-9.440316 -11.57061 2.862401,-9.64162 -10.2446 2.632569,-9.565577 -9.829678 2.42314,-9.448418 -9.816193 2.28386,-9.783258 -12.03138 2.952973,-9.988602 -10.94339 2.771398,-9.932332 -10.49073 2.615314,-9.808855 -10.41271 2.451519,6.110,48  0
-1.754112 -8.789007 -0.4158715,-2.337327 -8.652912 0.00578621,-2.690524 -8.106352 0.3098528,-2.811873 -7.456843 0.4948325,-2.858091 -6.881208 0.6183161,-2.377401 -6.44046 0.3636621,-2.529757 -5.169179 0.5710902,-2.566667 -4.553051 0.6462561,-2.579181 -4.164218 0.6901535,-1.959496 -6.320335 0.2192474,-2.03893 -5.073524 0.4670681,-2.03893 -5.073524 0.4670681,-2.129995 -4.060302 0.6328593,-1.589457 -6.500799 0.08101121,-1.578702 -5.38581 0.3115629,-1.600429 -4.783821 0.4120325,-1.657313 -4.368013 0.5051043,-1.270649 -6.903023 -0.04761419,-1.153443 -6.049315 0.1541395,-1.134788 -5.586583 0.2885378,-1.183398 -5.219783 0.4053301,-8.724184 -14.80792 3.281093,-8.074456 -13.80045 3.074117,-8.000696 -12.4714 2.923281,-8.106442 -11.44321 2.820789,-8.098282 -10.53444 2.671171,-8.574989 -11.20439 2.70904,-8.655587 -9.890762 2.581367,-8.686342 -9.249413 2.399846,-8.716311 -8.879843 2.200541,-9.047522 -11.27961 2.783847,-9.20773 -9.853638 2.515838,-9.152656 -9.483492 2.298177,-9.076359 -9.494215 2.053563,-9.440316 -11.57061 2.862401,-9.64162 -10.2446 2.632569,-9.565577 -9.829678 2.42314,-9.448418 -9.816193 2.28386,-9.783258 -12.03138 2.952973,-9.988602 -10.94339 2.771398,-9.932332 -10.49073 2.615314,-9.808855 -10.41271 2.451519,6.210,48  0
-1.754112 -8.789007 -0.4158715,-2.337327 -8.652912 0.00578621,-2.690524 -8.106352 0.3098528,-2.811873 -7.456843 0.4948325,-2.858091 -6.881208 0.6183161,-2.377401 -6.44046 0.3636621,-2.529757 -5.169179 0.5710902,-2.566667 -4.553051 0.6462561,-2.579181 -4.164218 0.6901535,-1.959496 -6.320335 0.2192474,-2.03893 -5.073524 0.4670681,-2.03893 -5.073524 0.4670681,-2.129995 -4.060302 0.6328593,-1.589457 -6.500799 0.08101121,-1.578702 -5.38581 0.3115629,-1.600429 -4.783821 0.4120325,-1.657313 -4.368013 0.5051043,-1.270649 -6.903023 -0.04761419,-1.153443 -6.049315 0.1541395,-1.134788 -5.586583 0.2885378,-1.183398 -5.219783 0.4053301,-8.724184 -14.80792 3.281093,-8.074456 -13.80045 3.074117,-8.000696 -12.4714 2.923281,-8.106442 -11.44321 2.820789,-8.098282 -10.53444 2.671171,-8.574989 -11.20439 2.70904,-8.655587 -9.890762 2.581367,-8.686342 -9.249413 2.399846,-8.716311 -8.879843 2.200541,-9.047522 -11.27961 2.783847,-9.20773 -9.853638 2.515838,-9.152656 -9.483492 2.298177,-9.076359 -9.494215 2.053563,-9.440316 -11.57061 2.862401,-9.64162 -10.2446 2.632569,-9.565577 -9.829678 2.42314,-9.448418 -9.816193 2.28386,-9.783258 -12.03138 2.952973,-9.988602 -10.94339 2.771398,-9.932332 -10.49073 2.615314,-9.808855 -10.41271 2.451519,6.310,48  0
-1.754112 -8.789007 -0.4158715,-2.337327 -8.652912 0.00578621,-2.690524 -8.106352 0.3098528,-2.811873 -7.456843 0.4948325,-2.858091 -6.881208 0.6183161,-2.377401 -6.44046 0.3636621,-2.529757 -5.169179 0.5710902,-2.566667 -4.553051 0.6462561,-2.579181 -4.164218 0.6901535,-1.959496 -6.320335 0.2192474,-2.03893 -5.073524 0.4670681,-2.03893 -5.073524 0.4670681,-2.129995 -4.060302 0.6328593,-1.589457 -6.500799 0.08101121,-1.578702 -5.38581 0.3115629,-1.600429 -4.783821 0.4120325,-1.657313 -4.368013 0.5051043,-1.270649 -6.903023 -0.04761419,-1.153443 -6.049315 0.1541395,-1.134788 -5.586583 0.2885378,-1.183398 -5.219783 0.4053301,-8.724184 -14.80792 3.281093,-8.074456 -13.80045 3.074117,-8.000696 -12.4714 2.923281,-8.106442 -11.44321 2.820789,-8.098282 -10.53444 2.671171,-8.574989 -11.20439 2.70904,-8.655587 -9.890762 2.581367,-8.686342 -9.249413 2.399846,-8.716311 -8.879843 2.200541,-9.047522 -11.27961 2.783847,-9.20773 -9.853638 2.515838,-9.152656 -9.483492 2.298177,-9.076359 -9.494215 2.053563,-9.440316 -11.57061 2.862401,-9.64162 -10.2446 2.632569,-9.565577 -9.829678 2.42314,-9.448418 -9.816193 2.28386,-9.783258 -12.03138 2.952973,-9.988602 -10.94339 2.771398,-9.932332 -10.49073 2.615314,-9.808855 -10.41271 2.451519,6.410,48  0
-1.754112 -8.789007 -0.4158715,-2.337327 -8.652912 0.00578621,-2.690524 -8.106352 0.3098528,-2.811873 -7.456843 0.4948325,-2.858091 -6.881208 0.6183161,-2.377401 -6.44046 0.3636621,-2.529757 -5.169179 0.5710902,-2.566667 -4.553051 0.6462561,-2.579181 -4.164218 0.6901535,-1.959496 -6.320335 0.2192474,-2.03893 -5.073524 0.4670681,-2.03893 -5.073524 0.4670681,-2.129995 -4.060302 0.6328593,-1.589457 -6.500799 0.08101121,-1.578702 -5.38581 0.3115629,-1.600429 -4.783821 0.4120325,-1.657313 -4.368013 0.5051043,-1.270649 -6.903023 -0.04761419,-1.153443 -6.049315 0.1541395,-1.134788 -5.586583 0.2885378,-1.183398 -5.219783 0.4053301,-8.724184 -14.80792 3.281093,-8.074456 -13.80045 3.074117,-8.000696 -12.4714 2.923281,-8.106442 -11.44321 2.820789,-8.098282 -10.53444 2.671171,-8.574989 -11.20439 2.70904,-8.655587 -9.890762 2.581367,-8.686342 -9.249413 2.399846,-8.716311 -8.879843 2.200541,-9.047522 -11.27961 2.783847,-9.20773 -9.853638 2.515838,-9.152656 -9.483492 2.298177,-9.076359 -9.494215 2.053563,-9.440316 -11.57061 2.862401,-9.64162 -10.2446 2.632569,-9.565577 -9.829678 2.42314,-9.448418 -9.816193 2.28386,-9.783258 -12.03138 2.952973,-9.988602 -10.94339 2.771398,-9.932332 -10.49073 2.615314,-9.808855 -10.41271 2.451519,6.510,48  0
-1.754112 -8.789007 -0.4158715,-2.337327 -8.652912 0.00578621,-2.690524 -8.106352 0.3098528,-2.811873 -7.456843 0.4948325,-2.858091 -6.881208 0.6183161,-2.377401 -6.44046 0.3636621,-2.529757 -5.169179 0.5710902,-2.566667 -4.553051 0.6462561,-2.579181 -4.164218 0.6901535,-1.959496 -6.320335 0.2192474,-2.03893 -5.073524 0.4670681,-2.03893 -5.073524 0.4670681,-2.129995 -4.060302 0.6328593,-1.589457 -6.500799 0.08101121,-1.578702 -5.38581 0.3115629,-1.600429 -4.783821 0.4120325,-1.657313 -4.368013 0.5051043,-1.270649 -6.903023 -0.04761419,-1.153443 -6.049315 0.1541395,-1.134788 -5.586583 0.2885378,-1.183398 -5.219783 0.4053301,-8.724184 -14.80792 3.281093,-8.074456 -13.80045 3.074117,-8.000696 -12.4714 2.923281,-8.106442 -11.44321 2.820789,-8.098282 -10.53444 2.671171,-8.574989 -11.20439 2.70904,-8.655587 -9.890762 2.581367,-8.686342 -9.249413 2.399846,-8.716311 -8.879843 2.200541,-9.047522 -11.27961 2.783847,-9.20773 -9.853638 2.515838,-9.152656 -9.483492 2.298177,-9.076359 -9.494215 2.053563,-9.440316 -11.57061 2.862401,-9.64162 -10.2446 2.632569,-9.565577 -9.829678 2.42314,-9.448418 -9.816193 2.28386,-9.783258 -12.03138 2.952973,-9.988602 -10.94339 2.771398,-9.932332 -10.49073 2.615314,-9.808855 -10.41271 2.451519,6.610,48  0
-1.754112 -8.789007 -0.4158715,-2.337327 -8.652912 0.00578621,-2.690524 -8.106352 0.3098528,-2.811873 -7.456843 0.4948325,-2.858091 -6.881208 0.6183161,-2.377401 -6.44046 0.3636621,-2.529757 -5.169179 0.5710902,-2.566667 -4.553051 0.6462561,-2.579181 -4.164218 0.6901535,-1.959496 -6.320335 0.2192474,-2.03893 -5.073524 0.4670681,-2.03893 -5.073524 0.4670681,-2.129995 -4.060302 0.6328593,-1.589457 -6.500799 0.08101121,-1.578702 -5.38581 0.3115629,-1.600429 -4.783821 0.4120325,-1.657313 -4.368013 0.5051043,-1.270649 -6.903023 -0.04761419,-1.153443 -6.049315 0.1541395,-1.134788 -5.586583 0.2885378,-1.183398 -5.219783 0.4053301,-8.724184 -14.80792 3.281093,-8.074456 -13.80045 3.074117,-8.000696 -12.4714 2.923281,-8.106442 -11.44321 2.820789,-8.098282 -10.53444 2.671171,-8.574989 -11.20439 2.70904,-8.655587 -9.890762 2.581367,-8.686342 -9.249413 2.399846,-8.716311 -8.879843 2.200541,-9.047522 -11.27961 2.783847,-9.20773 -9.853638 2.515838,-9.152656 -9.483492 2.298177,-9.076359 -9.494215 2.053563,-9.440316 -11.57061 2.862401,-9.64162 -10.2446 2.632569,-9.565577 -9.829678 2.42314,-9.448418 -9.816193 2.28386,-9.783258 -12.03138 2.952973,-9.988602 -10.94339 2.771398,-9.932332 -10.49073 2.615314,-9.808855 -10.41271 2.451519,6.710,48  0
-1.754112 -8.789007 -0.4158715,-2.337327 -8.652912 0.00578621,-2.690524 -8.106352 0.3098528,-2.811873 -7.456843 0.4948325,-2.858091 -6.881208 0.6183161,-2.377401 -6.44046 0.3636621,-2.529757 -5.169179 0.5710902,-2.566667 -4.553051 0.6462561,-2.579181 -4.164218 0.6901535,-1.959496 -6.320335 0.2192474,-2.03893 -5.073524 0.4670681,-2.03893 -5.073524 0.4670681,-2.129995 -4.060302 0.6328593,-1.589457 -6.500799 0.08101121,-1.578702 -5.38581 0.3115629,-1.600429 -4.783821 0.4120325,-1.657313 -4.368013 0.5051043,-1.270649 -6.903023 -0.04761419,-1.153443 -6.049315 0.1541395,-1.134788 -5.586583 0.2885378,-1.183398 -5.219783 0.4053301,-8.724184 -14.80792 3.281093,-8.074456 -13.80045 3.074117,-8.000696 -12.4714 2.923281,-8.106442 -11.44321 2.820789,-8.098282 -10.53444 2.671171,-8.574989 -11.20439 2.70904,-8.655587 -9.890762 2.581367,-8.686342 -9.249413 2.399846,-8.716311 -8.879843 2.200541,-9.047522 -11.27961 2.783847,-9.20773 -9.853638 2.515838,-9.152656 -9.483492 2.298177,-9.076359 -9.494215 2.053563,-9.440316 -11.57061 2.862401,-9.64162 -10.2446 2.632569,-9.565577 -9.829678 2.42314,-9.448418 -9.816193 2.28386,-9.783258 -12.03138 2.952973,-9.988602 -10.94339 2.771398,-9.932332 -10.49073 2.615314,-9.808855 -10.41271 2.451519,6.810,48  0
-1.754112 -8.789007 -0.4158715,-2.337327 -8.652912 0.00578621,-2.690524 -8.106352 0.3098528,-2.811873 -7.456843 0.4948325,-2.858091 -6.881208 0.6183161,-2.377401 -6.44046 0.3636621,-2.529757 -5.169179 0.5710902,-2.566667 -4.553051 0.6462561,-2.579181 -4.164218 0.6901535,-1.959496 -6.320335 0.2192474,-2.03893 -5.073524 0.4670681,-2.03893 -5.073524 0.4670681,-2.129995 -4.060302 0.6328593,-1.589457 -6.500799 0.08101121,-1.578702 -5.38581 0.3115629,-1.600429 -4.783821 0.4120325,-1.657313 -4.368013 0.5051043,-1.270649 -6.903023 -0.04761419,-1.153443 -6.049315 0.1541395,-1.134788 -5.586583 0.2885378,-1.183398 -5.219783 0.4053301,-8.724184 -14.80792 3.281093,-8.074456 -13.80045 3.074117,-8.000696 -12.4714 2.923281,-8.106442 -11.44321 2.820789,-8.098282 -10.53444 2.671171,-8.574989 -11.20439 2.70904,-8.655587 -9.890762 2.581367,-8.686342 -9.249413 2.399846,-8.716311 -8.879843 2.200541,-9.047522 -11.27961 2.783847,-9.20773 -9.853638 2.515838,-9.152656 -9.483492 2.298177,-9.076359 -9.494215 2.053563,-9.440316 -11.57061 2.862401,-9.64162 -10.2446 2.632569,-9.565577 -9.829678 2.42314,-9.448418 -9.816193 2.28386,-9.783258 -12.03138 2.952973,-9.988602 -10.94339 2.771398,-9.932332 -10.49073 2.615314,-9.808855 -10.41271 2.451519,6.910,48  0
-1.754112 -8.789007 -0.4158715,-2.337327 -8.652912 0.00578621,-2.690524 -8.106352 0.3098528,-2.811873 -7.456843 0.4948325,-2.858091 -6.881208 0.6183161,-2.377401 -6.44046 0.3636621,-2.529757 -5.169179 0.5710902,-2.566667 -4.553051 0.6462561,-2.579181 -4.164218 0.6901535,-1.959496 -6.320335 0.2192474,-2.03893 -5.073524 0.4670681,-2.03893 -5.073524 0.4670681,-2.129995 -4.060302 0.6328593,-1.589457 -6.500799 0.08101121,-1.578702 -5.38581 0.3115629,-1.600429 -4.783821 0.4120325,-1.657313 -4.368013 0.5051043,-1.270649 -6.903023 -0.04761419,-1.153443 -6.049315 0.1541395,-1.134788 -5.586583 0.2885378,-1.183398 -5.219783 0.4053301,-8.724184 -14.80792 3.281093,-8.074456 -13.80045 3.074117,-8.000696 -12.4714 2.923281,-8.106442 -11.44321 2.820789,-8.098282 -10.53444 2.671171,-8.574989 -11.20439 2.70904,-8.655587 -9.890762 2.581367,-8.686342 -9.249413 2.399846,-8.716311 -8.879843 2.200541,-9.047522 -11.27961 2.783847,-9.20773 -9.853638 2.515838,-9.152656 -9.483492 2.298177,-9.076359 -9.494215 2.053563,-9.440316 -11.57061 2.862401,-9.64162 -10.2446 2.632569,-9.565577 -9.829678 2.42314,-9.448418 -9.816193 2.28386,-9.783258 -12.03138 2.952973,-9.988602 -10.94339 2.771398,-9.932332 -10.49073 2.615314,-9.808855 -10.41271 2.451519,7.010,48  0
-1.754112 -8.789007 -0.4158715,-2.337327 -8.652912 0.00578621,-2.690524 -8.106352 0.3098528,-2.811873 -7.456843 0.4948325,-2.858091 -6.881208 0.6183161,-2.377401 -6.44046 0.3636621,-2.529757 -5.169179 0.5710902,-2.566667 -4.553051 0.6462561,-2.579181 -4.164218 0.6901535,-1.959496 -6.320335 0.2192474,-2.03893 -5.073524 0.4670681,-2.03893 -5.073524 0.4670681,-2.129995 -4.060302 0.6328593,-1.589457 -6.500799 0.08101121,-1.578702 -5.38581 0.3115629,-1.600429 -4.783821 0.4120325,-1.657313 -4.368013 0.5051043,-1.270649 -6.903023 -0.04761419,-1.153443 -6.049315 0.1541395,-1.134788 -5.586583 0.2885378,-1.183398 -5.219783 0.4053301,-8.724184 -14.80792 3.281093,-8.074456 -13.80045 3.074117,-8.000696 -12.4714 2.923281,-8.106442 -11.44321 2.820789,-8.098282 -10.53444 2.671171,-8.574989 -11.20439 2.70904,-8.655587 -9.890762 2.581367,-8.686342 -9.249413 2.399846,-8.716311 -8.879843 2.200541,-9.047522 -11.27961 2.783847,-9.20773 -9.853638 2.515838,-9.152656 -9.483492 2.298177,-9.076359 -9.494215 2.053563,-9.440316 -11.57061 2.862401,-9.64162 -10.2446 2.632569,-9.565577 -9.829678 2.42314,-9.448418 -9.816193 2.28386,-9.783258 -12.03138 2.952973,-9.988602 -10.94339 2.771398,-9.932332 -10.49073 2.615314,-9.808855 -10.41271 2.451519,7.110,48  0
-1.754112 -8.789007 -0.4158715,-2.337327 -8.652912 0.00578621,-2.690524 -8.106352 0.3098528,-2.811873 -7.456843 0.4948325,-2.858091 -6.881208 0.6183161,-2.377401 -6.44046 0.3636621,-2.529757 -5.169179 0.5710902,-2.566667 -4.553051 0.6462561,-2.579181 -4.164218 0.6901535,-1.959496 -6.320335 0.2192474,-2.03893 -5.073524 0.4670681,-2.03893 -5.073524 0.4670681,-2.129995 -4.060302 0.6328593,-1.589457 -6.500799 0.08101121,-1.578702 -5.38581 0.3115629,-1.600429 -4.783821 0.4120325,-1.657313 -4.368013 0.5051043,-1.270649 -6.903023 -0.04761419,-1.153443 -6.049315 0.1541395,-1.134788 -5.586583 0.2885378,-1.183398 -5.219783 0.4053301,-8.724184 -14.80792 3.281093,-8.074456 -13.80045 3.074117,-8.000696 -12.4714 2.923281,-8.106442 -11.44321 2.820789,-8.098282 -10.53444 2.671171,-8.574989 -11.20439 2.70904,-8.655587 -9.890762 2.581367,-8.686342 -9.249413 2.399846,-8.716311 -8.879843 2.200541,-9.047522 -11.27961 2.783847,-9.20773 -9.853638 2.515838,-9.152656 -9.483492 2.298177,-9.076359 -9.494215 2.053563,-9.440316 -11.57061 2.862401,-9.64162 -10.2446 2.632569,-9.565577 -9.829678 2.42314,-9.448418 -9.816193 2.28386,-9.783258 -12.03138 2.952973,-9.988602 -10.94339 2.771398,-9.932332 -10.49073 2.615314,-9.808855 -10.41271 2.451519,7.210,48  0
-1.754112 -8.789007 -0.4158715,-2.337327 -8.652912 0.00578621,-2.690524 -8.106352 0.3098528,-2.811873 -7.456843 0.4948325,-2.858091 -6.881208 0.6183161,-2.377401 -6.44046 0.3636621,-2.529757 -5.169179 0.5710902,-2.566667 -4.553051 0.6462561,-2.579181 -4.164218 0.6901535,-1.959496 -6.320335 0.2192474,-2.03893 -5.073524 0.4670681,-2.03893 -5.073524 0.4670681,-2.129995 -4.060302 0.6328593,-1.589457 -6.500799 0.08101121,-1.578702 -5.38581 0.3115629,-1.600429 -4.783821 0.4120325,-1.657313 -4.368013 0.5051043,-1.270649 -6.903023 -0.04761419,-1.153443 -6.049315 0.1541395,-1.134788 -5.586583 0.2885378,-1.183398 -5.219783 0.4053301,-8.724184 -14.80792 3.281093,-8.074456 -13.80045 3.074117,-8.000696 -12.4714 2.923281,-8.106442 -11.44321 2.820789,-8.098282 -10.53444 2.671171,-8.574989 -11.20439 2.70904,-8.655587 -9.890762 2.581367,-8.686342 -9.249413 2.399846,-8.716311 -8.879843 2.200541,-9.047522 -11.27961 2.783847,-9.20773 -9.853638 2.515838,-9.152656 -9.483492 2.298177,-9.076359 -9.494215 2.053563,-9.440316 -11.57061 2.862401,-9.64162 -10.2446 2.632569,-9.565577 -9.829678 2.42314,-9.448418 -9.816193 2.28386,-9.783258 -12.03138 2.952973,-9.988602 -10.94339 2.771398,-9.932332 -10.49073 2.615314,-9.808855 -10.41271 2.451519,7.310,48  0
-1.754112 -8.789007 -0.4158715,-2.337327 -8.652912 0.00578621,-2.690524 -8.106352 0.3098528,-2.811873 -7.456843 0.4948325,-2.858091 -6.881208 0.6183161,-2.377401 -6.44046 0.3636621,-2.529757 -5.169179 0.5710902,-2.566667 -4.553051 0.6462561,-2.579181 -4.164218 0.6901535,-1.959496 -6.320335 0.2192474,-2.03893 -5.073524 0.4670681,-2.03893 -5.073524 0.4670681,-2.129995 -4.060302 0.6328593,-1.589457 -6.500799 0.08101121,-1.578702 -5.38581 0.3115629,-1.600429 -4.783821 0.4120325,-1.657313 -4.368013 0.5051043,-1.270649 -6.903023 -0.04761419,-1.153443 -6.049315 0.1541395,-1.134788 -5.586583 0.2885378,-1.183398 -5.219783 0.4053301,-8.724184 -14.80792 3.281093,-8.074456 -13.80045 3.074117,-8.000696 -12.4714 2.923281,-8.106442 -11.44321 2.820789,-8.098282 -10.53444 2.671171,-8.574989 -11.20439 2.70904,-8.655587 -9.890762 2.581367,-8.686342 -9.249413 2.399846,-8.716311 -8.879843 2.200541,-9.047522 -11.27961 2.783847,-9.20773 -9.853638 2.515838,-9.152656 -9.483492 2.298177,-9.076359 -9.494215 2.053563,-9.440316 -11.57061 2.862401,-9.64162 -10.2446 2.632569,-9.565577 -9.829678 2.42314,-9.448418 -9.816193 2.28386,-9.783258 -12.03138 2.952973,-9.988602 -10.94339 2.771398,-9.932332 -10.49073 2.615314,-9.808855 -10.41271 2.451519,7.410,48  0
-1.754112 -8.789007 -0.4158715,-2.337327 -8.652912 0.00578621,-2.690524 -8.106352 0.3098528,-2.811873 -7.456843 0.4948325,-2.858091 -6.881208 0.6183161,-2.377401 -6.44046 0.3636621,-2.529757 -5.169179 0.5710902,-2.566667 -4.553051 0.6462561,-2.579181 -4.164218 0.6901535,-1.959496 -6.320335 0.2192474,-2.03893 -5.073524 0.4670681,-2.03893 -5.073524 0.4670681,-2.129995 -4.060302 0.6328593,-1.589457 -6.500799 0.08101121,-1.578702 -5.38581 0.3115629,-1.600429 -4.783821 0.4120325,-1.657313 -4.368013 0.5051043,-1.270649 -6.903023 -0.04761419,-1.153443 -6.049315 0.1541395,-1.134788 -5.586583 0.2885378,-1.183398 -5.219783 0.4053301,-8.724184 -14.80792 3.281093,-8.074456 -13.80045 3.074117,-8.000696 -12.4714 2.923281,-8.106442 -11.44321 2.820789,-8.098282 -10.53444 2.671171,-8.574989 -11.20439 2.70904,-8.655587 -9.890762 2.581367,-8.686342 -9.249413 2.399846,-8.716311 -8.879843 2.200541,-9.047522 -11.27961 2.783847,-9.20773 -9.853638 2.515838,-9.152656 -9.483492 2.298177,-9.076359 -9.494215 2.053563,-9.440316 -11.57061 2.862401,-9.64162 -10.2446 2.632569,-9.565577 -9.829678 2.42314,-9.448418 -9.816193 2.28386,-9.783258 -12.03138 2.952973,-9.988602 -10.94339 2.771398,-9.932332 -10.49073 2.615314,-9.808855 -10.41271 2.451519,7.510,48  0
-1.754112 -8.789007 -0.4158715,-2.337327 -8.652912 0.00578621,-2.690524 -8.106352 0.3098528,-2.811873 -7.456843 0.4948325,-2.858091 -6.881208 0.6183161,-2.377401 -6.44046 0.3636621,-2.529757 -5.169179 0.5710902,-2.566667 -4.553051 0.6462561,-2.579181 -4.164218 0.6901535,-1.959496 -6.320335 0.2192474,-2.03893 -5.073524 0.4670681,-2.03893 -5.073524 0.4670681,-2.129995 -4.060302 0.6328593,-1.589457 -6.500799 0.08101121,-1.578702 -5.38581 0.3115629,-1.600429 -4.783821 0.4120325,-1.657313 -4.368013 0.5051043,-1.270649 -6.903023 -0.04761419,-1.153443 -6.049315 0.1541395,-1.134788 -5.586583 0.2885378,-1.183398 -5.219783 0.4053301,-8.724184 -14.80792 3.281093,-8.074456 -13.80045 3.074117,-8.000696 -12.4714 2.923281,-8.106442 -11.44321 2.820789,-8.098282 -10.53444 2.671171,-8.574989 -11.20439 2.70904,-8.655587 -9.890762 2.581367,-8.686342 -9.249413 2.399846,-8.716311 -8.879843 2.200541,-9.047522 -11.27961 2.783847,-9.20773 -9.853638 2.515838,-9.152656 -9.483492 2.298177,-9.076359 -9.494215 2.053563,-9.440316 -11.57061 2.862401,-9.64162 -10.2446 2.632569,-9.565577 -9.829678 2.42314,-9.448418 -9.816193 2.28386,-9.783258 -12.03138 2.952973,-9.988602 -10.94339 2.771398,-9.932332 -10.49073 2.615314,-9.808855 -10.41271 2.451519,7.610,48  0
-1.754112 -8.789007 -0.4158715,-2.337327 -8.652912 0.00578621,-2.690524 -8.106352 0.3098528,-2.811873 -7.456843 0.4948325,-2.858091 -6.881208 0.6183161,-2.377401 -6.44046 0.3636621,-2.529757 -5.169179 0.5710902,-2.566667 -4.553051 0.6462561,-2.579181 -4.164218 0.6901535,-1.959496 -6.320335 0.2192474,-2.03893 -5.073524 0.4670681,-2.03893 -5.073524 0.4670681,-2.129995 -4.060302 0.6328593,-1.589457 -6.500799 0.08101121,-1.578702 -5.38581 0.3115629,-1.600429 -4.783821 0.4120325,-1.657313 -4.368013 0.5051043,-1.270649 -6.903023 -0.04761419,-1.153443 -6.049315 0.1541395,-1.134788 -5.586583 0.2885378,-1.183398 -5.219783 0.4053301,-8.724184 -14.80792 3.281093,-8.074456 -13.80045 3.074117,-8.000696 -12.4714 2.923281,-8.106442 -11.44321 2.820789,-8.098282 -10.53444 2.671171,-8.574989 -11.20439 2.70904,-8.655587 -9.890762 2.581367,-8.686342 -9.249413 2.399846,-8.716311 -8.879843 2.200541,-9.047522 -11.27961 2.783847,-9.20773 -9.853638 2.515838,-9.152656 -9.483492 2.298177,-9.076359 -9.494215 2.053563,-9.440316 -11.57061 2.862401,-9.64162 -10.2446 2.632569,-9.565577 -9.829678 2.42314,-9.448418 -9.816193 2.28386,-9.783258 -12.03138 2.952973,-9.988602 -10.94339 2.771398,-9.932332 -10.49073 2.615314,-9.808855 -10.41271 2.451519,7.710,48  0
-1.754112 -8.789007 -0.4158715,-2.337327 -8.652912 0.00578621,-2.690524 -8.106352 0.3098528,-2.811873 -7.456843 0.4948325,-2.858091 -6.881208 0.6183161,-2.377401 -6.44046 0.3636621,-2.529757 -5.169179 0.5710902,-2.566667 -4.553051 0.6462561,-2.579181 -4.164218 0.6901535,-1.959496 -6.320335 0.2192474,-2.03893 -5.073524 0.4670681,-2.03893 -5.073524 0.4670681,-2.129995 -4.060302 0.6328593,-1.589457 -6.500799 0.08101121,-1.578702 -5.38581 0.3115629,-1.600429 -4.783821 0.4120325,-1.657313 -4.368013 0.5051043,-1.270649 -6.903023 -0.04761419,-1.153443 -6.049315 0.1541395,-1.134788 -5.586583 0.2885378,-1.183398 -5.219783 0.4053301,-8.724184 -14.80792 3.281093,-8.074456 -13.80045 3.074117,-8.000696 -12.4714 2.923281,-8.106442 -11.44321 2.820789,-8.098282 -10.53444 2.671171,-8.574989 -11.20439 2.70904,-8.655587 -9.890762 2.581367,-8.686342 -9.249413 2.399846,-8.716311 -8.879843 2.200541,-9.047522 -11.27961 2.783847,-9.20773 -9.853638 2.515838,-9.152656 -9.483492 2.298177,-9.076359 -9.494215 2.053563,-9.440316 -11.57061 2.862401,-9.64162 -10.2446 2.632569,-9.565577 -9.829678 2.42314,-9.448418 -9.816193 2.28386,-9.783258 -12.03138 2.952973,-9.988602 -10.94339 2.771398,-9.932332 -10.49073 2.615314,-9.808855 -10.41271 2.451519,7.810,48  0
