TiagoOliveira98/Thesis-Project/Difficulty_1/Motor_Task/Unity_Project/DataLogging/JointData/Logs(1647315211)_dddd_Motor.csv
WRIST,THUMB_CMC,THUMB_MCP,THUMB_IP,THUMB_TIP,INDEX_FINGER_MCP,INDEX_FINGER_PIP,INDEX_FINGER_DIP,INDEX_FINGER_TIP,MIDDLE_FINGER_MCP,MIDDLE_FINGER_PIP,MIDDLE_FINGER_DIP,MIDDLE_FINGER_TIP,RING_FINGER_MCP,RING_FINGER_PIP,RING_FINGER_DIP,RING_FINGER_TIP,PINKY_MCP,PINKY_PIP,PINKY_DIP,PINKY_TIP,WRIST2,THUMB_CMC2,THUMB_MCP2,THUMB_IP2,THUMB_TIP2,INDEX_FINGER_MCP2,INDEX_FINGER_PIP2,INDEX_FINGER_DIP2,INDEX_FINGER_TIP2,MIDDLE_FINGER_MCP2,MIDDLE_FINGER_PIP2,MIDDLE_FINGER_DIP2,MIDDLE_FINGER_TIP2,RING_FINGER_MCP2,RING_FINGER_PIP2,RING_FINGER_DIP2,RING_FINGER_TIP2,PINKY_MCP2,PINKY_PIP2,PINKY_DIP2,PINKY_TIP2,Timestamp,Event
-2.340079 -6.863716 -0.1572764,-2.943502 -6.484024 -0.0527571,-3.418894 -5.897273 0.0348029,-3.718375 -5.315147 0.1738248,-3.946468 -4.892745 0.3311116,-3.057857 -4.500761 -0.1880846,-3.263902 -3.544058 -0.08842959,-3.390215 -2.967639 -0.02399793,-3.475131 -2.441086 0.02967657,-2.778245 -4.350801 -0.07388555,-2.902698 -3.201157 0.01317202,-2.902698 -3.201157 0.01317202,-3.028343 -1.931253 0.2469638,-2.499873 -4.396294 0.08869776,-2.533509 -3.317689 0.1894339,-2.586168 -2.650636 0.3246306,-2.645465 -2.103667 0.4533062,-2.212355 -4.62597 0.2801685,-2.110986 -3.799814 0.3975842,-2.088668 -3.283481 0.5133606,-2.08 -2.847646 0.6157185,-8.263843 -6.667289 -0.05731917,-7.761167 -6.35864 0.1664655,-7.321387 -5.799276 0.3706653,-7.003033 -5.270301 0.6074513,-6.691649 -5.003243 0.8595412,-7.638836 -4.340446 0.2048759,-7.525667 -3.377531 0.3459564,-7.478307 -2.795101 0.4840729,-7.441817 -2.289567 0.585076,-7.942801 -4.19177 0.2783404,-7.854745 -3.057927 0.4200912,-7.79252 -2.347009 0.6163465,-7.748802 -1.74714 0.766869,-8.243535 -4.257975 0.3724146,-8.193931 -3.205323 0.524711,-8.134439 -2.543943 0.6924685,-8.065658 -1.985785 0.8097438,-8.555159 -4.505277 0.4863327,-8.607651 -3.691744 0.6580318,-8.609839 -3.167209 0.7840751,-8.589242 -2.667676 0.860118,0.010,2  0
-2.343331 -6.847648 -0.0832517,-2.941014 -6.500841 0.04025973,-3.416847 -5.899978 0.1179327,-3.707563 -5.307659 0.246711,-3.928164 -4.898031 0.3807332,-3.050711 -4.45692 -0.1389906,-3.233412 -3.50539 -0.03263484,-3.35491 -2.896711 0.04471983,-3.435392 -2.347172 0.1145554,-2.76969 -4.310363 -0.03116927,-2.880347 -3.169081 0.04181422,-2.880347 -3.169081 0.04181422,-3.006952 -1.871715 0.2596311,-2.489631 -4.365257 0.1267069,-2.505764 -3.304487 0.2138492,-2.537003 -2.617001 0.3456403,-2.578063 -2.056333 0.4714864,-2.206143 -4.605068 0.3224685,-2.100109 -3.792005 0.4249007,-2.0681 -3.280679 0.5260518,-2.048264 -2.847728 0.6169807,-8.264764 -6.647764 -0.08841851,-7.756178 -6.350612 0.1422781,-7.319871 -5.788435 0.3501879,-7.013515 -5.259438 0.5869657,-6.705705 -4.995874 0.840705,-7.648889 -4.326423 0.1986848,-7.538397 -3.359937 0.3569902,-7.492452 -2.777827 0.5079867,-7.457932 -2.267889 0.6165574,-7.956045 -4.183238 0.2720837,-7.872426 -3.041106 0.4272408,-7.813721 -2.334477 0.6293185,-7.774095 -1.732036 0.7846345,-8.256992 -4.252611 0.3649197,-8.209953 -3.192636 0.5281445,-8.155269 -2.531751 0.7011854,-8.094302 -1.965366 0.8220451,-8.567768 -4.505453 0.4757181,-8.62089 -3.690735 0.6564814,-8.624676 -3.165755 0.7852082,-8.610103 -2.662835 0.8637269,0.110,2  0
-2.269358 -6.896448 -0.05767054,-2.87669 -6.574932 0.05614739,-3.369932 -5.973409 0.1181678,-3.664572 -5.386712 0.2416773,-3.895826 -4.96862 0.3763585,-2.981467 -4.50317 -0.1838395,-3.170493 -3.539928 -0.1046642,-3.298676 -2.942453 -0.03592037,-3.390402 -2.400754 0.02311556,-2.70163 -4.352285 -0.06736784,-2.816287 -3.206331 -0.02209606,-2.816287 -3.206331 -0.02209606,-2.95832 -1.897753 0.2180999,-2.42147 -4.400356 0.1038486,-2.45852 -3.330089 0.1747227,-2.505308 -2.640583 0.3107355,-2.560994 -2.075037 0.4434131,-2.133923 -4.625471 0.3147196,-2.045336 -3.805293 0.4151455,-2.027212 -3.295928 0.5206192,-2.022974 -2.874221 0.6155307,-8.248484 -6.679891 -0.1390694,-7.728149 -6.416234 0.1099571,-7.282614 -5.83797 0.3132467,-6.965137 -5.310228 0.5400546,-6.650934 -5.06954 0.7820141,-7.622266 -4.37332 0.1396455,-7.5142 -3.383829 0.3011941,-7.469058 -2.78709 0.4554679,-7.435741 -2.270846 0.560311,-7.932831 -4.227247 0.1953715,-7.852733 -3.08397 0.345825,-7.796213 -2.3728 0.5416522,-7.759296 -1.754089 0.6955431,-8.238387 -4.298529 0.2701381,-8.181467 -3.236756 0.427595,-8.125838 -2.576756 0.5838481,-8.070967 -2.011055 0.6920965,-8.550204 -4.553709 0.3690203,-8.604866 -3.744645 0.5367967,-8.611444 -3.220164 0.6530388,-8.602235 -2.71869 0.7255196,0.210,2  0
-2.261158 -6.905242 -0.1376834,-2.852671 -6.567074 -0.009636521,-3.334539 -6.000871 0.08210084,-3.638194 -5.433141 0.2238879,-3.883588 -5.052961 0.3714125,-2.953482 -4.542152 -0.1510709,-3.148184 -3.585476 -0.04076853,-3.273495 -2.99598 0.04124102,-3.365299 -2.456251 0.1194901,-2.675035 -4.382934 -0.04159811,-2.799088 -3.229557 0.05305317,-2.799088 -3.229557 0.05305317,-2.94424 -1.927009 0.3377894,-2.393359 -4.438605 0.1128328,-2.434875 -3.369792 0.2244507,-2.479221 -2.682347 0.3821059,-2.534892 -2.114675 0.5270838,-2.105044 -4.681873 0.3005401,-2.005374 -3.888443 0.4253157,-1.982439 -3.397645 0.5380207,-1.976845 -2.992872 0.6415897,-8.218053 -6.70607 -0.1101554,-7.687369 -6.454452 0.1398409,-7.239181 -5.875207 0.3412576,-6.926958 -5.343871 0.5644362,-6.622215 -5.099968 0.8001496,-7.596506 -4.384241 0.1625846,-7.490401 -3.391634 0.3206038,-7.445652 -2.793992 0.4746771,-7.41186 -2.271014 0.5802702,-7.908979 -4.243165 0.2164581,-7.829546 -3.103111 0.3695656,-7.774931 -2.38709 0.5651695,-7.737432 -1.763493 0.7194198,-8.214933 -4.320367 0.2901937,-8.15647 -3.256628 0.4438187,-8.101314 -2.587714 0.5972704,-8.049054 -2.020595 0.7054701,-8.525949 -4.584899 0.38822,-8.580713 -3.770601 0.5483904,-8.591648 -3.238403 0.6632167,-8.586466 -2.733942 0.734579,0.310,2  0
-2.1717 -6.892912 -0.1600286,-2.787475 -6.586849 -0.02070177,-3.285923 -6.029833 0.06831437,-3.591408 -5.456522 0.2009415,-3.830436 -5.066877 0.3442596,-2.910548 -4.549511 -0.194855,-3.096579 -3.578559 -0.1042123,-3.217558 -2.985776 -0.03820497,-3.303392 -2.455352 0.02559778,-2.627957 -4.383272 -0.09908135,-2.749926 -3.233251 -0.03894641,-2.749926 -3.233251 -0.03894641,-2.880285 -1.938235 0.2128089,-2.34206 -4.442246 0.0501238,-2.387774 -3.381469 0.1445262,-2.428848 -2.697452 0.2976101,-2.483447 -2.134452 0.4392242,-2.045847 -4.692552 0.2300945,-1.952616 -3.922022 0.3416336,-1.931739 -3.455964 0.4505677,-1.930214 -3.078596 0.5492024,-8.14227 -6.698621 -0.1370952,-7.615808 -6.447147 0.1211016,-7.171951 -5.862611 0.3340707,-6.85292 -5.337677 0.5702667,-6.538147 -5.086856 0.8253306,-7.527378 -4.383984 0.1446978,-7.417497 -3.390192 0.3115963,-7.3708 -2.794351 0.4761086,-7.336244 -2.264716 0.5858012,-7.836171 -4.246611 0.2143691,-7.756244 -3.095731 0.3804444,-7.696514 -2.376916 0.581987,-7.65151 -1.751153 0.7377576,-8.140339 -4.318656 0.3063765,-8.081174 -3.242796 0.4788504,-8.022709 -2.569511 0.6366764,-7.964792 -1.988561 0.7452831,-8.452864 -4.573859 0.4253327,-8.504142 -3.740289 0.6109289,-8.513723 -3.198829 0.7304519,-8.506641 -2.67848 0.8056368,0.410,2  0
-2.206931 -6.937274 -0.08231021,-2.797168 -6.597944 0.03076045,-3.272583 -5.99877 0.109397,-3.57642 -5.405468 0.2376039,-3.821605 -5.024246 0.3753323,-2.894445 -4.560184 -0.1290421,-3.090761 -3.592865 -0.02872865,-3.21911 -2.990919 0.04410695,-3.307635 -2.446353 0.1138022,-2.619312 -4.397757 -0.01612148,-2.745777 -3.246661 0.0585724,-2.745777 -3.246661 0.0585724,-2.880651 -1.923129 0.3112404,-2.338994 -4.448207 0.1407423,-2.382817 -3.383719 0.2392269,-2.430576 -2.673849 0.3903013,-2.488478 -2.099846 0.5258626,-2.051945 -4.691232 0.3298172,-1.958611 -3.889664 0.4424306,-1.935819 -3.382011 0.5417411,-1.924007 -2.969146 0.6316838,-8.114392 -6.687452 -0.1028613,-7.599556 -6.434309 0.1477495,-7.156857 -5.850441 0.3574139,-6.840224 -5.327829 0.5935516,-6.533598 -5.076868 0.8488887,-7.501649 -4.362252 0.1648804,-7.385351 -3.377767 0.3250073,-7.335886 -2.78462 0.4867633,-7.30181 -2.260371 0.5960079,-7.804515 -4.224789 0.2402996,-7.72149 -3.085338 0.3963992,-7.656193 -2.36458 0.5952504,-7.607817 -1.739933 0.7493321,-8.104616 -4.300228 0.338189,-8.05102 -3.239482 0.5052091,-7.992076 -2.570632 0.6636151,-7.932667 -1.994087 0.7726839,-8.412843 -4.559032 0.4638634,-8.471994 -3.73477 0.6484548,-8.4846 -3.196487 0.7717074,-8.479844 -2.680914 0.8469853,0.510,2  0
-2.175572 -6.977811 0.004377417,-2.75452 -6.623334 0.107788,-3.222822 -6.018304 0.1880395,-3.518646 -5.434368 0.324713,-3.754637 -5.042922 0.4760019,-2.845608 -4.560752 -0.0461376,-3.036098 -3.608739 0.05289308,-3.163773 -3.019313 0.1185775,-3.255014 -2.479796 0.1830428,-2.574862 -4.411489 0.08334829,-2.69027 -3.262507 0.1690521,-2.69027 -3.262507 0.1690521,-2.817657 -1.942169 0.4284465,-2.298689 -4.47748 0.2562315,-2.331617 -3.413938 0.3677692,-2.369015 -2.712651 0.5319107,-2.417567 -2.136383 0.6760266,-2.016401 -4.736955 0.4580727,-1.912342 -3.940513 0.5877888,-1.885406 -3.435008 0.7095611,-1.87293 -3.016582 0.8152598,-8.132005 -6.664857 -0.1217091,-7.611757 -6.422981 0.121427,-7.164041 -5.838954 0.3286854,-6.848898 -5.308891 0.5618508,-6.551232 -5.041313 0.8115212,-7.501594 -4.361576 0.1804465,-7.380847 -3.372468 0.3546375,-7.333648 -2.78223 0.5166526,-7.302679 -2.257556 0.6313143,-7.808723 -4.214769 0.2579053,-7.716436 -3.072801 0.4331825,-7.648618 -2.357797 0.6377323,-7.597376 -1.734791 0.7990081,-8.111699 -4.286165 0.359654,-8.05529 -3.229621 0.5448425,-7.994846 -2.557484 0.7173218,-7.930872 -1.976741 0.8430757,-8.424026 -4.548126 0.4808092,-8.482265 -3.722845 0.6726435,-8.490588 -3.186143 0.8069224,-8.478263 -2.676785 0.8969496,0.610,2  0
-2.120771 -7.007568 0.05603395,-2.708222 -6.66452 0.153732,-3.182018 -6.047225 0.2106164,-3.474966 -5.455318 0.3283213,-3.713078 -5.057325 0.4581049,-2.838026 -4.58479 -0.04997207,-3.031539 -3.627701 0.02996221,-3.158026 -3.039381 0.0893496,-3.248848 -2.505717 0.1466966,-2.559812 -4.431638 0.07655609,-2.682311 -3.285896 0.137634,-2.682311 -3.285896 0.137634,-2.80954 -1.978579 0.3791516,-2.273969 -4.485153 0.2527396,-2.320182 -3.427854 0.3478823,-2.365168 -2.736011 0.5034491,-2.417873 -2.169762 0.6361074,-1.975338 -4.729859 0.4620183,-1.897548 -3.936121 0.5745707,-1.888455 -3.448491 0.6874191,-1.891894 -3.054311 0.7838917,-8.168926 -6.683047 -0.06908382,-7.648608 -6.43788 0.201104,-7.20104 -5.859088 0.4269402,-6.887495 -5.331377 0.6753429,-6.58771 -5.047085 0.93343,-7.531298 -4.37107 0.2662319,-7.414585 -3.385552 0.4498763,-7.369469 -2.785179 0.6224678,-7.338694 -2.251916 0.7436547,-7.840684 -4.221895 0.3333577,-7.754746 -3.084001 0.5198538,-7.688945 -2.364813 0.7301449,-7.639963 -1.733654 0.895161,-8.144986 -4.290118 0.4253913,-8.090929 -3.228069 0.6171117,-8.027411 -2.551014 0.7967405,-7.959824 -1.964635 0.9231473,-8.459907 -4.54641 0.5378892,-8.51539 -3.717244 0.7315568,-8.522449 -3.179677 0.8642073,-8.510472 -2.66672 0.9543147,0.710,2  0
-2.089226 -7.027436 0.03255882,-2.677824 -6.685915 0.1633914,-3.164358 -6.084856 0.2454058,-3.457493 -5.500772 0.3813677,-3.687632 -5.076364 0.5308042,-2.812572 -4.611854 -0.02217137,-3.011801 -3.643194 0.08185475,-3.141373 -3.045289 0.1567848,-3.236562 -2.50189 0.224268,-2.532938 -4.459652 0.08963825,-2.659276 -3.309835 0.1746312,-2.659276 -3.309835 0.1746312,-2.790618 -1.990779 0.4385588,-2.245297 -4.510797 0.2533728,-2.295386 -3.457057 0.3587717,-2.332712 -2.756271 0.5234587,-2.379821 -2.180689 0.671962,-1.94707 -4.74838 0.4505912,-1.872421 -3.95442 0.5687519,-1.854195 -3.465659 0.6888321,-1.847468 -3.064499 0.7967667,-8.182859 -6.703319 -0.06095122,-7.661854 -6.446777 0.2132997,-7.217187 -5.872429 0.4428119,-6.908284 -5.343608 0.6972018,-6.606647 -5.048858 0.9611282,-7.556626 -4.381336 0.2512768,-7.440849 -3.400581 0.4380258,-7.394771 -2.804827 0.6200153,-7.359159 -2.279729 0.7470151,-7.871812 -4.233536 0.3160128,-7.786665 -3.093007 0.5002675,-7.719429 -2.373266 0.720505,-7.669567 -1.747442 0.8960402,-8.178827 -4.302373 0.4057961,-8.128201 -3.239866 0.5942011,-8.068081 -2.562505 0.775102,-8.00143 -1.97537 0.9026498,-8.496479 -4.558527 0.5193539,-8.54716 -3.723455 0.7061339,-8.547253 -3.186938 0.8330848,-8.527697 -2.670249 0.9177427,0.810,2  0
-2.059543 -7.119829 0.1461829,-2.63334 -6.75611 0.303288,-3.101821 -6.160989 0.3929,-3.376557 -5.569634 0.5265554,-3.602736 -5.131229 0.6708127,-2.755316 -4.682979 0.1100395,-2.959074 -3.725568 0.2219593,-3.086927 -3.136902 0.3014064,-3.179868 -2.59992 0.3789899,-2.468177 -4.513351 0.2036225,-2.601321 -3.373779 0.2854947,-2.601321 -3.373779 0.2854947,-2.731474 -2.046953 0.5520221,-2.173485 -4.565246 0.3470717,-2.232356 -3.514499 0.4538037,-2.272537 -2.819608 0.628939,-2.326433 -2.245545 0.7830484,-1.864802 -4.816514 0.5271422,-1.786805 -4.028829 0.6435378,-1.76467 -3.539181 0.7768315,-1.760736 -3.130538 0.8959299,-8.247366 -6.764683 -0.04778997,-7.723371 -6.49626 0.2208387,-7.28526 -5.922027 0.4463662,-6.982561 -5.396108 0.6965025,-6.68011 -5.108291 0.9546348,-7.623876 -4.434707 0.2734067,-7.506276 -3.452532 0.4625459,-7.458872 -2.867065 0.6332677,-7.424589 -2.352742 0.7446595,-7.939434 -4.291872 0.3368483,-7.859802 -3.135587 0.5235431,-7.798479 -2.421113 0.7448533,-7.753813 -1.806083 0.9117011,-8.245519 -4.371965 0.4236578,-8.205529 -3.295331 0.6123122,-8.154065 -2.617418 0.7948406,-8.096179 -2.031514 0.9221937,-8.562451 -4.63388 0.531315,-8.612956 -3.796409 0.7236732,-8.608823 -3.248886 0.858075,-8.586248 -2.728218 0.9413742,0.910,2  0
-2.048877 -7.206232 0.1211166,-2.619155 -6.849224 0.2776807,-3.088455 -6.24551 0.3906175,-3.374634 -5.66313 0.5475476,-3.620178 -5.2476 0.7185601,-2.751026 -4.775863 0.1135663,-2.96338 -3.808353 0.2464955,-3.078249 -3.226942 0.3311473,-3.150034 -2.681866 0.4010487,-2.448208 -4.606441 0.2092142,-2.584465 -3.465419 0.3282205,-2.584465 -3.465419 0.3282205,-2.684416 -2.149587 0.5813329,-2.142736 -4.648126 0.361776,-2.199875 -3.570944 0.492522,-2.246667 -2.892091 0.6524361,-2.301825 -2.323465 0.787611,-1.823921 -4.893404 0.5428144,-1.738344 -4.079543 0.6753724,-1.71214 -3.574142 0.8169904,-1.706882 -3.1277 0.9334733,-8.289895 -6.788961 -0.05126527,-7.763824 -6.513523 0.1960786,-7.333093 -5.929591 0.4052139,-7.03612 -5.391703 0.6428514,-6.735336 -5.105042 0.8925267,-7.67583 -4.447299 0.2429342,-7.563884 -3.458198 0.4248143,-7.520959 -2.862778 0.5899673,-7.490349 -2.334638 0.7027462,-7.991153 -4.314239 0.3215813,-7.918023 -3.167305 0.504859,-7.864553 -2.451169 0.7257965,-7.825644 -1.831846 0.8949242,-8.295724 -4.395521 0.4229002,-8.262446 -3.32787 0.6193173,-8.214547 -2.646709 0.8124546,-8.15631 -2.058096 0.944841,-8.609505 -4.662868 0.5433486,-8.67248 -3.833981 0.740992,-8.680232 -3.28811 0.8807465,-8.667961 -2.757603 0.9677931,1.010,2  0
-2.050158 -7.230716 0.06508272,-2.624558 -6.882034 0.2132378,-3.093755 -6.28214 0.3137526,-3.372218 -5.712186 0.4549142,-3.617567 -5.294305 0.6122668,-2.766455 -4.816196 0.09496801,-2.959527 -3.846088 0.2279314,-3.067838 -3.247651 0.3164094,-3.127371 -2.690036 0.3936986,-2.465081 -4.651267 0.192497,-2.598101 -3.518016 0.3160039,-2.598101 -3.518016 0.3160039,-2.682891 -2.177242 0.5805581,-2.160618 -4.703161 0.3400495,-2.211605 -3.634553 0.4749544,-2.247141 -2.957941 0.6389439,-2.281425 -2.385755 0.7778911,-1.844292 -4.953134 0.5154045,-1.773311 -4.138669 0.6609511,-1.755654 -3.634178 0.8063842,-1.750549 -3.187928 0.9279989,-8.304458 -6.800226 -0.0457466,-7.778062 -6.526224 0.1941241,-7.349371 -5.930974 0.3947062,-7.058183 -5.385189 0.6273026,-6.760577 -5.090714 0.8723958,-7.69644 -4.452484 0.2215452,-7.590682 -3.456075 0.3903728,-7.550973 -2.860877 0.5474679,-7.522687 -2.33758 0.6536216,-8.00942 -4.319433 0.2991776,-7.940701 -3.170859 0.4647037,-7.891884 -2.456419 0.6721998,-7.857583 -1.847382 0.8290518,-8.313223 -4.398345 0.4010988,-8.275424 -3.323089 0.5806423,-8.228366 -2.64344 0.7629272,-8.175296 -2.064673 0.8884705,-8.625839 -4.661821 0.5215787,-8.689705 -3.828258 0.7096017,-8.700409 -3.283966 0.8458406,-8.69435 -2.766615 0.9295528,1.110,2  0
-2.093297 -7.271602 -0.0990913,-2.680327 -6.955308 0.07170705,-3.1603 -6.385992 0.1869825,-3.440902 -5.811586 0.3395514,-3.687926 -5.390129 0.5122649,-2.847907 -4.913358 -0.04053688,-3.048291 -3.957452 0.1020155,-3.17202 -3.373835 0.1923005,-3.254929 -2.836295 0.2699309,-2.545557 -4.74684 0.04181287,-2.697463 -3.63538 0.1590244,-2.697463 -3.63538 0.1590244,-2.805835 -2.330973 0.4208872,-2.239442 -4.795453 0.1767031,-2.311677 -3.75526 0.3101298,-2.354771 -3.083291 0.4796194,-2.398136 -2.513644 0.622231,-1.919276 -5.032083 0.3405065,-1.870746 -4.241278 0.4887275,-1.862957 -3.761522 0.6345966,-1.866284 -3.337458 0.7576244,-8.397413 -6.832761 -0.02227781,-7.865373 -6.554753 0.2318757,-7.432543 -5.9729 0.4481308,-7.145163 -5.431942 0.6920916,-6.86073 -5.13571 0.9417879,-7.770277 -4.491857 0.2731799,-7.658718 -3.508319 0.4593858,-7.615645 -2.917178 0.6234962,-7.58333 -2.399261 0.7270645,-8.088789 -4.349277 0.3400881,-8.019453 -3.210907 0.5152075,-7.966401 -2.505472 0.7288808,-7.924456 -1.900671 0.887308,-8.396005 -4.425972 0.4337809,-8.363447 -3.367008 0.6131001,-8.317429 -2.705348 0.7959515,-8.26181 -2.140807 0.91851,-8.714502 -4.680511 0.543828,-8.769071 -3.848078 0.7317116,-8.777782 -3.303589 0.8728303,-8.769521 -2.785473 0.957644,1.210,2  0
-2.127068 -7.29131 -0.1746735,-2.721786 -6.984846 0.0217855,-3.200689 -6.423339 0.1502557,-3.475705 -5.837918 0.3172395,-3.721458 -5.399635 0.5035364,-2.900602 -4.963758 -0.08588597,-3.108998 -4.009407 0.0745891,-3.240832 -3.431998 0.1717698,-3.33094 -2.901203 0.2467657,-2.596218 -4.792533 -0.01896168,-2.755266 -3.68206 0.1090892,-2.755266 -3.68206 0.1090892,-2.883519 -2.375182 0.3789793,-2.288077 -4.831494 0.1019525,-2.373011 -3.795823 0.2337258,-2.428094 -3.131299 0.3974578,-2.479375 -2.573822 0.5380921,-1.966336 -5.052413 0.2508193,-1.926246 -4.257104 0.3953467,-1.927973 -3.772279 0.539313,-1.936241 -3.350995 0.6612878,-8.465188 -6.824073 -0.07529356,-7.939855 -6.553392 0.2105972,-7.500781 -5.989246 0.4442277,-7.205563 -5.458646 0.6884487,-6.934006 -5.160232 0.9295914,-7.847586 -4.518342 0.305829,-7.735871 -3.530927 0.523863,-7.696538 -2.949989 0.7027636,-7.669152 -2.428382 0.8300184,-8.165211 -4.365906 0.3552637,-8.086894 -3.213541 0.5680703,-8.034459 -2.498997 0.8042691,-7.996204 -1.865101 0.9902124,-8.470645 -4.432348 0.4299651,-8.423867 -3.369139 0.6280529,-8.37796 -2.706846 0.8241322,-8.326424 -2.132158 0.9721366,-8.78786 -4.680131 0.5215256,-8.837883 -3.86134 0.7164559,-8.848968 -3.337515 0.8674996,-8.841915 -2.843334 0.9734341,1.310,2  0
-2.206323 -7.308805 -0.2680402,-2.815496 -7.025192 -0.09654912,-3.284372 -6.446655 0.005698204,-3.544888 -5.835941 0.1603299,-3.783249 -5.375621 0.3401818,-3.014125 -5.009423 -0.2409501,-3.224939 -4.056235 -0.0878084,-3.360549 -3.481475 0.004967481,-3.449385 -2.961075 0.06646842,-2.716572 -4.842358 -0.170745,-2.889389 -3.754874 -0.07470813,-2.889389 -3.754874 -0.07470813,-3.049018 -2.505208 0.1320705,-2.412683 -4.875 -0.04257278,-2.49514 -3.848964 0.06799328,-2.549071 -3.203344 0.2050788,-2.600993 -2.663555 0.3206828,-2.090166 -5.086957 0.1124297,-2.04293 -4.310146 0.231913,-2.043429 -3.848361 0.3501928,-2.050495 -3.452192 0.448651,-8.558616 -6.86347 -0.03427657,-8.036988 -6.587436 0.2385629,-7.60633 -5.991291 0.4578197,-7.319038 -5.43121 0.6986711,-7.038279 -5.117645 0.9381055,-7.954987 -4.518266 0.2808815,-7.849143 -3.531595 0.4789343,-7.81416 -2.935997 0.6490895,-7.794704 -2.410913 0.7662894,-8.273602 -4.381497 0.3339638,-8.216705 -3.235246 0.52387,-8.178662 -2.509916 0.7566452,-8.158669 -1.879813 0.9397748,-8.576407 -4.465869 0.414605,-8.56062 -3.411998 0.5961369,-8.532399 -2.748876 0.7900292,-8.497013 -2.179483 0.9385124,-8.889913 -4.731203 0.5115274,-8.954323 -3.918207 0.6984708,-8.971938 -3.391945 0.8497285,-8.972243 -2.890522 0.955094,1.410,2  0
-2.336684 -7.328908 -0.3415855,-2.944332 -7.052919 -0.1566957,-3.405512 -6.457227 -0.06129262,-3.653067 -5.793445 0.08312079,-3.89325 -5.284666 0.2452744,-3.143355 -5.042158 -0.3621691,-3.363627 -4.088621 -0.2273225,-3.499866 -3.535115 -0.1528873,-3.593777 -3.026987 -0.1124906,-2.844797 -4.88183 -0.3036147,-3.025656 -3.822079 -0.2254945,-3.025656 -3.822079 -0.2254945,-3.205032 -2.639708 -0.04286903,-2.542305 -4.910247 -0.1777981,-2.621533 -3.899583 -0.07803962,-2.686487 -3.286691 0.04618138,-2.752154 -2.766468 0.1421879,-2.219133 -5.119945 -0.02472132,-2.166954 -4.356727 0.08580667,-2.165634 -3.905008 0.2001888,-2.170918 -3.500678 0.2899551,-8.581124 -6.873536 -0.07206183,-8.056842 -6.57529 0.1887906,-7.638438 -5.984488 0.4039402,-7.347786 -5.42548 0.6423008,-7.050333 -5.120279 0.8909021,-7.99297 -4.521469 0.2363915,-7.900744 -3.520256 0.43318,-7.865006 -2.931161 0.6022532,-7.844229 -2.421946 0.7115895,-8.31295 -4.400881 0.2977978,-8.265542 -3.231661 0.4809853,-8.228503 -2.514804 0.6949303,-8.20554 -1.898122 0.8564831,-8.615246 -4.5035 0.3849995,-8.611196 -3.425655 0.5687789,-8.585328 -2.756361 0.7606375,-8.553379 -2.173727 0.9001192,-8.922201 -4.790243 0.4900195,-8.999824 -3.967419 0.6853493,-9.018313 -3.432312 0.839641,-9.016948 -2.919115 0.9398983,1.510,2  0
-2.399112 -7.328083 -0.3684903,-2.981023 -7.056556 -0.1832302,-3.435274 -6.466308 -0.09401527,-3.687305 -5.813949 0.04929176,-3.930436 -5.310333 0.2084434,-3.197655 -5.054318 -0.4043172,-3.411736 -4.127821 -0.2471736,-3.54411 -3.575705 -0.1503602,-3.640184 -3.057334 -0.0861063,-2.902648 -4.887817 -0.338335,-3.095602 -3.883835 -0.2336071,-3.095602 -3.883835 -0.2336071,-3.311951 -2.747245 -0.0291236,-2.596858 -4.910957 -0.202305,-2.682982 -3.936201 -0.07931411,-2.757389 -3.341537 0.05251938,-2.8342 -2.834491 0.1507934,-2.267018 -5.114114 -0.03796417,-2.2188 -4.353305 0.09841847,-2.221311 -3.887891 0.2280186,-2.23492 -3.46672 0.3295935,-8.629535 -6.894481 -0.004299995,-8.097187 -6.603239 0.2686268,-7.668155 -6.003811 0.4857345,-7.37756 -5.446012 0.7253792,-7.08999 -5.135004 0.9671622,-8.021198 -4.537598 0.3146985,-7.926723 -3.554722 0.5093908,-7.897696 -2.96672 0.6744635,-7.885982 -2.456951 0.7828172,-8.343531 -4.403718 0.3627423,-8.292037 -3.254238 0.5433923,-8.258177 -2.539853 0.7611623,-8.241369 -1.924964 0.9314167,-8.649352 -4.495149 0.4362349,-8.637762 -3.435332 0.6109335,-8.609625 -2.777809 0.7943063,-8.577228 -2.213867 0.931779,-8.961644 -4.769402 0.5290081,-9.030119 -3.95632 0.7093813,-9.043713 -3.425036 0.8577835,-9.038688 -2.91913 0.9599408,1.610,2  0
-2.492575 -7.316297 -0.399287,-3.063982 -7.057028 -0.1936131,-3.497136 -6.450048 -0.1030867,-3.729252 -5.780583 0.04611856,-3.991243 -5.281644 0.2129448,-3.279834 -5.030061 -0.4785298,-3.490629 -4.147733 -0.3442498,-3.628967 -3.614117 -0.2545375,-3.733017 -3.09911 -0.1883602,-2.978998 -4.881692 -0.4383073,-3.145735 -3.933549 -0.3696432,-3.145735 -3.933549 -0.3696432,-3.3646 -2.90728 -0.2054851,-2.678538 -4.915604 -0.3177381,-2.741441 -3.994646 -0.2307158,-2.823184 -3.451965 -0.106069,-2.90364 -2.991062 -0.01578885,-2.362592 -5.121999 -0.1657885,-2.305357 -4.389008 -0.04917184,-2.315499 -3.930484 0.07905102,-2.332304 -3.51013 0.1746571,-8.673612 -6.94234 -0.01620318,-8.154621 -6.643024 0.2684689,-7.733559 -6.042953 0.498193,-7.449478 -5.478331 0.7492172,-7.15591 -5.156059 1.003543,-8.08814 -4.585094 0.3346693,-7.994293 -3.579633 0.5446873,-7.968452 -2.974333 0.7210132,-7.961396 -2.441091 0.8443676,-8.408869 -4.458156 0.3863901,-8.353341 -3.295421 0.5951508,-8.328877 -2.561427 0.8324783,-8.328156 -1.926462 1.016703,-8.713254 -4.554704 0.4667379,-8.696535 -3.482126 0.6578593,-8.672019 -2.80937 0.8538764,-8.648333 -2.233146 1.000608,-9.026809 -4.834207 0.5657371,-9.086831 -4.012445 0.7594169,-9.103702 -3.476152 0.9173922,-9.106827 -2.960058 1.027719,1.710,2  0
-2.534648 -7.341173 -0.5246126,-3.084436 -7.123159 -0.3143867,-3.502775 -6.492733 -0.2480727,-3.708843 -5.82579 -0.111898,-3.972983 -5.282335 0.03792721,-3.326838 -5.089393 -0.7094632,-3.534946 -4.240365 -0.6535134,-3.666678 -3.731456 -0.5692701,-3.777622 -3.230654 -0.4817138,-3.028887 -4.948379 -0.6644949,-3.176502 -4.097634 -0.6289942,-3.176502 -4.097634 -0.6289942,-3.379878 -3.350759 -0.3537727,-2.730619 -4.989904 -0.5479559,-2.793215 -4.168104 -0.4735762,-2.865254 -3.758676 -0.2569518,-2.942167 -3.540242 -0.09190679,-2.413598 -5.166399 -0.3924751,-2.405381 -4.491632 -0.2828791,-2.44941 -4.166332 -0.125706,-2.495145 -3.967398 0.004525542,-8.687785 -6.974239 4.303857E-05,-8.173005 -6.663728 0.2569854,-7.759266 -6.051477 0.4673085,-7.481691 -5.486431 0.7022462,-7.194139 -5.162107 0.9453175,-8.131589 -4.589473 0.2773838,-8.043734 -3.592311 0.4528746,-8.016554 -2.993089 0.6097117,-8.005026 -2.468397 0.7238232,-8.449468 -4.472539 0.3339616,-8.40131 -3.318779 0.5089604,-8.379383 -2.600131 0.7317443,-8.373028 -1.98069 0.9061759,-8.749987 -4.577888 0.4193165,-8.738031 -3.508269 0.5826908,-8.718606 -2.841539 0.7706996,-8.695011 -2.268493 0.9144821,-9.056345 -4.870702 0.5216689,-9.130578 -4.050563 0.6962109,-9.156071 -3.515314 0.8478919,-9.164021 -3.001426 0.9519799,1.810,2  0
-2.557563 -7.340507 -0.6370351,-3.095156 -7.12577 -0.3961765,-3.508186 -6.511884 -0.295919,-3.702024 -5.85556 -0.1390398,-3.956755 -5.287426 0.03744286,-3.363573 -5.120147 -0.7986238,-3.585712 -4.269825 -0.7400209,-3.718136 -3.76149 -0.6317889,-3.820881 -3.288471 -0.515375,-3.056576 -4.980246 -0.752761,-3.193085 -4.114313 -0.6524067,-3.193085 -4.114313 -0.6524067,-3.306781 -3.602916 -0.2602816,-2.754254 -5.021699 -0.6352123,-2.821676 -4.186832 -0.5145519,-2.864124 -3.839757 -0.221361,-2.904006 -3.775253 -0.002325118,-2.432245 -5.20372 -0.4824491,-2.439329 -4.502374 -0.3351229,-2.490021 -4.225439 -0.1169115,-2.541892 -4.147726 0.05948102,-8.708468 -6.985426 -0.002231671,-8.192638 -6.681427 0.2728342,-7.780104 -6.068292 0.4937697,-7.49558 -5.504248 0.7371801,-7.201127 -5.168011 0.9892544,-8.146609 -4.60782 0.2979923,-8.063643 -3.607648 0.4884848,-8.03247 -3.00885 0.6496071,-8.014635 -2.489446 0.756286,-8.467096 -4.48816 0.3567028,-8.42387 -3.322757 0.5390134,-8.393858 -2.609043 0.7514483,-8.378386 -1.991979 0.9123243,-8.768958 -4.594028 0.4454684,-8.76381 -3.508777 0.6234252,-8.743273 -2.842417 0.8118854,-8.716049 -2.262334 0.9525883,-9.074534 -4.889322 0.5528799,-9.156983 -4.067447 0.7458352,-9.183402 -3.529523 0.8997809,-9.191002 -3.008813 1.004081,1.910,2  0
-2.578114 -7.227097 -1.011663,-3.086022 -7.097066 -0.6668628,-3.484227 -6.494749 -0.4812518,-3.694523 -5.849462 -0.2735333,-3.954725 -5.321563 -0.06736302,-3.431053 -5.125572 -1.025298,-3.639438 -4.274135 -0.8979156,-3.784908 -3.724367 -0.7252082,-3.905548 -3.228925 -0.551638,-3.110746 -4.981412 -0.9893907,-3.22418 -3.995245 -0.6195598,-3.22418 -3.995245 -0.6195598,-3.243942 -4.204071 -0.04273891,-2.803657 -5.016201 -0.8842931,-2.854151 -4.099741 -0.5559548,-2.905263 -4.04095 -0.1409018,-2.915799 -4.308401 0.0845778,-2.475955 -5.19279 -0.7487483,-2.473464 -4.48226 -0.4977019,-2.533875 -4.290243 -0.2078263,-2.567049 -4.375606 0.002080917,-8.726596 -7.006298 0.009700468,-8.212442 -6.701671 0.2849944,-7.797726 -6.084585 0.5132725,-7.513387 -5.519363 0.7630817,-7.223488 -5.195501 1.022966,-8.165709 -4.626344 0.3317675,-8.085664 -3.622718 0.5309733,-8.063401 -3.024753 0.7010124,-8.054758 -2.503802 0.8178812,-8.482407 -4.509428 0.3928165,-8.439556 -3.33711 0.5873665,-8.41629 -2.616708 0.8124521,-8.408476 -1.99044 0.9825521,-8.780264 -4.615284 0.4835274,-8.776395 -3.530941 0.6716973,-8.754964 -2.864455 0.8626803,-8.729553 -2.286142 1.00528,-9.081561 -4.909889 0.5923298,-9.164962 -4.088687 0.7927721,-9.194607 -3.552921 0.9451858,-9.206719 -3.03242 1.046208,2.010,2  0
-2.59592 -7.405506 -1.500985,-3.112878 -7.220422 -1.139286,-3.499683 -6.591773 -0.9532142,-3.6915 -5.914484 -0.7447892,-3.965272 -5.347019 -0.5310053,-3.440911 -5.390726 -1.483324,-3.640919 -4.478844 -1.380872,-3.790359 -3.892376 -1.202475,-3.911339 -3.339994 -1.00576,-3.12544 -5.303094 -1.464599,-3.249018 -4.341077 -1.145059,-3.249018 -4.341077 -1.145059,-3.228292 -4.190192 -0.5661847,-2.817601 -5.343544 -1.381766,-2.878833 -4.491321 -1.077214,-2.924768 -4.340814 -0.6672814,-2.926089 -4.412063 -0.4245045,-2.494383 -5.485865 -1.275327,-2.545168 -4.826374 -1.003428,-2.614423 -4.693824 -0.715746,-2.633566 -4.745559 -0.5017489,-8.739583 -7.00315 0.00337644,-8.224831 -6.700029 0.2811261,-7.807637 -6.087772 0.5082843,-7.522962 -5.520231 0.7558665,-7.23642 -5.185007 1.014014,-8.1711 -4.625258 0.3303112,-8.092333 -3.625279 0.5346851,-8.068068 -3.030315 0.7051499,-8.057466 -2.506408 0.8204051,-8.49192 -4.509572 0.3936795,-8.454027 -3.344616 0.5919662,-8.430883 -2.627766 0.8196872,-8.422908 -2.00102 0.9918237,-8.793508 -4.620328 0.4878521,-8.789291 -3.542272 0.6842859,-8.769379 -2.874841 0.8850033,-8.74472 -2.294016 1.034029,-9.099566 -4.920894 0.5990285,-9.183159 -4.108148 0.8074691,-9.214604 -3.572673 0.9667708,-9.22625 -3.047353 1.072931,2.110,2  0
-2.593358 -7.373096 -1.657604,-3.138721 -7.197425 -1.361938,-3.51128 -6.572967 -1.192791,-3.702303 -5.853477 -1.021993,-3.961346 -5.30974 -0.8735615,-3.46953 -5.455461 -1.68741,-3.651979 -4.601831 -1.551608,-3.812429 -3.999149 -1.388017,-3.959099 -3.399747 -1.219061,-3.163099 -5.327384 -1.652617,-3.260015 -4.391407 -1.172341,-3.260015 -4.391407 -1.172341,-3.226244 -5.298584 -0.8599175,-2.859091 -5.323774 -1.561303,-2.929352 -4.485372 -1.136244,-2.967768 -5.06243 -0.9537036,-2.952907 -5.510656 -0.968727,-2.535343 -5.416147 -1.44511,-2.63061 -4.795078 -1.123479,-2.71747 -5.122022 -0.9819176,-2.710555 -5.457882 -0.9546336,-8.753539 -7.021956 0.02578377,-8.234264 -6.724301 0.2960714,-7.818153 -6.10761 0.5168504,-7.532684 -5.537748 0.7615135,-7.242216 -5.201628 1.017663,-8.189911 -4.635528 0.3219331,-8.111487 -3.638967 0.5137256,-8.089976 -3.0464 0.6778051,-8.079683 -2.532354 0.7889082,-8.50863 -4.517022 0.3855275,-8.47179 -3.353098 0.5664626,-8.450559 -2.638855 0.7785379,-8.439979 -2.022457 0.9382285,-8.808383 -4.626669 0.4790489,-8.806599 -3.541576 0.6602361,-8.787074 -2.875602 0.8516002,-8.759321 -2.298433 0.9932701,-9.111462 -4.928437 0.5916857,-9.196699 -4.109647 0.7905344,-9.227196 -3.572299 0.9448792,-9.237511 -3.050804 1.047078,2.210,2  0
-2.593748 -7.378634 -1.849425,-3.111729 -7.210083 -1.524942,-3.491495 -6.594465 -1.355826,-3.701519 -5.89648 -1.191388,-3.96772 -5.337018 -1.056108,-3.466652 -5.525629 -1.827192,-3.668363 -4.676378 -1.645983,-3.829884 -4.084997 -1.48433,-3.967492 -3.471562 -1.33143,-3.171681 -5.392711 -1.807151,-3.303497 -4.49763 -1.309636,-3.303497 -4.49763 -1.309636,-3.228153 -5.70226 -1.225497,-2.866624 -5.379135 -1.723122,-2.967621 -4.560086 -1.267941,-3.002899 -5.349765 -1.164409,-2.969748 -5.85766 -1.247119,-2.537675 -5.458425 -1.6105,-2.652607 -4.824125 -1.293698,-2.746318 -5.300954 -1.204976,-2.743602 -5.700531 -1.239288,-8.763917 -7.029325 0.03044603,-8.2425 -6.727511 0.2855659,-7.826195 -6.112484 0.5021306,-7.539654 -5.548292 0.7449036,-7.247578 -5.215575 1.002927,-8.194476 -4.63911 0.3150257,-8.11909 -3.634653 0.4983458,-8.101678 -3.038153 0.6545172,-8.09641 -2.522041 0.760728,-8.511947 -4.52302 0.3852361,-8.472587 -3.353174 0.5628573,-8.453598 -2.631852 0.7736997,-8.448411 -2.012598 0.9352561,-8.812783 -4.635373 0.4837592,-8.804348 -3.54464 0.6617606,-8.783614 -2.868882 0.8536023,-8.759159 -2.289834 0.9970237,-9.117777 -4.939773 0.6006534,-9.201212 -4.108166 0.7937006,-9.233074 -3.566774 0.9479412,-9.245833 -3.045031 1.051931,2.310,2  0
-2.610283 -7.437246 -1.83402,-3.118574 -7.287693 -1.5386,-3.52191 -6.633445 -1.392168,-3.737318 -5.969954 -1.223206,-4.010174 -5.461446 -1.082353,-3.487597 -5.555924 -1.732129,-3.72836 -4.749944 -1.424299,-3.887632 -4.205354 -1.209791,-4.024717 -3.654896 -1.018352,-3.192609 -5.453878 -1.676593,-3.329667 -4.781871 -1.093827,-3.329667 -4.781871 -1.093827,-3.272886 -6.108816 -1.057091,-2.877378 -5.480047 -1.541207,-2.984836 -4.864606 -1.013955,-3.027776 -5.781753 -1.003027,-3.014 -6.249669 -1.109851,-2.548939 -5.622016 -1.386129,-2.66218 -5.154745 -1.026559,-2.757601 -5.784738 -0.9704495,-2.783219 -6.163936 -1.01031,-8.783718 -7.064207 0.09079707,-8.26396 -6.750658 0.3681896,-7.849103 -6.133214 0.5980163,-7.561113 -5.561462 0.849307,-7.264462 -5.222011 1.114808,-8.222501 -4.659038 0.4172072,-8.142205 -3.657918 0.6183456,-8.118897 -3.062559 0.7852513,-8.108352 -2.544289 0.8971329,-8.543943 -4.54415 0.4791699,-8.502992 -3.38112 0.6733789,-8.483324 -2.668369 0.8910752,-8.476847 -2.050638 1.055042,-8.846346 -4.657167 0.5719523,-8.839365 -3.57691 0.762127,-8.822398 -2.910778 0.9521716,-8.801121 -2.335718 1.09137,-9.151879 -4.960851 0.683618,-9.232629 -4.135835 0.8852233,-9.262458 -3.592916 1.039726,-9.274431 -3.066768 1.145656,2.410,2  0
-2.624861 -7.562114 -1.838823,-3.134874 -7.370758 -1.584963,-3.549062 -6.738227 -1.454957,-3.775126 -6.095577 -1.306365,-4.028543 -5.598993 -1.186648,-3.540514 -5.686479 -1.723956,-3.799607 -4.917892 -1.379714,-3.973286 -4.411418 -1.167243,-4.137848 -3.903781 -0.99088,-3.234262 -5.591327 -1.647972,-3.396567 -5.040681 -1.056165,-3.396567 -5.040681 -1.056165,-3.277998 -6.383099 -1.075323,-2.909659 -5.637285 -1.497726,-3.047079 -5.170425 -0.9426985,-3.057323 -6.071109 -0.9774821,-3.020628 -6.538277 -1.106916,-2.573755 -5.78866 -1.321163,-2.707548 -5.351871 -0.9623488,-2.796787 -5.944921 -0.9328831,-2.814721 -6.308637 -0.9793286,-8.805418 -7.094931 0.06967367,-8.285897 -6.790974 0.3552187,-7.866302 -6.163677 0.5908015,-7.578648 -5.583024 0.848641,-7.28369 -5.237127 1.119604,-8.232829 -4.701223 0.4066952,-8.15226 -3.691338 0.618652,-8.132894 -3.087292 0.7932917,-8.125748 -2.562622 0.9134989,-8.556578 -4.583059 0.4655129,-8.517282 -3.407652 0.6740392,-8.503727 -2.682829 0.9007432,-8.504151 -2.053251 1.072352,-8.861097 -4.687725 0.5534687,-8.852195 -3.591782 0.7494428,-8.836088 -2.920537 0.9366709,-8.817291 -2.344367 1.075274,-9.168789 -4.979255 0.6622735,-9.243641 -4.145078 0.8575101,-9.275705 -3.604123 1.003311,-9.292714 -3.078521 1.105246,2.510,2  0
-2.614925 -7.58909 -1.854823,-3.144068 -7.400758 -1.652626,-3.56415 -6.765905 -1.543575,-3.796572 -6.127254 -1.401706,-4.057064 -5.646043 -1.285126,-3.553367 -5.734273 -1.788162,-3.827572 -4.994298 -1.437187,-4.007948 -4.516475 -1.231208,-4.176434 -4.027776 -1.074195,-3.243927 -5.627086 -1.688319,-3.410993 -5.151576 -1.091251,-3.410993 -5.151576 -1.091251,-3.286049 -6.48961 -1.112775,-2.914616 -5.665733 -1.518958,-3.061884 -5.274278 -0.9560218,-3.064648 -6.181944 -1.000077,-3.022668 -6.624567 -1.139338,-2.57504 -5.811232 -1.324715,-2.722955 -5.406046 -0.9656274,-2.812112 -6.008906 -0.9478984,-2.827075 -6.36251 -1.009932,-8.812532 -7.10835 0.08290679,-8.291836 -6.804451 0.3809498,-7.874849 -6.17354 0.6218625,-7.589894 -5.591462 0.8795282,-7.294218 -5.252027 1.15106,-8.240097 -4.710448 0.4280244,-8.162125 -3.699865 0.6395693,-8.14354 -3.095938 0.8174159,-8.137515 -2.568289 0.9426572,-8.562055 -4.593711 0.4844421,-8.524461 -3.421618 0.6987735,-8.512164 -2.692061 0.9382266,-8.512741 -2.056077 1.121483,-8.864197 -4.702631 0.5707808,-8.856175 -3.608454 0.7755982,-8.841462 -2.92876 0.9754645,-8.822225 -2.343623 1.125067,-9.172194 -5.001564 0.6776427,-9.248499 -4.172359 0.8826283,-9.282248 -3.630369 1.03535,-9.298865 -3.104923 1.143955,2.610,2  0
-2.608438 -7.667787 -1.711979,-3.154738 -7.469181 -1.499805,-3.597084 -6.85392 -1.361863,-3.847304 -6.211689 -1.198651,-4.118385 -5.728996 -1.05121,-3.582574 -5.820478 -1.564118,-3.870094 -5.166542 -1.152405,-4.045892 -4.732942 -0.8918501,-4.211532 -4.292475 -0.7228521,-3.26684 -5.679906 -1.471026,-3.43468 -5.377227 -0.8373456,-3.43468 -5.377227 -0.8373456,-3.290773 -6.665796 -0.7940953,-2.929379 -5.72208 -1.317746,-3.090902 -5.509283 -0.7310772,-3.0814 -6.406736 -0.7467211,-3.037046 -6.828304 -0.8773427,-2.589937 -5.877016 -1.145567,-2.772929 -5.632569 -0.7601687,-2.852739 -6.262372 -0.7338883,-2.859851 -6.619184 -0.8032703,-8.827165 -7.123526 0.098579,-8.303825 -6.824806 0.3886946,-7.881117 -6.196154 0.6295338,-7.593275 -5.615076 0.8889476,-7.297957 -5.271081 1.159468,-8.249425 -4.725891 0.4373056,-8.173632 -3.713539 0.6546556,-8.159692 -3.101188 0.8360369,-8.156976 -2.566154 0.9628389,-8.57347 -4.603574 0.4933808,-8.536567 -3.441355 0.7118652,-8.524209 -2.716123 0.9475077,-8.52419 -2.081481 1.126227,-8.88052 -4.703338 0.5800862,-8.870278 -3.616317 0.7821717,-8.854206 -2.946772 0.9734873,-8.833671 -2.371658 1.114995,-9.193432 -4.991935 0.6868187,-9.269469 -4.160372 0.8840125,-9.301588 -3.618263 1.029686,-9.318314 -3.090703 1.1337,2.710,2  0
-2.59385 -7.754625 -1.71412,-3.149252 -7.570448 -1.498372,-3.606342 -6.979141 -1.357837,-3.871468 -6.361171 -1.196594,-4.159794 -5.933561 -1.044982,-3.593503 -5.963756 -1.507271,-3.912029 -5.369336 -1.032651,-4.108522 -4.962904 -0.7182763,-4.287199 -4.530851 -0.5201348,-3.277353 -5.783638 -1.416381,-3.465561 -5.586618 -0.7354559,-3.465561 -5.586618 -0.7354559,-3.280772 -6.827853 -0.6858044,-2.933315 -5.814956 -1.267889,-3.10643 -5.713403 -0.642493,-3.085478 -6.600711 -0.658707,-3.029922 -6.977144 -0.8052062,-2.584057 -5.972479 -1.099931,-2.784156 -5.850156 -0.6873307,-2.863119 -6.48951 -0.6676841,-2.868084 -6.823415 -0.7525168,-8.837756 -7.137247 0.07951785,-8.317945 -6.824748 0.3827562,-7.896842 -6.214168 0.6249405,-7.60536 -5.641246 0.8828438,-7.309842 -5.292148 1.153928,-8.266487 -4.746883 0.4271485,-8.186165 -3.736378 0.6457302,-8.170553 -3.12683 0.8254684,-8.166572 -2.593382 0.9513332,-8.585361 -4.623666 0.4802035,-8.545221 -3.460709 0.6984205,-8.534621 -2.739836 0.9335494,-8.536559 -2.108371 1.112452,-8.887157 -4.721561 0.56472,-8.875812 -3.638042 0.770258,-8.862839 -2.968869 0.9606587,-8.846289 -2.389705 1.101581,-9.195222 -5.009775 0.6717526,-9.276468 -4.189599 0.8757416,-9.313 -3.650418 1.023925,-9.331749 -3.123968 1.128442,2.810,2  0
-2.582022 -7.790981 -1.757075,-3.140754 -7.633678 -1.555261,-3.616397 -7.046047 -1.414906,-3.88472 -6.443021 -1.253743,-4.166246 -6.0471 -1.098207,-3.591731 -6.043608 -1.510181,-3.921953 -5.454212 -1.024742,-4.127303 -5.061725 -0.6936395,-4.31374 -4.657454 -0.4843183,-3.275528 -5.843557 -1.417004,-3.47518 -5.672083 -0.7475733,-3.47518 -5.672083 -0.7475733,-3.279514 -6.899194 -0.7169447,-2.931249 -5.856145 -1.272339,-3.111433 -5.789402 -0.6644454,-3.082255 -6.666976 -0.7002331,-3.024543 -7.039652 -0.8492754,-2.584109 -5.996015 -1.106491,-2.791475 -5.896904 -0.7122955,-2.860546 -6.538083 -0.712409,-2.861205 -6.873378 -0.8065907,-8.841403 -7.151134 0.07479765,-8.314043 -6.837232 0.3678902,-7.895741 -6.215137 0.6033739,-7.608767 -5.641578 0.8593674,-7.314465 -5.30071 1.122126,-8.273588 -4.75381 0.3971085,-8.196604 -3.748786 0.6070074,-8.180208 -3.143121 0.7921777,-8.17618 -2.617827 0.9213044,-8.595194 -4.633352 0.4432458,-8.566827 -3.472385 0.6522979,-8.561013 -2.753098 0.8863001,-8.565951 -2.128061 1.068171,-8.896672 -4.725255 0.5196539,-8.894942 -3.646089 0.7130458,-8.886909 -2.98069 0.8973622,-8.872481 -2.412487 1.029299,-9.201924 -4.999954 0.6194483,-9.284071 -4.176827 0.8006458,-9.31931 -3.635813 0.9334077,-9.337878 -3.10922 1.025587,2.910,2  0
-2.593233 -7.914487 -1.69076,-3.148735 -7.745103 -1.51557,-3.635962 -7.161376 -1.375028,-3.910135 -6.552551 -1.19626,-4.196864 -6.156471 -1.020186,-3.593895 -6.16146 -1.472128,-3.933825 -5.617307 -0.9541219,-4.150231 -5.235487 -0.5961668,-4.346924 -4.839399 -0.3712826,-3.27874 -5.939765 -1.375339,-3.496249 -5.872356 -0.7209891,-3.496249 -5.872356 -0.7209891,-3.26261 -7.119282 -0.6956062,-2.936217 -5.934032 -1.229939,-3.129318 -5.964028 -0.6256714,-3.082689 -6.852367 -0.6704359,-3.012986 -7.239805 -0.8174189,-2.589359 -6.052461 -1.064533,-2.801981 -5.987932 -0.6835971,-2.857486 -6.640707 -0.7019272,-2.846253 -7.000194 -0.802628,-8.850099 -7.162689 0.08244053,-8.330581 -6.866527 0.3764926,-7.910594 -6.235401 0.6045091,-7.622833 -5.646144 0.8498288,-7.326258 -5.305624 1.102181,-8.289504 -4.766334 0.4077719,-8.20719 -3.761561 0.6165136,-8.189687 -3.154827 0.7941509,-8.18269 -2.629907 0.9129136,-8.609989 -4.643053 0.4571584,-8.573874 -3.476534 0.6658629,-8.567199 -2.754858 0.8975714,-8.572783 -2.128084 1.072802,-8.910422 -4.745294 0.5366098,-8.901781 -3.66156 0.7352427,-8.893682 -2.989251 0.9252175,-8.8788 -2.407438 1.063382,-9.213929 -5.039535 0.6390125,-9.297744 -4.226575 0.8351043,-9.335703 -3.691069 0.9809354,-9.354693 -3.165381 1.085764,3.010,2  0
-2.56669 -7.928178 -1.665642,-3.129315 -7.818117 -1.506679,-3.637888 -7.239894 -1.342647,-3.91528 -6.628347 -1.136522,-4.209181 -6.217809 -0.9212434,-3.607754 -6.2149 -1.404978,-3.932549 -5.700264 -0.8756111,-4.153013 -5.373775 -0.5086,-4.360687 -5.040542 -0.2808741,-3.288671 -5.969382 -1.28974,-3.50743 -5.96697 -0.6321055,-3.50743 -5.96697 -0.6321055,-3.257776 -7.204513 -0.6068662,-2.940027 -5.960237 -1.13049,-3.129046 -6.09412 -0.5474343,-3.076095 -6.967951 -0.6212394,-3.004355 -7.312479 -0.774572,-2.592417 -6.083351 -0.9491635,-2.798931 -6.131206 -0.5989869,-2.848861 -6.77943 -0.6419799,-2.836566 -7.097147 -0.7486462,-8.858387 -7.183238 0.1480148,-8.342278 -6.875129 0.4336709,-7.919834 -6.238616 0.6663074,-7.63003 -5.653181 0.9213451,-7.329211 -5.308197 1.184313,-8.292606 -4.76761 0.4659111,-8.215238 -3.767845 0.6696323,-8.202297 -3.161426 0.846772,-8.199596 -2.636117 0.9681138,-8.615468 -4.644163 0.5182422,-8.58017 -3.489985 0.7221663,-8.577267 -2.774951 0.9473832,-8.585476 -2.156322 1.119486,-8.919778 -4.738782 0.6003933,-8.910556 -3.659915 0.7882342,-8.903669 -2.993686 0.9634932,-8.889685 -2.42416 1.09325,-9.228563 -5.022274 0.7051529,-9.305845 -4.192165 0.8830407,-9.341522 -3.653901 1.012212,-9.361874 -3.130148 1.106117,3.110,2  0
-2.574414 -7.991027 -1.331889,-3.153904 -7.895912 -1.144434,-3.655894 -7.322277 -0.9166631,-3.91221 -6.721294 -0.6501155,-4.192732 -6.288215 -0.381757,-3.5952 -6.230483 -0.8993292,-3.951337 -5.775527 -0.2976804,-4.198006 -5.49196 0.1194631,-4.423084 -5.20225 0.3793252,-3.257233 -5.956161 -0.7787604,-3.507383 -6.191452 -0.0767076,-3.507383 -6.191452 -0.0767076,-3.259101 -7.350744 -0.02111256,-2.895423 -5.953594 -0.6217331,-3.119139 -6.312839 -0.02337217,-3.070795 -7.139507 -0.1098766,-2.993693 -7.420598 -0.2515267,-2.542733 -6.09515 -0.4379012,-2.775147 -6.331728 -0.09548116,-2.841906 -6.960655 -0.1612731,-2.823431 -7.226799 -0.2710896,-8.879546 -7.217423 0.08888703,-8.356755 -6.89476 0.3705309,-7.937511 -6.262237 0.5958656,-7.652426 -5.678052 0.8438564,-7.360583 -5.345631 1.095251,-8.316813 -4.814825 0.3854886,-8.240804 -3.811492 0.5925088,-8.224698 -3.207425 0.7750614,-8.219096 -2.682979 0.8998472,-8.638263 -4.691957 0.4352559,-8.612987 -3.522471 0.6355653,-8.612193 -2.802433 0.8694655,-8.621943 -2.173244 1.050001,-8.939186 -4.781978 0.51446,-8.939883 -3.697724 0.6963075,-8.937785 -3.029703 0.8726297,-8.925785 -2.454662 1.006347,-9.242237 -5.056623 0.6156519,-9.331442 -4.232282 0.7862216,-9.369615 -3.692667 0.9168662,-9.38834 -3.167293 1.011335,3.210,2  0
-2.565722 -8.077042 -0.9772775,-3.145706 -7.971101 -0.8068829,-3.641387 -7.36009 -0.5396316,-3.906963 -6.756585 -0.2477139,-4.164276 -6.335462 0.03418279,-3.531126 -6.221555 -0.4925352,-3.907421 -5.845141 0.1187273,-4.166824 -5.593935 0.5404395,-4.401848 -5.320473 0.8004237,-3.195118 -5.935003 -0.354533,-3.467331 -6.402341 0.3089961,-3.467331 -6.402341 0.3089961,-3.208258 -7.477115 0.2930316,-2.84129 -5.963443 -0.1788944,-3.068916 -6.501335 0.376127,-3.018194 -7.273809 0.2419839,-2.935358 -7.44223 0.09162831,-2.499555 -6.142534 0.02690876,-2.710935 -6.539603 0.3237288,-2.777847 -7.14698 0.2269056,-2.750077 -7.318363 0.1315355,-8.901937 -7.234674 0.09672973,-8.386777 -6.923576 0.3727975,-7.96769 -6.292902 0.5961504,-7.687217 -5.708959 0.8445186,-7.393103 -5.366727 1.101809,-8.343327 -4.82433 0.3867358,-8.276529 -3.810158 0.5833414,-8.264517 -3.200931 0.7568642,-8.261279 -2.674504 0.8760318,-8.668368 -4.706176 0.4427659,-8.647098 -3.528981 0.6365615,-8.64224 -2.80843 0.8575038,-8.646074 -2.186187 1.026615,-8.972444 -4.804098 0.5290561,-8.976499 -3.712505 0.7152204,-8.972776 -3.041051 0.8967392,-8.9576 -2.461927 1.032634,-9.277578 -5.089101 0.6376258,-9.368404 -4.266087 0.8125902,-9.40453 -3.733776 0.9468535,-9.421038 -3.21519 1.043114,3.310,2  0
-2.560206 -8.079195 -0.9018199,-3.14164 -7.992233 -0.7450464,-3.633272 -7.406968 -0.4629874,-3.893702 -6.821857 -0.1586001,-4.140982 -6.389753 0.126949,-3.53668 -6.247082 -0.3751036,-3.897949 -5.888711 0.2452129,-4.154451 -5.624416 0.6588732,-4.384262 -5.354377 0.9103132,-3.200069 -5.93394 -0.2227336,-3.446441 -6.537199 0.4342412,-3.446441 -6.537199 0.4342412,-3.206188 -7.547718 0.3953723,-2.832694 -5.967687 -0.03512698,-3.039777 -6.606822 0.4953464,-2.994704 -7.340499 0.3297585,-2.921963 -7.48076 0.1721218,-2.479137 -6.155378 0.1801471,-2.672122 -6.635873 0.4654806,-2.743099 -7.235366 0.3561579,-2.726864 -7.386341 0.261959,-8.90918 -7.254228 0.1130124,-8.389306 -6.940656 0.3727874,-7.97027 -6.301116 0.5862111,-7.687473 -5.708847 0.8279387,-7.390738 -5.360809 1.078829,-8.356942 -4.832952 0.3729107,-8.295638 -3.816066 0.5551594,-8.284804 -3.207265 0.720342,-8.283108 -2.68001 0.8330339,-8.678724 -4.717663 0.4357715,-8.659851 -3.544578 0.6204861,-8.655403 -2.826125 0.8399775,-8.661228 -2.200901 1.006407,-8.979587 -4.820659 0.5285206,-8.986962 -3.731337 0.7070343,-8.983885 -3.05863 0.8871387,-8.970743 -2.472564 1.022331,-9.282854 -5.113016 0.6412264,-9.375584 -4.279813 0.8179288,-9.412233 -3.741029 0.9576507,-9.428592 -3.214691 1.055794,3.410,2  0
-2.641242 -8.117373 -0.6303276,-3.206854 -7.930496 -0.4134993,-3.658681 -7.344923 -0.06379378,-3.906286 -6.835981 0.2834368,-4.162057 -6.468257 0.6256189,-3.491375 -6.147101 0.06665123,-3.839813 -5.996141 0.7288589,-4.110628 -5.799654 1.127794,-4.356531 -5.584976 1.36176,-3.137465 -5.903373 0.2023767,-3.401178 -6.695413 0.8500041,-3.401178 -6.695413 0.8500041,-3.235494 -7.707578 0.6713719,-2.763269 -6.029393 0.3827498,-2.971242 -6.774936 0.9100442,-2.978158 -7.480731 0.6745607,-2.917436 -7.605714 0.4653788,-2.410686 -6.311434 0.5874518,-2.591525 -6.841463 0.8675128,-2.706189 -7.401006 0.7108363,-2.708306 -7.511566 0.5817871,-8.938195 -7.286006 0.1435614,-8.420392 -6.971523 0.4164603,-8.000047 -6.319833 0.6434267,-7.716324 -5.724069 0.8990037,-7.411721 -5.382595 1.164159,-8.376945 -4.862436 0.4372753,-8.307948 -3.85386 0.6331773,-8.296041 -3.244668 0.8054605,-8.294603 -2.720009 0.9214612,-8.701014 -4.745174 0.4960376,-8.680758 -3.568416 0.6980795,-8.677641 -2.842276 0.9239303,-8.686045 -2.213583 1.094962,-9.003177 -4.842237 0.5834942,-9.008252 -3.746189 0.7765182,-9.003193 -3.064039 0.9576472,-8.988222 -2.480878 1.093699,-9.307739 -5.124849 0.6929315,-9.391836 -4.282751 0.8678451,-9.427087 -3.739415 1.001342,-9.444918 -3.213392 1.100489,3.510,2  0
-2.648237 -8.052143 -0.9142053,-3.19 -8.003157 -0.6072248,-3.640057 -7.465071 -0.2503436,-3.856632 -6.929582 0.07062,-4.13129 -6.547239 0.4118857,-3.521423 -6.229532 -0.09389693,-3.80004 -6.143082 0.5557126,-4.058383 -5.932394 0.9306359,-4.293934 -5.681968 1.165269,-3.145269 -5.962997 0.004866421,-3.352074 -6.630649 0.6544715,-3.352074 -6.630649 0.6544715,-3.205926 -7.837816 0.4400345,-2.744753 -6.062089 0.1651857,-2.919599 -6.69885 0.7120543,-2.971337 -7.480512 0.4297445,-2.923127 -7.719131 0.1632383,-2.368703 -6.324775 0.3552809,-2.543558 -6.776237 0.6775221,-2.672276 -7.369012 0.4859639,-2.675325 -7.531303 0.3259443,-8.935493 -7.288292 0.1072148,-8.421445 -6.965021 0.3762713,-8.004074 -6.318052 0.5990145,-7.725677 -5.722059 0.8484932,-7.427977 -5.385854 1.108117,-8.396478 -4.871505 0.4066654,-8.330803 -3.857688 0.613202,-8.322071 -3.245748 0.7956814,-8.32391 -2.71874 0.9202245,-8.721137 -4.757005 0.4672163,-8.703038 -3.567641 0.6779948,-8.701896 -2.840821 0.9059736,-8.712401 -2.208532 1.080426,-9.021787 -4.854173 0.5531093,-9.028452 -3.753151 0.7537892,-9.02656 -3.072545 0.9387867,-9.015473 -2.483839 1.075048,-9.322573 -5.136665 0.6611186,-9.413191 -4.304737 0.8413554,-9.451679 -3.763614 0.9765236,-9.472656 -3.236064 1.075889,3.610,2  0
-2.660448 -8.031754 -1.300773,-3.195536 -7.936671 -1.015531,-3.618904 -7.39319 -0.6623561,-3.844307 -6.86639 -0.3359406,-4.155699 -6.495267 0.004328251,-3.476917 -6.260938 -0.5525865,-3.771281 -6.145881 0.07973957,-4.043217 -5.931938 0.4391989,-4.282778 -5.699432 0.6842202,-3.106043 -6.031751 -0.432595,-3.360001 -6.642379 0.2430375,-3.360001 -6.642379 0.2430375,-3.226751 -7.801916 0.06735444,-2.722181 -6.133777 -0.2536694,-2.931415 -6.676214 0.3075085,-2.976541 -7.445297 0.03172541,-2.916411 -7.688982 -0.2427464,-2.355685 -6.395089 -0.04812193,-2.545277 -6.765045 0.2994965,-2.673237 -7.337729 0.1351075,-2.662541 -7.5198 -0.01801872,-8.957396 -7.295423 0.1695392,-8.43843 -6.964797 0.4434202,-8.016759 -6.31483 0.6693161,-7.728868 -5.723506 0.9172408,-7.430469 -5.381879 1.177758,-8.413918 -4.856765 0.4670024,-8.343822 -3.840742 0.6609435,-8.333858 -3.233591 0.8296083,-8.335128 -2.708076 0.9429519,-8.738488 -4.745983 0.5259492,-8.718642 -3.57644 0.725094,-8.719002 -2.859174 0.9458303,-8.730107 -2.237966 1.115488,-9.038692 -4.852175 0.612483,-9.043927 -3.768699 0.8050309,-9.044948 -3.099115 0.9857343,-9.035203 -2.521886 1.120726,-9.338188 -5.14911 0.7221116,-9.431086 -4.326697 0.9068311,-9.474494 -3.796718 1.045231,-9.499025 -3.278103 1.14912,3.710,2  0
-2.652916 -7.975655 -1.294766,-3.204276 -7.920988 -0.974229,-3.642761 -7.399092 -0.619141,-3.865745 -6.861825 -0.3149616,-4.163799 -6.466402 -0.02370167,-3.501663 -6.253942 -0.4983897,-3.813466 -6.141535 0.1375175,-4.104328 -5.88219 0.4736551,-4.363997 -5.605843 0.6975449,-3.125247 -5.994423 -0.3938698,-3.383912 -6.655731 0.2904367,-3.383912 -6.655731 0.2904367,-3.245798 -7.758462 0.03647089,-2.73631 -6.085069 -0.2183943,-2.954466 -6.694665 0.3522824,-2.998152 -7.441605 0.05645621,-2.93842 -7.636026 -0.2344143,-2.366761 -6.347049 -0.01261163,-2.561411 -6.781742 0.3419324,-2.68779 -7.342469 0.1893506,-2.679403 -7.483463 0.05637658,-8.973704 -7.316839 0.2263497,-8.460227 -6.984947 0.4998695,-8.037313 -6.326243 0.7172976,-7.746743 -5.730936 0.9590208,-7.440344 -5.394538 1.209619,-8.425133 -4.863865 0.4963116,-8.357623 -3.864404 0.6912413,-8.345194 -3.257362 0.8646747,-8.340686 -2.731784 0.9818606,-8.747816 -4.748178 0.5574229,-8.731721 -3.595935 0.7484732,-8.734239 -2.883844 0.9687166,-8.746166 -2.266731 1.135191,-9.047077 -4.851987 0.6493143,-9.055238 -3.781394 0.8390577,-9.060522 -3.119808 1.016302,-9.053853 -2.543006 1.145212,-9.347553 -5.150517 0.7658635,-9.445155 -4.338715 0.9502594,-9.492371 -3.8094 1.084084,-9.520499 -3.285791 1.182602,3.810,2  0
-2.738273 -7.963497 -1.382717,-3.287066 -7.966577 -0.9978431,-3.724565 -7.430519 -0.6153406,-3.937052 -6.866833 -0.3078101,-4.233736 -6.433965 0.00147891,-3.586557 -6.282152 -0.526796,-3.862558 -6.061954 0.1324047,-4.161313 -5.769243 0.53427,-4.431309 -5.487049 0.7975808,-3.202919 -6.026539 -0.4440214,-3.403475 -6.560209 0.2723334,-3.403475 -6.560209 0.2723334,-3.324139 -7.844803 0.1055156,-2.802283 -6.111471 -0.2856885,-2.983324 -6.617549 0.3366187,-3.053244 -7.418396 0.1041241,-3.019091 -7.710254 -0.1541761,-2.424037 -6.363609 -0.09129786,-2.599093 -6.696058 0.2929873,-2.740834 -7.287051 0.1503422,-2.760196 -7.510757 0.0134269,-8.974279 -7.315662 0.1552691,-8.458208 -6.9827 0.4413602,-8.037853 -6.337018 0.6733775,-7.750478 -5.748065 0.9266388,-7.450104 -5.409305 1.191656,-8.43255 -4.88713 0.4684659,-8.369422 -3.869169 0.6824322,-8.360096 -3.253562 0.8688182,-8.358269 -2.718984 0.9931802,-8.755307 -4.772449 0.526245,-8.741872 -3.606609 0.7408021,-8.743722 -2.886934 0.9723666,-8.754562 -2.259605 1.14537,-9.055901 -4.873225 0.6116807,-9.063154 -3.7897 0.8142123,-9.066607 -3.122547 0.9938369,-9.059951 -2.540441 1.123291,-9.357762 -5.16683 0.7216271,-9.449793 -4.342782 0.9131781,-9.493847 -3.80531 1.045662,-9.521993 -3.276824 1.141068,3.910,2  0
-2.740457 -7.945831 -1.377196,-3.299471 -7.853034 -1.067335,-3.731606 -7.283931 -0.7094243,-3.95197 -6.728012 -0.406919,-4.273424 -6.356294 -0.1013952,-3.54481 -6.19576 -0.5522256,-3.852041 -6.086954 0.07190275,-4.148881 -5.889986 0.3597497,-4.404261 -5.681192 0.548153,-3.169411 -6.00143 -0.4333171,-3.431292 -6.58404 0.2529805,-3.431292 -6.58404 0.2529805,-3.314411 -7.769643 -0.05208635,-2.784821 -6.130622 -0.2441736,-3.018232 -6.618256 0.3417581,-3.076876 -7.395808 0.03962147,-3.023116 -7.651924 -0.2565944,-2.422944 -6.420998 -0.02187014,-2.630318 -6.740972 0.3803716,-2.769174 -7.299895 0.2400355,-2.77076 -7.489543 0.11296,-8.980043 -7.313433 0.1342746,-8.462788 -6.987623 0.4119919,-8.043925 -6.335759 0.6422113,-7.761674 -5.740354 0.8954352,-7.461171 -5.403219 1.159447,-8.437401 -4.892878 0.4507146,-8.374731 -3.882745 0.6631615,-8.367758 -3.277247 0.8421729,-8.370426 -2.759292 0.9604882,-8.763663 -4.776765 0.5098675,-8.75136 -3.599641 0.7218856,-8.751338 -2.878616 0.945989,-8.761909 -2.253546 1.119336,-9.067712 -4.874475 0.59606,-9.074748 -3.781179 0.7996005,-9.07568 -3.111259 0.9787058,-9.068349 -2.530347 1.11184,-9.372553 -5.161108 0.7056435,-9.464385 -4.328132 0.8881357,-9.508527 -3.791944 1.016652,-9.536418 -3.269919 1.114667,4.010,2  0
-2.807096 -7.885194 -1.821027,-3.347911 -7.846046 -1.436636,-3.781384 -7.332099 -1.048863,-3.995922 -6.759399 -0.7311031,-4.313407 -6.347233 -0.4380854,-3.617659 -6.331006 -0.8747196,-3.917281 -6.031072 -0.2291772,-4.231254 -5.737371 0.07318282,-4.506078 -5.458091 0.2770436,-3.222462 -6.135984 -0.7815247,-3.429085 -6.350208 -0.06298161,-3.429085 -6.350208 -0.06298161,-3.36026 -7.678533 -0.3136635,-2.830348 -6.232115 -0.6201569,-3.036383 -6.444077 0.04534638,-3.120316 -7.289166 -0.2461964,-3.090475 -7.626785 -0.5625564,-2.473675 -6.499662 -0.4245622,-2.658327 -6.663884 0.03713059,-2.799848 -7.249639 -0.1071615,-2.807672 -7.479782 -0.2699807,-8.991244 -7.326969 0.1639317,-8.47457 -6.994236 0.4391825,-8.052739 -6.349332 0.6641072,-7.76451 -5.756886 0.9118424,-7.465161 -5.422155 1.171102,-8.448306 -4.894104 0.4603094,-8.383825 -3.891395 0.6661808,-8.377337 -3.288696 0.843233,-8.379093 -2.764516 0.9575411,-8.772617 -4.779809 0.5250018,-8.760275 -3.623954 0.7294568,-8.763163 -2.908374 0.9540987,-8.773913 -2.285282 1.123125,-9.075448 -4.886161 0.6190999,-9.087051 -3.810396 0.8196757,-9.090694 -3.146114 1.002146,-9.083537 -2.566028 1.135436,-9.379966 -5.185071 0.7362884,-9.478482 -4.364023 0.9295855,-9.524695 -3.825713 1.06958,-9.553413 -3.295478 1.173406,4.110,2  0
-2.846626 -7.828088 -1.98041,-3.377571 -7.834966 -1.556347,-3.813036 -7.283467 -1.166511,-4.022672 -6.699771 -0.8612119,-4.314478 -6.303514 -0.5551715,-3.707554 -6.36444 -0.9694686,-3.949865 -6.018639 -0.3008111,-4.253425 -5.667982 0.09279954,-4.527642 -5.357082 0.3739871,-3.315039 -6.173032 -0.9000143,-3.429396 -6.11234 -0.2325189,-3.429396 -6.11234 -0.2325189,-3.448187 -7.572465 -0.3517671,-2.902236 -6.2417 -0.7685579,-3.066133 -6.282644 -0.07405925,-3.172535 -7.170844 -0.2966856,-3.180822 -7.662305 -0.5456134,-2.522203 -6.490662 -0.5960094,-2.702772 -6.50608 -0.1130229,-2.843423 -7.105567 -0.2565954,-2.871171 -7.422579 -0.4047946,-8.995474 -7.331231 0.1450446,-8.482747 -7.012669 0.4391242,-8.065344 -6.349905 0.6736606,-7.779591 -5.753397 0.9264322,-7.472859 -5.425886 1.19571,-8.453996 -4.906524 0.459147,-8.390884 -3.904937 0.6719421,-8.383264 -3.303211 0.8555028,-8.3862 -2.778694 0.9779354,-8.776743 -4.790933 0.5158528,-8.770144 -3.625427 0.7275035,-8.772491 -2.905246 0.9552333,-8.784548 -2.270592 1.126,-9.078329 -4.893672 0.603199,-9.093267 -3.80484 0.8112267,-9.098948 -3.129191 0.9994569,-9.097446 -2.536144 1.137859,-9.384154 -5.18852 0.7157692,-9.482708 -4.361164 0.9092102,-9.533715 -3.819949 1.047516,-9.570666 -3.288599 1.150354,4.210,2  0
-2.852429 -7.75739 -2.13852,-3.366984 -7.790576 -1.66555,-3.829563 -7.26673 -1.212878,-4.06321 -6.671417 -0.8632066,-4.356342 -6.2457 -0.5340555,-3.731211 -6.437221 -0.9761451,-3.948257 -6.023859 -0.28212,-4.245962 -5.672873 0.05275297,-4.517312 -5.367023 0.2947562,-3.318371 -6.25657 -0.9240679,-3.451416 -6.153514 -0.25024,-3.451416 -6.153514 -0.25024,-3.452404 -7.416656 -0.5688397,-2.893371 -6.307323 -0.7977307,-3.083221 -6.323596 -0.1263802,-3.167004 -7.147885 -0.4982836,-3.16291 -7.553683 -0.8215302,-2.507849 -6.524154 -0.616259,-2.709345 -6.552434 -0.148559,-2.833901 -7.117538 -0.3549569,-2.853943 -7.38525 -0.5227821,-9.006254 -7.331575 0.1322034,-8.487753 -7.017057 0.4171138,-8.070336 -6.369484 0.6483614,-7.782673 -5.769632 0.9010157,-7.477329 -5.421273 1.166857,-8.457632 -4.917863 0.4278637,-8.394668 -3.912758 0.6341404,-8.387933 -3.309062 0.8162329,-8.390159 -2.785763 0.9390575,-8.778028 -4.793661 0.4877509,-8.770155 -3.631473 0.6916097,-8.771687 -2.911668 0.9165325,-8.782551 -2.280266 1.086949,-9.078885 -4.889387 0.5782686,-9.09333 -3.800119 0.7826534,-9.096628 -3.129995 0.9690265,-9.089603 -2.544284 1.106265,-9.384021 -5.177626 0.6935754,-9.487151 -4.351015 0.8847276,-9.538782 -3.808422 1.02208,-9.571805 -3.275206 1.123966,4.310,2  0
-2.977296 -7.498659 -3.007304,-3.478595 -7.418329 -2.44529,-3.916649 -6.893228 -1.918654,-4.166096 -6.316642 -1.550311,-4.417242 -5.925083 -1.226637,-3.739913 -6.961231 -1.386248,-3.956184 -6.117179 -0.7086825,-4.23728 -5.653464 -0.4984434,-4.457035 -5.43404 -0.3630271,-3.334474 -6.943784 -1.399582,-3.416869 -6.057977 -0.8073075,-3.416869 -6.057977 -0.8073075,-3.544366 -6.592143 -1.28981,-2.917065 -6.958 -1.356058,-3.011692 -6.181274 -0.7337577,-3.178949 -6.395955 -1.067131,-3.249995 -6.711696 -1.307225,-2.541826 -7.0085 -1.256099,-2.622526 -6.407283 -0.7688515,-2.803208 -6.501524 -0.8313727,-2.901469 -6.661026 -0.8463874,-9.002338 -7.330508 0.125889,-8.491328 -7.009071 0.4211541,-8.074341 -6.372168 0.6589204,-7.788617 -5.781927 0.9167951,-7.48486 -5.435734 1.18533,-8.467359 -4.913473 0.4416574,-8.402763 -3.903839 0.6600462,-8.39416 -3.302122 0.846849,-8.39376 -2.774465 0.9705964,-8.788662 -4.796179 0.5023706,-8.775746 -3.634117 0.7222266,-8.776633 -2.921471 0.9530244,-8.788758 -2.29496 1.123989,-9.089942 -4.900047 0.5939753,-9.101638 -3.816202 0.8111299,-9.10618 -3.14779 1.002881,-9.101464 -2.557439 1.140175,-9.395127 -5.198268 0.7104013,-9.490272 -4.37988 0.912747,-9.535222 -3.846015 1.05617,-9.561768 -3.317893 1.159853,4.410,2  0
-2.873027 -7.508142 -2.814801,-3.456654 -7.729706 -2.328448,-3.889708 -7.244106 -1.898795,-4.124738 -6.600352 -1.572565,-4.417969 -6.13227 -1.252918,-3.659428 -6.459573 -1.571153,-3.91057 -5.951221 -0.9587847,-4.191166 -5.690654 -0.6918999,-4.40027 -5.441638 -0.5196947,-3.253649 -6.321474 -1.526209,-3.399172 -6.148651 -0.8630301,-3.399172 -6.148651 -0.8630301,-3.475809 -7.273013 -0.984479,-2.857989 -6.412591 -1.43642,-3.032631 -6.27509 -0.7756649,-3.143021 -6.947124 -0.8685751,-3.167486 -7.381964 -1.01959,-2.493666 -6.656937 -1.313251,-2.626966 -6.602823 -0.7401975,-2.768013 -7.044063 -0.6849624,-2.82393 -7.347053 -0.6711127,-9.000875 -7.345474 0.1626001,-8.488789 -7.025403 0.4634686,-8.069827 -6.37527 0.7006649,-7.784863 -5.779964 0.9532666,-7.481015 -5.431072 1.215874,-8.471031 -4.915939 0.4830169,-8.410277 -3.901506 0.6950471,-8.402252 -3.292518 0.8742809,-8.403352 -2.761254 0.9938127,-8.792438 -4.799234 0.5332758,-8.780884 -3.639371 0.7501079,-8.782167 -2.926862 0.9751875,-8.79336 -2.299243 1.146555,-9.092321 -4.909559 0.615249,-9.104601 -3.82809 0.8260205,-9.107146 -3.160114 1.014679,-9.101297 -2.571079 1.155144,-9.395612 -5.216618 0.7224746,-9.494985 -4.400146 0.9183345,-9.540779 -3.870292 1.062227,-9.568601 -3.348348 1.17036,4.510,2  0
-2.830545 -7.770408 -2.432776,-3.44309 -7.747601 -2.067133,-3.913954 -7.253093 -1.643008,-4.190309 -6.700406 -1.270036,-4.402422 -6.189998 -0.9168844,-3.67824 -6.810918 -0.9205621,-3.930021 -5.957666 -0.2421802,-4.226677 -5.563102 0.06765121,-4.472673 -5.253225 0.2517065,-3.251342 -6.852499 -0.8211041,-3.385101 -5.893186 -0.1993039,-3.385101 -5.893186 -0.1993039,-3.573215 -6.490025 -0.3377374,-2.859944 -6.945467 -0.6750306,-3.010619 -6.077228 -0.08260518,-3.180597 -6.369305 -0.1906753,-3.221428 -6.69995 -0.3022075,-2.502889 -7.1107 -0.518011,-2.59471 -6.524951 -0.03546053,-2.768157 -6.712497 0.07960266,-2.819419 -6.967024 0.1812407,-8.999413 -7.361682 0.1596475,-8.492123 -7.041545 0.454852,-8.075352 -6.386476 0.6882563,-7.7914 -5.795381 0.9389171,-7.485456 -5.466369 1.204878,-8.4679 -4.931307 0.4814655,-8.407441 -3.923531 0.6905121,-8.400949 -3.322689 0.8673674,-8.402273 -2.798647 0.9850488,-8.794139 -4.81656 0.5339371,-8.787096 -3.654429 0.7441288,-8.789282 -2.941353 0.9649336,-8.798574 -2.318119 1.131316,-9.098074 -4.920864 0.6146695,-9.11314 -3.831132 0.8209761,-9.117011 -3.160338 1.001724,-9.111115 -2.576106 1.134587,-9.403968 -5.21653 0.721154,-9.501961 -4.390419 0.9117512,-9.548813 -3.85334 1.045861,-9.579867 -3.329239 1.14358,4.610,2  0
-2.923248 -7.575456 -2.969518,-3.506138 -7.522729 -2.466448,-3.974488 -7.076332 -1.995281,-4.245375 -6.519723 -1.659305,-4.52752 -6.06658 -1.34592,-3.678908 -6.796178 -1.480663,-3.886339 -6.091222 -0.7654104,-4.184698 -5.634773 -0.5036005,-4.416479 -5.352229 -0.3027727,-3.262712 -6.720127 -1.482685,-3.425419 -6.193342 -0.9029314,-3.425419 -6.193342 -0.9029314,-3.512967 -6.994609 -1.589342,-2.85612 -6.768157 -1.406018,-3.035934 -6.292689 -0.8062987,-3.181269 -6.688814 -1.225222,-3.209101 -6.967689 -1.551485,-2.489756 -6.885471 -1.283276,-2.662246 -6.584527 -0.7903656,-2.836399 -6.834379 -0.8995847,-2.895125 -6.985981 -0.9852425,-9.00954 -7.368116 0.1431145,-8.498808 -7.03864 0.4438014,-8.079722 -6.384098 0.6837751,-7.78671 -5.790082 0.9384552,-7.47885 -5.455452 1.206675,-8.47413 -4.946199 0.4706686,-8.410841 -3.934265 0.6930393,-8.405696 -3.322568 0.8806812,-8.409757 -2.789871 1.004833,-8.795895 -4.829997 0.5276043,-8.78594 -3.672986 0.7525856,-8.790236 -2.953071 0.9850686,-8.803194 -2.320217 1.158848,-9.096663 -4.933197 0.6149226,-9.110317 -3.847917 0.8385651,-9.11714 -3.176184 1.028366,-9.114415 -2.587104 1.163566,-9.400581 -5.230068 0.7272624,-9.503647 -4.412759 0.9342948,-9.557662 -3.879747 1.076272,-9.594772 -3.352665 1.181654,4.710,2  0
-2.820741 -7.388624 -2.131048,-3.44618 -7.343748 -1.831864,-3.967619 -6.874761 -1.419142,-4.23818 -6.379827 -1.005709,-4.493971 -6.074438 -0.5710404,-3.814699 -5.942197 -1.125015,-4.118675 -5.402584 -0.3974386,-4.370535 -5.369039 -0.03785908,-4.57531 -5.450183 0.08606017,-3.399046 -5.830377 -1.040208,-3.529728 -5.938206 -0.2562515,-3.529728 -5.938206 -0.2562515,-3.639183 -7.308483 -0.3611417,-2.986118 -6.014066 -0.9156194,-3.130877 -6.169597 -0.2402519,-3.240333 -6.890508 -0.2975992,-3.27247 -7.308046 -0.4259927,-2.634724 -6.287166 -0.7844006,-2.753404 -6.232078 -0.344959,-2.891952 -6.662096 -0.3229071,-2.962766 -6.947584 -0.3800446,-9.013017 -7.370675 0.1350988,-8.496663 -7.055967 0.444034,-8.075997 -6.410993 0.6877353,-7.791517 -5.81089 0.9470968,-7.492849 -5.470629 1.218657,-8.476334 -4.957691 0.4737927,-8.412786 -3.948747 0.7071853,-8.411002 -3.341188 0.9049452,-8.418201 -2.8083 1.031705,-8.804143 -4.834924 0.5224801,-8.794668 -3.673363 0.7499856,-8.800513 -2.953657 0.9867136,-8.81595 -2.31593 1.165866,-9.108728 -4.933177 0.6022298,-9.123185 -3.842893 0.8227703,-9.130901 -3.16847 1.017742,-9.130483 -2.579754 1.162026,-9.418306 -5.227186 0.7073046,-9.518085 -4.404315 0.9052073,-9.571269 -3.864212 1.046593,-9.609589 -3.333629 1.151803,4.810,2  0
-3.470469 -6.500554 -1.33704,-3.833076 -6.731873 -0.7678777,-4.057415 -6.54182 -0.1667628,-4.21549 -6.217757 0.2432351,-4.358173 -5.949451 0.6842862,-3.777935 -7.603828 0.6460189,-3.887039 -7.047834 1.367284,-4.111263 -6.37598 1.683848,-4.267109 -5.915531 1.87281,-3.391714 -7.658222 0.5498412,-3.222189 -6.471527 0.9235998,-3.222189 -6.471527 0.9235998,-3.46841 -5.50447 0.3751186,-3.042141 -7.44387 0.5049897,-2.914905 -6.309148 0.9116241,-3.05321 -5.908021 0.4914566,-3.178007 -5.897296 0.2696902,-2.76396 -7.17324 0.5173486,-2.630937 -6.505322 0.8108503,-2.728735 -6.144456 0.698742,-2.860058 -5.994756 0.6887115,-9.00642 -7.38342 0.1080189,-8.494639 -7.058414 0.4031895,-8.078773 -6.409284 0.6386439,-7.79758 -5.812078 0.8909118,-7.495076 -5.474381 1.15728,-8.48128 -4.968605 0.4295652,-8.418347 -3.946421 0.6515015,-8.408099 -3.338377 0.8390082,-8.406997 -2.805377 0.9592563,-8.807237 -4.853388 0.486553,-8.796725 -3.685228 0.7071754,-8.798896 -2.966592 0.9375206,-8.811213 -2.339033 1.105026,-9.109879 -4.960111 0.5739875,-9.124713 -3.866031 0.7923536,-9.130707 -3.190657 0.9849463,-9.125752 -2.599689 1.12266,-9.415627 -5.260097 0.6858177,-9.513425 -4.437765 0.8871192,-9.562174 -3.901274 1.030953,-9.592475 -3.372179 1.134224,4.910,2  0
-2.860053 -7.423035 -1.89194,-3.532069 -7.351102 -1.561921,-4.036324 -6.858554 -1.122342,-4.29281 -6.295672 -0.6957055,-4.558545 -5.879743 -0.2473538,-3.833145 -5.90754 -0.7658755,-4.043616 -5.233009 0.01955068,-4.306736 -5.213359 0.4018859,-4.493555 -5.404777 0.5427209,-3.398967 -5.839237 -0.696273,-3.537694 -6.031536 0.1504191,-3.537694 -6.031536 0.1504191,-3.760351 -7.477071 0.1056024,-2.984456 -6.074062 -0.5868443,-3.151328 -6.306783 0.1545066,-3.276424 -7.031357 0.09306312,-3.327507 -7.466575 -0.03184187,-2.629117 -6.405048 -0.4747634,-2.75876 -6.49648 0.06211329,-2.892374 -6.944479 0.08292925,-2.965741 -7.233836 -0.001366496,-9.016278 -7.385105 0.1398477,-8.498875 -7.059255 0.422515,-8.078153 -6.400943 0.6512746,-7.791787 -5.807273 0.8994908,-7.486273 -5.479001 1.163116,-8.484574 -4.960325 0.4511532,-8.419469 -3.951015 0.666347,-8.411785 -3.345361 0.8489295,-8.412868 -2.814913 0.9682158,-8.808092 -4.845636 0.5119764,-8.794942 -3.69055 0.7241786,-8.798551 -2.972141 0.9524107,-8.811504 -2.339584 1.123525,-9.110733 -4.953516 0.6011672,-9.119924 -3.871481 0.807696,-9.125813 -3.199765 0.9957262,-9.123678 -2.609737 1.132954,-9.417336 -5.255563 0.7143421,-9.511168 -4.435928 0.9121622,-9.557566 -3.899017 1.055384,-9.588923 -3.368299 1.160737,5.010,2  0
-3.146415 -6.820934 -2.625522,-3.583016 -7.143178 -2.024883,-3.982866 -6.913734 -1.448654,-4.238464 -6.501523 -1.004719,-4.455067 -6.090979 -0.5925416,-3.717276 -6.979534 -0.7428995,-3.821534 -6.462022 0.01117879,-4.123976 -6.128107 0.3826588,-4.362473 -5.881685 0.6289976,-3.314106 -6.900379 -0.7881189,-3.240854 -6.189168 -0.2886984,-3.240854 -6.189168 -0.2886984,-3.522523 -6.305208 -0.6307512,-2.934011 -6.847127 -0.7805447,-2.897229 -6.220334 -0.2427976,-3.062587 -6.378509 -0.5746107,-3.173341 -6.545533 -0.7777458,-2.613351 -6.855617 -0.7237355,-2.53504 -6.61993 -0.2798468,-2.66967 -6.725725 -0.3749368,-2.799821 -6.81285 -0.4321043,-9.002594 -7.391767 0.1409146,-8.491941 -7.066352 0.4318099,-8.075655 -6.417493 0.6663004,-7.791901 -5.834285 0.9174175,-7.492604 -5.503746 1.17884,-8.486488 -4.967761 0.467089,-8.420953 -3.965817 0.6908993,-8.412742 -3.359949 0.8774583,-8.413533 -2.828219 0.9991904,-8.805802 -4.853861 0.5314746,-8.792127 -3.698841 0.757471,-8.797523 -2.980683 0.9969956,-8.81368 -2.346976 1.17293,-9.104915 -4.967041 0.622797,-9.115192 -3.883592 0.8463067,-9.126436 -3.205287 1.043578,-9.130103 -2.605611 1.185056,-9.40836 -5.277582 0.736922,-9.51188 -4.463953 0.9481505,-9.561917 -3.929121 1.098851,-9.594492 -3.400848 1.209664,5.110,2  0
-3.040926 -7.699465 -2.520204,-3.627625 -7.447505 -1.95914,-4.059671 -6.921482 -1.399862,-4.319871 -6.422931 -0.9160895,-4.5541 -6.090847 -0.4226842,-3.846869 -6.513672 -1.133848,-4.033172 -5.82509 -0.319869,-4.248371 -5.54142 0.09264636,-4.422339 -5.405249 0.3038089,-3.416866 -6.499053 -1.127249,-3.400757 -5.772937 -0.2578347,-3.400757 -5.772937 -0.2578347,-3.725868 -6.767725 -0.2073522,-2.999613 -6.623289 -1.077724,-2.979733 -5.972919 -0.2869935,-3.178587 -6.466029 -0.3661919,-3.338202 -6.945648 -0.5376849,-2.651283 -6.852148 -0.9827315,-2.661056 -6.317272 -0.4367678,-2.867956 -6.559766 -0.3973672,-3.053779 -6.820657 -0.4439142,-9.012563 -7.379951 0.07198911,-8.495825 -7.058695 0.3719277,-8.075522 -6.417819 0.6135482,-7.78857 -5.831117 0.8694946,-7.484183 -5.500556 1.139386,-8.480365 -4.979602 0.42149,-8.414331 -3.959295 0.6495487,-8.405617 -3.350496 0.8383611,-8.40793 -2.819185 0.959177,-8.805799 -4.864725 0.4747162,-8.795967 -3.696201 0.7032648,-8.800633 -2.973781 0.9354309,-8.815602 -2.341481 1.106914,-9.108163 -4.968385 0.5541822,-9.122227 -3.876979 0.7774723,-9.130226 -3.202656 0.9685307,-9.128973 -2.613938 1.104102,-9.412641 -5.263698 0.6585707,-9.511584 -4.443144 0.8603186,-9.563682 -3.906664 0.9994573,-9.6002 -3.381082 1.10091,5.210,2  0
-3.185651 -7.03478 -2.091686,-3.705818 -6.971518 -1.500488,-4.060479 -6.560215 -0.8757346,-4.281762 -6.14192 -0.4441918,-4.494547 -5.854268 -0.02329606,-3.852892 -7.30529 -0.08327025,-3.946335 -6.711956 0.6947339,-4.185553 -6.219926 1.01558,-4.355066 -5.975988 1.222816,-3.440904 -7.398442 -0.1424233,-3.368612 -6.219163 0.3018091,-3.368612 -6.219163 0.3018091,-3.555639 -6.029836 -0.3043683,-3.021595 -7.319324 -0.148003,-2.987682 -6.165203 0.3303483,-3.13899 -6.050036 -0.1926662,-3.218311 -6.25283 -0.5191758,-2.65099 -7.239221 -0.09836048,-2.609251 -6.466587 0.2009748,-2.757995 -6.300775 -0.04393309,-2.883486 -6.317424 -0.1598837,-9.015016 -7.371604 0.06815486,-8.499396 -7.057144 0.365023,-8.076962 -6.421323 0.6040134,-7.792605 -5.837644 0.8579138,-7.495554 -5.509567 1.125961,-8.48105 -4.975517 0.4056571,-8.413951 -3.959466 0.6337473,-8.41118 -3.355107 0.8230371,-8.420396 -2.825374 0.9428149,-8.808757 -4.855613 0.4592569,-8.795746 -3.688576 0.6846082,-8.801662 -2.965966 0.9174927,-8.818038 -2.332267 1.091635,-9.113854 -4.95354 0.5410077,-9.123809 -3.859739 0.7591307,-9.131172 -3.184397 0.9498186,-9.131618 -2.600099 1.087706,-9.422677 -5.241235 0.6479449,-9.513765 -4.410425 0.8455487,-9.561257 -3.865507 0.9821782,-9.595762 -3.338344 1.080272,5.310,2  0
-3.14176 -7.474205 -2.832091,-3.684397 -7.332794 -2.280946,-4.067698 -6.870552 -1.726731,-4.297283 -6.402235 -1.300809,-4.530315 -6.070213 -0.8979487,-3.831242 -6.861398 -1.13154,-3.93807 -6.283823 -0.4086186,-4.140751 -5.851955 -0.07777184,-4.294544 -5.543253 0.1473389,-3.401892 -6.864637 -1.171651,-3.352718 -6.004018 -0.5825221,-3.352718 -6.004018 -0.5825221,-3.626884 -6.412614 -0.7758183,-2.986041 -6.921917 -1.185011,-2.930592 -6.149318 -0.59325,-3.092567 -6.374856 -0.8929555,-3.213829 -6.638304 -1.123217,-2.627952 -7.078575 -1.146724,-2.59669 -6.589759 -0.7163722,-2.77313 -6.681094 -0.7946534,-2.92234 -6.771673 -0.8565208,-9.005261 -7.39969 0.1113485,-8.492149 -7.062457 0.3902313,-8.078756 -6.413956 0.6252198,-7.79472 -5.827571 0.8811442,-7.487234 -5.495162 1.152927,-8.483667 -4.980657 0.4259352,-8.418891 -3.97253 0.6441884,-8.411832 -3.367864 0.8252978,-8.414575 -2.83879 0.9416181,-8.807769 -4.868805 0.4915021,-8.796663 -3.714849 0.7091684,-8.798947 -2.992186 0.9386916,-8.809202 -2.359165 1.109891,-9.111963 -4.973922 0.5847917,-9.122677 -3.890119 0.7971098,-9.12802 -3.214757 0.9855404,-9.124061 -2.627038 1.118792,-9.419153 -5.267837 0.7020048,-9.513789 -4.440627 0.9032333,-9.559813 -3.896815 1.044067,-9.591407 -3.369457 1.143732,5.410,2  0
-2.932051 -7.835904 -1.71513,-3.548384 -7.655045 -1.313764,-4.011308 -7.1842 -0.8092772,-4.2288 -6.622526 -0.3251079,-4.458107 -6.166576 0.1958272,-3.875508 -6.239979 -0.615557,-4.082935 -5.404291 0.1011286,-4.329346 -5.259632 0.4551438,-4.522079 -5.354623 0.6145328,-3.437357 -6.147398 -0.5606171,-3.543085 -5.737684 0.2169293,-3.543085 -5.737684 0.2169293,-3.827042 -6.986318 0.1392093,-3.021345 -6.289126 -0.4640057,-3.147631 -5.965847 0.2217258,-3.325348 -6.579695 0.1148754,-3.426691 -7.040734 -0.05584991,-2.658214 -6.522941 -0.3644804,-2.766451 -6.134756 0.1446222,-2.938878 -6.51295 0.1347579,-3.04887 -6.840152 0.03489566,-9.013848 -7.395013 0.1150765,-8.50144 -7.069818 0.4040604,-8.081579 -6.426121 0.646525,-7.798657 -5.84181 0.9054212,-7.494862 -5.51135 1.180928,-8.489373 -4.978349 0.4535948,-8.427564 -3.970729 0.6778197,-8.42198 -3.372903 0.8602437,-8.426217 -2.848738 0.9756979,-8.816868 -4.865661 0.5125945,-8.80717 -3.704933 0.7397369,-8.813713 -2.99146 0.9670632,-8.829292 -2.363008 1.134315,-9.12242 -4.97498 0.6004765,-9.137364 -3.887325 0.8183572,-9.146595 -3.217914 1.004335,-9.148824 -2.630887 1.137976,-9.430544 -5.276132 0.711555,-9.524008 -4.454798 0.9122608,-9.569461 -3.917018 1.053718,-9.601271 -3.38923 1.154988,5.510,2  0
-3.036571 -7.69309 -3.013637,-3.630049 -7.347953 -2.551299,-4.057425 -6.917781 -2.029718,-4.32172 -6.443473 -1.612109,-4.552916 -6.079504 -1.252414,-3.827204 -6.927615 -1.49445,-4.029491 -6.262537 -0.7437468,-4.255962 -5.854476 -0.3862842,-4.411827 -5.63763 -0.1572292,-3.395309 -6.941598 -1.490371,-3.418991 -5.917049 -0.829135,-3.418991 -5.917049 -0.829135,-3.648285 -6.327821 -1.014868,-2.988674 -6.97223 -1.452635,-3.000441 -6.084095 -0.8407088,-3.155016 -6.276087 -1.0802,-3.2537 -6.546291 -1.314383,-2.63763 -7.051194 -1.379855,-2.650281 -6.400342 -0.9542275,-2.819631 -6.46015 -0.992183,-2.946396 -6.58198 -1.081617,-9.012177 -7.402345 0.1167135,-8.496673 -7.079111 0.4039543,-8.080536 -6.425481 0.6344408,-7.796968 -5.83798 0.8828342,-7.493052 -5.513608 1.145681,-8.491276 -4.981571 0.4274934,-8.428542 -3.974208 0.6414949,-8.425316 -3.372204 0.8237097,-8.43289 -2.848331 0.9425509,-8.814392 -4.868608 0.4879472,-8.80588 -3.712248 0.7029764,-8.81489 -2.99452 0.9337503,-8.834462 -2.364123 1.107118,-9.115985 -4.976316 0.5771161,-9.130916 -3.892593 0.7902115,-9.140444 -3.221717 0.9784437,-9.141997 -2.634785 1.113029,-9.420815 -5.277442 0.6912351,-9.521289 -4.454441 0.8916767,-9.572721 -3.915026 1.031622,-9.61111 -3.382692 1.131502,5.610,2  0
-2.952796 -7.40941 -1.937882,-3.602604 -7.402271 -1.541711,-4.078301 -6.940584 -1.076493,-4.308791 -6.325235 -0.6502765,-4.484645 -5.863079 -0.2066983,-3.952417 -6.020404 -0.7317646,-4.182746 -5.322727 -0.01427531,-4.384144 -5.266038 0.3151572,-4.519118 -5.380687 0.4226131,-3.527039 -5.877689 -0.7135713,-3.645157 -5.700181 0.04411757,-3.645157 -5.700181 0.04411757,-3.886303 -7.046642 -0.07034087,-3.11138 -6.025384 -0.6671571,-3.234141 -5.970447 -0.0199151,-3.370569 -6.659889 -0.1033391,-3.456944 -7.130291 -0.2352271,-2.760335 -6.303802 -0.6109142,-2.857684 -6.244339 -0.139029,-2.995852 -6.702508 -0.1217039,-3.08615 -7.040591 -0.1791086,-9.010344 -7.398769 0.09121061,-8.502212 -7.075538 0.399771,-8.085546 -6.427173 0.647257,-7.801078 -5.842125 0.9073793,-7.496007 -5.508355 1.178335,-8.485714 -4.99259 0.4565326,-8.420969 -3.992698 0.684905,-8.415109 -3.392934 0.8696748,-8.421421 -2.866729 0.9937103,-8.809572 -4.879415 0.5058801,-8.800211 -3.714934 0.7393284,-8.805641 -3.000038 0.9713947,-8.823208 -2.366489 1.146157,-9.113187 -4.985065 0.5836204,-9.125998 -3.892162 0.8092035,-9.132452 -3.218525 1.003209,-9.133978 -2.62384 1.144956,-9.422355 -5.278133 0.6871451,-9.516142 -4.452941 0.8873602,-9.562004 -3.917648 1.028825,-9.594465 -3.390467 1.134528,5.710,2  0
-3.144622 -7.342954 -2.618433,-3.711433 -7.158907 -2.06231,-4.136847 -6.692001 -1.480706,-4.390692 -6.205844 -1.035071,-4.575342 -5.834705 -0.5867739,-3.86334 -6.692454 -0.8675197,-4.024561 -6.073158 -0.1086009,-4.253008 -5.733957 0.2460675,-4.418256 -5.564077 0.4597797,-3.425369 -6.685966 -0.9131456,-3.416233 -5.865381 -0.3069778,-3.416233 -5.865381 -0.3069778,-3.70829 -6.359605 -0.4498921,-3.005277 -6.735895 -0.9398381,-3.014192 -6.036798 -0.35881,-3.188957 -6.266866 -0.6577573,-3.315662 -6.578498 -0.8726436,-2.659216 -6.866743 -0.9098256,-2.67573 -6.303607 -0.5173731,-2.85036 -6.354225 -0.620191,-3.002895 -6.469484 -0.695077,-9.014904 -7.393226 0.07827123,-8.497923 -7.072958 0.3780843,-8.080063 -6.427951 0.6202246,-7.794091 -5.842508 0.8783045,-7.489412 -5.51722 1.15258,-8.484488 -4.98649 0.4087588,-8.420217 -3.975404 0.6327899,-8.417289 -3.372227 0.8215124,-8.426207 -2.84559 0.9430601,-8.80921 -4.873344 0.4635345,-8.796852 -3.712148 0.6827721,-8.800394 -2.992773 0.9120024,-8.814222 -2.359586 1.085561,-9.114715 -4.975108 0.5476463,-9.126618 -3.887035 0.7656015,-9.135094 -3.212913 0.9572536,-9.136902 -2.623956 1.096039,-9.422931 -5.267114 0.6578834,-9.52136 -4.443703 0.8599176,-9.571657 -3.902706 1.001005,-9.607017 -3.376765 1.104882,5.810,2  0
-2.908103 -7.328577 -2.076912,-3.600725 -7.307071 -1.686929,-4.094451 -6.798639 -1.26269,-4.321033 -6.198794 -0.851796,-4.514244 -5.808609 -0.4354104,-3.912024 -5.990198 -0.882134,-4.140113 -5.325517 -0.1307021,-4.33547 -5.384632 0.1692001,-4.453428 -5.595665 0.2376012,-3.490211 -5.850559 -0.8558352,-3.550526 -5.725404 -0.02918851,-3.550526 -5.725404 -0.02918851,-3.813403 -6.934955 -0.0109359,-3.085209 -5.988777 -0.7912507,-3.151688 -5.938112 -0.08912241,-3.30942 -6.567214 -0.1053303,-3.412895 -6.975862 -0.2216995,-2.737432 -6.256965 -0.7314769,-2.806766 -6.164975 -0.1935275,-2.944826 -6.593348 -0.1081574,-3.043231 -6.898971 -0.1496083,-9.00418 -7.387049 0.07342471,-8.488313 -7.080705 0.3598017,-8.069446 -6.439757 0.5974829,-7.784791 -5.85626 0.8575029,-7.483013 -5.528711 1.13402,-8.474988 -4.976543 0.3695186,-8.414576 -3.975836 0.5842673,-8.408907 -3.375426 0.7684137,-8.411928 -2.852554 0.8876177,-8.800517 -4.864664 0.4334142,-8.790277 -3.713596 0.6389412,-8.793282 -2.989473 0.8703111,-8.80612 -2.356752 1.044505,-9.107026 -4.97528 0.5276418,-9.121235 -3.901119 0.7345107,-9.128757 -3.225051 0.9251877,-9.126939 -2.635908 1.064009,-9.41737 -5.278838 0.647243,-9.518278 -4.454922 0.8443491,-9.56909 -3.912043 0.9863428,-9.60227 -3.383426 1.088146,5.910,2  0
-3.442005 -6.475901 -1.753551,-3.795977 -6.734559 -1.262228,-4.052268 -6.507754 -0.7445178,-4.246595 -6.176086 -0.3639759,-4.480093 -5.891021 0.02895308,-3.700232 -7.331962 0.2515651,-3.845716 -6.863761 0.984789,-4.166121 -6.379797 1.348641,-4.383874 -6.009351 1.575707,-3.341078 -7.311277 0.1661056,-3.220122 -6.193796 0.4511951,-3.220122 -6.193796 0.4511951,-3.532378 -5.687797 -0.0500766,-3.020207 -7.106969 0.1215732,-2.928386 -6.017257 0.4053386,-3.112362 -5.907121 -0.07508469,-3.246235 -6.031707 -0.2813245,-2.772117 -6.882068 0.1192515,-2.656156 -6.23856 0.3523577,-2.763989 -6.127163 0.1546059,-2.880036 -6.168291 0.09892774,-9.00015 -7.372193 0.03362912,-8.4811 -7.064079 0.3457257,-8.059219 -6.442169 0.5917047,-7.768758 -5.865552 0.8523359,-7.470043 -5.534059 1.123193,-8.465948 -4.983325 0.3761379,-8.399981 -3.974408 0.6142799,-8.394557 -3.375469 0.8093075,-8.399133 -2.849129 0.9316597,-8.793648 -4.865957 0.4229464,-8.77941 -3.697063 0.6427543,-8.785421 -2.976993 0.8738964,-8.801946 -2.344259 1.046779,-9.100033 -4.970334 0.4999456,-9.110751 -3.876409 0.7168378,-9.119326 -3.201181 0.9088956,-9.120794 -2.613948 1.047217,-9.408983 -5.266047 0.6041268,-9.50242 -4.441999 0.8030843,-9.551302 -3.900232 0.9441671,-9.583041 -3.3743 1.045929,6.010,2  0
-3.054737 -7.541662 -1.47978,-3.666172 -7.497736 -1.039132,-4.094893 -6.942926 -0.6003834,-4.308193 -6.308191 -0.185798,-4.509011 -5.835505 0.2752827,-4.00132 -5.913729 -0.283268,-4.209322 -5.275341 0.4538667,-4.395063 -5.246988 0.8775083,-4.523455 -5.38737 1.061914,-3.596775 -5.80911 -0.2833953,-3.648607 -5.770636 0.4649504,-3.648607 -5.770636 0.4649504,-3.80173 -6.972061 0.4588954,-3.19186 -5.971973 -0.2469118,-3.254866 -5.998281 0.4294916,-3.357066 -6.624603 0.4087821,-3.428686 -7.071521 0.2932563,-2.842523 -6.243286 -0.1992891,-2.905399 -6.168146 0.3110045,-3.013039 -6.560735 0.3763099,-3.083456 -6.878253 0.3405595,-8.992578 -7.394214 0.09111489,-8.47624 -7.074869 0.3829992,-8.05665 -6.435934 0.6250139,-7.769564 -5.858499 0.8838087,-7.466331 -5.532281 1.158471,-8.463615 -4.979106 0.4321257,-8.401576 -3.974078 0.6625518,-8.394809 -3.368578 0.8559697,-8.399632 -2.835623 0.9827445,-8.791612 -4.8726 0.4915475,-8.77913 -3.715117 0.7178048,-8.784771 -2.997187 0.9517099,-8.800625 -2.366709 1.12611,-9.09925 -4.985021 0.579277,-9.109869 -3.899442 0.8010299,-9.118896 -3.224182 0.9949167,-9.120764 -2.636688 1.131462,-9.410576 -5.287881 0.6889026,-9.503379 -4.462137 0.8891097,-9.549175 -3.919613 1.027202,-9.578391 -3.391554 1.128459,6.110,2  0
-3.351678 -6.737295 -2.067363,-3.834389 -6.734704 -1.534906,-4.151379 -6.369678 -0.9584872,-4.343924 -5.952898 -0.5525777,-4.506729 -5.611713 -0.1518003,-3.957303 -7.326103 -0.1056108,-4.074011 -6.697998 0.6647669,-4.283034 -6.039446 1.036708,-4.461554 -5.561838 1.301888,-3.533247 -7.413673 -0.1871002,-3.407452 -6.145696 0.2542299,-3.407452 -6.145696 0.2542299,-3.503767 -5.478336 -0.2219888,-3.127655 -7.280182 -0.210645,-3.032364 -5.994949 0.21495,-3.119791 -5.712074 -0.222515,-3.182789 -5.796533 -0.502151,-2.791966 -7.116287 -0.189917,-2.700545 -6.296455 0.07243192,-2.770141 -5.998556 -0.1080384,-2.84499 -5.894951 -0.2173094,-8.996451 -7.391996 0.06119157,-8.482034 -7.08352 0.3824683,-8.060647 -6.449903 0.6426513,-7.771881 -5.871208 0.9133464,-7.470078 -5.530656 1.193564,-8.469529 -4.997908 0.4475883,-8.409876 -3.9865 0.6945058,-8.403673 -3.379221 0.893297,-8.4096 -2.845688 1.022932,-8.794987 -4.884828 0.4960388,-8.782961 -3.725474 0.7430916,-8.788418 -3.005249 0.9877193,-8.805653 -2.364381 1.173164,-9.100566 -4.990333 0.5734841,-9.111508 -3.909303 0.8126085,-9.11928 -3.23134 1.012881,-9.120646 -2.636551 1.156831,-9.410021 -5.286176 0.6756518,-9.503214 -4.466984 0.8844585,-9.550501 -3.929769 1.027811,-9.582047 -3.404519 1.136441,6.210,2  0
-2.909792 -7.328595 -1.850155,-3.608183 -7.343755 -1.394501,-4.088219 -6.828908 -0.910571,-4.344261 -6.228601 -0.4584701,-4.601593 -5.77868 0.01197827,-3.947466 -5.962418 -0.582358,-4.166447 -5.414947 0.1995432,-4.390228 -5.235413 0.666507,-4.552608 -5.193497 0.9209278,-3.510109 -5.832955 -0.5539615,-3.659218 -6.088248 0.2866368,-3.659218 -6.088248 0.2866368,-3.706698 -7.406968 0.1069124,-3.081218 -6.000043 -0.452711,-3.282663 -6.214189 0.2931557,-3.350565 -6.832637 0.1406682,-3.372725 -7.163533 -0.06124234,-2.706368 -6.293031 -0.3361899,-2.881227 -6.494672 0.2644541,-2.997678 -6.861277 0.2679064,-3.064976 -7.039764 0.1949668,-8.990008 -7.382474 0.03929709,-8.480513 -7.064907 0.3495902,-8.065316 -6.441911 0.6053673,-7.778398 -5.867843 0.8746089,-7.477887 -5.533765 1.156892,-8.470475 -4.987092 0.4059993,-8.409662 -3.97617 0.6511855,-8.406661 -3.373926 0.8505231,-8.41309 -2.84528 0.9803323,-8.795241 -4.879022 0.4617527,-8.783312 -3.723073 0.6994383,-8.790426 -3.008541 0.9377536,-8.807997 -2.37508 1.120623,-9.101035 -4.991231 0.5473362,-9.112411 -3.911994 0.7819237,-9.122144 -3.239523 0.9817142,-9.123936 -2.645211 1.126091,-9.411164 -5.297287 0.6579023,-9.506461 -4.476852 0.8670006,-9.55626 -3.939003 1.0126,-9.589396 -3.408706 1.120824,6.310,2  0
-3.555733 -6.427708 -1.886099,-3.901047 -6.682405 -1.309012,-4.123468 -6.467992 -0.7735201,-4.273684 -6.130476 -0.3924713,-4.452366 -5.859118 0.01632607,-3.781641 -7.244882 0.1118087,-3.881472 -6.820871 0.8788742,-4.153047 -6.308123 1.255663,-4.339258 -5.880944 1.477255,-3.416552 -7.242754 -0.00135076,-3.248695 -6.263394 0.4086274,-3.248695 -6.263394 0.4086274,-3.607866 -5.264503 0.2662519,-3.092384 -7.042112 -0.07649708,-2.928441 -6.117998 0.3338035,-3.108467 -5.794406 -0.03565168,-3.270103 -5.690518 -0.1940093,-2.854619 -6.798083 -0.1133842,-2.662607 -6.260062 0.2695776,-2.770439 -6.036861 0.1708659,-2.911114 -5.937395 0.1541225,-9.003134 -7.399985 0.05034948,-8.486375 -7.086372 0.3688092,-8.061823 -6.457294 0.6310326,-7.770978 -5.871114 0.9015508,-7.470978 -5.531961 1.180941,-8.471356 -5.010901 0.4416344,-8.409048 -4.002811 0.6968007,-8.406521 -3.400659 0.9014966,-8.415205 -2.872823 1.034359,-8.802163 -4.896867 0.4906411,-8.789424 -3.740808 0.7429107,-8.796557 -3.022777 0.9890947,-8.817945 -2.385768 1.180221,-9.112824 -5.003028 0.5684662,-9.121846 -3.923968 0.8085888,-9.129056 -3.252174 1.01011,-9.128448 -2.662355 1.155458,-9.427673 -5.298864 0.6706564,-9.517384 -4.476766 0.8764735,-9.561767 -3.941956 1.018831,-9.588813 -3.413114 1.130055,6.410,2  0
-3.235935 -7.162683 -2.485237,-3.765779 -7.349352 -1.758159,-4.122824 -7.047914 -1.182251,-4.300829 -6.591909 -0.7240316,-4.449406 -6.163215 -0.2831462,-4.02105 -6.12088 -0.9380326,-4.203373 -5.526424 -0.1740087,-4.411079 -5.318461 0.2859358,-4.625135 -5.18404 0.5469033,-3.587368 -6.006105 -1.036229,-3.486127 -5.478776 -0.1608966,-3.486127 -5.478776 -0.1608966,-3.889069 -6.448326 0.06983823,-3.188169 -6.095243 -1.098144,-3.09027 -5.686468 -0.3008311,-3.278426 -6.31417 -0.2596555,-3.478466 -6.7903 -0.3278227,-2.898795 -6.33322 -1.11808,-2.81523 -6.042724 -0.5315676,-2.944883 -6.484169 -0.414969,-3.09806 -6.873546 -0.4237741,-8.999853 -7.394535 0.04762916,-8.489964 -7.088638 0.3698256,-8.068134 -6.457824 0.6283291,-7.779881 -5.878507 0.8972974,-7.476996 -5.545373 1.181855,-8.471594 -4.997587 0.4248903,-8.414635 -3.983505 0.6706836,-8.416537 -3.383392 0.8709252,-8.427494 -2.855456 1.00014,-8.799221 -4.889842 0.4744401,-8.790302 -3.734632 0.714467,-8.80016 -3.019711 0.9505193,-8.819974 -2.389707 1.13025,-9.107211 -5.002876 0.5551534,-9.12152 -3.925554 0.7906278,-9.133028 -3.254468 0.9901602,-9.13608 -2.665453 1.13271,-9.419399 -5.306259 0.6611887,-9.511298 -4.487578 0.8705347,-9.558311 -3.950881 1.011551,-9.589281 -3.424413 1.1166,6.510,2  0
-3.033134 -7.27028 -2.097844,-3.536342 -6.893194 -1.794565,-4.021977 -6.34621 -1.290044,-4.32128 -5.853285 -0.8627831,-4.584062 -5.413105 -0.3370558,-3.929922 -7.173837 -0.2832557,-4.141789 -6.427574 0.5394555,-4.335419 -5.917783 0.9243163,-4.469897 -5.498913 1.050158,-3.56792 -7.367742 -0.175419,-3.604638 -5.788751 0.5266837,-3.604638 -5.788751 0.5266837,-3.623739 -5.319055 0.3861004,-3.16604 -7.297756 -0.06413281,-3.208717 -5.758991 0.5303911,-3.280345 -5.610238 0.3103083,-3.33157 -5.829212 0.1632766,-2.781024 -7.086666 0.0673908,-2.837053 -5.931022 0.497578,-2.916053 -5.847044 0.4849144,-2.969332 -6.054445 0.5083305,-9.003724 -7.392477 0.02268761,-8.48673 -7.084177 0.3440319,-8.06159 -6.460283 0.6093282,-7.76943 -5.888829 0.8838167,-7.463544 -5.556299 1.175814,-8.465838 -5.01129 0.418119,-8.407523 -3.992562 0.6709051,-8.406766 -3.388348 0.8732414,-8.418077 -2.85692 1.00022,-8.794723 -4.899583 0.4714161,-8.783616 -3.738412 0.7193924,-8.790946 -3.019683 0.9638948,-8.809161 -2.38541 1.147235,-9.103427 -5.009925 0.5530694,-9.116858 -3.925563 0.7990033,-9.127364 -3.247823 1.005764,-9.131204 -2.654243 1.153565,-9.41741 -5.309822 0.6589451,-9.511856 -4.488313 0.8786176,-9.560148 -3.950117 1.029587,-9.592325 -3.423067 1.141805,6.610,2  0
-3.407507 -6.746516 -2.772686,-3.886923 -6.800912 -2.17744,-4.229193 -6.47227 -1.600637,-4.420616 -6.083227 -1.173342,-4.601539 -5.768739 -0.7979547,-4.085246 -6.764783 -0.9181747,-4.109868 -6.28774 -0.2017055,-4.296242 -5.819736 0.130168,-4.455115 -5.462308 0.3690209,-3.674804 -6.749653 -0.9877177,-3.501851 -5.968335 -0.4467785,-3.501851 -5.968335 -0.4467785,-3.764485 -5.671226 -0.6182399,-3.269453 -6.689976 -1.011828,-3.113612 -5.952947 -0.5292225,-3.230191 -5.942122 -0.9406471,-3.338537 -6.004819 -1.187398,-2.914299 -6.666207 -0.9787819,-2.769637 -6.266251 -0.6332557,-2.896617 -6.212336 -0.8176901,-3.03524 -6.181209 -0.9260918,-9.003817 -7.393676 -0.01495596,-8.487409 -7.09103 0.3130198,-8.064664 -6.474014 0.5771332,-7.772762 -5.903389 0.8509452,-7.46883 -5.562315 1.139219,-8.469963 -5.017063 0.3678083,-8.411628 -3.992292 0.6179349,-8.411465 -3.387442 0.8200666,-8.422882 -2.859905 0.949316,-8.799539 -4.908144 0.4157131,-8.787559 -3.741866 0.6595503,-8.798298 -3.019638 0.9009506,-8.820227 -2.383744 1.086923,-9.10955 -5.018274 0.4946716,-9.120283 -3.934144 0.7339706,-9.130456 -3.257977 0.937605,-9.133612 -2.668331 1.084018,-9.424125 -5.316896 0.6004202,-9.516713 -4.492355 0.8121383,-9.563487 -3.954229 0.9603536,-9.593425 -3.427696 1.071648,6.710,2  0
-3.225166 -7.093963 -2.183662,-3.814233 -7.203921 -1.524265,-4.199848 -6.824216 -0.9580051,-4.366412 -6.393373 -0.4970476,-4.476945 -6.048036 -0.05867416,-4.108692 -6.222532 -0.5385739,-4.299698 -5.724969 0.2592222,-4.427883 -5.590942 0.6883587,-4.559348 -5.513814 0.9216329,-3.714665 -6.111009 -0.5443601,-3.776068 -5.523794 0.4346899,-3.776068 -5.523794 0.4346899,-4.281652 -5.857786 1.101777,-3.327768 -6.122215 -0.5419436,-3.341595 -5.725375 0.2932476,-3.463284 -6.308084 0.30338,-3.585141 -6.785787 0.1966936,-2.977118 -6.2973 -0.5058801,-2.971206 -6.105436 0.1023974,-3.094622 -6.544797 0.1771206,-3.228913 -6.92901 0.1372413,-9.000422 -7.404962 -0.008884552,-8.481127 -7.105457 0.3202663,-8.055876 -6.481002 0.5812478,-7.765744 -5.908775 0.8514682,-7.458467 -5.572381 1.133755,-8.468111 -5.023217 0.3602338,-8.414568 -4.007353 0.6078417,-8.409719 -3.404064 0.810679,-8.415215 -2.873792 0.9404492,-8.796463 -4.915367 0.4083602,-8.788519 -3.752796 0.642379,-8.795593 -3.031326 0.881378,-8.812372 -2.388453 1.067404,-9.105468 -5.027566 0.4871532,-9.115149 -3.939384 0.7171879,-9.125158 -3.258717 0.9149893,-9.128672 -2.659849 1.058798,-9.419546 -5.329008 0.5942511,-9.510647 -4.500769 0.7977228,-9.557683 -3.96153 0.9403433,-9.589453 -3.434385 1.04539,6.810,2  0
-3.273935 -7.055067 -2.562349,-3.864229 -7.190027 -1.915313,-4.254303 -6.798584 -1.375033,-4.45512 -6.289443 -0.9559943,-4.601632 -5.856865 -0.5524303,-4.085383 -6.312562 -0.9116659,-4.270323 -5.730028 -0.1251952,-4.436717 -5.41105 0.3495629,-4.630013 -5.131968 0.6241484,-3.670856 -6.211992 -0.9470484,-3.591595 -5.658931 -0.03315991,-3.591595 -5.658931 -0.03315991,-4.011806 -6.299921 0.397815,-3.268518 -6.255332 -0.9584696,-3.199362 -5.834062 -0.1436276,-3.358408 -6.312014 -0.04675215,-3.526281 -6.705595 -0.0851087,-2.931429 -6.450861 -0.9438311,-2.87311 -6.280656 -0.3320014,-3.014528 -6.635252 -0.1989579,-3.183475 -6.945358 -0.1965305,-9.00012 -7.401747 0.02366869,-8.487202 -7.09469 0.3521174,-8.065324 -6.473133 0.618897,-7.773814 -5.898462 0.8949434,-7.468723 -5.564338 1.187255,-8.470678 -5.017756 0.408418,-8.410542 -4.008575 0.659144,-8.411354 -3.407567 0.8612956,-8.42166 -2.882905 0.9908225,-8.798418 -4.905786 0.4601152,-8.787164 -3.744282 0.6999002,-8.796503 -3.025888 0.9387559,-8.816147 -2.395243 1.125156,-9.107602 -5.017745 0.5423726,-9.1153 -3.935835 0.7805065,-9.122426 -3.260184 0.9860985,-9.12219 -2.669354 1.136447,-9.421416 -5.322691 0.6525017,-9.511836 -4.501283 0.8684497,-9.557149 -3.96616 1.01921,-9.584947 -3.442705 1.136421,6.910,2  0
-3.758264 -6.650823 -3.156108,-4.129885 -6.567813 -2.604954,-4.299952 -6.193073 -2.076591,-4.395277 -5.886081 -1.698307,-4.466042 -5.771075 -1.32612,-4.069867 -6.406862 -1.423671,-4.0924 -6.104986 -0.7215122,-4.222937 -6.024969 -0.3032006,-4.351212 -5.94733 -0.04410017,-3.8118 -6.557956 -1.464184,-3.710497 -6.014532 -0.7035464,-3.710497 -6.014532 -0.7035464,-4.021558 -5.477066 -0.06801379,-3.564882 -6.638246 -1.531715,-3.402022 -6.171909 -0.9982537,-3.41804 -6.211785 -1.295651,-3.449866 -6.323426 -1.552343,-3.353357 -6.705778 -1.568819,-3.202673 -6.411857 -1.206702,-3.225464 -6.38878 -1.347432,-3.269169 -6.43944 -1.518413,-9.00998 -7.421669 0.06158973,-8.499198 -7.104097 0.3833147,-8.074423 -6.477843 0.6410079,-7.781996 -5.906072 0.9095197,-7.475305 -5.578067 1.190406,-8.484597 -5.022834 0.4223814,-8.42048 -4.018341 0.6566588,-8.410775 -3.417117 0.8497007,-8.413014 -2.89203 0.9719093,-8.811193 -4.909487 0.4683536,-8.804417 -3.750389 0.6934483,-8.811406 -3.033797 0.9274044,-8.830379 -2.408793 1.104157,-9.117676 -5.018714 0.545606,-9.134363 -3.940799 0.7670057,-9.1445 -3.268586 0.9637149,-9.146982 -2.682699 1.102479,-9.428209 -5.319047 0.6487156,-9.526814 -4.501969 0.8513627,-9.573983 -3.969676 0.9972163,-9.604783 -3.453147 1.102684,7.010,2  0
-3.576916 -6.648807 -2.433604,-4.045933 -6.79028 -1.775593,-4.337597 -6.525449 -1.175336,-4.51828 -6.256346 -0.7450133,-4.633375 -5.951804 -0.3718342,-4.194286 -6.838916 -0.4845287,-4.292723 -6.510454 0.3293932,-4.473675 -6.176017 0.7876933,-4.632702 -5.840379 1.090739,-3.800812 -6.810522 -0.5519211,-3.715097 -6.251815 0.1669622,-3.715097 -6.251815 0.1669622,-4.032626 -5.757503 0.5635679,-3.409805 -6.701862 -0.5945879,-3.28455 -6.135071 0.0378924,-3.37324 -6.148506 -0.1770827,-3.479546 -6.16642 -0.3428091,-3.051986 -6.605629 -0.6057563,-2.911316 -6.308694 -0.1352159,-3.000456 -6.290826 -0.2216534,-3.134617 -6.261201 -0.3110377,-9.024688 -7.440053 0.08677565,-8.51069 -7.120174 0.4080611,-8.087374 -6.493391 0.6655974,-7.792129 -5.92085 0.9384755,-7.475118 -5.586508 1.229862,-8.489635 -5.032043 0.4403246,-8.42236 -4.031066 0.6673949,-8.41453 -3.439316 0.8523031,-8.420864 -2.923719 0.9694822,-8.815327 -4.921073 0.4913595,-8.805228 -3.756941 0.7148816,-8.815234 -3.044111 0.9455422,-8.83647 -2.42513 1.118776,-9.121402 -5.034488 0.5757914,-9.140066 -3.960199 0.8047128,-9.151279 -3.285227 1.007321,-9.153568 -2.69708 1.150794,-9.43249 -5.343406 0.6858346,-9.531277 -4.535423 0.8993203,-9.57993 -4.005135 1.053115,-9.609526 -3.489435 1.164806,7.110,2  0
-3.263871 -7.235094 -2.153136,-3.863179 -7.181507 -1.540316,-4.268639 -6.777555 -0.9720803,-4.468094 -6.320331 -0.5183939,-4.583833 -5.944252 -0.08413643,-4.14115 -6.567058 -0.3415331,-4.33489 -5.971652 0.5163651,-4.429928 -6.016746 0.9331451,-4.493478 -6.188846 1.152454,-3.731984 -6.578117 -0.3430488,-3.752851 -5.807522 0.5624369,-3.752851 -5.807522 0.5624369,-4.169973 -6.087495 1.037651,-3.327857 -6.622024 -0.3241653,-3.303281 -5.958659 0.4517692,-3.437654 -6.2278 0.5075014,-3.564045 -6.594072 0.453517,-2.950807 -6.742333 -0.2809878,-2.893353 -6.361133 0.2934163,-3.026793 -6.610395 0.4038783,-3.173901 -6.925785 0.3953138,-9.036196 -7.457996 0.06512731,-8.532476 -7.121889 0.3599657,-8.112906 -6.483149 0.6148924,-7.819065 -5.907816 0.8833071,-7.50127 -5.583383 1.180923,-8.519547 -5.059291 0.3997928,-8.443449 -4.064611 0.6214388,-8.427424 -3.469701 0.8000808,-8.423944 -2.951766 0.9139447,-8.840967 -4.943561 0.4660133,-8.826598 -3.774274 0.6855186,-8.826726 -3.061932 0.9065044,-8.835978 -2.443476 1.068194,-9.144236 -5.04883 0.5614214,-9.158144 -3.956744 0.7830716,-9.161999 -3.275272 0.9816022,-9.155293 -2.679757 1.122013,-9.45533 -5.345033 0.6805586,-9.554804 -4.528116 0.8897398,-9.600328 -3.990182 1.044493,-9.625843 -3.46719 1.161354,7.210,2  0
-3.454292 -7.216938 -1.687961,-3.915573 -6.912048 -1.144288,-4.268813 -6.460155 -0.5615538,-4.482483 -6.20655 -0.1105787,-4.623455 -5.948455 0.4604943,-4.052588 -7.028303 0.3911088,-4.199554 -6.533882 1.259913,-4.430075 -6.135454 1.785543,-4.643146 -5.788642 2.086627,-3.69734 -7.302478 0.4110367,-3.613964 -6.221341 1.223385,-3.613964 -6.221341 1.223385,-3.718801 -5.470685 1.617761,-3.325334 -7.384908 0.4304256,-3.22613 -6.281587 1.185918,-3.303423 -6.05639 1.181457,-3.371952 -6.107135 1.103242,-2.963632 -7.364929 0.4649651,-2.828988 -6.47485 1.063317,-2.878795 -6.256492 1.176315,-2.953089 -6.268423 1.201736,-9.052148 -7.469285 0.04642518,-8.53793 -7.152776 0.3504664,-8.117546 -6.516244 0.5998345,-7.828777 -5.932573 0.8666735,-7.517267 -5.595644 1.149635,-8.529962 -5.069862 0.3815692,-8.461332 -4.065019 0.6034491,-8.452774 -3.46592 0.7866309,-8.458386 -2.947042 0.9014843,-8.851003 -4.959125 0.4370604,-8.846593 -3.786451 0.6527843,-8.85673 -3.06441 0.8828034,-8.87886 -2.434733 1.055939,-9.153538 -5.068445 0.5232399,-9.175364 -3.98167 0.7371131,-9.186648 -3.300245 0.9334061,-9.188642 -2.706537 1.074934,-9.462527 -5.36778 0.6349663,-9.570355 -4.541664 0.8338557,-9.62277 -4.003992 0.9860585,-9.655437 -3.479431 1.096503,7.310,2  0
-3.373515 -6.946599 -1.709674,-3.964929 -6.969126 -0.9871455,-4.348827 -6.648759 -0.2975308,-4.476564 -6.263032 0.2304041,-4.55757 -5.952924 0.7198025,-4.116028 -6.530305 0.373813,-4.246267 -5.890094 1.268981,-4.411247 -5.888251 1.638554,-4.53337 -6.058113 1.816675,-3.678107 -6.520256 0.3324734,-3.712807 -5.785432 1.319795,-3.712807 -5.785432 1.319795,-4.272152 -6.286439 1.788353,-3.25952 -6.549964 0.2913157,-3.270803 -5.96676 1.097597,-3.486254 -6.365041 1.016275,-3.670233 -6.823894 0.8840367,-2.890972 -6.690468 0.2951511,-2.858506 -6.368396 0.8687147,-3.041718 -6.651336 0.9029733,-3.231245 -6.991609 0.8431777,-9.061537 -7.479483 0.07814302,-8.549607 -7.162067 0.3805976,-8.131221 -6.529678 0.6316809,-7.845475 -5.943431 0.901624,-7.534966 -5.603071 1.184184,-8.534847 -5.078107 0.4165161,-8.461866 -4.069088 0.639008,-8.453561 -3.466421 0.8240756,-8.457408 -2.94378 0.9374257,-8.859321 -4.9608 0.4725436,-8.85002 -3.786353 0.6855333,-8.860752 -3.065837 0.9126315,-8.882005 -2.441854 1.084777,-9.165959 -5.06594 0.5581633,-9.179143 -3.972885 0.7672685,-9.189905 -3.284635 0.9615574,-9.194381 -2.690068 1.103914,-9.480706 -5.36251 0.6701285,-9.577899 -4.532876 0.8619065,-9.625254 -3.991532 1.008999,-9.658045 -3.467647 1.120058,7.410,2  0
-3.381308 -7.227337 -1.69434,-3.902437 -7.269142 -1.026248,-4.273359 -6.988252 -0.3235438,-4.35734 -6.762102 0.2865398,-4.382689 -6.424479 0.7862628,-4.289295 -6.504815 0.1171112,-4.368712 -6.339387 0.9978089,-4.298458 -6.882463 1.319165,-4.251589 -7.42581 1.452492,-3.859889 -6.38053 0.181339,-3.969626 -5.720518 1.317969,-3.969626 -5.720518 1.317969,-4.437929 -6.235239 2.201355,-3.419723 -6.312572 0.214965,-3.39031 -5.716959 1.094389,-3.523104 -6.365463 1.030536,-3.685392 -6.93034 0.8911808,-3.008259 -6.407541 0.2964575,-2.937104 -6.031538 0.9064748,-3.103733 -6.474004 0.9572649,-3.304926 -6.897552 0.9183719,-9.07764 -7.491422 0.07554169,-8.56753 -7.16928 0.3968837,-8.14471 -6.542386 0.6568847,-7.85983 -5.964054 0.928836,-7.555862 -5.628119 1.211885,-8.556292 -5.089929 0.4457826,-8.491974 -4.075265 0.6817779,-8.488056 -3.476458 0.8689543,-8.497476 -2.951519 0.9866472,-8.877909 -4.977696 0.4971296,-8.871305 -3.802645 0.72856,-8.882454 -3.084649 0.9623746,-8.906535 -2.45343 1.139443,-9.181882 -5.088886 0.579136,-9.201971 -3.999363 0.8032964,-9.214684 -3.319049 1.000619,-9.223085 -2.722172 1.148993,-9.495281 -5.391786 0.6869889,-9.599717 -4.571427 0.8924943,-9.651307 -4.036707 1.045745,-9.687759 -3.516578 1.159588,7.510,2  0
-3.390013 -7.16876 -1.847903,-3.951201 -7.159043 -1.060252,-4.287867 -6.884696 -0.3438336,-4.385853 -6.53499 0.2048869,-4.465055 -6.178836 0.7011242,-4.285641 -6.212928 -0.08323181,-4.384439 -5.673235 0.8169997,-4.470901 -5.544065 1.340117,-4.503645 -5.605153 1.656478,-3.804883 -6.096998 -0.1274709,-3.758464 -5.655126 0.9681087,-3.758464 -5.655126 0.9681087,-4.041876 -6.871149 1.558524,-3.32752 -6.174953 -0.170222,-3.245587 -5.883599 0.7487128,-3.426306 -6.640674 0.7095611,-3.626173 -7.16315 0.5869346,-2.91981 -6.374444 -0.1354948,-2.842261 -6.115104 0.517751,-3.009327 -6.626377 0.5186553,-3.197233 -6.979744 0.4347687,-9.086939 -7.49998 0.04711437,-8.577225 -7.186641 0.3700843,-8.153616 -6.552408 0.6289988,-7.865839 -5.973041 0.8961929,-7.555326 -5.65397 1.174413,-8.566367 -5.103937 0.4158967,-8.505404 -4.094444 0.6478254,-8.498497 -3.494972 0.8303828,-8.504028 -2.972778 0.9402657,-8.891376 -4.99369 0.4657209,-8.887887 -3.811082 0.6937041,-8.896002 -3.092707 0.9205155,-8.915353 -2.468954 1.091006,-9.197025 -5.105352 0.5450866,-9.217666 -4.011579 0.7703419,-9.229832 -3.323883 0.9630408,-9.235329 -2.726995 1.102981,-9.510413 -5.408239 0.6505368,-9.615735 -4.587692 0.855806,-9.670201 -4.052145 1.005565,-9.708138 -3.537993 1.119483,7.610,2  0
-3.676903 -6.729886 -2.731844,-4.090799 -6.649702 -1.944676,-4.327674 -6.437805 -1.331749,-4.43053 -6.141012 -0.9321663,-4.447151 -5.927967 -0.6039615,-4.169568 -6.872264 -0.7602206,-4.228206 -6.483467 0.04060549,-4.444015 -6.315141 0.5571074,-4.625765 -6.193748 0.9303753,-3.743121 -6.844391 -0.920018,-3.623898 -6.121319 -0.02159888,-3.623898 -6.121319 -0.02159888,-3.960215 -5.726816 1.076055,-3.357427 -6.699897 -1.131128,-3.288659 -5.994603 -0.5659896,-3.484379 -6.199176 -0.7605484,-3.651335 -6.567611 -0.9004834,-3.067587 -6.587531 -1.28296,-2.960338 -6.048179 -0.868255,-3.091959 -6.167592 -0.9135111,-3.218574 -6.468277 -0.9800503,-9.102062 -7.500328 0.03012295,-8.580265 -7.185514 0.3582974,-8.154855 -6.562782 0.6204045,-7.86618 -5.989509 0.8899403,-7.558692 -5.65595 1.168106,-8.572674 -5.111185 0.4003599,-8.513777 -4.098565 0.6412721,-8.508021 -3.500789 0.8297995,-8.51604 -2.972537 0.9392014,-8.896335 -4.999153 0.4448574,-8.891866 -3.824831 0.6686881,-8.89878 -3.109418 0.8979348,-8.91553 -2.475633 1.070114,-9.200954 -5.10621 0.5197072,-9.225529 -4.02261 0.7412952,-9.239953 -3.346075 0.9320214,-9.247185 -2.753728 1.070787,-9.513149 -5.402908 0.6212549,-9.622004 -4.588888 0.821079,-9.679075 -4.052322 0.9674842,-9.717875 -3.532398 1.073887,7.710,2  0
