TiagoOliveira98/Thesis-Project/Difficulty_1/Motor_Task/Unity_Project/DataLogging/JointData/Logs(1647315403)_cccc_Motor.csv
WRIST,THUMB_CMC,THUMB_MCP,THUMB_IP,THUMB_TIP,INDEX_FINGER_MCP,INDEX_FINGER_PIP,INDEX_FINGER_DIP,INDEX_FINGER_TIP,MIDDLE_FINGER_MCP,MIDDLE_FINGER_PIP,MIDDLE_FINGER_DIP,MIDDLE_FINGER_TIP,RING_FINGER_MCP,RING_FINGER_PIP,RING_FINGER_DIP,RING_FINGER_TIP,PINKY_MCP,PINKY_PIP,PINKY_DIP,PINKY_TIP,WRIST2,THUMB_CMC2,THUMB_MCP2,THUMB_IP2,THUMB_TIP2,INDEX_FINGER_MCP2,INDEX_FINGER_PIP2,INDEX_FINGER_DIP2,INDEX_FINGER_TIP2,MIDDLE_FINGER_MCP2,MIDDLE_FINGER_PIP2,MIDDLE_FINGER_DIP2,MIDDLE_FINGER_TIP2,RING_FINGER_MCP2,RING_FINGER_PIP2,RING_FINGER_DIP2,RING_FINGER_TIP2,PINKY_MCP2,PINKY_PIP2,PINKY_DIP2,PINKY_TIP2,Timestamp,Event
-2.079788 -7.792251 7.87266E-05,-2.734231 -7.62507 0.3365887,-3.350141 -7.067044 0.5605721,-3.813409 -6.500976 0.7873855,-4.211148 -6.195148 1.070383,-3.026564 -5.282785 0.2600358,-3.32837 -4.218612 0.4983202,-3.498081 -3.562618 0.6760397,-3.62657 -2.960564 0.8167482,-2.683723 -4.977851 0.3026781,-2.910903 -3.734264 0.4846342,-2.910903 -3.734264 0.4846342,-3.140582 -2.202631 0.8561133,-2.316277 -4.960819 0.3955156,-2.42733 -3.778167 0.5903109,-2.503885 -2.995264 0.804184,-2.593042 -2.334949 0.9936113,-1.922486 -5.190729 0.5273733,-1.825482 -4.304965 0.7288283,-1.767133 -3.731033 0.9051607,-1.733852 -3.208692 1.063493,-8.683568 -7.71371 0.0006076662,-8.060816 -7.425712 0.3133867,-7.527288 -6.743499 0.5608334,-7.111311 -6.132804 0.8319504,-6.709849 -5.871127 1.122179,-7.864249 -4.957717 0.3711595,-7.690971 -3.790899 0.5819067,-7.630599 -3.081878 0.7662799,-7.590414 -2.464767 0.8857834,-8.226692 -4.756175 0.4315829,-8.092087 -3.372753 0.6601345,-8.019182 -2.545 0.9086649,-7.9657 -1.819828 1.087772,-8.584801 -4.828205 0.5162783,-8.514767 -3.547512 0.7623368,-8.458414 -2.755083 0.9834129,-8.39471 -2.053859 1.134064,-8.953469 -5.126552 0.621371,-9.022988 -4.178594 0.8777122,-9.042725 -3.553442 1.052838,-9.036995 -2.941038 1.170922,0.010,37  0
-2.07597 -7.797453 0.03877499,-2.72582 -7.62112 0.3687656,-3.339509 -7.076015 0.5831198,-3.792169 -6.505739 0.7991621,-4.168275 -6.180298 1.068332,-3.023331 -5.281152 0.291007,-3.332466 -4.213286 0.5251719,-3.505703 -3.549069 0.6973589,-3.637617 -2.943828 0.8366692,-2.678863 -4.970774 0.3352416,-2.910277 -3.724382 0.5055019,-2.910277 -3.724382 0.5055019,-3.145323 -2.184911 0.8667423,-2.309451 -4.957226 0.4279324,-2.418019 -3.763654 0.6121365,-2.489951 -2.963647 0.8285889,-2.578167 -2.295993 1.026062,-1.915132 -5.193074 0.560041,-1.815493 -4.29927 0.7544706,-1.756295 -3.715699 0.9367456,-1.724403 -3.189233 1.098601,-8.680878 -7.682108 -0.04154662,-8.055079 -7.399765 0.2629297,-7.52192 -6.72999 0.5148625,-7.108288 -6.123868 0.7924592,-6.714983 -5.861143 1.088871,-7.857459 -4.936288 0.3213731,-7.69228 -3.759209 0.5379464,-7.638864 -3.050139 0.7319921,-7.602498 -2.436453 0.856568,-8.222789 -4.736254 0.383721,-8.08721 -3.357149 0.6063154,-8.014653 -2.532485 0.8454471,-7.958535 -1.815171 1.014428,-8.583236 -4.810009 0.4678146,-8.512707 -3.529342 0.7060363,-8.459351 -2.743791 0.9146653,-8.398902 -2.046889 1.055604,-8.951623 -5.111185 0.5746702,-9.024467 -4.157547 0.8174357,-9.046261 -3.533479 0.9786767,-9.043871 -2.919871 1.083844,0.110,37  0
-2.112514 -7.796594 0.04898165,-2.76992 -7.583123 0.3667403,-3.355402 -7.033514 0.5880142,-3.798527 -6.467136 0.8160994,-4.191431 -6.156717 1.117559,-3.037365 -5.244108 0.2455187,-3.326246 -4.199447 0.4608042,-3.490141 -3.552401 0.643024,-3.619828 -2.950226 0.7961656,-2.693591 -4.957074 0.288839,-2.909546 -3.73059 0.4392342,-2.909546 -3.73059 0.4392342,-3.128696 -2.255308 0.7889337,-2.324588 -4.958257 0.3877827,-2.420247 -3.768795 0.5687606,-2.483332 -2.986169 0.7836697,-2.564644 -2.322967 0.9714119,-1.933514 -5.212995 0.5218111,-1.821726 -4.330892 0.7142818,-1.752186 -3.735074 0.8906214,-1.709447 -3.184293 1.039521,-8.689955 -7.703815 0.01079138,-8.051252 -7.396921 0.3334982,-7.516492 -6.742696 0.5912575,-7.110138 -6.133255 0.8734305,-6.728617 -5.853876 1.173323,-7.864552 -4.93331 0.350799,-7.695519 -3.764351 0.5560465,-7.63393 -3.054395 0.7475532,-7.59159 -2.438016 0.8686345,-8.23212 -4.736772 0.3929773,-8.10537 -3.369314 0.6026999,-8.027147 -2.556695 0.8440229,-7.967922 -1.840225 1.015181,-8.594273 -4.819103 0.4643238,-8.531516 -3.548841 0.6877797,-8.467391 -2.767025 0.8993218,-8.395949 -2.079421 1.042141,-8.968518 -5.128067 0.556578,-9.038534 -4.184618 0.7898055,-9.040994 -3.559817 0.9617455,-9.01355 -2.955118 1.071463,0.210,37  0
-2.115131 -7.791919 -0.03795412,-2.778779 -7.583324 0.3047113,-3.366673 -7.031538 0.5290011,-3.817377 -6.446517 0.7475841,-4.206249 -6.114381 1.02529,-3.030484 -5.267197 0.2005187,-3.307566 -4.202646 0.4101305,-3.452215 -3.550606 0.5878544,-3.564306 -2.953382 0.7377748,-2.68345 -4.976264 0.2136812,-2.889706 -3.7369 0.3693012,-2.889706 -3.7369 0.3693012,-3.090313 -2.264387 0.700583,-2.313267 -4.973209 0.2846261,-2.411511 -3.779477 0.4637064,-2.477652 -2.993738 0.6680539,-2.564256 -2.333845 0.8484292,-1.919672 -5.230072 0.3909715,-1.809346 -4.349617 0.576396,-1.741589 -3.760924 0.7518398,-1.701908 -3.220842 0.9027702,-8.695683 -7.696676 -0.007552767,-8.064056 -7.379814 0.3041708,-7.52889 -6.726205 0.5564797,-7.119197 -6.123334 0.8347604,-6.733867 -5.849199 1.130442,-7.861009 -4.931346 0.3312449,-7.687 -3.769646 0.5411676,-7.625835 -3.063514 0.7334316,-7.582088 -2.443469 0.8516728,-8.227968 -4.737584 0.3829358,-8.097673 -3.36333 0.5964302,-8.022674 -2.54924 0.8351508,-7.961597 -1.828771 0.9987864,-8.590032 -4.819128 0.4618181,-8.528266 -3.53651 0.6904046,-8.470668 -2.757943 0.9044271,-8.402831 -2.068204 1.045253,-8.96327 -5.124329 0.5622426,-9.032404 -4.183223 0.7992691,-9.043087 -3.556514 0.9687468,-9.026689 -2.946142 1.075263,0.310,37  0
-2.078127 -7.79544 -0.01739199,-2.737171 -7.627212 0.3278747,-3.334907 -7.101192 0.5557857,-3.776815 -6.530916 0.7800074,-4.142413 -6.162969 1.055675,-3.021656 -5.303417 0.20745,-3.303627 -4.270305 0.4573854,-3.445067 -3.645081 0.657856,-3.553132 -3.066255 0.8137953,-2.674734 -4.981184 0.2517326,-2.874559 -3.746105 0.4205172,-2.874559 -3.746105 0.4205172,-3.071711 -2.252923 0.7955821,-2.304995 -4.96882 0.3605618,-2.391042 -3.761677 0.5542243,-2.457401 -2.980644 0.7878609,-2.542862 -2.324909 0.9897785,-1.90682 -5.221332 0.5056948,-1.792488 -4.328958 0.6989288,-1.739233 -3.746067 0.8807316,-1.71854 -3.222223 1.0372,-8.724222 -7.703031 -0.07142574,-8.086578 -7.417528 0.2686751,-7.548853 -6.756248 0.5249892,-7.135077 -6.127822 0.7945354,-6.739532 -5.8474 1.080084,-7.880198 -4.977846 0.3155211,-7.706556 -3.794921 0.5289193,-7.647078 -3.074499 0.720293,-7.607388 -2.457695 0.8432241,-8.243766 -4.767783 0.3419656,-8.108862 -3.376571 0.5770931,-8.035465 -2.549198 0.8292422,-7.978581 -1.815367 1.01371,-8.602631 -4.829126 0.3957979,-8.528172 -3.54588 0.6339756,-8.469752 -2.762269 0.8398423,-8.406378 -2.075239 0.9813734,-8.975783 -5.111456 0.4712695,-9.048326 -4.1745 0.7020241,-9.07122 -3.565731 0.8591502,-9.069228 -2.976107 0.9655809,0.410,37  0
-2.102074 -7.828159 0.03593401,-2.748276 -7.637819 0.3837219,-3.334038 -7.128806 0.6178155,-3.758575 -6.557649 0.8529959,-4.109674 -6.167459 1.137754,-3.017107 -5.29173 0.2435083,-3.292924 -4.238688 0.4994117,-3.447404 -3.604773 0.7102935,-3.570016 -3.022244 0.8658646,-2.671723 -4.99149 0.2916893,-2.864389 -3.741279 0.4644655,-2.864389 -3.741279 0.4644655,-3.068993 -2.248724 0.8416309,-2.299648 -4.991186 0.3991801,-2.37903 -3.781016 0.5902144,-2.439134 -3.003763 0.816465,-2.518251 -2.358869 1.011418,-1.902522 -5.243011 0.5501598,-1.776518 -4.342189 0.7401588,-1.712296 -3.746904 0.9261704,-1.678054 -3.204026 1.081314,-8.714281 -7.722602 -0.07402185,-8.084247 -7.438705 0.2870252,-7.549403 -6.772542 0.5669405,-7.137394 -6.144075 0.8606173,-6.738401 -5.852952 1.171873,-7.884562 -4.999 0.3653845,-7.717621 -3.808853 0.6072542,-7.662357 -3.085936 0.8136309,-7.625804 -2.46153 0.9457632,-8.251355 -4.794666 0.4012479,-8.119039 -3.401145 0.6590487,-8.046409 -2.566133 0.9238877,-7.993402 -1.831042 1.115931,-8.61312 -4.856339 0.4648914,-8.538611 -3.565643 0.7315127,-8.479677 -2.772174 0.9519701,-8.417606 -2.077275 1.102536,-8.98986 -5.140062 0.5518311,-9.061766 -4.192604 0.8014388,-9.085467 -3.576369 0.9640642,-9.085421 -2.975121 1.071184,0.510,37  0
-2.075762 -7.896497 0.1544912,-2.724524 -7.713893 0.4959663,-3.309943 -7.174629 0.7185768,-3.725832 -6.573938 0.9380991,-4.070826 -6.15465 1.20674,-2.990684 -5.330637 0.3533476,-3.275251 -4.301266 0.5846218,-3.422882 -3.666146 0.7716123,-3.530464 -3.066173 0.9188271,-2.642567 -5.023662 0.3989727,-2.830432 -3.770284 0.5560914,-2.830432 -3.770284 0.5560914,-3.010284 -2.271322 0.937939,-2.272693 -5.022974 0.5077146,-2.338207 -3.814384 0.6883312,-2.391103 -3.029967 0.9289421,-2.457341 -2.36924 1.14376,-1.882887 -5.283622 0.6557452,-1.757394 -4.390411 0.8381409,-1.693274 -3.791018 1.027433,-1.660068 -3.250324 1.191633,-8.723213 -7.744043 -0.102509,-8.095527 -7.447561 0.2770375,-7.563595 -6.782592 0.5568863,-7.152306 -6.160154 0.8472109,-6.755976 -5.866814 1.153759,-7.904481 -5.020368 0.3462879,-7.737782 -3.848258 0.6012238,-7.683323 -3.134245 0.8191029,-7.650402 -2.505723 0.9598721,-8.276649 -4.822077 0.373997,-8.153153 -3.446469 0.6321262,-8.09188 -2.61189 0.906405,-8.05119 -1.864548 1.113836,-8.642059 -4.892262 0.4342151,-8.576119 -3.618917 0.7004688,-8.528863 -2.835927 0.9248847,-8.481294 -2.144266 1.083633,-9.023054 -5.182775 0.5190639,-9.097968 -4.254892 0.7722983,-9.128008 -3.650954 0.9379671,-9.135586 -3.055478 1.052989,0.610,37  0
-2.085061 -7.935308 0.1617991,-2.727554 -7.716579 0.5145037,-3.302273 -7.161228 0.7429002,-3.709454 -6.566436 0.9678861,-4.049297 -6.166996 1.248022,-2.9729 -5.351081 0.3986098,-3.259671 -4.306463 0.6498522,-3.40811 -3.665883 0.8458558,-3.519009 -3.069251 0.9980853,-2.621114 -5.057597 0.4410056,-2.809782 -3.777969 0.6094677,-2.809782 -3.777969 0.6094677,-2.995539 -2.26287 0.9917062,-2.249223 -5.064022 0.5466446,-2.309774 -3.831179 0.7366213,-2.365475 -3.037593 0.9767926,-2.438945 -2.377069 1.187738,-1.859724 -5.327058 0.6917275,-1.730825 -4.417057 0.8821146,-1.667594 -3.810548 1.075199,-1.636495 -3.263722 1.239881,-8.719155 -7.74526 -0.1116246,-8.096661 -7.451421 0.2697345,-7.571505 -6.793443 0.5501949,-7.170502 -6.167799 0.8404458,-6.780517 -5.876413 1.1464,-7.913463 -5.025266 0.3319204,-7.744473 -3.856599 0.5929207,-7.689929 -3.148525 0.8077588,-7.658065 -2.521532 0.9414408,-8.286481 -4.824295 0.3672418,-8.165806 -3.447992 0.6236348,-8.107444 -2.611636 0.8963794,-8.070636 -1.869396 1.098148,-8.651994 -4.896093 0.4375372,-8.591162 -3.624903 0.7123353,-8.547455 -2.840102 0.9458295,-8.500257 -2.146834 1.106309,-9.031348 -5.191226 0.5332469,-9.111042 -4.261788 0.8015002,-9.143318 -3.649786 0.9802731,-9.148944 -3.046125 1.100592,0.710,37  0
-2.049236 -7.944688 0.1568395,-2.682806 -7.731031 0.5291824,-3.262633 -7.183599 0.7711941,-3.669626 -6.578128 1.010025,-4.015733 -6.173988 1.301632,-2.941658 -5.376037 0.4208686,-3.242001 -4.342288 0.6780192,-3.399128 -3.724901 0.8666937,-3.520405 -3.140699 1.009492,-2.583213 -5.070113 0.4566054,-2.779621 -3.800453 0.6288404,-2.779621 -3.800453 0.6288404,-2.970341 -2.290276 1.003071,-2.209895 -5.071954 0.5577753,-2.263171 -3.868009 0.7519814,-2.304996 -3.089588 1.005134,-2.366933 -2.422935 1.227184,-1.822713 -5.333978 0.6972547,-1.70183 -4.433244 0.8919349,-1.634316 -3.841353 1.096954,-1.600539 -3.293344 1.274096,-8.714739 -7.711971 -0.140426,-8.100043 -7.405311 0.2359495,-7.587982 -6.725996 0.5296007,-7.209856 -6.101583 0.83652,-6.828539 -5.795331 1.158277,-7.942417 -4.994422 0.3503547,-7.788705 -3.820037 0.6425196,-7.746828 -3.122683 0.8767548,-7.725594 -2.479025 1.034782,-8.324161 -4.805255 0.4054307,-8.224859 -3.430011 0.6988105,-8.180428 -2.589787 0.9979333,-8.157197 -1.840445 1.227859,-8.691381 -4.884315 0.4924259,-8.651073 -3.61599 0.7985651,-8.617743 -2.831244 1.061616,-8.580347 -2.131553 1.251614,-9.068188 -5.18407 0.601249,-9.157442 -4.25308 0.8979605,-9.195686 -3.641789 1.096114,-9.210743 -3.02996 1.236164,0.810,37  0
-2.033524 -7.972484 0.1850355,-2.660881 -7.763291 0.5589632,-3.239967 -7.188932 0.7925572,-3.654045 -6.576293 1.024623,-3.993765 -6.156564 1.312461,-2.915053 -5.387638 0.4290592,-3.211084 -4.353204 0.681081,-3.369078 -3.730896 0.8672004,-3.486942 -3.135738 1.01,-2.559633 -5.085876 0.4608504,-2.748147 -3.807849 0.6375175,-2.748147 -3.807849 0.6375175,-2.930962 -2.306105 0.9957974,-2.191473 -5.087612 0.5638417,-2.252645 -3.865504 0.7633373,-2.308895 -3.086431 1.0118,-2.380979 -2.422004 1.225562,-1.807883 -5.355281 0.7057379,-1.681133 -4.457044 0.9058065,-1.614782 -3.860182 1.107798,-1.581266 -3.306194 1.275571,-8.750959 -7.636341 -0.1673958,-8.134423 -7.31435 0.1962711,-7.615726 -6.637612 0.4698129,-7.233541 -6.031783 0.7661154,-6.846907 -5.713768 1.070485,-7.97653 -4.909657 0.2530837,-7.823075 -3.744282 0.5185124,-7.778164 -3.05497 0.7382911,-7.755523 -2.431541 0.8833318,-8.360695 -4.72483 0.3061373,-8.280247 -3.37868 0.5598173,-8.25305 -2.580695 0.8286852,-8.242124 -1.882699 1.026555,-8.723973 -4.800342 0.3924596,-8.69165 -3.549045 0.6720373,-8.670778 -2.792963 0.9109759,-8.639095 -2.115654 1.076453,-9.095329 -5.090692 0.5037897,-9.185241 -4.176776 0.7672784,-9.226709 -3.578051 0.9333081,-9.240957 -2.977496 1.048542,0.910,37  0
-2.000341 -7.974645 -0.03699088,-2.645784 -7.752258 0.3053821,-3.215074 -7.211646 0.5259953,-3.616679 -6.604193 0.7487674,-3.942289 -6.182361 1.023509,-2.878743 -5.421985 0.1697572,-3.175451 -4.351223 0.4041356,-3.328932 -3.723385 0.5783593,-3.435246 -3.117485 0.7109736,-2.52627 -5.150009 0.2084642,-2.717577 -3.865173 0.3936957,-2.717577 -3.865173 0.3936957,-2.878023 -2.386384 0.7602662,-2.163661 -5.160648 0.3189273,-2.237773 -3.950549 0.5076483,-2.3016 -3.194105 0.7538214,-2.370889 -2.548075 0.9640732,-1.785164 -5.414627 0.4661458,-1.678573 -4.507598 0.6550234,-1.636355 -3.933943 0.8523141,-1.62518 -3.394971 1.020464,-8.767904 -7.484371 -0.1972844,-8.155049 -7.159002 0.139008,-7.630678 -6.454855 0.3969777,-7.248336 -5.850173 0.6847888,-6.861082 -5.532312 0.9819231,-8.010089 -4.733535 0.1548188,-7.847915 -3.582067 0.3859831,-7.792918 -2.906662 0.5779403,-7.760215 -2.297575 0.7078041,-8.397795 -4.57028 0.2195054,-8.330461 -3.307496 0.4386197,-8.323604 -2.573909 0.6751336,-8.335134 -1.965022 0.8439608,-8.75905 -4.646799 0.3243587,-8.734363 -3.469138 0.5680308,-8.729819 -2.756223 0.7784257,-8.715906 -2.13672 0.9188648,-9.126054 -4.930089 0.4560087,-9.205698 -4.04612 0.6821899,-9.248239 -3.471333 0.8216728,-9.267218 -2.902077 0.9163085,1.010,37  0
-1.953683 -8.033091 -0.03520132,-2.592903 -7.827081 0.3321366,-3.16254 -7.269893 0.5623515,-3.56354 -6.650646 0.7943932,-3.909741 -6.211378 1.088422,-2.854361 -5.487382 0.1893905,-3.14957 -4.43781 0.4203774,-3.312531 -3.814648 0.5921201,-3.43536 -3.222917 0.7220545,-2.502009 -5.212293 0.2120219,-2.694048 -3.968235 0.3840763,-2.694048 -3.968235 0.3840763,-2.86415 -2.518051 0.7131426,-2.136246 -5.225002 0.3054439,-2.209127 -4.046436 0.4805921,-2.272905 -3.304698 0.7132655,-2.346387 -2.668586 0.9125216,-1.758493 -5.48267 0.4422652,-1.662819 -4.601322 0.6257033,-1.624382 -4.029419 0.8236308,-1.614332 -3.492019 0.988071,-8.789984 -7.381929 -0.4277997,-8.172904 -7.094388 -0.07385501,-7.654284 -6.410086 0.1942652,-7.281851 -5.806509 0.4746293,-6.902309 -5.465586 0.7619312,-8.051767 -4.702144 -0.02703321,-7.891992 -3.561752 0.2265418,-7.851818 -2.918065 0.4216358,-7.840687 -2.322604 0.5575753,-8.440252 -4.538764 0.03060821,-8.383074 -3.308783 0.2728779,-8.399725 -2.621489 0.5169157,-8.446639 -2.065997 0.7001381,-8.804147 -4.624637 0.1319356,-8.783471 -3.4657 0.3929803,-8.793019 -2.784829 0.618889,-8.806142 -2.204631 0.7792044,-9.17647 -4.916172 0.2566262,-9.250085 -4.050028 0.4973956,-9.291769 -3.490821 0.6573143,-9.317776 -2.940841 0.7880936,1.110,37  0
-1.923353 -8.098877 -0.009982822,-2.562048 -7.888887 0.3521805,-3.13244 -7.316362 0.5744458,-3.53828 -6.679321 0.801618,-3.900438 -6.233306 1.091866,-2.82534 -5.546354 0.2116567,-3.12178 -4.503794 0.4412081,-3.283124 -3.873491 0.6024288,-3.398903 -3.274929 0.7292867,-2.471322 -5.270317 0.2335235,-2.667872 -4.036898 0.4036464,-2.667872 -4.036898 0.4036464,-2.842743 -2.597393 0.711597,-2.104566 -5.283578 0.3258266,-2.17912 -4.102871 0.5024351,-2.25326 -3.357393 0.7359597,-2.333415 -2.720391 0.930388,-1.72409 -5.546765 0.4610799,-1.63534 -4.659926 0.6530057,-1.60431 -4.081884 0.8609651,-1.598559 -3.539299 1.03038,-8.802128 -7.371549 -0.5004834,-8.207124 -7.095953 -0.1005094,-7.706517 -6.426391 0.1962482,-7.33873 -5.843179 0.491998,-6.944011 -5.50352 0.801736,-8.095181 -4.712165 -0.04093957,-7.931721 -3.549196 0.2271394,-7.889874 -2.895224 0.4265293,-7.880888 -2.288461 0.5620317,-8.481456 -4.554904 0.008934438,-8.425768 -3.344566 0.2740549,-8.444948 -2.664548 0.5355089,-8.494536 -2.108402 0.7265923,-8.845176 -4.654466 0.1059915,-8.82692 -3.513693 0.38911,-8.843921 -2.81689 0.6420946,-8.864779 -2.218994 0.8241477,-9.21572 -4.961358 0.2287236,-9.289622 -4.092599 0.4983053,-9.33205 -3.526884 0.6848729,-9.359565 -2.973339 0.8399398,1.210,37  0
-1.863988 -8.160219 0.0648452,-2.483397 -7.949069 0.3952684,-3.027927 -7.356166 0.5903749,-3.388002 -6.733604 0.7907674,-3.73012 -6.338037 1.034592,-2.70323 -5.549938 0.2645649,-2.984996 -4.503883 0.4752263,-3.148558 -3.885418 0.623291,-3.282736 -3.287946 0.7445646,-2.345742 -5.297525 0.3041742,-2.517451 -4.0698 0.4866868,-2.517451 -4.0698 0.4866868,-2.655739 -2.653257 0.8136798,-1.985747 -5.333012 0.4064517,-2.05498 -4.177219 0.5814654,-2.109526 -3.458758 0.8148168,-2.173203 -2.849006 1.008215,-1.61305 -5.606753 0.5522679,-1.519563 -4.720507 0.7367513,-1.482506 -4.155767 0.940474,-1.474644 -3.643007 1.112075,-8.872022 -7.318302 -0.6350166,-8.275484 -7.051389 -0.2616101,-7.785141 -6.372201 0.01974183,-7.431231 -5.788707 0.3143228,-7.045542 -5.453644 0.6228429,-8.18733 -4.681757 -0.2506154,-8.052064 -3.536526 0.01398218,-8.022573 -2.875751 0.2197204,-8.019665 -2.282685 0.359637,-8.56592 -4.528214 -0.1903127,-8.526788 -3.316107 0.05988359,-8.560078 -2.618522 0.3088282,-8.622109 -2.03937 0.5006783,-8.923268 -4.623163 -0.08215779,-8.911437 -3.482031 0.1848696,-8.947016 -2.787647 0.4298004,-8.986187 -2.192271 0.608124,-9.295428 -4.926181 0.05148923,-9.374262 -4.057885 0.3001959,-9.4363 -3.495216 0.4798642,-9.487353 -2.945793 0.637974,1.310,37  0
-1.801842 -8.148966 -0.03158424,-2.423635 -7.941738 0.2631611,-2.973941 -7.355649 0.4193568,-3.34294 -6.73036 0.5776113,-3.671969 -6.328859 0.7717506,-2.642896 -5.564786 0.07110279,-2.926506 -4.50876 0.2322029,-3.077924 -3.881447 0.3501674,-3.190275 -3.281724 0.446959,-2.283219 -5.307539 0.1070609,-2.444327 -4.056388 0.2468815,-2.444327 -4.056388 0.2468815,-2.556571 -2.640202 0.531077,-1.927614 -5.324049 0.2129468,-1.99626 -4.150424 0.3658695,-2.053754 -3.417564 0.5867632,-2.118393 -2.8012 0.763856,-1.557407 -5.573911 0.3574655,-1.454869 -4.689905 0.5229075,-1.414735 -4.139167 0.71206,-1.404382 -3.638839 0.8743106,-8.899254 -7.254772 -0.6064939,-8.311932 -6.983154 -0.2045422,-7.82515 -6.289741 0.07748532,-7.479755 -5.680428 0.362466,-7.096803 -5.319168 0.6537868,-8.239379 -4.610092 -0.1725981,-8.110777 -3.469606 0.110452,-8.082931 -2.807411 0.327464,-8.084352 -2.20986 0.4749825,-8.615732 -4.458524 -0.1340697,-8.586381 -3.23516 0.1271358,-8.626858 -2.541431 0.3775592,-8.697245 -1.954975 0.5701271,-8.967533 -4.547579 -0.04466385,-8.967586 -3.40644 0.2299638,-9.010384 -2.723258 0.4711894,-9.062575 -2.135775 0.6493028,-9.331778 -4.837407 0.07259363,-9.411553 -3.976674 0.3187215,-9.478883 -3.419389 0.4955608,-9.537826 -2.873327 0.6515862,1.410,37  0
-1.664833 -8.205322 0.07022831,-2.272561 -7.958327 0.498063,-2.801673 -7.350145 0.7382139,-3.157265 -6.696756 0.9757193,-3.480808 -6.237844 1.260756,-2.494034 -5.573987 0.2644575,-2.757423 -4.490682 0.4348716,-2.890113 -3.842 0.5841836,-2.976541 -3.226673 0.7131678,-2.132337 -5.333025 0.2257353,-2.26808 -4.067981 0.3386044,-2.26808 -4.067981 0.3386044,-2.363788 -2.615399 0.6740136,-1.778277 -5.35537 0.2712474,-1.817828 -4.188161 0.3833267,-1.871828 -3.452098 0.6202073,-1.931099 -2.818295 0.821408,-1.418538 -5.614825 0.3651095,-1.318963 -4.721529 0.5033693,-1.280969 -4.175482 0.6843196,-1.272312 -3.672884 0.8497691,-8.932367 -7.237264 -0.5698567,-8.343312 -6.956498 -0.1810963,-7.856719 -6.233961 0.09650201,-7.510481 -5.609298 0.3829639,-7.127948 -5.232683 0.6728066,-8.306412 -4.552536 -0.1832281,-8.184242 -3.375924 0.07874674,-8.161342 -2.702339 0.2824476,-8.166373 -2.10403 0.4177541,-8.688688 -4.420141 -0.1376541,-8.681095 -3.19452 0.1125613,-8.739826 -2.506888 0.370757,-8.826829 -1.940122 0.5685394,-9.0409 -4.525867 -0.04387087,-9.054472 -3.375183 0.2228212,-9.10734 -2.687421 0.4735819,-9.165722 -2.099949 0.6532556,-9.39973 -4.83872 0.07454574,-9.495163 -3.965566 0.3135831,-9.570587 -3.412225 0.4895499,-9.641153 -2.872967 0.6406645,1.510,37  0
-1.620087 -8.203709 0.0459074,-2.226739 -7.976882 0.4786283,-2.749298 -7.381996 0.7208577,-3.104076 -6.726355 0.9570555,-3.440807 -6.282641 1.2436,-2.456192 -5.591644 0.2634819,-2.733971 -4.518264 0.4407248,-2.86817 -3.867361 0.6006458,-2.955548 -3.24292 0.7415966,-2.091864 -5.340492 0.2246982,-2.235216 -4.080633 0.3468886,-2.235216 -4.080633 0.3468886,-2.321714 -2.63396 0.6944413,-1.736414 -5.358364 0.2657269,-1.76938 -4.196531 0.3858938,-1.816198 -3.469455 0.6246284,-1.870568 -2.836345 0.8268872,-1.375771 -5.617198 0.3586788,-1.267175 -4.739049 0.4984599,-1.220835 -4.202013 0.6724411,-1.201256 -3.697823 0.8377484,-8.985148 -7.22664 -0.566718,-8.395874 -6.946876 -0.1560288,-7.908262 -6.227739 0.1392072,-7.569186 -5.600997 0.4346039,-7.18375 -5.214614 0.7359406,-8.328345 -4.56739 -0.1115144,-8.20617 -3.400039 0.1820892,-8.189543 -2.738657 0.3949743,-8.208225 -2.14995 0.5312998,-8.714677 -4.422969 -0.06309533,-8.7073 -3.200668 0.222709,-8.776616 -2.529241 0.4870818,-8.882145 -1.981512 0.6917551,-9.074856 -4.52597 0.03614306,-9.093354 -3.374203 0.3348516,-9.152262 -2.699932 0.58925,-9.223355 -2.127045 0.7749369,-9.445973 -4.839372 0.1613304,-9.531964 -3.966863 0.429912,-9.603282 -3.424531 0.6213109,-9.674813 -2.897103 0.79642,1.610,37  0
-1.528043 -8.186153 -0.04743971,-2.124718 -7.942873 0.3788184,-2.639166 -7.358887 0.6346928,-2.991398 -6.712736 0.8913029,-3.329659 -6.267019 1.199785,-2.366593 -5.598948 0.1952125,-2.635137 -4.539354 0.3850942,-2.758387 -3.889982 0.554426,-2.833795 -3.260557 0.6993196,-2.004798 -5.353424 0.1685502,-2.140317 -4.103796 0.2941267,-2.140317 -4.103796 0.2941267,-2.188348 -2.673499 0.6603361,-1.652431 -5.368345 0.2161351,-1.67771 -4.220074 0.346761,-1.70059 -3.499033 0.590854,-1.729739 -2.858945 0.7940971,-1.294695 -5.614854 0.3144706,-1.186968 -4.746119 0.4623634,-1.125686 -4.219215 0.6291161,-1.089086 -3.714893 0.7849863,-9.082364 -7.220552 -0.5668893,-8.491089 -6.941539 -0.1741765,-8.016553 -6.215725 0.1120138,-7.685593 -5.578374 0.40056,-7.292066 -5.196678 0.695014,-8.471208 -4.533608 -0.1947899,-8.363573 -3.379564 0.06692535,-8.355769 -2.732424 0.2533433,-8.382015 -2.151927 0.3717038,-8.842365 -4.400955 -0.143651,-8.845914 -3.194015 0.09638125,-8.912936 -2.537426 0.3326496,-9.0187 -2.004283 0.5222812,-9.192637 -4.511108 -0.03795141,-9.222046 -3.361354 0.2256115,-9.289213 -2.69882 0.4656973,-9.372616 -2.142525 0.6434976,-9.555363 -4.838027 0.09535104,-9.654978 -3.96126 0.3346554,-9.732044 -3.416214 0.5229198,-9.815008 -2.890405 0.6983864,1.710,37  0
-1.49688 -8.213463 0.003295412,-2.069046 -7.991584 0.4801544,-2.57357 -7.387352 0.7511876,-2.914711 -6.727686 1.019034,-3.263284 -6.288549 1.335768,-2.304164 -5.605896 0.2794494,-2.560046 -4.561141 0.4830391,-2.687194 -3.918841 0.6634762,-2.765745 -3.297012 0.8144704,-1.944379 -5.362251 0.2320014,-2.066072 -4.152349 0.3716655,-2.066072 -4.152349 0.3716655,-2.115914 -2.713156 0.7416211,-1.594913 -5.382932 0.2634962,-1.611898 -4.270913 0.393598,-1.630779 -3.560733 0.6397508,-1.648341 -2.908187 0.8428757,-1.241778 -5.641061 0.350882,-1.135057 -4.794185 0.501111,-1.070471 -4.266522 0.6734902,-1.026066 -3.747862 0.8329898,-9.094893 -7.284177 -0.6193656,-8.517256 -7.009891 -0.2284091,-8.038917 -6.305027 0.05687827,-7.705979 -5.669308 0.3357465,-7.338988 -5.277654 0.6190007,-8.506467 -4.61044 -0.2458489,-8.394854 -3.449192 0.008860946,-8.396344 -2.798503 0.2082713,-8.426942 -2.212581 0.3370967,-8.882011 -4.474834 -0.2148284,-8.892385 -3.275529 0.01988447,-8.967796 -2.616098 0.2545691,-9.072837 -2.085945 0.4430573,-9.232472 -4.583081 -0.1301232,-9.269597 -3.442265 0.1077211,-9.341784 -2.76766 0.3273598,-9.42627 -2.211124 0.4935842,-9.590668 -4.91038 -0.02128166,-9.701201 -4.041723 0.1894752,-9.782748 -3.49388 0.3567852,-9.865065 -2.976361 0.5055441,1.810,37  0
-1.455511 -8.204363 -0.04403441,-2.028212 -7.999371 0.434596,-2.529813 -7.402421 0.7049496,-2.868348 -6.743093 0.9656186,-3.226362 -6.311954 1.279691,-2.269615 -5.618282 0.2418209,-2.516403 -4.578887 0.4456555,-2.635231 -3.933664 0.6308724,-2.705179 -3.310933 0.7883536,-1.90821 -5.368263 0.1918221,-2.028456 -4.166343 0.343458,-2.028456 -4.166343 0.343458,-2.058454 -2.742714 0.7076904,-1.557038 -5.389066 0.2192008,-1.57507 -4.284497 0.3602666,-1.590275 -3.589546 0.6105025,-1.601744 -2.945332 0.8118801,-1.205002 -5.64899 0.3032096,-1.10373 -4.814312 0.4621146,-1.039713 -4.294637 0.63961,-0.9933729 -3.777628 0.8030497,-9.108716 -7.307296 -0.603802,-8.531164 -7.03417 -0.2037337,-8.050501 -6.328056 0.0905385,-7.717511 -5.704256 0.380263,-7.343014 -5.314512 0.6736881,-8.512565 -4.638359 -0.2026174,-8.400708 -3.489574 0.07109225,-8.40476 -2.844606 0.2779785,-8.437991 -2.266426 0.4049898,-8.891181 -4.498527 -0.1675654,-8.897638 -3.305719 0.07437944,-8.973069 -2.646873 0.3080654,-9.078381 -2.115807 0.4956949,-9.245401 -4.60691 -0.07853174,-9.279284 -3.472267 0.1705914,-9.352278 -2.803373 0.3960831,-9.439311 -2.25 0.564195,-9.607348 -4.934679 0.03619659,-9.713559 -4.065809 0.2584335,-9.79506 -3.521089 0.4279504,-9.876651 -3.000058 0.58233,1.910,37  0
-1.395461 -8.275826 -0.1501715,-1.969006 -8.067251 0.2434484,-2.481132 -7.442518 0.4427059,-2.818289 -6.778703 0.6464712,-3.142897 -6.350198 0.8711953,-2.197229 -5.704924 0.08779952,-2.437066 -4.668325 0.3088612,-2.550425 -4.029453 0.4875414,-2.606234 -3.413867 0.6404331,-1.847463 -5.470644 0.08745253,-1.955626 -4.281137 0.2702898,-1.955626 -4.281137 0.2702898,-1.965715 -2.879629 0.6738315,-1.499844 -5.491308 0.1543645,-1.526581 -4.392885 0.3308795,-1.538124 -3.710373 0.578412,-1.538424 -3.082611 0.7829406,-1.142433 -5.746721 0.2656261,-1.039589 -4.920578 0.4543714,-0.9666042 -4.402722 0.640038,-0.9094276 -3.88239 0.8018752,-9.114688 -7.384162 -0.6237593,-8.531007 -7.130442 -0.2316489,-8.048304 -6.426183 0.05521071,-7.711634 -5.790604 0.334849,-7.34572 -5.398603 0.6207353,-8.516632 -4.723512 -0.2450458,-8.406912 -3.588041 0.0157162,-8.41282 -2.944326 0.2183622,-8.442798 -2.363649 0.3459489,-8.896753 -4.578045 -0.2086143,-8.912189 -3.402656 0.00864011,-8.993767 -2.748483 0.2393811,-9.101772 -2.216213 0.4296293,-9.253584 -4.687574 -0.1221784,-9.297214 -3.56166 0.1077058,-9.376698 -2.897222 0.3264928,-9.464767 -2.345188 0.4935197,-9.617385 -5.018912 -0.01034731,-9.731417 -4.145921 0.2009715,-9.818872 -3.595424 0.3605863,-9.902085 -3.06666 0.5075887,2.010,37  0
-1.389981 -8.345736 -0.1499467,-1.952769 -8.13287 0.293823,-2.458161 -7.512496 0.5166612,-2.789307 -6.84981 0.7362486,-3.118095 -6.422496 0.9800563,-2.178193 -5.766731 0.1427411,-2.417819 -4.737718 0.3559496,-2.525852 -4.096693 0.5372928,-2.577128 -3.478496 0.6982576,-1.826317 -5.540111 0.1113295,-1.933873 -4.383413 0.2914942,-1.933873 -4.383413 0.2914942,-1.933173 -3.020713 0.6958448,-1.481015 -5.559684 0.1488955,-1.502573 -4.488069 0.3231621,-1.508055 -3.829147 0.5768047,-1.498916 -3.21705 0.7812887,-1.127415 -5.804578 0.2366688,-1.028278 -4.995903 0.429267,-0.9513559 -4.494369 0.6184877,-0.8854437 -3.985534 0.783802,-9.111438 -7.443063 -0.6548857,-8.535155 -7.174251 -0.2344345,-8.060368 -6.483184 0.07208484,-7.729897 -5.856223 0.3648989,-7.363178 -5.459579 0.6603899,-8.530031 -4.796911 -0.2169949,-8.422921 -3.655867 0.07304847,-8.427092 -3.018103 0.2906862,-8.458045 -2.444692 0.4241223,-8.907042 -4.653321 -0.1865945,-8.922152 -3.471889 0.06547451,-8.999694 -2.823153 0.310939,-9.106578 -2.300818 0.5081737,-9.262457 -4.765995 -0.1027223,-9.306085 -3.638433 0.1523918,-9.38126 -2.977788 0.3818413,-9.46712 -2.433984 0.5509858,-9.628388 -5.099477 0.007700741,-9.741468 -4.233356 0.2386543,-9.826029 -3.682382 0.4123114,-9.908614 -3.152287 0.5693886,2.110,37  0
-1.382915 -8.461517 -0.2395994,-1.949014 -8.259459 0.1905163,-2.44603 -7.612411 0.3966411,-2.760647 -6.925676 0.6046914,-3.095019 -6.485275 0.8352573,-2.133982 -5.893976 0.04331297,-2.360103 -4.869148 0.2581603,-2.456292 -4.235957 0.4426987,-2.497275 -3.620445 0.600311,-1.783134 -5.675887 0.01512876,-1.875328 -4.551838 0.2043343,-1.875328 -4.551838 0.2043343,-1.845422 -3.235878 0.6047303,-1.442522 -5.701414 0.05191559,-1.439652 -4.649298 0.2232384,-1.428405 -4.019849 0.476164,-1.395859 -3.424198 0.6796282,-1.093585 -5.946987 0.1392762,-0.9954829 -5.160114 0.3261077,-0.9184141 -4.670153 0.5183408,-0.8441401 -4.161721 0.6835899,-9.121912 -7.521831 -0.7418613,-8.540551 -7.26848 -0.332034,-8.062025 -6.573791 -0.03543591,-7.723344 -5.94699 0.2476441,-7.359756 -5.548891 0.5391908,-8.538681 -4.896716 -0.3101431,-8.427203 -3.761151 -0.02638233,-8.430625 -3.119912 0.1815006,-8.460724 -2.544422 0.3078535,-8.920749 -4.755672 -0.282227,-8.934889 -3.587242 -0.04296148,-9.015118 -2.935773 0.1894968,-9.123539 -2.415174 0.3825573,-9.279809 -4.869738 -0.206542,-9.321349 -3.753732 0.03749406,-9.39441 -3.084796 0.2645688,-9.474385 -2.52848 0.434598,-9.647539 -5.200517 -0.1025867,-9.762348 -4.333983 0.1235563,-9.84461 -3.786729 0.2898495,-9.918953 -3.256116 0.4430158,2.210,37  0
-1.350292 -8.559547 -0.3599406,-1.906782 -8.374006 0.09664729,-2.404189 -7.744756 0.3160473,-2.714309 -7.069751 0.5285423,-3.056726 -6.643768 0.7693464,-2.101166 -6.027076 -0.01872265,-2.319272 -5.007221 0.2075244,-2.412489 -4.364999 0.4116549,-2.453478 -3.735051 0.5964087,-1.746947 -5.812993 -0.05857641,-1.831634 -4.720946 0.1326263,-1.831634 -4.720946 0.1326263,-1.807494 -3.430377 0.544053,-1.402285 -5.849058 -0.03238854,-1.397593 -4.844915 0.1426861,-1.383269 -4.238868 0.4116796,-1.34928 -3.680823 0.6283998,-1.049371 -6.100234 0.04426077,-0.9540915 -5.33326 0.2300379,-0.8741026 -4.860142 0.4273268,-0.7978649 -4.372447 0.6069263,-9.120741 -7.551051 -0.8028231,-8.536398 -7.318685 -0.3890514,-8.061823 -6.628899 -0.09544313,-7.72956 -6.002494 0.1871707,-7.363035 -5.605886 0.4786811,-8.530592 -4.944107 -0.3863555,-8.414681 -3.820817 -0.1091177,-8.412952 -3.180117 0.1015636,-8.441328 -2.599945 0.2366979,-8.912407 -4.799762 -0.3635764,-8.92352 -3.641755 -0.1370351,-9.002771 -3.009462 0.08938009,-9.113054 -2.493484 0.2771486,-9.272587 -4.912652 -0.2889982,-9.313726 -3.808623 -0.05304551,-9.388672 -3.164829 0.1715579,-9.475735 -2.62575 0.3399704,-9.642733 -5.236892 -0.1844391,-9.753688 -4.383712 0.03398728,-9.838601 -3.839123 0.2017673,-9.918337 -3.30714 0.3544221,2.310,37  0
-1.341271 -8.653114 -0.3680617,-1.887257 -8.461712 0.07743809,-2.38223 -7.81985 0.2906322,-2.686255 -7.142662 0.5007725,-3.012764 -6.715061 0.7432687,-2.078153 -6.119175 -0.04778773,-2.302094 -5.118337 0.1716067,-2.397476 -4.478303 0.3767159,-2.437901 -3.848138 0.564606,-1.720902 -5.904475 -0.08590606,-1.809314 -4.828731 0.08401015,-1.809314 -4.828731 0.08401015,-1.788336 -3.543128 0.4796207,-1.376009 -5.943635 -0.06113124,-1.359702 -4.95961 0.09247649,-1.337873 -4.364172 0.3546981,-1.298682 -3.825271 0.5689554,-1.030277 -6.196903 0.01851398,-0.9302092 -5.438765 0.1882607,-0.8508377 -4.972021 0.3792811,-0.7758436 -4.495775 0.5610171,-9.114683 -7.588324 -0.7921672,-8.532247 -7.339303 -0.3852793,-8.053291 -6.642499 -0.09283996,-7.714017 -6.020267 0.1925071,-7.343327 -5.631404 0.4895509,-8.527131 -4.972576 -0.4043265,-8.412733 -3.861614 -0.1377361,-8.416097 -3.223037 0.06905687,-8.443019 -2.647783 0.1999535,-8.907815 -4.829856 -0.3786148,-8.91997 -3.685188 -0.1660143,-9.00146 -3.042537 0.05860543,-9.109836 -2.516016 0.2500564,-9.265953 -4.940959 -0.3021665,-9.302048 -3.840635 -0.07732719,-9.37851 -3.192358 0.1451802,-9.465776 -2.64899 0.3146508,-9.634151 -5.264644 -0.1939468,-9.742085 -4.411621 0.01810408,-9.829755 -3.869199 0.1827334,-9.914052 -3.342999 0.3355141,2.410,37  0
-1.275319 -8.785566 -0.3961162,-1.820133 -8.623396 0.118461,-2.320028 -7.972565 0.3665271,-2.617421 -7.299492 0.5973529,-2.949975 -6.890298 0.873783,-2.041667 -6.268892 -0.01472777,-2.269016 -5.280508 0.2202723,-2.356044 -4.649105 0.4423816,-2.392357 -4.022239 0.6387644,-1.670513 -6.050464 -0.08425719,-1.754928 -5.016524 0.102768,-1.754928 -5.016524 0.102768,-1.701538 -3.803861 0.524114,-1.318228 -6.09966 -0.08554932,-1.298711 -5.148992 0.09311548,-1.257759 -4.582376 0.3773522,-1.205912 -4.094453 0.6075397,-0.963201 -6.364051 -0.02653828,-0.8571687 -5.633166 0.1674842,-0.7667289 -5.194957 0.3800559,-0.6787238 -4.766369 0.5795985,-9.110548 -7.550817 -0.9394389,-8.520592 -7.344179 -0.493456,-8.042994 -6.661049 -0.185936,-7.708384 -6.047043 0.1041113,-7.341043 -5.646656 0.4074641,-8.508205 -4.9843 -0.4958685,-8.398483 -3.851409 -0.2153486,-8.403807 -3.198178 0.003442645,-8.438856 -2.610795 0.1473112,-8.889858 -4.842891 -0.4835098,-8.895203 -3.686151 -0.2349346,-8.972262 -3.058116 0.002393961,-9.087135 -2.558385 0.1925149,-9.252243 -4.946497 -0.417221,-9.283067 -3.841877 -0.1575315,-9.351941 -3.204457 0.08700824,-9.448159 -2.684904 0.2624177,-9.625255 -5.256805 -0.3187172,-9.727238 -4.403004 -0.07732445,-9.814129 -3.852057 0.1004789,-9.903255 -3.316851 0.2527211,2.510,37  0
-1.23056 -8.813509 -0.454761,-1.77409 -8.681211 0.1143945,-2.282345 -8.054443 0.390685,-2.581933 -7.378526 0.6434828,-2.92419 -6.958259 0.9539601,-2.022408 -6.330678 0.01164851,-2.258046 -5.350769 0.2600314,-2.344309 -4.736533 0.4923377,-2.383594 -4.129373 0.691913,-1.643206 -6.10574 -0.08179799,-1.718412 -5.088878 0.1131654,-1.718412 -5.088878 0.1131654,-1.645841 -3.93547 0.5404676,-1.284675 -6.159842 -0.1104984,-1.253025 -5.225432 0.08557826,-1.197178 -4.683313 0.3828377,-1.125591 -4.231811 0.6184316,-0.9242263 -6.429136 -0.07751107,-0.8133421 -5.699846 0.1390554,-0.7123699 -5.27143 0.3700373,-0.6128407 -4.866422 0.5779365,-9.105011 -7.566465 -0.9354742,-8.513909 -7.366271 -0.5039163,-8.038415 -6.681585 -0.2040319,-7.699821 -6.064453 0.08251882,-7.322756 -5.662402 0.3835789,-8.505119 -5.007624 -0.4727195,-8.393843 -3.885669 -0.1842536,-8.388623 -3.244344 0.02979684,-8.412216 -2.668898 0.1631413,-8.887377 -4.861772 -0.4529861,-8.89777 -3.708506 -0.2149959,-8.974791 -3.075741 0.01085216,-9.085704 -2.565313 0.1954106,-9.251616 -4.967692 -0.3828819,-9.284504 -3.86189 -0.1319926,-9.350044 -3.21948 0.1022073,-9.432922 -2.691005 0.270823,-9.627448 -5.280071 -0.2830035,-9.731653 -4.415928 -0.04872411,-9.814451 -3.863567 0.1236845,-9.895309 -3.327789 0.2785522,2.610,37  0
-1.177983 -8.962681 -0.4069251,-1.704049 -8.830933 0.2742134,-2.171312 -8.228495 0.6038617,-2.429994 -7.560275 0.8866351,-2.762901 -7.083683 1.206554,-1.935035 -6.481948 0.226033,-2.180993 -5.51135 0.4998018,-2.281882 -4.914957 0.7804389,-2.319589 -4.321017 1.031727,-1.550767 -6.25387 0.08373901,-1.628784 -5.27951 0.3429825,-1.628784 -5.27951 0.3429825,-1.484334 -4.353753 0.8899795,-1.186806 -6.324465 0.01241514,-1.151654 -5.406396 0.2618517,-1.070822 -4.936591 0.6315626,-0.9644022 -4.602907 0.9347812,-0.8236122 -6.612751 -0.004051358,-0.7156925 -5.882902 0.266798,-0.6085224 -5.476451 0.5686074,-0.4951048 -5.121263 0.845117,-9.097518 -7.58495 -0.9760599,-8.50658 -7.3999 -0.5437578,-8.027964 -6.720165 -0.2428899,-7.683569 -6.113967 0.04422748,-7.301193 -5.72438 0.3516382,-8.49308 -5.031377 -0.5380861,-8.37631 -3.912082 -0.2578728,-8.366251 -3.261204 -0.0437932,-8.385247 -2.675424 0.09125996,-8.874384 -4.888564 -0.5160019,-8.8823 -3.748076 -0.2783864,-8.956138 -3.1122 -0.05022323,-9.067169 -2.603799 0.1373597,-9.238027 -4.99481 -0.441368,-9.269536 -3.898465 -0.188503,-9.332157 -3.249719 0.04972279,-9.415918 -2.718715 0.2225167,-9.613261 -5.306585 -0.3337569,-9.719692 -4.44408 -0.09626144,-9.8012 -3.888999 0.07687104,-9.880658 -3.353464 0.2331672,2.710,37  0
-1.138138 -8.946535 -0.5714668,-1.667667 -8.852837 0.1320272,-2.134189 -8.268631 0.4976778,-2.376922 -7.622394 0.8121045,-2.696971 -7.134238 1.165696,-1.911526 -6.49326 0.04205638,-2.144401 -5.511283 0.3309239,-2.245782 -4.901899 0.6451691,-2.286151 -4.326749 0.9129286,-1.522113 -6.284573 -0.09712204,-1.595673 -5.291742 0.1829516,-1.595673 -5.291742 0.1829516,-1.451404 -4.383652 0.7841982,-1.157869 -6.346275 -0.156426,-1.135374 -5.429099 0.09773654,-1.057367 -4.95124 0.4829195,-0.9500055 -4.636263 0.7854638,-0.7943287 -6.619831 -0.1548236,-0.6927242 -5.891422 0.1104283,-0.5924101 -5.494268 0.4207467,-0.4874153 -5.168956 0.6803286,-9.108136 -7.579397 -1.015831,-8.508146 -7.395306 -0.5726506,-8.025147 -6.727649 -0.2734169,-7.679353 -6.123497 0.004458547,-7.298411 -5.724309 0.2996684,-8.491249 -5.044578 -0.5697371,-8.379323 -3.914871 -0.2898972,-8.374077 -3.255503 -0.0726254,-8.398024 -2.667158 0.06762564,-8.871696 -4.895739 -0.5557312,-8.879616 -3.754255 -0.316988,-8.956058 -3.122048 -0.08228183,-9.06713 -2.619095 0.111895,-9.234969 -4.996578 -0.4884613,-9.264812 -3.901515 -0.2328571,-9.328867 -3.261803 0.01203465,-9.414083 -2.742254 0.1877655,-9.6096 -5.301864 -0.3899223,-9.715844 -4.446325 -0.1517966,-9.801476 -3.893885 0.02600074,-9.883811 -3.359166 0.1849393,2.810,37  0
-1.090688 -8.999338 -0.5689932,-1.610847 -8.906013 0.1731186,-2.067935 -8.326488 0.5375,-2.294718 -7.70241 0.8434758,-2.589252 -7.227712 1.175254,-1.829618 -6.529869 0.0839287,-2.054917 -5.533678 0.3886439,-2.144676 -4.925464 0.6974082,-2.164126 -4.379823 0.9500324,-1.440633 -6.335413 -0.07568994,-1.504645 -5.34107 0.2212761,-1.504645 -5.34107 0.2212761,-1.320761 -4.541337 0.8360922,-1.08532 -6.423858 -0.1496291,-1.052186 -5.510593 0.1149722,-0.9550362 -5.058147 0.5020043,-0.8311696 -4.810187 0.8205459,-0.7318487 -6.723924 -0.1610515,-0.6226616 -6.022308 0.117065,-0.51653 -5.632901 0.44287,-0.4060688 -5.3407 0.7362773,-9.10321 -7.61016 -0.9988933,-8.502074 -7.431581 -0.5543759,-8.023373 -6.755126 -0.257638,-7.683055 -6.149066 0.0153228,-7.302902 -5.747301 0.3100618,-8.491988 -5.071104 -0.5333423,-8.37979 -3.951545 -0.2427313,-8.373894 -3.303607 -0.01711422,-8.401433 -2.723831 0.1266248,-8.87557 -4.922296 -0.5301891,-8.887643 -3.787847 -0.292666,-8.965543 -3.159927 -0.0557099,-9.08129 -2.654628 0.1397539,-9.243619 -5.027649 -0.4770438,-9.280012 -3.940542 -0.2364746,-9.345237 -3.310039 0.0008687973,-9.431943 -2.793964 0.176513,-9.62397 -5.337163 -0.3928617,-9.728699 -4.489467 -0.1674603,-9.810337 -3.94712 0.008903503,-9.891793 -3.424185 0.1681987,2.910,37  0
-0.9942923 -9.147211 -0.4797416,-1.517607 -9.029692 0.2169077,-1.979096 -8.419527 0.5637835,-2.218708 -7.774726 0.8523262,-2.507815 -7.311607 1.157434,-1.731138 -6.648962 0.1383432,-1.949148 -5.657409 0.4152314,-2.035494 -5.057983 0.7075909,-2.043171 -4.509473 0.9512739,-1.346338 -6.453199 -0.0100756,-1.415076 -5.47158 0.2844765,-1.415076 -5.47158 0.2844765,-1.242754 -4.74752 0.8848078,-0.9920082 -6.537408 -0.07626548,-0.9567037 -5.635959 0.1778706,-0.8616104 -5.208469 0.5568575,-0.7318077 -5.000594 0.8708262,-0.6426058 -6.830841 -0.08868855,-0.5334163 -6.138416 0.1739368,-0.4300632 -5.762537 0.4885426,-0.317049 -5.502895 0.7707165,-9.129954 -7.645828 -1.019786,-8.527666 -7.461465 -0.5835618,-8.049135 -6.789608 -0.2884055,-7.70404 -6.185079 -0.0175972,-7.322929 -5.787769 0.2716106,-8.518406 -5.112512 -0.5387588,-8.397408 -3.984885 -0.2469888,-8.389151 -3.344021 -0.02279443,-8.414173 -2.7688 0.1163846,-8.90375 -4.968242 -0.527052,-8.914497 -3.822401 -0.2820596,-8.997108 -3.199705 -0.04730093,-9.115521 -2.703649 0.1482468,-9.271436 -5.079565 -0.4674099,-9.311794 -3.993227 -0.2161041,-9.38329 -3.358036 0.01938248,-9.473039 -2.838954 0.1926886,-9.646567 -5.394138 -0.3779822,-9.7533 -4.542972 -0.1422935,-9.838151 -4.000771 0.03545308,-9.919805 -3.477415 0.1957777,3.010,37  0
-0.968399 -9.183044 -0.5612264,-1.483756 -9.06782 0.1616147,-1.935567 -8.48941 0.5277464,-2.175965 -7.855552 0.8353441,-2.459644 -7.37431 1.157626,-1.689702 -6.698835 0.08200085,-1.900673 -5.687257 0.3611827,-1.970675 -5.08994 0.6673776,-1.964057 -4.562503 0.9148158,-1.306425 -6.514034 -0.07487035,-1.375894 -5.491436 0.2570059,-1.375894 -5.491436 0.2570059,-1.170644 -4.88566 0.9113984,-0.9569988 -6.595325 -0.146823,-0.9267893 -5.657191 0.1292101,-0.8211918 -5.248397 0.5414417,-0.6897159 -5.097887 0.8642006,-0.6119299 -6.880893 -0.1680339,-0.5023189 -6.175902 0.1078475,-0.394434 -5.818472 0.4439857,-0.2833109 -5.604261 0.7308164,-9.121902 -7.663047 -0.9482671,-8.527256 -7.474288 -0.5138194,-8.050295 -6.798471 -0.209962,-7.707218 -6.199977 0.07529557,-7.32365 -5.808309 0.3810496,-8.521074 -5.101028 -0.4851422,-8.410058 -3.978187 -0.205305,-8.406813 -3.339343 0.0141409,-8.43619 -2.7609 0.1535991,-8.903036 -4.961908 -0.4672779,-8.918389 -3.827124 -0.2258594,-8.999398 -3.208511 0.004907548,-9.116943 -2.714016 0.1954547,-9.26841 -5.07661 -0.3978211,-9.309284 -3.9889 -0.1492479,-9.377716 -3.35004 0.0846318,-9.468149 -2.826371 0.2546338,-9.643253 -5.400572 -0.2983065,-9.750054 -4.551778 -0.06322646,-9.8348 -4.003519 0.1110431,-9.919961 -3.472347 0.2652693,3.110,37  0
-0.9606972 -9.177599 -0.7470791,-1.47514 -9.039185 -0.03348702,-1.908176 -8.447531 0.3436191,-2.123535 -7.819675 0.6601189,-2.402567 -7.287838 0.9914794,-1.666937 -6.702785 -0.130165,-1.866982 -5.690151 0.1738988,-1.937705 -5.079689 0.5268286,-1.94929 -4.584239 0.8205096,-1.28512 -6.560245 -0.2664072,-1.348753 -5.52591 0.1348149,-1.348753 -5.52591 0.1348149,-1.172033 -5.186121 0.9706167,-0.9420309 -6.655223 -0.3183224,-0.9285336 -5.718077 0.01208854,-0.8463259 -5.35585 0.5182242,-0.758028 -5.36621 0.9018869,-0.6038184 -6.920486 -0.3257184,-0.5046568 -6.201526 -0.009915829,-0.4243073 -5.898237 0.3837278,-0.3530245 -5.841474 0.719167,-9.107816 -7.638946 -1.036125,-8.520561 -7.458284 -0.587173,-8.048018 -6.781847 -0.2797993,-7.708048 -6.181715 0.009283304,-7.323852 -5.787334 0.3244928,-8.510262 -5.097556 -0.590881,-8.407265 -3.967091 -0.3165172,-8.409886 -3.310996 -0.1006363,-8.440944 -2.726306 0.03868747,-8.893766 -4.958522 -0.5806535,-8.91545 -3.82763 -0.3357085,-8.999708 -3.206806 -0.1026722,-9.114738 -2.725626 0.08294749,-9.258039 -5.065377 -0.5156871,-9.300681 -3.98379 -0.2589509,-9.36848 -3.349082 -0.01535821,-9.453798 -2.836307 0.1537412,-9.630034 -5.372922 -0.417596,-9.736707 -4.525867 -0.1798296,-9.822795 -3.972131 -0.001959562,-9.903996 -3.43539 0.1480721,3.210,37  0
-0.9712176 -9.123018 -0.8709273,-1.468263 -8.999289 -0.1198515,-1.872635 -8.40954 0.2983516,-2.059607 -7.768665 0.647791,-2.28443 -7.179655 1.001325,-1.678411 -6.69496 -0.1768728,-1.871665 -5.650095 0.1215993,-1.950057 -5.000906 0.4558231,-1.976661 -4.482122 0.7283254,-1.296708 -6.540908 -0.3964512,-1.364501 -5.489059 0.03430039,-1.364501 -5.489059 0.03430039,-1.221325 -5.228028 0.9166348,-0.9591103 -6.643169 -0.4182121,-0.9575977 -5.678308 -0.05168688,-0.8865786 -5.358581 0.4859351,-0.8185744 -5.4435 0.8722588,-0.6232095 -6.918385 -0.3948681,-0.5320177 -6.178913 -0.06747729,-0.4627028 -5.893445 0.3361022,-0.4099507 -5.898139 0.6669389,-9.103596 -7.626699 -1.051907,-8.513371 -7.448576 -0.5862662,-8.040854 -6.778795 -0.2691773,-7.699776 -6.182861 0.02608967,-7.313931 -5.782549 0.3497448,-8.507173 -5.091733 -0.5699039,-8.39681 -3.972972 -0.2825626,-8.394855 -3.32145 -0.06257784,-8.422966 -2.738266 0.07768714,-8.889004 -4.956613 -0.5640203,-8.905601 -3.827282 -0.3146546,-8.985536 -3.202093 -0.07803583,-9.09969 -2.70332 0.1161624,-9.253083 -5.065534 -0.5045447,-9.292373 -3.978508 -0.2404577,-9.358434 -3.341985 0.008709669,-9.44503 -2.819625 0.1861632,-9.625655 -5.3764 -0.4106506,-9.733083 -4.521764 -0.1650974,-9.819582 -3.970785 0.01653552,-9.903264 -3.433609 0.1738787,3.310,37  0
-0.983171 -9.110252 -0.9880666,-1.481087 -9.017744 -0.2088068,-1.880082 -8.426094 0.2249293,-2.04744 -7.765186 0.5840887,-2.254509 -7.149539 0.952895,-1.692844 -6.717962 -0.2494476,-1.874135 -5.674664 0.06605971,-1.946403 -5.001646 0.413891,-1.958381 -4.461186 0.7058235,-1.300878 -6.584415 -0.4035195,-1.357302 -5.500301 0.05496395,-1.357302 -5.500301 0.05496395,-1.092443 -5.43378 0.9228934,-0.9585829 -6.662412 -0.4869149,-0.9298582 -5.70022 -0.1121964,-0.7961378 -5.491724 0.4195398,-0.6814604 -5.65847 0.7937852,-0.6334114 -6.887406 -0.5106128,-0.5491228 -6.126337 -0.1662864,-0.4505 -5.938024 0.2216814,-0.3776703 -6.039405 0.5299789,-9.111636 -7.632053 -1.106639,-8.510418 -7.464914 -0.6532742,-8.034606 -6.797809 -0.3485374,-7.692169 -6.200671 -0.06623518,-7.305593 -5.803004 0.2447317,-8.498341 -5.119104 -0.6359539,-8.390554 -3.998692 -0.3441975,-8.390347 -3.343141 -0.1209832,-8.418808 -2.761056 0.01987171,-8.881716 -4.976814 -0.6319504,-8.8984 -3.848276 -0.3882467,-8.980769 -3.22176 -0.1513932,-9.095225 -2.722038 0.04259682,-9.246779 -5.07724 -0.5769613,-9.28511 -3.986887 -0.3246868,-9.353847 -3.360624 -0.08088028,-9.442113 -2.849209 0.09546077,-9.619751 -5.380069 -0.4913453,-9.727433 -4.52415 -0.2544267,-9.815326 -3.978278 -0.07548738,-9.901596 -3.448602 0.08080375,3.410,37  0
-0.9459715 -9.083332 -0.9115426,-1.446881 -8.988321 -0.1291547,-1.838893 -8.376398 0.3344748,-1.995199 -7.715305 0.720418,-2.183348 -7.06715 1.113856,-1.654148 -6.713896 -0.08193427,-1.826637 -5.70877 0.2850864,-1.901057 -5.038286 0.6654323,-1.917646 -4.472398 0.9841099,-1.251879 -6.562072 -0.2139482,-1.317584 -5.492554 0.2998301,-1.317584 -5.492554 0.2998301,-1.149616 -5.510541 1.17694,-0.8979964 -6.642052 -0.2696273,-0.8874836 -5.65298 0.1636581,-0.8141527 -5.433998 0.7005382,-0.7548199 -5.598079 1.077673,-0.5542049 -6.897909 -0.2687359,-0.4779587 -6.125198 0.1234763,-0.4363337 -5.933721 0.5359184,-0.4192495 -6.052141 0.8589559,-9.106024 -7.654372 -0.9994373,-8.514569 -7.469107 -0.5703605,-8.039135 -6.799144 -0.2805136,-7.699722 -6.196729 -0.00829792,-7.318711 -5.806753 0.2901074,-8.504277 -5.112815 -0.5600878,-8.392118 -3.994037 -0.2853805,-8.386765 -3.342203 -0.06983161,-8.413563 -2.761581 0.0625838,-8.887029 -4.962378 -0.5517904,-8.906107 -3.827909 -0.3251325,-8.9927 -3.203844 -0.1025345,-9.114903 -2.716369 0.07944143,-9.251806 -5.067465 -0.4928348,-9.294713 -3.984427 -0.2620866,-9.368118 -3.356871 -0.04075032,-9.460938 -2.853913 0.1176344,-9.626971 -5.381618 -0.4028721,-9.733753 -4.537658 -0.1886437,-9.819978 -3.997634 -0.02108836,-9.90722 -3.480005 0.1259382,3.510,37  0
-0.9089646 -9.144268 -0.7704954,-1.426962 -8.967676 -0.01638609,-1.80592 -8.362671 0.4694135,-1.942935 -7.715911 0.8729187,-2.112389 -7.064828 1.277996,-1.61105 -6.792324 0.2791635,-1.80009 -5.790264 0.7158891,-1.889575 -5.159952 1.049156,-1.922278 -4.578845 1.311206,-1.196077 -6.661548 0.1806506,-1.264089 -5.712575 0.7429994,-1.264089 -5.712575 0.7429994,-1.321757 -5.277515 1.518032,-0.8273363 -6.753068 0.144913,-0.8262086 -5.881512 0.6414504,-0.8715906 -5.456359 1.150534,-0.9255829 -5.341236 1.516413,-0.4757719 -7.004359 0.1435544,-0.41717 -6.284006 0.5913963,-0.4443178 -5.962273 0.9839544,-0.5123873 -5.845502 1.300659,-9.108018 -7.654199 -1.028201,-8.515054 -7.47171 -0.610595,-8.038463 -6.803209 -0.3262198,-7.697215 -6.201689 -0.05562884,-7.314994 -5.815856 0.2387011,-8.510492 -5.112232 -0.6165392,-8.391414 -3.993659 -0.3537641,-8.381752 -3.348261 -0.1466111,-8.403187 -2.776064 -0.0176295,-8.891211 -4.966711 -0.6031315,-8.907973 -3.831144 -0.3944479,-8.990759 -3.210836 -0.181504,-9.108844 -2.715889 -0.003266215,-9.254122 -5.074865 -0.5389174,-9.293604 -3.991837 -0.3181009,-9.365142 -3.367155 -0.1024801,-9.45506 -2.854059 0.05501461,-9.625104 -5.391439 -0.4425067,-9.734916 -4.549718 -0.234338,-9.823267 -4.021125 -0.073385,-9.910284 -3.505234 0.07310045,3.610,37  0
-0.9193463 -9.19865 -1.420821,-1.458506 -8.933302 -0.7367051,-1.793067 -8.251625 -0.3127437,-1.876325 -7.548932 0.02554166,-2.05385 -6.899127 0.3766007,-1.529788 -6.996787 -0.3056372,-1.693413 -5.96754 0.1311301,-1.777582 -5.310401 0.4352356,-1.802824 -4.616228 0.7070309,-1.122279 -6.947299 -0.3808621,-1.167174 -6.028811 0.2023947,-1.167174 -6.028811 0.2023947,-1.224845 -5.395615 0.9327544,-0.7718196 -7.068359 -0.4120582,-0.7247386 -6.250489 0.1252654,-0.7678671 -5.733799 0.5947286,-0.8197942 -5.367492 0.9579936,-0.4536581 -7.304088 -0.4274969,-0.3587356 -6.590641 0.006322026,-0.3765764 -6.19618 0.335565,-0.4258127 -5.873155 0.6227618,-9.10437 -7.655866 -1.052221,-8.512625 -7.482435 -0.6129082,-8.039743 -6.806376 -0.3211018,-7.697027 -6.207169 -0.04404938,-7.3113 -5.821863 0.2569132,-8.509246 -5.111694 -0.6268651,-8.397487 -3.98209 -0.3599114,-8.391434 -3.327982 -0.1462813,-8.414517 -2.747202 -0.009124756,-8.893158 -4.976493 -0.6171924,-8.909553 -3.841888 -0.3911923,-8.988805 -3.219613 -0.1642873,-9.103783 -2.727336 0.0191226,-9.257917 -5.090848 -0.5546764,-9.296415 -3.999691 -0.3125996,-9.364389 -3.365152 -0.07726032,-9.451669 -2.846694 0.09120882,-9.629499 -5.411224 -0.4594176,-9.738592 -4.569643 -0.2360858,-9.826069 -4.033619 -0.0645963,-9.910547 -3.509816 0.08578515,3.710,37  0
-0.8959894 -9.027306 -1.986804,-1.416059 -8.930046 -1.307477,-1.744648 -8.275448 -0.8987811,-1.819874 -7.548969 -0.6076363,-2.008294 -6.92647 -0.3267877,-1.523736 -7.131784 -0.677251,-1.657529 -6.18308 -0.1862156,-1.752475 -5.489114 0.1159111,-1.777633 -4.715862 0.3866349,-1.118663 -7.05013 -0.7811171,-1.154314 -6.313472 -0.1346662,-1.154314 -6.313472 -0.1346662,-1.193829 -5.860739 0.467667,-0.7586432 -7.134601 -0.8561178,-0.6751194 -6.458551 -0.2374642,-0.7135382 -6.034948 0.1803147,-0.7606421 -5.664581 0.4931072,-0.4288583 -7.321438 -0.9153613,-0.3247347 -6.681457 -0.4399657,-0.3504014 -6.345709 -0.1250608,-0.401145 -6.036638 0.1393508,-9.108829 -7.666018 -0.9943922,-8.518305 -7.476379 -0.5540143,-8.042897 -6.80994 -0.2584628,-7.700765 -6.215539 0.01778793,-7.315762 -5.829362 0.3188188,-8.509102 -5.119174 -0.5477476,-8.396133 -3.993792 -0.2787737,-8.389698 -3.347566 -0.06702161,-8.416308 -2.769332 0.06558955,-8.890939 -4.972852 -0.5445087,-8.907536 -3.836954 -0.3158172,-8.991859 -3.223195 -0.09478337,-9.114091 -2.733673 0.0864867,-9.254669 -5.079765 -0.4898886,-9.294466 -3.99977 -0.2572466,-9.36292 -3.380234 -0.03471649,-9.453533 -2.875735 0.123814,-9.62677 -5.395448 -0.4025114,-9.732805 -4.564441 -0.183966,-9.818295 -4.035367 -0.01435113,-9.90461 -3.522394 0.1358256,3.810,37  0
-0.8734379 -8.883125 -2.068721,-1.384968 -8.921478 -1.272435,-1.707256 -8.251762 -0.8216637,-1.779486 -7.501927 -0.5361494,-1.948971 -6.891979 -0.2612016,-1.504232 -7.200024 -0.495293,-1.643976 -6.294405 0.04585278,-1.733192 -5.56155 0.366902,-1.770538 -4.80624 0.6406008,-1.067524 -7.068045 -0.6642995,-1.101396 -6.25514 0.07776797,-1.101396 -6.25514 0.07776797,-1.086405 -6.058307 0.5468441,-0.6806216 -7.121628 -0.7874643,-0.6228266 -6.36712 -0.07390916,-0.6355247 -6.211834 0.263815,-0.6625004 -6.173217 0.4581772,-0.3440723 -7.284748 -0.887372,-0.2667017 -6.607419 -0.3760741,-0.2890544 -6.410005 -0.09467173,-0.3274894 -6.313077 0.1099695,-9.102424 -7.665146 -1.059402,-8.511465 -7.485357 -0.5992483,-8.037398 -6.819881 -0.2883501,-7.69373 -6.222162 -0.003785729,-7.310897 -5.820623 0.3048458,-8.507125 -5.141319 -0.5574914,-8.397215 -4.000077 -0.2589766,-8.396546 -3.345678 -0.03083122,-8.427469 -2.763885 0.1117599,-8.891394 -4.999976 -0.5555016,-8.908404 -3.857637 -0.296741,-8.992466 -3.230999 -0.05625343,-9.112176 -2.735443 0.14116,-9.257551 -5.104612 -0.5030662,-9.296754 -4.020521 -0.2431874,-9.365523 -3.390933 -0.004060745,-9.454441 -2.877161 0.1694694,-9.631542 -5.411261 -0.4189869,-9.73637 -4.56175 -0.1771051,-9.822334 -4.021362 0.0005635023,-9.907958 -3.496715 0.1556699,3.910,37  0
-0.874835 -8.733801 -2.080212,-1.369121 -8.81846 -1.208206,-1.696245 -8.19927 -0.7391282,-1.774157 -7.481966 -0.4256549,-1.941333 -6.898534 -0.1045578,-1.546079 -6.915214 -0.7354454,-1.646799 -6.171237 -0.1334186,-1.675994 -5.546264 0.2440096,-1.70132 -4.91831 0.510866,-1.099648 -6.755418 -0.929124,-1.065858 -6.080438 -0.1055377,-1.065858 -6.080438 -0.1055377,-0.9767075 -7.131209 0.3011431,-0.7000799 -6.799315 -1.04152,-0.6106958 -6.18757 -0.2060217,-0.5978489 -6.702949 0.04842508,-0.6492147 -7.158762 0.05930007,-0.353056 -6.965843 -1.126729,-0.2404652 -6.392193 -0.508938,-0.2817588 -6.555142 -0.2620337,-0.3621578 -6.791831 -0.1889349,-9.112987 -7.661581 -1.03524,-8.519855 -7.489326 -0.5972939,-8.04638 -6.820997 -0.3075879,-7.705405 -6.220926 -0.03363013,-7.323462 -5.826223 0.270977,-8.515989 -5.123251 -0.6109179,-8.400621 -3.995698 -0.3432147,-8.394013 -3.343564 -0.1310898,-8.421803 -2.760441 0.001124024,-8.895608 -4.978309 -0.5969223,-8.908109 -3.843352 -0.3720645,-8.988295 -3.225851 -0.1477318,-9.106916 -2.741147 0.03739178,-9.261062 -5.085858 -0.5288172,-9.29594 -4.0007 -0.2919075,-9.363047 -3.375432 -0.05821967,-9.452974 -2.875431 0.1096824,-9.637744 -5.40225 -0.4282669,-9.751026 -4.556263 -0.1988624,-9.841874 -4.014444 -0.0192585,-9.930268 -3.491368 0.1383604,4.010,37  0
-0.8904696 -8.746227 -2.151475,-1.390841 -8.798111 -1.309875,-1.679382 -8.193771 -0.8352013,-1.757083 -7.480205 -0.5081536,-1.941813 -6.909545 -0.1720643,-1.503951 -6.998634 -0.6920831,-1.591059 -6.239646 -0.01965964,-1.623346 -5.607936 0.4457525,-1.659039 -4.999519 0.7777013,-1.060889 -6.875249 -0.8604168,-1.008503 -6.097791 -0.02306426,-1.008503 -6.097791 -0.02306426,-1.005427 -7.170693 0.4000548,-0.6607852 -6.96585 -0.9539455,-0.5440578 -6.275132 -0.1287342,-0.5656195 -6.758905 0.124916,-0.6317101 -7.232788 0.1645609,-0.3269796 -7.198228 -1.018414,-0.1884403 -6.597464 -0.438205,-0.1983542 -6.494642 -0.1777799,-0.2553377 -6.466293 -0.05638874,-9.115971 -7.670574 -1.032466,-8.521763 -7.486529 -0.6023633,-8.046384 -6.82129 -0.3121838,-7.703725 -6.225168 -0.0408119,-7.32674 -5.831378 0.251503,-8.519392 -5.128261 -0.5914474,-8.404778 -3.997776 -0.3117138,-8.397628 -3.34878 -0.09276319,-8.42338 -2.773796 0.04410195,-8.902968 -4.988801 -0.5781446,-8.924368 -3.846688 -0.3421467,-9.008547 -3.225951 -0.1090176,-9.129065 -2.74031 0.08256066,-9.268017 -5.101585 -0.5138873,-9.312391 -4.013319 -0.2742421,-9.381053 -3.38927 -0.04577154,-9.470122 -2.884971 0.1184694,-9.641133 -5.421527 -0.4194775,-9.753232 -4.580518 -0.1955094,-9.84058 -4.047542 -0.02396905,-9.927166 -3.530049 0.1280092,4.110,37  0
-0.7923651 -8.768543 -1.980628,-1.306228 -8.831316 -1.116404,-1.643925 -8.248308 -0.626096,-1.729686 -7.550313 -0.2875655,-1.891465 -6.978355 0.05820632,-1.456155 -7.055969 -0.4883741,-1.562255 -6.347785 0.2085769,-1.584712 -5.744143 0.6507096,-1.604147 -5.153428 0.9588223,-1.009878 -6.853595 -0.6741444,-0.9552536 -6.191938 0.179249,-0.9552536 -6.191938 0.179249,-0.9258461 -7.551689 0.4801059,-0.6028504 -6.864749 -0.7771525,-0.4885616 -6.269578 0.08265305,-0.5108643 -6.961479 0.2450061,-0.5771961 -7.551567 0.1896491,-0.2588758 -7.025037 -0.8461485,-0.1125221 -6.458507 -0.2344561,-0.1684723 -6.755516 -0.02942991,-0.2622833 -7.07621 0.02114415,-9.123425 -7.691708 -1.015173,-8.522949 -7.499338 -0.5833397,-8.04825 -6.828397 -0.2958095,-7.707541 -6.224875 -0.02675217,-7.327628 -5.829969 0.2608423,-8.520038 -5.14718 -0.5624408,-8.407382 -4.024986 -0.2822505,-8.405333 -3.384307 -0.06134677,-8.43633 -2.808933 0.08085907,-8.908469 -5.006969 -0.5497787,-8.934714 -3.87743 -0.3146241,-9.021264 -3.256853 -0.07951921,-9.140423 -2.767177 0.1164496,-9.276349 -5.11903 -0.4866714,-9.328595 -4.043087 -0.2497417,-9.401971 -3.41497 -0.02111006,-9.489624 -2.901319 0.1476705,-9.650776 -5.434297 -0.3929166,-9.763459 -4.592094 -0.1654596,-9.850435 -4.053148 0.004447699,-9.932991 -3.529876 0.1578542,4.210,37  0
-0.7450161 -8.820864 -2.205727,-1.288486 -8.836843 -1.370583,-1.625326 -8.302567 -0.8520176,-1.723182 -7.628662 -0.4707675,-1.876243 -7.064146 -0.08173132,-1.420161 -7.164615 -0.7549232,-1.558628 -6.435373 -0.02688456,-1.570406 -5.85824 0.4301717,-1.57008 -5.302444 0.7219362,-0.9698534 -6.97883 -0.9087234,-0.9330845 -6.306125 -0.005376101,-0.9330845 -6.306125 -0.005376101,-0.9470453 -7.655847 0.3006356,-0.5559807 -6.984539 -0.9836986,-0.4337115 -6.327873 -0.1255255,-0.4610853 -6.980428 0.02723002,-0.5380373 -7.534526 -0.04429102,-0.1989584 -7.120986 -1.022474,-0.0311408 -6.502753 -0.432759,-0.08246708 -6.779104 -0.2387664,-0.1824732 -7.085901 -0.2008054,-9.119702 -7.702501 -0.9951699,-8.529792 -7.506111 -0.5600798,-8.060633 -6.839252 -0.2618326,-7.718574 -6.241743 0.01905203,-7.336207 -5.851265 0.3264942,-8.537526 -5.147764 -0.5434996,-8.420683 -4.012215 -0.2633771,-8.417485 -3.361892 -0.04199934,-8.447554 -2.778992 0.09973431,-8.922407 -5.010807 -0.5285972,-8.943491 -3.865405 -0.2896208,-9.026826 -3.247541 -0.05621952,-9.147528 -2.756911 0.1337311,-9.287928 -5.122831 -0.4621773,-9.335626 -4.031962 -0.2192261,-9.40647 -3.401744 0.01253033,-9.496558 -2.886993 0.177431,-9.660865 -5.439989 -0.364312,-9.77635 -4.595191 -0.1329861,-9.865242 -4.050113 0.04021955,-9.95333 -3.52149 0.189133,4.310,37  0
-0.725749 -8.9375 -2.175393,-1.286646 -8.873644 -1.389683,-1.615486 -8.305437 -0.8772295,-1.723452 -7.612665 -0.5221295,-1.90728 -7.085021 -0.1763531,-1.378385 -7.357687 -0.5931472,-1.547635 -6.53651 0.09276342,-1.577472 -5.905441 0.5237613,-1.579073 -5.330404 0.8192692,-0.9252939 -7.185518 -0.7416083,-0.9116659 -6.315029 0.06167841,-0.9116659 -6.315029 0.06167841,-0.9692507 -7.406454 0.3376966,-0.5157256 -7.180835 -0.8393137,-0.4115429 -6.326927 -0.08326077,-0.4660358 -6.761845 0.05747843,-0.5553837 -7.261629 0.03666282,-0.164959 -7.298936 -0.893326,1.859665E-05 -6.560112 -0.3833195,-0.04321194 -6.689186 -0.1970922,-0.1326952 -6.936969 -0.1271751,-9.135044 -7.711919 -1.027858,-8.538853 -7.520027 -0.5881268,-8.061187 -6.846604 -0.2939971,-7.716771 -6.240608 -0.0135628,-7.338005 -5.844926 0.2874228,-8.532116 -5.175681 -0.5920556,-8.412744 -4.053428 -0.3119789,-8.407683 -3.397269 -0.09578621,-8.428409 -2.810984 0.0420171,-8.913374 -5.028705 -0.5782535,-8.930246 -3.891644 -0.350673,-9.015693 -3.258476 -0.1182192,-9.134523 -2.746777 0.07720709,-9.276697 -5.128219 -0.5132716,-9.313725 -4.035146 -0.2688716,-9.387854 -3.396862 -0.03255939,-9.480206 -2.871747 0.1421163,-9.649052 -5.432908 -0.4147441,-9.760576 -4.580112 -0.1856412,-9.856205 -4.039958 -0.013008,-9.949978 -3.509248 0.1433877,4.410,37  0
-0.6108441 -8.798395 -2.935833,-1.226631 -8.654387 -2.220322,-1.634578 -8.207016 -1.653686,-1.773274 -7.523748 -1.277723,-1.934862 -6.925537 -0.9776038,-1.301601 -8.147778 -0.9349231,-1.472541 -7.10919 -0.1255404,-1.532116 -6.200363 0.269672,-1.529228 -5.38866 0.5134073,-0.8263836 -7.976609 -1.064291,-0.8411207 -6.771184 -0.2777058,-0.8411207 -6.771184 -0.2777058,-0.922483 -6.604381 -0.1868793,-0.4078574 -7.806963 -1.180764,-0.3301535 -6.677557 -0.536368,-0.4338999 -6.483404 -0.4281532,-0.5320492 -6.601765 -0.4013366,-0.06896448 -7.68774 -1.252042,0.09424353 -6.813203 -0.8621901,0.02157879 -6.533229 -0.713714,-0.09659004 -6.531868 -0.6369113,-9.118128 -7.698678 -1.027239,-8.528764 -7.513994 -0.5814238,-8.05624 -6.848119 -0.2858909,-7.715768 -6.244493 -0.007547379,-7.332195 -5.856615 0.2917366,-8.524881 -5.170227 -0.5702373,-8.397019 -4.065441 -0.2892659,-8.380033 -3.420279 -0.07370317,-8.390344 -2.841083 0.0620898,-8.908004 -5.016193 -0.5666829,-8.919375 -3.881862 -0.3432751,-8.999475 -3.255653 -0.1183878,-9.112891 -2.744826 0.07353878,-9.27137 -5.11206 -0.5132713,-9.308013 -4.02243 -0.2807091,-9.379033 -3.396229 -0.05121136,-9.468151 -2.879408 0.1219131,-9.643167 -5.412991 -0.4253353,-9.752903 -4.572043 -0.2074764,-9.846719 -4.044134 -0.03534174,-9.94141 -3.526466 0.1246303,4.510,37  0
-0.6131072 -8.727152 -2.734104,-1.237798 -8.588202 -2.030753,-1.640056 -8.159477 -1.410666,-1.801043 -7.497131 -0.9973713,-1.985475 -6.954354 -0.6469046,-1.287664 -8.279037 -0.5796598,-1.456611 -7.207586 0.2470764,-1.526582 -6.22859 0.6334916,-1.511789 -5.38751 0.8875738,-0.8091841 -8.111958 -0.722195,-0.8075089 -6.777457 0.02015626,-0.8075089 -6.777457 0.02015626,-0.9132261 -6.539432 -0.01992452,-0.3878698 -7.890564 -0.8596931,-0.3264213 -6.621017 -0.2824632,-0.4590759 -6.46579 -0.3358446,-0.5879841 -6.589124 -0.3973032,-0.05847979 -7.70495 -0.9533038,0.06232834 -6.702753 -0.6207541,-0.04539061 -6.460484 -0.598704,-0.1846385 -6.49896 -0.5985039,-9.115594 -7.690971 -1.062709,-8.520587 -7.507839 -0.6138723,-8.050344 -6.844084 -0.3109909,-7.710185 -6.251188 -0.02555323,-7.323009 -5.863706 0.28723,-8.524453 -5.163953 -0.5916164,-8.410068 -4.047191 -0.2984539,-8.400261 -3.392521 -0.0694145,-8.419402 -2.80155 0.08046269,-8.908887 -5.022222 -0.5813691,-8.924702 -3.892566 -0.3442054,-9.003409 -3.268717 -0.1118488,-9.11841 -2.761834 0.08263028,-9.275476 -5.128544 -0.5200841,-9.313231 -4.045712 -0.2747069,-9.383826 -3.415979 -0.03670216,-9.472814 -2.898553 0.1353742,-9.651377 -5.435583 -0.4264108,-9.760761 -4.591761 -0.1969759,-9.851888 -4.051483 -0.0220046,-9.94108 -3.521165 0.1352954,4.610,37  0
-0.5466466 -8.67938 -3.222826,-1.200857 -8.605213 -2.592742,-1.592801 -8.144772 -2.009326,-1.73069 -7.504155 -1.570353,-1.886969 -6.989242 -1.217352,-1.325641 -7.696868 -1.554172,-1.441207 -6.777296 -0.8076656,-1.453054 -6.035409 -0.4528513,-1.403182 -5.407388 -0.2201757,-0.8489857 -7.555692 -1.629059,-0.7817779 -6.489255 -0.8584971,-0.7817779 -6.489255 -0.8584971,-0.9547172 -7.185665 -0.939574,-0.4042087 -7.503335 -1.662961,-0.2983484 -6.429052 -1.043175,-0.4603767 -6.685324 -1.128325,-0.6075335 -7.010393 -1.259463,-0.03060627 -7.541442 -1.649955,0.1134825 -6.659284 -1.216875,-0.03048897 -6.672224 -1.136973,-0.1988506 -6.830322 -1.135716,-9.115923 -7.694655 -1.05249,-8.52182 -7.516023 -0.5941631,-8.048318 -6.849552 -0.2911093,-7.703832 -6.250102 -0.008803725,-7.317058 -5.860752 0.2998059,-8.518296 -5.166909 -0.5820216,-8.401582 -4.042741 -0.2958782,-8.395518 -3.390042 -0.07106531,-8.419276 -2.812878 0.07652271,-8.904181 -5.021489 -0.5816411,-8.921448 -3.885973 -0.3438914,-9.002407 -3.258068 -0.1092115,-9.118262 -2.766702 0.08772719,-9.271377 -5.122545 -0.5291274,-9.310369 -4.0345 -0.2826988,-9.381075 -3.400754 -0.04258132,-9.469504 -2.889205 0.1308752,-9.646716 -5.428745 -0.4447861,-9.759482 -4.58196 -0.2134983,-9.850183 -4.042305 -0.04209793,-9.938156 -3.518386 0.1103396,4.710,37  0
-0.5033722 -8.624203 -3.32704,-1.145765 -8.536451 -2.716147,-1.566871 -8.115488 -2.11062,-1.725691 -7.480838 -1.641763,-1.906476 -6.948786 -1.264272,-1.304877 -7.711425 -1.673521,-1.446762 -6.747092 -0.9589764,-1.435834 -6.020891 -0.6356853,-1.354565 -5.399324 -0.4214581,-0.8193445 -7.561603 -1.730609,-0.7237158 -6.51938 -1.001289,-0.7237158 -6.51938 -1.001289,-0.9106159 -7.377809 -1.167923,-0.366643 -7.479661 -1.759522,-0.231813 -6.38797 -1.224643,-0.3988724 -6.813159 -1.44275,-0.556303 -7.164078 -1.652265,0.01427603 -7.466657 -1.724054,0.1913958 -6.594891 -1.409022,0.02182961 -6.784406 -1.44713,-0.1653881 -7.026468 -1.525928,-9.103795 -7.710659 -1.036785,-8.513873 -7.520847 -0.5958085,-8.040707 -6.857491 -0.2994082,-7.697717 -6.25871 -0.01972282,-7.314116 -5.865469 0.2797567,-8.520967 -5.170307 -0.5886039,-8.404058 -4.046062 -0.3114948,-8.39411 -3.402137 -0.09283173,-8.412202 -2.827805 0.04928756,-8.906882 -5.02985 -0.5770726,-8.927369 -3.892561 -0.342196,-9.008645 -3.272979 -0.1098393,-9.123752 -2.786193 0.08209002,-9.271018 -5.134887 -0.5157787,-9.316911 -4.052234 -0.2692609,-9.387113 -3.422241 -0.03567207,-9.473421 -2.909654 0.1315095,-9.640523 -5.445131 -0.4204348,-9.754704 -4.602031 -0.1923134,-9.845721 -4.063268 -0.02276862,-9.932247 -3.537102 0.1266389,4.810,37  0
-0.4732375 -8.677389 -3.019194,-1.123836 -8.591526 -2.378968,-1.553895 -8.129446 -1.763077,-1.715261 -7.480213 -1.291178,-1.903101 -6.964628 -0.9002711,-1.304152 -7.671905 -1.32925,-1.446272 -6.689655 -0.5847629,-1.434772 -5.985292 -0.2080306,-1.366605 -5.380764 0.04494917,-0.8118343 -7.505579 -1.39456,-0.7332945 -6.487415 -0.6124343,-0.7332945 -6.487415 -0.6124343,-0.8934689 -7.49682 -0.7016479,-0.3443031 -7.422509 -1.433874,-0.2355175 -6.339849 -0.8249937,-0.3798523 -6.865614 -0.9939696,-0.5211968 -7.280429 -1.197994,0.05090857 -7.405889 -1.411794,0.2058849 -6.502889 -1.031514,0.04661703 -6.823436 -1.054304,-0.1280403 -7.174827 -1.139591,-9.117964 -7.72015 -1.022637,-8.522128 -7.525968 -0.6030807,-8.047234 -6.864292 -0.3189422,-7.701406 -6.266119 -0.04820138,-7.317891 -5.888598 0.2451239,-8.520505 -5.181024 -0.6028599,-8.396354 -4.071887 -0.3280888,-8.380309 -3.432456 -0.1109176,-8.393413 -2.862557 0.02821434,-8.904801 -5.032869 -0.5843093,-8.923449 -3.89573 -0.3719639,-9.004326 -3.269327 -0.1484213,-9.121581 -2.766222 0.04383743,-9.269965 -5.138169 -0.5162263,-9.313605 -4.050547 -0.2932838,-9.390058 -3.424821 -0.07097971,-9.485605 -2.910655 0.09724522,-9.642739 -5.450269 -0.4159091,-9.755811 -4.60864 -0.2013866,-9.849241 -4.077466 -0.03320068,-9.943892 -3.561035 0.1248288,4.910,37  0
-0.5156403 -8.614433 -2.751541,-1.111155 -8.60593 -2.037376,-1.516658 -8.137072 -1.43524,-1.654503 -7.548053 -0.9528037,-1.845542 -7.070437 -0.5506809,-1.334331 -7.223007 -1.303707,-1.41583 -6.459276 -0.5407913,-1.418686 -5.863674 -0.1340039,-1.362415 -5.29936 0.1466949,-0.8581405 -7.056516 -1.373326,-0.6714873 -6.422287 -0.4080355,-0.6714873 -6.422287 -0.4080355,-0.8066244 -7.800022 -0.2762363,-0.3881922 -7.070312 -1.400937,-0.175992 -6.364234 -0.6182404,-0.3105221 -7.14858 -0.6554866,-0.4647989 -7.607519 -0.831466,0.006744385 -7.196445 -1.373852,0.2261143 -6.540448 -0.8118664,0.08910227 -7.066507 -0.7501047,-0.08338404 -7.441976 -0.8253214,-9.121426 -7.74164 -0.9671413,-8.526809 -7.542625 -0.5274535,-8.049496 -6.876116 -0.2190562,-7.703974 -6.279638 0.06669807,-7.323083 -5.893472 0.3772539,-8.533034 -5.190551 -0.4787121,-8.412115 -4.059953 -0.1847416,-8.404428 -3.414293 0.04330039,-8.427547 -2.836168 0.1934644,-8.921477 -5.048652 -0.4636163,-8.942755 -3.911826 -0.2111797,-9.024954 -3.297518 0.02415103,-9.141953 -2.815179 0.220078,-9.286621 -5.157985 -0.400942,-9.335835 -4.079024 -0.1497411,-9.403725 -3.453819 0.07732785,-9.490791 -2.945615 0.2410884,-9.656201 -5.473705 -0.3046998,-9.77676 -4.634414 -0.07249665,-9.869273 -4.100913 0.09720778,-9.959167 -3.580111 0.2498053,5.010,37  0
-0.4691157 -8.645607 -2.620666,-1.102666 -8.653034 -1.902351,-1.536435 -8.242691 -1.302382,-1.697495 -7.629953 -0.8265862,-1.903905 -7.054492 -0.4034959,-1.329524 -7.390905 -1.00286,-1.452454 -6.491389 -0.1901821,-1.416826 -5.848087 0.3018206,-1.331572 -5.284198 0.6500429,-0.8339214 -7.191152 -1.086166,-0.70609 -6.393291 -0.171692,-0.70609 -6.393291 -0.171692,-0.7901363 -7.681457 -0.1244391,-0.3588471 -7.145925 -1.127721,-0.2106032 -6.298156 -0.3925668,-0.310245 -7.05326 -0.5228862,-0.4308805 -7.547037 -0.7374128,0.04841948 -7.197474 -1.101359,0.2216578 -6.476484 -0.6145283,0.08485174 -6.946567 -0.6088766,-0.08427095 -7.330234 -0.7060224,-9.117701 -7.7402 -0.9675187,-8.527448 -7.537864 -0.5292332,-8.055544 -6.875231 -0.2267686,-7.709657 -6.280221 0.05759478,-7.319133 -5.893274 0.3720258,-8.532827 -5.182232 -0.5171909,-8.413153 -4.052188 -0.2377582,-8.40683 -3.411045 -0.01865655,-8.433475 -2.833883 0.1247128,-8.919057 -5.040195 -0.5031177,-8.93485 -3.901932 -0.2659444,-9.014557 -3.295912 -0.02961934,-9.132906 -2.812907 0.1684999,-9.285929 -5.152233 -0.4377755,-9.328867 -4.06739 -0.196389,-9.398974 -3.447661 0.04239559,-9.491558 -2.938964 0.2164679,-9.660587 -5.472644 -0.3410462,-9.777734 -4.637654 -0.1122305,-9.869963 -4.105402 0.06901383,-9.962788 -3.584175 0.2325692,5.110,37  0
-0.4488258 -8.628599 -2.758229,-1.107777 -8.572357 -2.081243,-1.538632 -8.148298 -1.478222,-1.707496 -7.541484 -1.011703,-1.898508 -7.001644 -0.6307621,-1.319337 -7.56777 -1.008557,-1.43904 -6.617126 -0.2118413,-1.415922 -5.908 0.2299051,-1.34837 -5.308606 0.5301785,-0.8133373 -7.392289 -1.092657,-0.7288632 -6.397089 -0.2656367,-0.7288632 -6.397089 -0.2656367,-0.8284922 -7.423082 -0.3304064,-0.3337374 -7.326841 -1.142067,-0.2078962 -6.295341 -0.4653599,-0.3225889 -6.862489 -0.6162741,-0.4468551 -7.311347 -0.8301109,0.07624722 -7.336636 -1.131457,0.2466388 -6.487682 -0.6937165,0.1111293 -6.791475 -0.687124,-0.05304623 -7.116268 -0.7743442,-9.127481 -7.736759 -1.047576,-8.532207 -7.527403 -0.6360575,-8.058453 -6.870069 -0.3447677,-7.707352 -6.277933 -0.06786978,-7.315942 -5.901296 0.2360597,-8.533749 -5.20556 -0.6153882,-8.409959 -4.075088 -0.3363721,-8.397675 -3.429738 -0.114746,-8.412968 -2.854124 0.02854407,-8.921617 -5.059981 -0.5865103,-8.937336 -3.914793 -0.3571337,-9.017651 -3.295291 -0.1219937,-9.134794 -2.807592 0.07746577,-9.288645 -5.167438 -0.5117344,-9.331153 -4.069824 -0.2723789,-9.405931 -3.446249 -0.04057145,-9.500396 -2.939259 0.1304903,-9.661069 -5.482864 -0.4064536,-9.777973 -4.635208 -0.1838788,-9.872624 -4.103358 -0.01108432,-9.967992 -3.5841 0.1475334,5.210,37  0
-0.4681473 -8.514282 -2.770283,-1.078299 -8.529186 -2.014988,-1.522834 -8.113125 -1.366879,-1.683998 -7.543771 -0.8587488,-1.865976 -7.045683 -0.42549,-1.34708 -7.334119 -1.142447,-1.464053 -6.508781 -0.3470777,-1.429308 -5.853054 0.1218196,-1.351061 -5.257488 0.4608446,-0.8399272 -7.143369 -1.219916,-0.6864786 -6.411977 -0.2579559,-0.6864786 -6.411977 -0.2579559,-0.8182096 -7.638734 -0.066728,-0.3553443 -7.107881 -1.262312,-0.1710501 -6.361504 -0.4778363,-0.2976866 -7.105907 -0.5708617,-0.457406 -7.560108 -0.7699758,0.05187893 -7.171636 -1.243447,0.2581172 -6.482004 -0.6817013,0.1131048 -7.013265 -0.6650037,-0.07330275 -7.417043 -0.7751844,-9.12275 -7.743423 -0.9575714,-8.52355 -7.549879 -0.5264251,-8.052113 -6.887761 -0.2260778,-7.70877 -6.29591 0.0584352,-7.323822 -5.91402 0.3758178,-8.53119 -5.182045 -0.5184896,-8.417016 -4.06584 -0.2411627,-8.416108 -3.424179 -0.01641864,-8.445964 -2.85107 0.1311219,-8.920091 -5.039508 -0.500976,-8.940255 -3.91582 -0.2693016,-9.024224 -3.308427 -0.03296041,-9.143317 -2.832564 0.1635091,-9.288211 -5.150946 -0.4337915,-9.332777 -4.075335 -0.1980317,-9.401083 -3.463431 0.03586352,-9.488373 -2.96828 0.2049426,-9.661939 -5.472193 -0.3343518,-9.78286 -4.642838 -0.1107621,-9.87584 -4.110645 0.06163275,-9.966362 -3.590162 0.2136286,5.310,37  0
-0.4454203 -8.606844 -2.523042,-1.088486 -8.603888 -1.773915,-1.520391 -8.193489 -1.154669,-1.68672 -7.582183 -0.6618263,-1.908523 -7.025993 -0.2350813,-1.313948 -7.287461 -0.8977785,-1.425064 -6.426564 -0.08663213,-1.392771 -5.807487 0.399434,-1.312137 -5.255882 0.7517303,-0.8204618 -7.113315 -0.9893693,-0.6818714 -6.371547 -0.04606402,-0.6818714 -6.371547 -0.04606402,-0.7772732 -7.662105 0.09202969,-0.3443041 -7.089883 -1.041018,-0.1746531 -6.312376 -0.2565869,-0.2658715 -7.066959 -0.3120075,-0.3830566 -7.562723 -0.4942731,0.06664515 -7.161064 -1.035894,0.262557 -6.426057 -0.505133,0.1526632 -6.896373 -0.4637769,-0.0002737045 -7.274526 -0.5488337,-9.127769 -7.7576 -1.012164,-8.531291 -7.547359 -0.5874703,-8.056075 -6.897579 -0.2913767,-7.70861 -6.296024 -0.01113248,-7.327766 -5.905071 0.2956688,-8.533037 -5.222242 -0.5526696,-8.409316 -4.094789 -0.2684472,-8.399298 -3.447937 -0.04442912,-8.418608 -2.871114 0.09969163,-8.91902 -5.074371 -0.5305123,-8.938198 -3.931543 -0.2956334,-9.023545 -3.310934 -0.05901182,-9.143379 -2.823431 0.1424705,-9.283468 -5.176725 -0.4601634,-9.330102 -4.091156 -0.2238547,-9.406001 -3.471397 0.004824996,-9.498883 -2.970728 0.1751046,-9.653522 -5.486087 -0.3574393,-9.772168 -4.644832 -0.1308029,-9.869796 -4.112287 0.04167175,-9.965223 -3.596485 0.2009891,5.410,37  0
-0.4488916 -8.674694 -2.225932,-1.088228 -8.647642 -1.462227,-1.536351 -8.213373 -0.8495877,-1.692614 -7.616307 -0.3650837,-1.868801 -7.053962 0.06728053,-1.316027 -7.244916 -0.5968953,-1.445849 -6.358973 0.2328398,-1.412262 -5.749541 0.7258563,-1.338379 -5.255409 1.071183,-0.8058643 -7.067359 -0.6802815,-0.7112083 -6.344168 0.3119226,-0.7112083 -6.344168 0.3119226,-0.7487497 -7.7131 0.4837122,-0.3213606 -7.05665 -0.7215452,-0.1858153 -6.286672 0.1145849,-0.2599077 -7.067321 0.07413721,-0.3611522 -7.620321 -0.09633136,0.09537506 -7.144725 -0.7043455,0.2786188 -6.432468 -0.1311715,0.1590147 -6.889621 -0.05760813,0.005041122 -7.287838 -0.1188414,-9.142426 -7.763992 -0.986998,-8.54154 -7.559586 -0.5674546,-8.060702 -6.894586 -0.2788595,-7.713279 -6.29149 -0.00499171,-7.331744 -5.907979 0.2935593,-8.543032 -5.221107 -0.5406832,-8.417019 -4.092313 -0.2646337,-8.404263 -3.448639 -0.05018592,-8.420566 -2.867882 0.08837032,-8.928987 -5.071102 -0.5207144,-8.943397 -3.928525 -0.291366,-9.026131 -3.309883 -0.06164473,-9.142882 -2.815915 0.1355698,-9.292043 -5.171853 -0.4526398,-9.332839 -4.081986 -0.2167495,-9.403616 -3.458114 0.0109691,-9.492394 -2.949082 0.1811072,-9.660581 -5.479137 -0.3534547,-9.777267 -4.640481 -0.1278409,-9.874179 -4.106625 0.0467546,-9.969841 -3.585346 0.2086211,5.510,37  0
-0.4961605 -8.828663 -1.47908,-1.108771 -8.734093 -0.6865023,-1.560657 -8.234175 -0.05232525,-1.717841 -7.636089 0.4656876,-1.873866 -7.033769 0.9722382,-1.344118 -7.078624 0.1155165,-1.461841 -6.294319 1.030125,-1.428122 -5.754736 1.580325,-1.355675 -5.296443 1.919952,-0.8418026 -6.903602 0.03213871,-0.71878 -6.365831 1.102135,-0.71878 -6.365831 1.102135,-0.7523956 -7.889474 1.23289,-0.3538485 -6.913997 0.002997994,-0.1912665 -6.3739 0.9106652,-0.2727113 -7.295656 0.7954675,-0.3900599 -7.854925 0.5628511,0.0750308 -7.036275 0.03657877,0.2651019 -6.413439 0.6438428,0.1240916 -7.039094 0.6455151,-0.05138016 -7.493802 0.5195718,-9.140994 -7.76527 -1.00552,-8.541434 -7.563846 -0.5733453,-8.063555 -6.895257 -0.2822363,-7.713287 -6.283865 -0.011491,-7.326838 -5.893219 0.2811249,-8.543453 -5.226583 -0.5404247,-8.421954 -4.089677 -0.2590419,-8.414572 -3.436984 -0.04063576,-8.436207 -2.857394 0.09985006,-8.931755 -5.079439 -0.5278009,-8.950827 -3.932553 -0.2910925,-9.033072 -3.311361 -0.05450726,-9.148556 -2.82108 0.1454825,-9.297714 -5.185201 -0.4692644,-9.344701 -4.090726 -0.2263019,-9.419043 -3.461607 0.008869529,-9.509753 -2.949707 0.1820539,-9.668297 -5.499978 -0.3797777,-9.786535 -4.66068 -0.1527081,-9.882398 -4.134797 0.01857316,-9.978109 -3.622016 0.1759197,5.610,37  0
-0.4985642 -8.79701 -1.233699,-1.109864 -8.722536 -0.4039242,-1.560484 -8.202305 0.2279601,-1.725584 -7.618851 0.7491155,-1.905356 -7.053829 1.291769,-1.340908 -6.95251 0.3555762,-1.453551 -6.236612 1.287484,-1.428826 -5.742548 1.852811,-1.368158 -5.32742 2.198113,-0.845027 -6.766757 0.2558094,-0.6950321 -6.369518 1.363968,-0.6950321 -6.369518 1.363968,-0.7273798 -7.973947 1.515541,-0.3584266 -6.806711 0.2237214,-0.1752148 -6.431758 1.173537,-0.2531719 -7.397172 1.079695,-0.3741217 -7.944976 0.8573153,0.06403399 -6.972103 0.2520647,0.2735515 -6.461179 0.8908257,0.1317081 -7.123143 0.9097524,-0.05207205 -7.559667 0.7943089,-9.136938 -7.747467 -0.9521726,-8.543843 -7.543925 -0.5226135,-8.068691 -6.884336 -0.2271755,-7.722112 -6.292554 0.05411756,-7.341959 -5.912114 0.3641025,-8.548484 -5.183654 -0.5185671,-8.428813 -4.068241 -0.2488247,-8.425693 -3.43285 -0.0316025,-8.454361 -2.860676 0.1069653,-8.93289 -5.040826 -0.5030789,-8.952518 -3.911136 -0.279516,-9.038873 -3.310695 -0.05283982,-9.161647 -2.830888 0.1344904,-9.29655 -5.14959 -0.4355494,-9.343736 -4.077569 -0.2056801,-9.414402 -3.465493 0.02504712,-9.507429 -2.959316 0.1947849,-9.665371 -5.467767 -0.3351619,-9.789287 -4.646778 -0.1143624,-9.885942 -4.121749 0.06053305,-9.982026 -3.60348 0.217399,5.710,37  0
-0.4961591 -8.76857 -1.223822,-1.139393 -8.697195 -0.3737033,-1.624014 -8.157852 0.2779402,-1.808586 -7.552211 0.8203251,-1.975677 -6.99543 1.391226,-1.409243 -6.946874 0.3613104,-1.527088 -6.188282 1.335207,-1.478183 -5.74991 1.916107,-1.40089 -5.440536 2.258288,-0.898263 -6.750383 0.2728704,-0.7851601 -6.336837 1.440696,-0.7851601 -6.336837 1.440696,-0.786902 -7.936615 1.603021,-0.3973432 -6.780405 0.2574155,-0.2514505 -6.369937 1.258394,-0.3089828 -7.355772 1.201733,-0.4147053 -7.923887 0.9835312,0.04450321 -6.940121 0.3032693,0.2236471 -6.418043 0.9804363,0.09620857 -7.114704 1.019665,-0.06589508 -7.587928 0.9088278,-9.142188 -7.776236 -0.9702087,-8.543223 -7.565698 -0.5567777,-8.064483 -6.899117 -0.268327,-7.716589 -6.297037 0.005387962,-7.33251 -5.915576 0.3067827,-8.552319 -5.221517 -0.5236362,-8.430353 -4.092292 -0.2493562,-8.425196 -3.44968 -0.0313583,-8.450873 -2.874481 0.1101234,-8.940931 -5.07831 -0.4995241,-8.962641 -3.939253 -0.2717855,-9.047441 -3.321519 -0.04151219,-9.165472 -2.832024 0.1551416,-9.307669 -5.185895 -0.4282104,-9.355726 -4.102314 -0.197183,-9.430672 -3.47175 0.02880722,-9.51991 -2.95891 0.1984109,-9.681156 -5.49995 -0.3264025,-9.803096 -4.657665 -0.1035739,-9.902163 -4.120859 0.06517661,-9.999295 -3.59849 0.2215831,5.810,37  0
-0.5382657 -8.761799 -1.660592,-1.180403 -8.614134 -0.9279978,-1.647262 -8.063013 -0.3296052,-1.840737 -7.46874 0.1649213,-2.047797 -6.976568 0.6606423,-1.400535 -7.121185 -0.04942727,-1.522397 -6.32113 0.8624512,-1.500649 -5.814519 1.424272,-1.460766 -5.397459 1.792034,-0.8931661 -6.930179 -0.1196629,-0.7349401 -6.418425 0.9056176,-0.7349401 -6.418425 0.9056176,-0.7883406 -7.900098 0.9547619,-0.3996992 -6.943899 -0.1370173,-0.2186213 -6.409729 0.7258326,-0.297164 -7.300952 0.5921448,-0.4206038 -7.850444 0.3747388,0.01997089 -7.083856 -0.09289181,0.2294288 -6.474456 0.4787792,0.1031342 -7.081909 0.4611329,-0.06330204 -7.508798 0.3353769,-9.150475 -7.774431 -0.9049278,-8.554651 -7.57401 -0.4776648,-8.073374 -6.904409 -0.1831151,-7.726266 -6.303325 0.09491444,-7.344824 -5.915604 0.3964806,-8.555356 -5.204398 -0.4664477,-8.438697 -4.076904 -0.1918232,-8.440022 -3.429482 0.02934617,-8.472931 -2.851154 0.1728414,-8.943515 -5.054988 -0.4518482,-8.964619 -3.917768 -0.2182346,-9.058263 -3.306584 0.01534241,-9.188381 -2.827383 0.2138873,-9.311574 -5.160284 -0.3869243,-9.357574 -4.078745 -0.1518496,-9.433847 -3.465855 0.07707101,-9.531603 -2.969749 0.2454966,-9.685851 -5.475306 -0.2909525,-9.7975 -4.644935 -0.06728727,-9.890474 -4.122425 0.1052905,-9.985641 -3.609732 0.2614927,5.910,37  0
-0.5575361 -8.579802 -2.232073,-1.182966 -8.5172 -1.489963,-1.678473 -8.083576 -0.8117737,-1.941287 -7.589893 -0.2492226,-2.162539 -7.112124 0.2813835,-1.4485 -7.326591 -0.4487952,-1.525104 -6.515461 0.5475318,-1.512318 -5.956993 1.171453,-1.49659 -5.509211 1.578556,-0.9177213 -7.178138 -0.5006671,-0.7680035 -6.504516 0.6086714,-0.7680035 -6.504516 0.6086714,-0.8982906 -7.737787 0.7287118,-0.4077697 -7.188869 -0.4991508,-0.2283134 -6.52635 0.399472,-0.3580408 -7.252994 0.234566,-0.5124826 -7.712156 -0.01340246,0.02896023 -7.294393 -0.4450955,0.220335 -6.599245 0.1151466,0.05778074 -7.09251 0.06456447,-0.1200371 -7.471918 -0.09191704,-9.154795 -7.771062 -0.9480709,-8.553013 -7.564018 -0.5231677,-8.073395 -6.899591 -0.23145,-7.723592 -6.30064 0.04337615,-7.343507 -5.908436 0.3432785,-8.560141 -5.205925 -0.5146535,-8.442857 -4.075703 -0.2425635,-8.443805 -3.430069 -0.02648723,-8.476295 -2.860054 0.1134208,-8.949543 -5.063468 -0.4981788,-8.972513 -3.929564 -0.2703486,-9.061929 -3.314451 -0.03610528,-9.187093 -2.834139 0.1632293,-9.318484 -5.176134 -0.432722,-9.364377 -4.091917 -0.1987392,-9.439035 -3.468421 0.03004265,-9.532986 -2.9651 0.200352,-9.693197 -5.498209 -0.3352184,-9.815419 -4.660653 -0.1114547,-9.910748 -4.132383 0.06106496,-10.00443 -3.617115 0.2191195,6.010,37  0
-0.5175362 -8.575468 -2.612778,-1.179563 -8.393177 -1.909153,-1.661445 -8.01539 -1.268606,-1.927908 -7.574701 -0.7211339,-2.124455 -7.049808 -0.1952815,-1.456856 -7.411059 -0.9519405,-1.546291 -6.610662 0.03612041,-1.540889 -6.01144 0.6519465,-1.498974 -5.547679 1.042333,-0.9465299 -7.20783 -1.013286,-0.7610683 -6.63212 -0.023808,-0.7610683 -6.63212 -0.023808,-0.8958902 -7.895778 -0.04780483,-0.4409275 -7.202652 -1.00335,-0.2590165 -6.593603 -0.1422985,-0.3694038 -7.333793 -0.2985351,-0.5064998 -7.822595 -0.5500715,-0.02244568 -7.319852 -0.9465343,0.1990361 -6.647378 -0.381479,0.06377029 -7.15301 -0.4293585,-0.1091537 -7.536052 -0.6010771,-9.136858 -7.7908 -0.9137445,-8.540741 -7.576008 -0.4779283,-8.069407 -6.910155 -0.1708304,-7.728553 -6.311552 0.1188328,-7.343306 -5.927963 0.4367962,-8.559289 -5.222024 -0.4420089,-8.444827 -4.085231 -0.1656766,-8.445034 -3.440153 0.05293322,-8.475367 -2.863123 0.1953226,-8.949758 -5.07814 -0.4277719,-8.975764 -3.941011 -0.189922,-9.061779 -3.328947 0.04378343,-9.179596 -2.854211 0.2398167,-9.313524 -5.185382 -0.3636111,-9.366515 -4.106787 -0.1266916,-9.438835 -3.483777 0.1042229,-9.527193 -2.977364 0.2746841,-9.68027 -5.501701 -0.2687256,-9.805264 -4.66525 -0.04264116,-9.900595 -4.132054 0.1314466,-9.994578 -3.608745 0.2874112,6.110,37  0
-0.5240436 -8.160463 -2.813077,-1.118913 -8.293266 -1.846222,-1.575813 -8.036478 -1.092066,-1.818723 -7.612197 -0.5004613,-1.985734 -7.149702 0.05210495,-1.370737 -7.660234 -0.7254012,-1.432899 -6.952573 0.2892561,-1.479744 -6.303844 0.9323106,-1.484829 -5.724142 1.405861,-0.8465757 -7.494709 -0.8580295,-0.7506666 -6.783916 0.3065808,-0.7506666 -6.783916 0.3065808,-0.9260225 -7.531942 0.7955732,-0.3435063 -7.412401 -0.9350114,-0.1922054 -6.793094 0.1299026,-0.3092828 -7.14678 0.2973104,-0.4831262 -7.418849 0.3071468,0.08132553 -7.423848 -0.9523135,0.2935514 -6.940198 -0.1687007,0.2074189 -7.040822 0.1018164,0.05369663 -7.097401 0.219728,-9.15021 -7.782808 -0.9455648,-8.551434 -7.579538 -0.5104973,-8.075683 -6.909425 -0.2120206,-7.730519 -6.310527 0.06708598,-7.347084 -5.925212 0.372798,-8.567083 -5.218999 -0.4890622,-8.44793 -4.096835 -0.2074918,-8.446688 -3.454654 0.01311564,-8.478132 -2.879203 0.1553271,-8.956177 -5.07648 -0.4789339,-8.978525 -3.948606 -0.2436435,-9.069737 -3.338428 -0.01177204,-9.198972 -2.853262 0.1851121,-9.322412 -5.184993 -0.4195463,-9.371184 -4.112934 -0.1845748,-9.4476 -3.498537 0.04289687,-9.545028 -2.998361 0.2120501,-9.694048 -5.500883 -0.3277903,-9.816257 -4.6743 -0.1032043,-9.914656 -4.150791 0.07252312,-10.01438 -3.635444 0.2303253,6.210,37  0
-0.4551916 -8.241072 -2.691178,-1.071624 -8.236082 -1.900146,-1.525888 -7.93346 -1.200963,-1.822466 -7.495247 -0.6764419,-2.034713 -7.075358 -0.1821492,-1.298127 -7.892656 -0.5547068,-1.379338 -7.125515 0.4154234,-1.49429 -6.448272 0.9687467,-1.555042 -5.80092 1.389301,-0.8092136 -7.727052 -0.6597526,-0.7203512 -6.775764 0.2279406,-0.7203512 -6.775764 0.2279406,-0.9027205 -7.175191 0.317384,-0.3361783 -7.606265 -0.720649,-0.1832676 -6.73049 0.1089044,-0.3185854 -6.987034 0.0319798,-0.478446 -7.26868 -0.02018094,0.07163048 -7.588954 -0.7322916,0.2791405 -6.935088 -0.1264689,0.1696634 -7.03544 -0.04210496,0.0094347 -7.173906 0.01093721,-9.145257 -7.784078 -0.906823,-8.55217 -7.57077 -0.4891756,-8.079558 -6.899827 -0.197902,-7.735826 -6.303257 0.08087093,-7.355787 -5.925315 0.3850337,-8.56996 -5.199052 -0.4842141,-8.453491 -4.077816 -0.214672,-8.45649 -3.439145 -0.001316011,-8.491238 -2.868769 0.1320864,-8.956609 -5.062099 -0.4642586,-8.980674 -3.930426 -0.2399389,-9.0725 -3.321618 -0.01581228,-9.201238 -2.84585 0.1731335,-9.321348 -5.178181 -0.3934674,-9.369485 -4.103187 -0.1640871,-9.448273 -3.483934 0.0583244,-9.548303 -2.983849 0.2206645,-9.691568 -5.505823 -0.2903853,-9.813621 -4.677576 -0.07433671,-9.914262 -4.150619 0.0964818,-10.01625 -3.633687 0.2504654,6.310,37  0
-1.515996 -6.24193 1.450769,-2.245419 -7.119169 2.811356,-2.794528 -7.679165 3.787925,-2.998231 -7.515789 4.49299,-2.654732 -7.186361 5.112494,-1.924413 -7.404912 4.87574,-1.882732 -7.234628 6.073918,-1.887156 -7.336564 6.498186,-1.92277 -7.559773 6.667412,-1.200373 -7.123834 4.624145,-0.9768229 -6.635627 6.086039,-0.9768229 -6.635627 6.086039,-1.293815 -7.385627 6.961813,-0.6209841 -6.890373 4.34463,-0.3595481 -6.91183 5.66642,-0.5337753 -7.5703 5.954147,-0.7433829 -8.178253 6.017041,-0.2137527 -6.805627 4.128006,0.07316494 -6.964639 5.292521,0.03920937 -7.50807 5.777877,-0.08667421 -8.04546 5.997249,-9.153487 -7.801727 -0.9370308,-8.555278 -7.581281 -0.5214413,-8.078085 -6.912564 -0.2295451,-7.733189 -6.30824 0.04863131,-7.354478 -5.923152 0.3508425,-8.567861 -5.23669 -0.4812655,-8.450173 -4.107221 -0.2005621,-8.448908 -3.463388 0.01611483,-8.477551 -2.891208 0.154965,-8.955537 -5.095621 -0.4566087,-8.980624 -3.95591 -0.2198759,-9.069916 -3.336587 0.01012689,-9.193453 -2.848065 0.2074051,-9.319294 -5.203815 -0.3847058,-9.369423 -4.118672 -0.1431017,-9.448157 -3.486318 0.08767831,-9.545604 -2.971784 0.2605222,-9.687757 -5.521728 -0.282639,-9.815105 -4.682481 -0.05218846,-9.919714 -4.150817 0.1215645,-10.02431 -3.633039 0.2815188,6.410,37  0
-1.337276 -6.01995 1.349362,-2.100372 -6.756679 2.72142,-2.658906 -7.356377 3.751237,-2.944029 -7.515831 4.504127,-2.769706 -7.426639 5.14675,-1.910862 -7.170936 4.672276,-1.965023 -7.195845 5.952773,-1.930709 -7.224937 6.485252,-1.916629 -7.34777 6.718036,-1.147984 -7.073639 4.449556,-1.062625 -6.641866 6.011797,-1.062625 -6.641866 6.011797,-1.356009 -7.203225 6.804788,-0.5326004 -6.95837 4.233297,-0.3385353 -6.91514 5.643966,-0.5392408 -7.423383 5.8787,-0.7600756 -7.870372 5.880115,-0.0883913 -6.894395 4.074311,0.193646 -7.014777 5.158487,0.1024904 -7.453008 5.550054,-0.06427097 -7.865312 5.712808,-9.154331 -7.786067 -0.9278028,-8.557851 -7.580364 -0.4841319,-8.084036 -6.918846 -0.1741489,-7.737964 -6.322299 0.1166538,-7.362576 -5.928967 0.4336047,-8.576187 -5.218664 -0.4438929,-8.458948 -4.08288 -0.151467,-8.46315 -3.440521 0.07828867,-8.500049 -2.865975 0.2264024,-8.964554 -5.08041 -0.4269017,-8.986373 -3.944538 -0.1787596,-9.078319 -3.336113 0.06268525,-9.207025 -2.853259 0.2650785,-9.331863 -5.196393 -0.3584816,-9.379938 -4.115255 -0.1073657,-9.454914 -3.496447 0.1346974,-9.550373 -2.99128 0.3148514,-9.704828 -5.520688 -0.257923,-9.833894 -4.6882 -0.01818973,-9.936098 -4.160324 0.1677139,-10.03743 -3.640232 0.3338621,6.510,37  0
-1.404076 -6.261722 1.112625,-2.162546 -7.062818 2.500432,-2.70028 -7.617588 3.541405,-2.916545 -7.613603 4.302921,-2.599366 -7.371389 4.966148,-1.969276 -7.281526 4.450395,-1.962649 -7.048303 5.712494,-1.947914 -7.165382 6.18265,-1.952203 -7.398025 6.364829,-1.231634 -7.093156 4.210682,-1.0721 -6.450321 5.784768,-1.0721 -6.450321 5.784768,-1.354606 -7.23965 6.723021,-0.6323156 -6.937912 3.962132,-0.4127903 -6.830154 5.383618,-0.5925961 -7.474247 5.641227,-0.7880459 -8.077364 5.662813,-0.1982279 -6.872388 3.777279,0.05567074 -6.910461 4.926183,-0.02257156 -7.453151 5.331317,-0.1481829 -7.997974 5.493391,-9.152504 -7.794271 -0.9125158,-8.556276 -7.581207 -0.485089,-8.08388 -6.916235 -0.1826221,-7.738509 -6.318096 0.1047362,-7.359056 -5.929832 0.4200343,-8.578705 -5.215017 -0.4650368,-8.465728 -4.086819 -0.1878325,-8.468652 -3.447543 0.02916694,-8.501221 -2.874467 0.1692185,-8.968327 -5.078034 -0.443722,-8.991415 -3.941133 -0.2111821,-9.082709 -3.32908 0.02098763,-9.209493 -2.848549 0.2188448,-9.333268 -5.195886 -0.3729065,-9.381742 -4.10819 -0.1349906,-9.459009 -3.491037 0.09754121,-9.554167 -2.992226 0.2716979,-9.702888 -5.523071 -0.270216,-9.825364 -4.682702 -0.04365522,-9.924884 -4.152763 0.1348674,-10.02271 -3.633894 0.2976956,6.610,37  0
-1.049308 -7.018017 0.2122581,-1.811433 -7.528345 1.498657,-2.418122 -7.777784 2.583436,-2.775043 -7.798683 3.43931,-2.697913 -7.494165 4.220781,-1.848495 -7.277063 3.336998,-1.887776 -6.803499 4.638323,-1.88595 -6.692453 5.201675,-1.868704 -6.783076 5.443286,-1.129501 -7.190074 3.161047,-1.001445 -6.452232 4.683513,-1.001445 -6.452232 4.683513,-1.369475 -6.995265 5.462855,-0.52174 -7.143688 3.011006,-0.3275318 -6.816299 4.274426,-0.552556 -7.303342 4.377102,-0.7828054 -7.695512 4.323129,-0.06095123 -7.159789 2.905521,0.1662788 -6.889608 3.747598,0.02410316 -7.228163 3.919469,-0.1532745 -7.573616 3.944996,-9.155766 -7.803991 -0.8988014,-8.557304 -7.585597 -0.4784144,-8.086248 -6.917271 -0.1796553,-7.740186 -6.315055 0.1058757,-7.359941 -5.926517 0.4204838,-8.585546 -5.216587 -0.4779637,-8.471277 -4.090843 -0.2114743,-8.47779 -3.451143 0.006581664,-8.517942 -2.883277 0.1477087,-8.974876 -5.078914 -0.4577852,-9.001284 -3.946013 -0.2335158,-9.094607 -3.338287 -0.002603233,-9.224073 -2.867898 0.1959503,-9.340636 -5.196071 -0.386044,-9.390421 -4.112299 -0.156212,-9.466995 -3.494934 0.07248467,-9.562746 -2.99815 0.2430309,-9.710669 -5.524728 -0.2842436,-9.831511 -4.685365 -0.06259561,-9.927773 -4.153394 0.1099313,-10.02363 -3.632746 0.2665781,6.710,37  0
-1.030035 -7.074841 0.1781071,-1.788952 -7.694026 1.390213,-2.41064 -7.961265 2.366862,-2.784809 -7.913988 3.084825,-2.782661 -7.669975 3.711565,-1.858612 -7.607889 3.304437,-1.993038 -7.241882 4.490621,-2.004508 -7.035165 5.038497,-2.006895 -7.001968 5.349704,-1.185118 -7.319709 3.10908,-1.135953 -6.516694 4.54461,-1.135953 -6.516694 4.54461,-1.435932 -6.677519 5.436256,-0.5992556 -7.107917 2.910825,-0.4715238 -6.825469 4.156983,-0.6475868 -7.347008 4.287857,-0.8265648 -7.840608 4.201873,-0.1346059 -7.04055 2.736192,0.04786491 -6.925567 3.676515,-0.05006123 -7.34913 3.874922,-0.2046418 -7.784141 3.905215,-9.161805 -7.806827 -0.9322488,-8.560905 -7.594894 -0.5048364,-8.086064 -6.924573 -0.2094484,-7.74166 -6.318961 0.07106984,-7.360498 -5.934217 0.3789451,-8.584666 -5.236375 -0.4783364,-8.46876 -4.113309 -0.2041639,-8.475759 -3.478941 0.01584876,-8.514916 -2.912685 0.1570755,-8.973527 -5.097246 -0.4597429,-9.001351 -3.965086 -0.2346542,-9.095186 -3.355421 0.001423955,-9.225819 -2.872377 0.2043085,-9.33952 -5.210001 -0.3926101,-9.390539 -4.124792 -0.160397,-9.471709 -3.506722 0.07249606,-9.57093 -3.00153 0.2510244,-9.710976 -5.531896 -0.2941306,-9.838839 -4.692371 -0.07057071,-9.94407 -4.166847 0.1045669,-10.048 -3.650162 0.2674984,6.810,37  0
-1.377663 -6.155132 0.2359916,-2.159863 -6.870979 1.617563,-2.656075 -7.457475 2.565558,-2.909358 -7.654833 3.248759,-2.797881 -7.589699 3.882665,-1.986347 -7.047164 3.391955,-1.952048 -6.986333 4.663869,-1.880751 -7.108154 5.218091,-1.841774 -7.333377 5.492144,-1.267358 -6.879384 3.105857,-1.055193 -6.507551 4.621844,-1.055193 -6.507551 4.621844,-1.251025 -7.538724 5.465428,-0.6807327 -6.778751 2.840873,-0.3942986 -6.889387 4.223036,-0.5473375 -7.671569 4.496449,-0.7386727 -8.327723 4.502909,-0.2486887 -6.767378 2.631453,0.06725407 -6.962997 3.690328,-0.0004520416 -7.577385 4.049717,-0.1408453 -8.123116 4.195626,-9.163966 -7.809946 -0.9474058,-8.569366 -7.600999 -0.5215004,-8.093785 -6.93419 -0.2241796,-7.749399 -6.335546 0.05630422,-7.373536 -5.950481 0.3646128,-8.585746 -5.24481 -0.5002708,-8.472718 -4.109008 -0.2220039,-8.479393 -3.467531 -0.001444101,-8.521483 -2.894723 0.1380183,-8.975003 -5.103845 -0.4805832,-9.001679 -3.956886 -0.2390884,-9.096351 -3.345999 -0.001171112,-9.229695 -2.875802 0.1997458,-9.341469 -5.216771 -0.4097186,-9.393011 -4.125573 -0.1642134,-9.469485 -3.502664 0.07142758,-9.568264 -3.006931 0.2469296,-9.713716 -5.541265 -0.3100889,-9.838226 -4.705601 -0.07555068,-9.939322 -4.174219 0.1094127,-10.04168 -3.654689 0.2755104,6.910,37  0
-1.186883 -6.59301 0.5703729,-1.95708 -7.312519 1.834566,-2.580993 -7.706453 2.875336,-2.917875 -7.745539 3.66007,-2.785811 -7.45396 4.358103,-2.028014 -6.682178 3.801022,-2.049955 -7.085783 4.955427,-2.011404 -7.241182 5.375248,-1.986266 -7.228671 5.564656,-1.305098 -6.548053 3.625253,-1.144444 -6.758852 5.129086,-1.144444 -6.758852 5.129086,-1.350341 -7.181873 5.975738,-0.6791615 -6.5757 3.44453,-0.4401932 -7.046352 4.70791,-0.6367197 -7.534303 4.957068,-0.7966824 -7.769004 5.025974,-0.1720762 -6.73927 3.297853,0.08987045 -7.159224 4.176735,-0.03518867 -7.581375 4.535161,-0.1770563 -7.876541 4.730118,-9.172184 -7.824546 -0.9355017,-8.577314 -7.607835 -0.5073947,-8.101439 -6.938562 -0.2097741,-7.753 -6.336786 0.07052529,-7.370035 -5.951375 0.3764715,-8.593437 -5.258081 -0.4734745,-8.476412 -4.130327 -0.191793,-8.480895 -3.491937 0.02884293,-8.518838 -2.920355 0.1668131,-8.980806 -5.117891 -0.453011,-9.005318 -3.977892 -0.2170589,-9.096402 -3.364762 0.01983875,-9.225303 -2.880529 0.2193443,-9.345989 -5.231853 -0.3825616,-9.395276 -4.145472 -0.138664,-9.471867 -3.519176 0.09748328,-9.567911 -3.00868 0.2746012,-9.716425 -5.557613 -0.2810625,-9.844463 -4.717992 -0.0458802,-9.946762 -4.188062 0.1371003,-10.04898 -3.668989 0.3053734,7.010,37  0
-0.8606977 -8.363255 -0.3776714,-1.670226 -8.571415 0.5770798,-2.354119 -8.440058 1.493857,-2.758129 -7.917793 2.186452,-2.692794 -7.230644 2.75832,-1.847831 -8.0728 2.400619,-2.01898 -7.23941 3.555429,-2.065473 -6.795902 4.029804,-2.098076 -6.609962 4.27096,-1.220752 -7.702573 2.305355,-1.161676 -6.462062 3.591164,-1.161676 -6.462062 3.591164,-1.444919 -6.257478 4.305969,-0.6548052 -7.391908 2.198328,-0.4888773 -6.462312 3.227739,-0.6550765 -6.851181 3.221492,-0.8501701 -7.434846 3.129703,-0.1788254 -7.293581 2.134381,-0.005869865 -6.607372 2.812703,-0.1250625 -6.9477 2.963391,-0.2944021 -7.472074 3.012498,-9.165093 -7.828241 -0.9217663,-8.569971 -7.620033 -0.4881727,-8.094065 -6.954486 -0.1827545,-7.744451 -6.34666 0.1048232,-7.355974 -5.952495 0.4217399,-8.58874 -5.265575 -0.4555643,-8.471049 -4.141452 -0.1730233,-8.473379 -3.498568 0.04951853,-8.50655 -2.922455 0.1893717,-8.975568 -5.117536 -0.4387007,-8.99795 -3.977764 -0.2079572,-9.093419 -3.360731 0.0239706,-9.225913 -2.869451 0.2268208,-9.340526 -5.224008 -0.3724325,-9.389026 -4.131526 -0.1347985,-9.470697 -3.512089 0.1002659,-9.570866 -3.00823 0.2792895,-9.711861 -5.542568 -0.2754527,-9.837598 -4.70298 -0.04638946,-9.944268 -4.180538 0.134416,-10.05041 -3.665169 0.3019264,7.110,37 3 0
-1.767431 -6.058355 1.865856,-2.387239 -6.710695 3.048246,-2.867757 -7.142964 3.994935,-3.116088 -7.028975 4.685962,-3.046085 -6.654831 5.263518,-2.239191 -7.723022 5.130656,-2.184677 -7.987091 6.209453,-2.218871 -7.472852 6.753858,-2.257778 -6.985647 7.133606,-1.555654 -7.581468 4.929049,-1.295756 -7.533612 6.224647,-1.295756 -7.533612 6.224647,-1.545014 -6.272883 7.050328,-1.034757 -7.261371 4.690851,-0.7322311 -7.222034 5.901482,-0.8943477 -6.605004 6.273647,-1.120496 -6.133682 6.513166,-0.6990461 -6.888311 4.451178,-0.3902874 -6.842882 5.397936,-0.4085684 -6.397415 5.877644,-0.5311384 -6.02369 6.21059,-9.17371 -7.832168 -0.9396895,-8.571221 -7.621261 -0.5157562,-8.093977 -6.956507 -0.22251,-7.740763 -6.35465 0.05544132,-7.347692 -5.973886 0.3632455,-8.5868 -5.266538 -0.5053793,-8.466081 -4.144754 -0.2405074,-8.465163 -3.508445 -0.03066015,-8.495785 -2.943122 0.1047207,-8.975928 -5.12181 -0.4884333,-8.993168 -3.992876 -0.270472,-9.083067 -3.385067 -0.03830111,-9.210075 -2.906941 0.1650362,-9.342942 -5.232438 -0.4215142,-9.383617 -4.15286 -0.1953225,-9.458781 -3.540525 0.0358699,-9.552776 -3.042922 0.2144358,-9.715574 -5.553417 -0.3235531,-9.837325 -4.720476 -0.1009498,-9.938601 -4.200368 0.08202553,-10.03976 -3.688032 0.2527461,7.210,37 3 0
-1.61744 -6.038927 1.685845,-2.287516 -6.899715 2.895116,-2.787237 -7.554196 4.003141,-2.981328 -7.487102 4.845898,-2.653976 -7.160242 5.577766,-1.931414 -7.327106 5.128353,-1.860763 -7.303345 6.221148,-1.904481 -7.13068 6.617414,-1.914171 -7.047952 6.772539,-1.19023 -7.030221 4.88449,-0.9826813 -6.659904 6.065979,-0.9826813 -6.659904 6.065979,-1.330881 -6.633565 6.549565,-0.595417 -6.747731 4.589431,-0.3489084 -6.751396 5.571989,-0.573987 -6.858284 5.57851,-0.7882037 -6.97789 5.545379,-0.179615 -6.565118 4.317971,0.07099295 -6.750338 5.165482,-0.03326988 -6.951129 5.447639,-0.1798825 -7.162746 5.575475,-9.157596 -7.847669 -0.8943717,-8.563254 -7.631711 -0.4731954,-8.089368 -6.96208 -0.176591,-7.744297 -6.361553 0.1085229,-7.366726 -5.984039 0.4172624,-8.58549 -5.265891 -0.461844,-8.470345 -4.138454 -0.1986765,-8.476005 -3.492379 0.01277441,-8.513352 -2.91447 0.1542487,-8.970155 -5.123163 -0.4446372,-8.99399 -3.990132 -0.2239628,-9.085932 -3.38171 0.001389503,-9.214827 -2.898292 0.1937984,-9.333276 -5.23049 -0.3783838,-9.380418 -4.148803 -0.1472832,-9.456459 -3.530189 0.08261347,-9.553123 -3.022529 0.253045,-9.70258 -5.549216 -0.2798746,-9.827655 -4.721206 -0.06048471,-9.930551 -4.194308 0.1144522,-10.03462 -3.672225 0.274875,7.310,37 3 0
-1.946725 -5.782747 2.12656,-2.731908 -6.303981 3.40492,-3.312489 -6.630867 4.427623,-3.661024 -6.121166 5.128174,-3.646493 -5.419509 5.72612,-2.14678 -7.150633 5.659746,-1.897962 -7.582384 6.520948,-2.005661 -7.402418 6.898502,-2.087923 -7.195838 7.192107,-1.323783 -7.005219 5.348095,-1.029617 -7.283697 6.264987,-1.029617 -7.283697 6.264987,-1.46216 -6.541916 6.54672,-0.7586374 -6.769257 4.958527,-0.4825811 -7.2679 5.723192,-0.7167492 -6.854654 5.629169,-0.9485378 -6.495187 5.610287,-0.4431281 -6.570847 4.629705,-0.2193451 -7.016763 5.501153,-0.2464409 -6.871021 5.760501,-0.2709398 -6.73715 5.926738,-9.163474 -7.82497 -0.9889142,-8.56406 -7.607862 -0.5684482,-8.089408 -6.951911 -0.2761849,-7.741393 -6.357555 0.002686977,-7.356255 -5.981569 0.3115526,-8.578037 -5.272193 -0.5526336,-8.460739 -4.151197 -0.2809151,-8.459269 -3.51243 -0.06571305,-8.489428 -2.938825 0.07532632,-8.963586 -5.129812 -0.5330591,-8.986845 -4.003221 -0.3133934,-9.073423 -3.393531 -0.08300674,-9.195947 -2.908645 0.1142201,-9.325968 -5.23677 -0.4635894,-9.373496 -4.161052 -0.2358478,-9.448708 -3.546813 -0.004340827,-9.541991 -3.044516 0.1696779,-9.694668 -5.552214 -0.3637962,-9.822739 -4.720588 -0.1401073,-9.928685 -4.191324 0.03952289,-10.03556 -3.669796 0.2029555,7.410,37 3 0
-2.076401 -5.866764 1.362559,-2.778643 -6.312997 2.663419,-3.19272 -6.6121 3.732744,-3.4088 -6.183619 4.520046,-3.351192 -5.617107 5.29022,-2.239407 -7.322641 4.609415,-1.943916 -7.635257 5.577071,-1.998446 -7.433441 6.117125,-2.0488 -7.238554 6.478033,-1.492746 -7.152008 4.327003,-1.016829 -7.222772 5.383995,-1.016829 -7.222772 5.383995,-1.347425 -6.426685 6.00373,-0.969275 -6.854211 3.979858,-0.5290961 -6.948173 4.980381,-0.6783791 -6.518692 5.303215,-0.8772454 -6.191694 5.513112,-0.6953917 -6.533651 3.680998,-0.3201318 -6.629201 4.632987,-0.3217473 -6.403886 5.090879,-0.3537798 -6.224744 5.387902,-9.147561 -7.85136 -0.9367332,-8.55021 -7.642904 -0.5178871,-8.077431 -6.97264 -0.2234086,-7.728047 -6.372111 0.05956674,-7.337729 -5.983096 0.3738999,-8.569124 -5.283028 -0.5176375,-8.443842 -4.170143 -0.2512438,-8.436315 -3.529233 -0.03658891,-8.458428 -2.953899 0.104452,-8.954316 -5.138397 -0.4939073,-8.96927 -4.014316 -0.2806699,-9.05384 -3.404939 -0.04862046,-9.174288 -2.925054 0.1541188,-9.318081 -5.249649 -0.418044,-9.361707 -4.167374 -0.1913444,-9.435663 -3.550117 0.0467155,-9.528453 -3.047126 0.2276922,-9.689265 -5.570508 -0.3107737,-9.816618 -4.729212 -0.08979988,-9.918335 -4.199099 0.0924772,-10.01965 -3.675968 0.2601346,7.510,37 3 0
-2.102582 -5.484448 2.148346,-2.786122 -6.139539 3.46319,-3.19389 -6.61012 4.546805,-3.352172 -6.338836 5.330827,-3.208803 -5.905488 6.056244,-2.202507 -6.983898 5.649794,-1.862767 -7.41102 6.627161,-1.950911 -7.317568 7.065336,-2.02101 -7.212666 7.345585,-1.441266 -6.802778 5.331039,-0.9860544 -6.96898 6.343596,-0.9860544 -6.96898 6.343596,-1.363632 -6.595504 6.669925,-0.9059143 -6.578764 4.947563,-0.464467 -6.793012 5.834163,-0.6490107 -6.59849 5.931148,-0.859869 -6.392608 6.016372,-0.6097918 -6.386371 4.626351,-0.2075067 -6.648208 5.565573,-0.2142835 -6.565336 6.004981,-0.2478991 -6.460149 6.29179,-9.137221 -7.85173 -0.9170372,-8.546772 -7.628807 -0.4930974,-8.073151 -6.968571 -0.1900116,-7.723738 -6.369451 0.1012431,-7.337298 -5.985145 0.4188173,-8.558577 -5.283736 -0.4831291,-8.432524 -4.177427 -0.2108403,-8.425489 -3.539703 0.0112468,-8.444333 -2.962566 0.1602417,-8.943384 -5.135009 -0.4625563,-8.958114 -4.00704 -0.2444471,-9.042956 -3.394362 -0.01208973,-9.160793 -2.90476 0.1917837,-9.304399 -5.238322 -0.3933077,-9.349855 -4.159322 -0.1618104,-9.426978 -3.542234 0.07104784,-9.521206 -3.032081 0.2488024,-9.671474 -5.550352 -0.291559,-9.796349 -4.714612 -0.07436317,-9.898905 -4.186368 0.09322333,-10.00058 -3.663938 0.2495394,7.610,37 3 0
