TiagoOliveira98/Thesis-Project/Difficulty_1/Motor_Task/Unity_Project/DataLogging/JointData/Logs(1647314836)_Tiago_Motor.csv
WRIST,THUMB_CMC,THUMB_MCP,THUMB_IP,THUMB_TIP,INDEX_FINGER_MCP,INDEX_FINGER_PIP,INDEX_FINGER_DIP,INDEX_FINGER_TIP,MIDDLE_FINGER_MCP,MIDDLE_FINGER_PIP,MIDDLE_FINGER_DIP,MIDDLE_FINGER_TIP,RING_FINGER_MCP,RING_FINGER_PIP,RING_FINGER_DIP,RING_FINGER_TIP,PINKY_MCP,PINKY_PIP,PINKY_DIP,PINKY_TIP,WRIST2,THUMB_CMC2,THUMB_MCP2,THUMB_IP2,THUMB_TIP2,INDEX_FINGER_MCP2,INDEX_FINGER_PIP2,INDEX_FINGER_DIP2,INDEX_FINGER_TIP2,MIDDLE_FINGER_MCP2,MIDDLE_FINGER_PIP2,MIDDLE_FINGER_DIP2,MIDDLE_FINGER_TIP2,RING_FINGER_MCP2,RING_FINGER_PIP2,RING_FINGER_DIP2,RING_FINGER_TIP2,PINKY_MCP2,PINKY_PIP2,PINKY_DIP2,PINKY_TIP2,Timestamp,Event
-2.680543 -6.614746 -0.0002408104,-3.248857 -6.475062 0.1693448,-3.716513 -5.939063 0.2700532,-4.087216 -5.542552 0.3866757,-4.484122 -5.421471 0.5450478,-3.332062 -4.525436 0.1281198,-3.465263 -3.793262 0.1816192,-3.595824 -3.160754 0.2835556,-3.680712 -2.647474 0.3973652,-3.038435 -4.342255 0.1273759,-3.094462 -3.54109 0.1799644,-3.094462 -3.54109 0.1799644,-3.144122 -2.480331 0.3759855,-2.739151 -4.357155 0.1303178,-2.753483 -3.609094 0.1942466,-2.763869 -3.107591 0.3128116,-2.729946 -2.666798 0.3979474,-2.45501 -4.520742 0.1520244,-2.425255 -3.986645 0.268417,-2.390145 -3.595185 0.345326,-2.31418 -3.164065 0.3892151,-8.233814 -6.591303 0.0007259487,-7.68832 -6.332208 0.2435599,-7.182519 -5.778377 0.4624932,-6.815584 -5.289743 0.7106892,-6.464528 -5.094949 0.9653982,-7.510249 -4.169734 0.2866386,-7.385567 -3.127189 0.4441186,-7.330434 -2.507443 0.6036812,-7.286766 -1.977227 0.7236242,-7.84335 -4.007297 0.3467221,-7.728882 -2.802015 0.5154805,-7.658159 -2.068391 0.7263133,-7.59957 -1.434136 0.9099599,-8.16905 -4.059103 0.4247678,-8.097297 -2.951097 0.5802196,-8.044092 -2.276942 0.7221835,-7.981685 -1.699646 0.8262163,-8.497415 -4.297835 0.5245636,-8.523969 -3.448141 0.6676028,-8.524218 -2.912743 0.7680963,-8.505611 -2.400302 0.8372155,0.010,33  0
-2.713574 -6.50719 0.3956363,-3.241013 -6.432169 0.7017655,-3.690072 -5.973718 0.8862979,-4.076161 -5.610097 1.03255,-4.444437 -5.464897 1.22723,-3.335775 -4.331396 0.688385,-3.526327 -3.460061 0.7976845,-3.646519 -2.780249 0.9312558,-3.724927 -2.23003 1.054714,-3.007721 -4.125885 0.6891142,-3.111866 -3.129983 0.8232788,-3.111866 -3.129983 0.8232788,-3.174343 -1.790721 1.024805,-2.684251 -4.191347 0.7220739,-2.696477 -3.215314 0.8722776,-2.71483 -2.501024 0.9878218,-2.726151 -1.936849 1.066264,-2.380415 -4.48895 0.7863528,-2.228447 -3.822264 0.9511234,-2.129567 -3.334911 1.059078,-2.026373 -2.838053 1.112101,-8.224096 -6.616233 0.07862051,-7.673368 -6.357421 0.3079999,-7.171016 -5.790061 0.5201893,-6.806251 -5.300357 0.7736539,-6.457564 -5.085985 1.04056,-7.51782 -4.163517 0.3099462,-7.393918 -3.135217 0.4614538,-7.336124 -2.513166 0.6344488,-7.29298 -1.974102 0.7694313,-7.845323 -4.003482 0.3902368,-7.735353 -2.815736 0.5493722,-7.661913 -2.067736 0.7628551,-7.604436 -1.430973 0.945031,-8.161673 -4.066869 0.491154,-8.097546 -2.976194 0.6431059,-8.037265 -2.289369 0.7930879,-7.968464 -1.713715 0.9010187,-8.480679 -4.322749 0.6145289,-8.519279 -3.47918 0.7760721,-8.518498 -2.93347 0.8893022,-8.496422 -2.418371 0.9613971,0.110,33  0
-2.698522 -6.581244 0.6488154,-3.223544 -6.47393 1.03252,-3.675516 -6.005271 1.270776,-4.054756 -5.593385 1.458291,-4.436604 -5.408736 1.679631,-3.33433 -4.369937 1.133467,-3.50954 -3.494825 1.277921,-3.62719 -2.796659 1.424773,-3.701677 -2.206563 1.553005,-3.013645 -4.150959 1.087744,-3.115642 -3.168594 1.261752,-3.115642 -3.168594 1.261752,-3.18166 -1.785744 1.473831,-2.690098 -4.201746 1.067851,-2.706543 -3.261154 1.247716,-2.735574 -2.555817 1.368675,-2.748172 -1.979866 1.450443,-2.390252 -4.496368 1.080427,-2.249286 -3.86444 1.27837,-2.161271 -3.391742 1.4048,-2.06395 -2.906703 1.469132,-8.235215 -6.604187 0.04430062,-7.683304 -6.343015 0.2918839,-7.176718 -5.787016 0.51904,-6.816417 -5.291063 0.7817348,-6.475956 -5.069956 1.053972,-7.514813 -4.170141 0.3255201,-7.390182 -3.125267 0.4847873,-7.338418 -2.507448 0.6475375,-7.300391 -1.975692 0.7685372,-7.847095 -4.007024 0.389561,-7.734127 -2.815067 0.5601442,-7.664093 -2.079522 0.7715518,-7.61016 -1.446241 0.9505029,-8.171736 -4.067788 0.4745369,-8.097599 -2.969014 0.6355129,-8.039486 -2.287153 0.7842234,-7.97317 -1.711668 0.8909513,-8.504237 -4.317942 0.5798252,-8.52971 -3.465717 0.7418392,-8.5235 -2.922649 0.8561029,-8.496759 -2.41247 0.9288692,0.210,33  0
-2.626685 -6.573074 0.4369431,-3.187891 -6.480077 0.7698947,-3.665535 -6.004243 0.958069,-4.070979 -5.571083 1.120802,-4.429279 -5.356004 1.321529,-3.32765 -4.428025 0.7551813,-3.534912 -3.461614 0.8901559,-3.650572 -2.82847 1.016866,-3.721264 -2.298638 1.141663,-2.998183 -4.193065 0.7490648,-3.1088 -3.063728 0.8886479,-3.1088 -3.063728 0.8886479,-3.202193 -1.690894 1.187186,-2.667687 -4.212349 0.779761,-2.673599 -3.134888 0.9469184,-2.720079 -2.398841 1.121399,-2.765401 -1.827758 1.276066,-2.34694 -4.469619 0.8360143,-2.171512 -3.697971 1.009168,-2.076653 -3.143838 1.152426,-1.995623 -2.624545 1.271494,-8.220635 -6.627999 0.03265357,-7.672023 -6.382488 0.2947894,-7.173453 -5.821228 0.5122559,-6.813539 -5.315528 0.758775,-6.464457 -5.102609 1.009149,-7.51833 -4.195244 0.2946988,-7.393609 -3.162986 0.4462302,-7.338102 -2.544024 0.607286,-7.291973 -2.008064 0.7252104,-7.849849 -4.027423 0.3441874,-7.737595 -2.824964 0.5067028,-7.663945 -2.083969 0.7119346,-7.597758 -1.446519 0.8860685,-8.168221 -4.078079 0.4168316,-8.103735 -2.971675 0.5708852,-8.048248 -2.292733 0.706792,-7.978792 -1.721275 0.8006844,-8.488769 -4.319463 0.5127093,-8.529486 -3.463493 0.6724082,-8.527684 -2.915521 0.7743656,-8.502415 -2.401253 0.8351936,0.310,33  0
-2.661509 -6.865001 1.30909,-3.205954 -6.595575 1.570283,-3.675762 -6.018653 1.759149,-4.055088 -5.56386 1.949847,-4.410431 -5.383277 2.174351,-3.313951 -4.429555 1.539896,-3.490839 -3.515036 1.665033,-3.609899 -2.848907 1.802579,-3.684032 -2.270608 1.917592,-2.997808 -4.219617 1.557232,-3.106503 -3.155159 1.670588,-3.106503 -3.155159 1.670588,-3.164798 -1.7531 1.863973,-2.682284 -4.26014 1.607246,-2.690588 -3.212884 1.6983,-2.712979 -2.516966 1.80572,-2.728831 -1.928383 1.864572,-2.362648 -4.549842 1.679705,-2.205373 -3.828299 1.810967,-2.129391 -3.334483 1.90493,-2.052417 -2.82702 1.942961,-8.22355 -6.63742 0.090451,-7.680565 -6.392055 0.3549924,-7.183703 -5.822803 0.5764005,-6.823203 -5.319252 0.830515,-6.477281 -5.103927 1.091079,-7.519102 -4.1885 0.3486256,-7.391232 -3.157545 0.5023289,-7.33409 -2.536067 0.6621076,-7.287037 -1.996125 0.7783499,-7.847955 -4.020589 0.4008423,-7.731681 -2.825861 0.5579422,-7.658286 -2.082172 0.7589107,-7.595116 -1.443633 0.926836,-8.166259 -4.071346 0.4789989,-8.10092 -2.969457 0.6292651,-8.047092 -2.293794 0.7638049,-7.981034 -1.723611 0.8566968,-8.489699 -4.314729 0.5811896,-8.5277 -3.461291 0.7394383,-8.525433 -2.914666 0.8427522,-8.501708 -2.396604 0.9047266,0.410,33  0
-2.650329 -6.679679 0.7723752,-3.212257 -6.51159 1.075886,-3.702468 -6.008363 1.249688,-4.10671 -5.567068 1.402351,-4.460566 -5.381061 1.593762,-3.31727 -4.411901 1.03993,-3.531137 -3.443247 1.171611,-3.644005 -2.82435 1.295727,-3.71845 -2.29549 1.417101,-2.983917 -4.192779 1.051899,-3.088791 -3.048011 1.197683,-3.088791 -3.048011 1.197683,-3.173979 -1.679548 1.51937,-2.656898 -4.233058 1.102059,-2.657096 -3.15817 1.266843,-2.70461 -2.419078 1.445059,-2.751469 -1.836055 1.596802,-2.333989 -4.512275 1.178636,-2.15518 -3.752083 1.338659,-2.054671 -3.208108 1.471348,-1.96893 -2.696975 1.591146,-8.219819 -6.634421 0.04231164,-7.668761 -6.379241 0.2864346,-7.170346 -5.823905 0.5003211,-6.812536 -5.313074 0.7528543,-6.458555 -5.093181 1.019277,-7.510477 -4.193181 0.2888292,-7.386744 -3.130907 0.4414369,-7.329881 -2.494396 0.603585,-7.287464 -1.936579 0.7226225,-7.843522 -4.032106 0.356181,-7.728503 -2.815883 0.5073884,-7.658615 -2.065245 0.705992,-7.598467 -1.431126 0.8731676,-8.165254 -4.091982 0.4480247,-8.099881 -2.972702 0.5954313,-8.043904 -2.280858 0.7435513,-7.974896 -1.701309 0.8475744,-8.491549 -4.341341 0.5616058,-8.530235 -3.476074 0.7257861,-8.527588 -2.915478 0.8445702,-8.49868 -2.389441 0.9144308,0.510,33  0
-2.660664 -6.870388 1.327429,-3.200323 -6.621029 1.60733,-3.659362 -6.058026 1.804414,-4.027714 -5.608048 2.000495,-4.384497 -5.419046 2.233951,-3.301535 -4.436714 1.587203,-3.485052 -3.556446 1.714246,-3.606565 -2.890934 1.847745,-3.683458 -2.322805 1.947708,-2.98635 -4.220119 1.594146,-3.091555 -3.183805 1.70279,-3.091555 -3.183805 1.70279,-3.158461 -1.768178 1.874457,-2.671949 -4.260785 1.634932,-2.67313 -3.245697 1.711939,-2.687356 -2.553176 1.800712,-2.692304 -1.957571 1.851578,-2.355328 -4.559414 1.698428,-2.188643 -3.857793 1.81995,-2.098569 -3.370584 1.914169,-2.006947 -2.85367 1.948406,-8.221868 -6.653518 0.07066117,-7.67198 -6.384414 0.3084186,-7.170818 -5.821263 0.5054613,-6.809526 -5.31263 0.7402869,-6.465187 -5.094161 0.9829603,-7.516245 -4.203512 0.2904868,-7.383218 -3.159938 0.4354405,-7.32251 -2.530293 0.5950028,-7.275111 -1.982892 0.7115634,-7.844684 -4.03924 0.3506948,-7.726067 -2.846147 0.493315,-7.653583 -2.102233 0.6950643,-7.59346 -1.467746 0.8629455,-8.160869 -4.095613 0.4350462,-8.101181 -3.002733 0.5744132,-8.048016 -2.325099 0.7169681,-7.982659 -1.753671 0.8148718,-8.480924 -4.344382 0.542106,-8.527766 -3.4953 0.7024452,-8.528064 -2.948077 0.8184869,-8.502934 -2.430686 0.8880755,0.610,33  0
-2.608914 -6.761512 0.9832233,-3.179226 -6.561668 1.249158,-3.682287 -6.040662 1.402344,-4.08367 -5.577953 1.544876,-4.412466 -5.384816 1.730059,-3.30497 -4.4328 1.13624,-3.515789 -3.454073 1.253434,-3.630117 -2.837018 1.369804,-3.698561 -2.300449 1.484207,-2.983224 -4.210651 1.169896,-3.09707 -3.02866 1.263745,-3.09707 -3.02866 1.263745,-3.198338 -1.646472 1.570735,-2.664385 -4.234999 1.249161,-2.675298 -3.125247 1.37333,-2.718729 -2.391134 1.541474,-2.763772 -1.802328 1.690783,-2.347366 -4.501934 1.359721,-2.159998 -3.706537 1.515095,-2.061215 -3.168256 1.642436,-1.983397 -2.682558 1.751195,-8.217963 -6.634441 0.009147578,-7.674325 -6.390271 0.2513939,-7.179931 -5.831199 0.4578912,-6.825051 -5.328913 0.6995933,-6.483828 -5.120895 0.9509136,-7.517985 -4.207323 0.2295797,-7.389695 -3.184259 0.3692336,-7.330212 -2.56929 0.52853,-7.280302 -2.035228 0.6484092,-7.850123 -4.036256 0.2851673,-7.734097 -2.837962 0.4253515,-7.661263 -2.096188 0.6223779,-7.597233 -1.464475 0.7941731,-8.17158 -4.085821 0.366285,-8.104393 -2.982555 0.4974816,-8.046307 -2.307659 0.6258461,-7.976812 -1.740254 0.7208135,-8.496274 -4.326988 0.4723144,-8.535152 -3.477888 0.6163626,-8.532877 -2.929325 0.7179104,-8.50843 -2.413172 0.7840761,0.710,33  0
-2.625727 -6.760716 1.015363,-3.192724 -6.564735 1.282728,-3.697514 -6.045205 1.439713,-4.096184 -5.593486 1.58627,-4.41902 -5.41555 1.770309,-3.309934 -4.422349 1.150493,-3.514814 -3.460574 1.272693,-3.631034 -2.852206 1.399137,-3.704044 -2.310216 1.523842,-2.99205 -4.198782 1.193422,-3.099364 -3.030976 1.295051,-3.099364 -3.030976 1.295051,-3.204426 -1.644432 1.636163,-2.674215 -4.224108 1.283635,-2.681297 -3.129636 1.406282,-2.724749 -2.409815 1.577345,-2.766791 -1.82191 1.732587,-2.358238 -4.494082 1.40491,-2.165512 -3.711296 1.556251,-2.062318 -3.173783 1.682672,-1.97918 -2.67459 1.797162,-8.227221 -6.618294 -0.02710889,-7.678112 -6.377445 0.2102589,-7.178245 -5.825783 0.4117572,-6.815603 -5.322285 0.6489453,-6.468085 -5.101997 0.8956005,-7.519073 -4.198927 0.1983547,-7.389911 -3.144674 0.3406648,-7.332178 -2.510685 0.4943467,-7.28603 -1.961347 0.6025752,-7.850106 -4.032868 0.2571917,-7.735408 -2.826713 0.4040125,-7.663525 -2.080484 0.5971972,-7.601421 -1.450369 0.7625808,-8.169418 -4.085517 0.3396072,-8.108801 -2.980846 0.4812042,-8.056332 -2.301652 0.6129707,-7.98619 -1.728731 0.7068608,-8.491592 -4.331323 0.4439758,-8.537285 -3.479096 0.6044894,-8.541136 -2.934431 0.7128814,-8.516642 -2.422336 0.7791529,0.810,33  0
-2.608358 -6.763431 1.044388,-3.179375 -6.555683 1.339845,-3.687718 -6.026881 1.509607,-4.094213 -5.57447 1.664202,-4.433327 -5.414458 1.854543,-3.310078 -4.416392 1.214857,-3.515347 -3.435608 1.347812,-3.628788 -2.815697 1.480078,-3.699574 -2.273922 1.603845,-2.991647 -4.196667 1.237921,-3.099419 -3.022559 1.341158,-3.099419 -3.022559 1.341158,-3.205587 -1.64666 1.666881,-2.676596 -4.229507 1.30812,-2.682252 -3.137866 1.437276,-2.724426 -2.424058 1.604716,-2.770639 -1.835716 1.753464,-2.363808 -4.511797 1.416974,-2.173759 -3.754642 1.577551,-2.073333 -3.240237 1.703615,-1.992724 -2.761439 1.809859,-8.242612 -6.614234 -0.0611519,-7.693981 -6.36678 0.1770495,-7.191503 -5.820268 0.3861682,-6.825788 -5.321813 0.6285626,-6.473768 -5.112758 0.8808331,-7.522124 -4.213087 0.1751837,-7.399064 -3.167256 0.3120407,-7.342344 -2.544639 0.4591834,-7.295946 -2.006785 0.5675611,-7.854916 -4.041307 0.2323703,-7.742405 -2.832403 0.3793616,-7.667529 -2.092075 0.5723373,-7.602149 -1.462297 0.7408011,-8.176446 -4.082035 0.3087929,-8.110795 -2.961686 0.4464097,-8.050632 -2.288242 0.5736938,-7.97587 -1.717947 0.6653737,-8.500691 -4.311088 0.4084313,-8.538202 -3.441441 0.5535906,-8.536627 -2.895088 0.6499004,-8.510326 -2.383728 0.709912,0.910,33  0
-2.603191 -6.805051 1.117336,-3.173021 -6.593771 1.405592,-3.675705 -6.065767 1.565458,-4.074997 -5.605525 1.715761,-4.413086 -5.420331 1.901802,-3.301678 -4.434733 1.264298,-3.515627 -3.46039 1.384704,-3.62948 -2.832608 1.50555,-3.692071 -2.286529 1.626752,-2.979171 -4.214572 1.2892,-3.099003 -3.034914 1.376369,-3.099003 -3.034914 1.376369,-3.199512 -1.661265 1.668628,-2.660955 -4.239559 1.361028,-2.66887 -3.138293 1.470797,-2.706264 -2.422678 1.63547,-2.745328 -1.84298 1.774225,-2.347005 -4.509878 1.470768,-2.164005 -3.728156 1.62285,-2.071552 -3.212393 1.748232,-1.999279 -2.74471 1.850667,-8.231228 -6.63373 -0.0002526911,-7.68501 -6.392713 0.2341575,-7.188219 -5.821636 0.4352164,-6.831972 -5.317276 0.674245,-6.483076 -5.117294 0.9182675,-7.53127 -4.210227 0.2188181,-7.404949 -3.177313 0.3610254,-7.349222 -2.555929 0.5149963,-7.305973 -2.014385 0.6291959,-7.861032 -4.038701 0.2766908,-7.744843 -2.842434 0.4207156,-7.67384 -2.093459 0.6198815,-7.615088 -1.459018 0.7906866,-8.18159 -4.088892 0.3561975,-8.115537 -2.978 0.4974151,-8.06135 -2.292367 0.6359522,-7.993028 -1.715559 0.7325967,-8.506918 -4.330104 0.4565876,-8.545782 -3.475729 0.6099246,-8.543956 -2.926279 0.7203203,-8.51687 -2.409996 0.7875367,1.010,33  0
-2.575056 -6.880532 1.207462,-3.153034 -6.652156 1.468004,-3.650406 -6.104584 1.620418,-4.028728 -5.615919 1.771841,-4.354094 -5.396978 1.957653,-3.261072 -4.470698 1.313812,-3.476213 -3.493279 1.437231,-3.594347 -2.879542 1.558933,-3.65981 -2.324434 1.677024,-2.943372 -4.262184 1.367813,-3.062864 -3.084095 1.470235,-3.062864 -3.084095 1.470235,-3.171438 -1.694355 1.794046,-2.628384 -4.295873 1.469932,-2.642415 -3.186798 1.599116,-2.686449 -2.464122 1.77866,-2.728609 -1.870047 1.936156,-2.314394 -4.570451 1.608197,-2.125506 -3.771729 1.777398,-2.030481 -3.236509 1.919713,-1.9577 -2.746373 2.045058,-8.245391 -6.648541 -0.02446418,-7.697469 -6.396043 0.2076379,-7.202698 -5.837151 0.4124235,-6.84885 -5.330465 0.6523012,-6.509604 -5.125295 0.8983604,-7.544125 -4.230218 0.2021025,-7.41273 -3.191312 0.3367046,-7.35761 -2.569415 0.4868116,-7.31434 -2.035377 0.5978421,-7.875602 -4.060785 0.255292,-7.75878 -2.847249 0.3951971,-7.686732 -2.104644 0.5875531,-7.626565 -1.475788 0.7518281,-8.193975 -4.10647 0.3271164,-8.128265 -2.983817 0.4554458,-8.069886 -2.305234 0.5791919,-7.998631 -1.733842 0.6667909,-8.513796 -4.338954 0.420485,-8.552046 -3.469324 0.5536095,-8.550448 -2.923945 0.6477552,-8.525712 -2.411148 0.7068458,1.110,33  0
-2.554824 -6.876344 1.21691,-3.13135 -6.643983 1.497199,-3.635611 -6.088461 1.657542,-4.029114 -5.59569 1.81216,-4.361559 -5.400332 2.000488,-3.250326 -4.471358 1.355212,-3.459827 -3.495328 1.478402,-3.579622 -2.881124 1.600109,-3.6532 -2.33548 1.719414,-2.928751 -4.256492 1.384251,-3.043719 -3.072677 1.475828,-3.043719 -3.072677 1.475828,-3.150844 -1.695182 1.779585,-2.614067 -4.291497 1.463192,-2.622145 -3.191981 1.578509,-2.668111 -2.486772 1.742742,-2.71433 -1.906709 1.88557,-2.305902 -4.566534 1.582858,-2.127505 -3.797485 1.73179,-2.034768 -3.286762 1.861281,-1.962819 -2.813924 1.973104,-8.245598 -6.632324 -0.01166678,-7.702508 -6.390413 0.2315463,-7.205672 -5.833695 0.4459565,-6.841167 -5.338579 0.6976036,-6.485841 -5.130159 0.9650412,-7.536795 -4.212972 0.2515788,-7.406803 -3.164286 0.4115413,-7.349999 -2.533171 0.5765103,-7.305113 -1.98194 0.6938908,-7.866877 -4.048336 0.3204052,-7.754296 -2.834599 0.4811196,-7.685484 -2.082954 0.6813641,-7.628012 -1.452108 0.8467093,-8.187311 -4.106828 0.4123526,-8.128529 -2.99193 0.5726408,-8.076063 -2.305076 0.7217566,-8.009068 -1.728129 0.8232791,-8.510834 -4.358209 0.5258804,-8.554821 -3.498671 0.7035407,-8.557997 -2.944362 0.8250027,-8.53399 -2.420647 0.8959347,1.210,33  0
-2.542224 -6.884021 1.204064,-3.113903 -6.641458 1.477682,-3.611063 -6.082168 1.636937,-3.997618 -5.598966 1.797024,-4.324495 -5.411218 1.990502,-3.23036 -4.474828 1.328988,-3.444019 -3.496222 1.456193,-3.564966 -2.880146 1.582881,-3.636959 -2.328989 1.705137,-2.909935 -4.26642 1.361621,-3.023183 -3.085035 1.45305,-3.023183 -3.085035 1.45305,-3.121468 -1.717458 1.756179,-2.597475 -4.299562 1.446886,-2.609174 -3.200326 1.556404,-2.654296 -2.49442 1.715994,-2.698113 -1.913491 1.854937,-2.291365 -4.563858 1.573169,-2.120369 -3.777467 1.716832,-2.035235 -3.253578 1.844848,-1.973484 -2.765202 1.959122,-8.259811 -6.635409 0.005725379,-7.712323 -6.390285 0.2672922,-7.206151 -5.819731 0.4862364,-6.836997 -5.315107 0.7375032,-6.486793 -5.094855 0.9958597,-7.535876 -4.21551 0.2750358,-7.404963 -3.164427 0.4363591,-7.348995 -2.527765 0.6039048,-7.303819 -1.979805 0.7252761,-7.864656 -4.047492 0.3272588,-7.748127 -2.840053 0.4905215,-7.674157 -2.088525 0.6951724,-7.61275 -1.448961 0.8690907,-8.185357 -4.096079 0.4044842,-8.119529 -2.984519 0.5578871,-8.062858 -2.301357 0.6989905,-7.993657 -1.723725 0.7979223,-8.51338 -4.335818 0.505172,-8.554941 -3.476655 0.6692979,-8.555951 -2.930595 0.7757574,-8.534253 -2.410564 0.8412707,1.310,33  0
-2.518919 -6.882391 1.208189,-3.101706 -6.641158 1.475898,-3.605949 -6.08772 1.628718,-3.993965 -5.591213 1.782274,-4.313942 -5.377304 1.966633,-3.225695 -4.478951 1.319029,-3.436636 -3.505257 1.435431,-3.556728 -2.891851 1.557225,-3.628429 -2.341196 1.67619,-2.905819 -4.265451 1.349991,-3.015611 -3.086862 1.432469,-3.015611 -3.086862 1.432469,-3.112936 -1.726803 1.724215,-2.593647 -4.297294 1.434548,-2.601081 -3.19708 1.535421,-2.647124 -2.496756 1.693256,-2.691702 -1.928553 1.833484,-2.285643 -4.561801 1.560212,-2.114585 -3.778691 1.698322,-2.033902 -3.263983 1.827212,-1.97654 -2.797269 1.940145,-8.252089 -6.653785 0.06571076,-7.704532 -6.393884 0.3187076,-7.206832 -5.823818 0.5386056,-6.850933 -5.321028 0.7926501,-6.512679 -5.10168 1.052578,-7.551974 -4.213003 0.3172477,-7.419134 -3.185906 0.4591517,-7.362025 -2.557953 0.6124586,-7.320214 -2.018203 0.7258407,-7.879955 -4.0434 0.3739502,-7.762491 -2.849849 0.5256829,-7.692697 -2.102878 0.7202865,-7.636128 -1.470636 0.8859463,-8.196017 -4.090173 0.4561737,-8.132666 -2.987566 0.5976974,-8.075436 -2.304503 0.7297612,-8.005152 -1.732708 0.8226863,-8.517922 -4.32471 0.5634524,-8.556549 -3.466094 0.7156213,-8.555207 -2.919776 0.8204042,-8.531018 -2.411506 0.8841531,1.410,33  0
-2.511433 -6.894414 1.226144,-3.081929 -6.653625 1.51485,-3.583645 -6.089931 1.682884,-3.965549 -5.571317 1.850018,-4.290792 -5.34516 2.053203,-3.213944 -4.48435 1.360052,-3.42313 -3.506661 1.485507,-3.540995 -2.888413 1.607922,-3.611423 -2.334174 1.730706,-2.895185 -4.272913 1.387029,-3.007962 -3.088281 1.475681,-3.007962 -3.088281 1.475681,-3.105171 -1.711427 1.767224,-2.583551 -4.305425 1.465354,-2.593229 -3.204963 1.569491,-2.635432 -2.502919 1.729927,-2.677347 -1.926865 1.87068,-2.277325 -4.571847 1.589318,-2.110294 -3.792719 1.732099,-2.030457 -3.276912 1.864078,-1.969788 -2.803508 1.974701,-8.269469 -6.636758 -0.005881141,-7.724397 -6.406118 0.2590196,-7.224787 -5.846704 0.4736227,-6.865322 -5.346056 0.7161052,-6.52459 -5.127977 0.9616254,-7.566446 -4.222293 0.2355229,-7.434386 -3.193039 0.3752547,-7.381983 -2.577408 0.5283227,-7.342228 -2.042766 0.6426909,-7.894848 -4.044464 0.2752409,-7.779851 -2.847785 0.4175154,-7.712257 -2.103284 0.6118446,-7.658996 -1.466443 0.7796841,-8.213338 -4.083822 0.3392511,-8.144009 -2.971784 0.4721891,-8.088214 -2.29076 0.603986,-8.020495 -1.717642 0.7026291,-8.536484 -4.312356 0.429936,-8.572929 -3.459981 0.5704879,-8.572664 -2.918025 0.6731787,-8.551765 -2.407533 0.7401034,1.510,33  0
-2.499475 -6.908321 1.249664,-3.079068 -6.664086 1.53998,-3.578476 -6.105943 1.70145,-3.955862 -5.586677 1.858866,-4.277879 -5.37137 2.047914,-3.204424 -4.502583 1.373199,-3.413174 -3.531163 1.493294,-3.531281 -2.913641 1.617262,-3.601089 -2.358505 1.742154,-2.883714 -4.278863 1.389174,-2.998371 -3.100123 1.465397,-2.998371 -3.100123 1.465397,-3.091656 -1.729519 1.760018,-2.573266 -4.30337 1.457687,-2.584249 -3.210543 1.549977,-2.625148 -2.513887 1.70703,-2.665215 -1.933389 1.847419,-2.268014 -4.565399 1.570778,-2.103579 -3.797069 1.702555,-2.02272 -3.288909 1.83005,-1.960116 -2.815629 1.946083,-8.297626 -6.663803 0.01878978,-7.747 -6.422542 0.2701712,-7.247743 -5.870224 0.4922281,-6.889765 -5.365396 0.7454819,-6.550014 -5.123588 1.005258,-7.590971 -4.238728 0.2583282,-7.460781 -3.202354 0.3959991,-7.405803 -2.58441 0.5504888,-7.36692 -2.044007 0.6688963,-7.917892 -4.06631 0.3107774,-7.800484 -2.861478 0.452953,-7.726473 -2.113004 0.654671,-7.672731 -1.480261 0.8266384,-8.235691 -4.114007 0.3874395,-8.168282 -2.992802 0.5204196,-8.106895 -2.301755 0.6627861,-8.038693 -1.728112 0.7692001,-8.559288 -4.354805 0.4861223,-8.591617 -3.484504 0.6347494,-8.582166 -2.933856 0.7530066,-8.556824 -2.421121 0.8280094,1.610,33  0
-2.528366 -6.946786 1.041078,-3.098983 -6.743261 1.267316,-3.595545 -6.13344 1.402339,-3.949458 -5.655359 1.53556,-4.259628 -5.429889 1.682851,-3.187153 -4.555254 1.291629,-3.388673 -3.706867 1.385801,-3.51099 -3.038614 1.529858,-3.597779 -2.453238 1.661175,-2.884571 -4.387516 1.343484,-2.99925 -3.343297 1.46227,-2.99925 -3.343297 1.46227,-3.031706 -1.862336 1.770828,-2.581818 -4.449592 1.426853,-2.619114 -3.445281 1.510027,-2.6255 -2.773574 1.675168,-2.624439 -2.156724 1.809699,-2.286817 -4.723281 1.503476,-2.178384 -4.085207 1.638741,-2.117207 -3.64224 1.738045,-2.045189 -3.17196 1.791157,-8.324288 -6.706411 0.01548276,-7.784534 -6.453045 0.2550725,-7.290923 -5.898946 0.4839823,-6.940772 -5.400072 0.7462237,-6.604685 -5.172924 1.017217,-7.628757 -4.279275 0.2833107,-7.506128 -3.230937 0.4340382,-7.462142 -2.608196 0.5866131,-7.430082 -2.067363 0.7003905,-7.959287 -4.11224 0.3451353,-7.84217 -2.895118 0.50433,-7.77329 -2.141902 0.7099248,-7.721658 -1.502807 0.8823093,-8.280472 -4.164782 0.4263569,-8.212489 -3.030644 0.5744424,-8.151608 -2.332555 0.7250822,-8.082766 -1.749467 0.8366289,-8.604923 -4.411821 0.5269253,-8.640749 -3.529537 0.6859848,-8.636125 -2.970998 0.8151594,-8.613564 -2.441815 0.8973536,1.710,33  0
-2.534894 -6.931936 0.6451898,-3.085695 -6.799374 0.8383941,-3.559057 -6.228059 0.9588774,-3.901923 -5.755763 1.081316,-4.193401 -5.494194 1.220743,-3.156353 -4.645162 0.8759181,-3.33606 -3.758527 0.9457566,-3.454762 -3.081045 1.06648,-3.536375 -2.510205 1.198546,-2.850567 -4.482292 0.9479547,-2.958452 -3.411656 1.058968,-2.958452 -3.411656 1.058968,-2.998094 -1.945516 1.355473,-2.539584 -4.535416 1.039882,-2.582009 -3.516984 1.131906,-2.598781 -2.8307 1.286711,-2.608567 -2.2322 1.416886,-2.236539 -4.796886 1.130235,-2.149768 -4.100135 1.282718,-2.104653 -3.628374 1.393777,-2.054293 -3.151616 1.459918,-8.368055 -6.734543 0.01977883,-7.831355 -6.48623 0.2699571,-7.337316 -5.939165 0.4988402,-6.987864 -5.431041 0.7563373,-6.655758 -5.194432 1.017985,-7.67311 -4.31722 0.2853664,-7.553483 -3.269678 0.4243968,-7.504848 -2.650678 0.5710237,-7.469142 -2.116462 0.6841275,-7.995093 -4.139026 0.3394531,-7.875223 -2.936243 0.4924538,-7.802988 -2.185623 0.6962627,-7.748069 -1.540091 0.8743284,-8.308694 -4.182436 0.412534,-8.233934 -3.060377 0.5495376,-8.168386 -2.358379 0.6987075,-8.095814 -1.765917 0.8192424,-8.628867 -4.42366 0.5063496,-8.671577 -3.54391 0.6529679,-8.670794 -2.992169 0.7813253,-8.652754 -2.471527 0.8686587,1.810,33  0
-2.21524 -7.450744 0.5672565,-2.775751 -7.380918 0.9144143,-3.257277 -6.896335 1.119289,-3.601522 -6.401372 1.307805,-3.921612 -6.041395 1.526809,-2.911031 -5.285741 0.9248796,-3.11897 -4.246511 1.098165,-3.225939 -3.608418 1.251674,-3.28365 -3.059319 1.389716,-2.575097 -5.038072 0.9292279,-2.693807 -3.844779 1.117954,-2.693807 -3.844779 1.117954,-2.740493 -2.433248 1.483274,-2.238535 -5.084024 0.9691212,-2.257917 -3.971859 1.143265,-2.268219 -3.24524 1.377855,-2.285975 -2.616924 1.591532,-1.900634 -5.363444 1.033606,-1.759858 -4.500099 1.246445,-1.684039 -3.955375 1.445546,-1.644549 -3.461715 1.633247,-8.493103 -6.869001 0.06005819,-7.942798 -6.62602 0.3099969,-7.447264 -6.077264 0.5417212,-7.091081 -5.57792 0.8024747,-6.756884 -5.313907 1.074878,-7.791166 -4.435234 0.3193652,-7.672663 -3.384565 0.4687054,-7.622178 -2.747636 0.6258991,-7.581923 -2.196065 0.7328818,-8.118502 -4.261394 0.3746177,-8.013791 -3.067419 0.5271436,-7.94751 -2.304294 0.7228268,-7.899001 -1.661088 0.8834458,-8.43576 -4.309034 0.4536763,-8.380082 -3.195135 0.5889602,-8.320407 -2.488903 0.7286308,-8.251485 -1.902344 0.8316449,-8.75677 -4.553091 0.5531224,-8.807156 -3.683545 0.7039735,-8.805991 -3.129035 0.8293346,-8.784898 -2.604782 0.9060788,1.910,33  0
-2.182965 -7.950899 1.298001,-2.749672 -7.711298 1.550772,-3.23399 -7.093839 1.676038,-3.544285 -6.602227 1.818419,-3.842417 -6.29354 2.006326,-2.855036 -5.461114 1.632484,-3.019601 -4.457149 1.783361,-3.130855 -3.806175 1.912495,-3.209973 -3.223826 2.029343,-2.523005 -5.321722 1.655321,-2.62009 -4.293561 1.866482,-2.62009 -4.293561 1.866482,-2.671958 -2.961467 2.210065,-2.203376 -5.418689 1.710219,-2.248344 -4.41571 1.898268,-2.257848 -3.78675 2.071156,-2.256189 -3.258049 2.211354,-1.885397 -5.71078 1.7744,-1.795352 -4.956661 2.009859,-1.736948 -4.466803 2.202223,-1.667103 -4.040054 2.346647,-8.494511 -6.910646 0.07192172,-7.952827 -6.653122 0.3226208,-7.467972 -6.07587 0.5560328,-7.128057 -5.559497 0.8170693,-6.784883 -5.309892 1.09207,-7.829394 -4.462102 0.3518829,-7.717208 -3.41609 0.5060748,-7.667803 -2.7846 0.6734694,-7.629303 -2.240989 0.7992204,-8.157295 -4.298057 0.4148541,-8.055555 -3.098634 0.5858989,-7.9885 -2.336562 0.7936454,-7.93059 -1.687652 0.9671499,-8.469865 -4.351112 0.4980833,-8.406779 -3.227855 0.6506788,-8.347429 -2.527069 0.7963429,-8.274122 -1.941686 0.9058958,-8.785627 -4.591038 0.6034308,-8.823146 -3.721645 0.7650312,-8.820549 -3.166526 0.8874882,-8.797574 -2.645281 0.9655757,2.010,33  0
-2.030598 -8.097713 1.111597,-2.552549 -7.875392 1.466344,-2.984726 -7.322284 1.679289,-3.285257 -6.802068 1.880699,-3.577219 -6.459159 2.120106,-2.611104 -5.689451 1.487826,-2.810026 -4.631874 1.704491,-2.898175 -3.997873 1.896401,-2.930913 -3.417106 2.068236,-2.260605 -5.519575 1.527978,-2.305817 -4.324716 1.772486,-2.305817 -4.324716 1.772486,-2.263875 -2.945859 2.17786,-1.922778 -5.603664 1.615674,-1.888696 -4.47584 1.845801,-1.885801 -3.745165 2.070892,-1.885919 -3.129893 2.268463,-1.588286 -5.907174 1.729821,-1.385345 -5.073848 1.961067,-1.275802 -4.538141 2.14446,-1.198029 -4.03475 2.315495,-8.533743 -6.948933 0.07681227,-7.984492 -6.691134 0.3557963,-7.49859 -6.113328 0.6039807,-7.153156 -5.60284 0.873033,-6.801702 -5.359188 1.160996,-7.859872 -4.503262 0.4001842,-7.748061 -3.451881 0.5784727,-7.703537 -2.805522 0.7553999,-7.67119 -2.240169 0.8822669,-8.194313 -4.339956 0.4542304,-8.093013 -3.132311 0.6349412,-8.029055 -2.362013 0.8479593,-7.977266 -1.70261 1.03151,-8.513253 -4.395723 0.5288929,-8.453499 -3.268312 0.6900054,-8.401126 -2.571743 0.8382622,-8.336366 -1.984869 0.9513103,-8.835094 -4.63447 0.6290911,-8.871726 -3.755724 0.7983689,-8.871912 -3.195413 0.916582,-8.85172 -2.67016 0.9934066,2.110,33  0
-1.94785 -8.24983 1.170234,-2.450396 -7.990558 1.517119,-2.88427 -7.441806 1.725919,-3.192487 -6.904954 1.922213,-3.490879 -6.575642 2.162779,-2.506118 -5.824871 1.498564,-2.685076 -4.782089 1.697004,-2.767116 -4.166423 1.874468,-2.800581 -3.599992 2.038883,-2.167501 -5.646323 1.537301,-2.205474 -4.446444 1.761576,-2.205474 -4.446444 1.761576,-2.150085 -3.063797 2.168123,-1.838033 -5.727802 1.624849,-1.796469 -4.590673 1.836675,-1.790282 -3.870771 2.052474,-1.79117 -3.24355 2.241529,-1.508752 -6.035058 1.737343,-1.298242 -5.213232 1.959312,-1.176442 -4.694292 2.131683,-1.089689 -4.193821 2.293339,-8.549679 -6.970281 0.1085949,-7.991018 -6.722305 0.3744578,-7.499507 -6.143257 0.6118234,-7.153487 -5.639835 0.8766482,-6.80728 -5.398676 1.15539,-7.868617 -4.514131 0.3998725,-7.761996 -3.475246 0.5732585,-7.721024 -2.829206 0.756031,-7.687946 -2.269172 0.8847896,-8.207019 -4.348876 0.4601956,-8.107607 -3.149045 0.6264295,-8.043728 -2.372594 0.8378913,-7.993372 -1.715333 1.018421,-8.530617 -4.408992 0.5422881,-8.46938 -3.278839 0.6910527,-8.41617 -2.573758 0.8349363,-8.35146 -1.980147 0.9438726,-8.857322 -4.657664 0.6486762,-8.895339 -3.780787 0.8069137,-8.892364 -3.225827 0.9201345,-8.868618 -2.704505 0.9951431,2.210,33  0
-1.795777 -8.577234 1.274478,-2.301929 -8.317904 1.743315,-2.734754 -7.755251 2.00251,-3.042869 -7.199462 2.214001,-3.337736 -6.90441 2.445725,-2.346487 -6.163017 1.803294,-2.496612 -5.138896 2.044534,-2.547434 -4.533485 2.251343,-2.558755 -3.95654 2.430256,-2.002146 -5.964832 1.77676,-2.038296 -4.760896 2.04878,-2.038296 -4.760896 2.04878,-1.973632 -3.368195 2.493698,-1.669938 -6.029356 1.797432,-1.619025 -4.881853 2.037649,-1.602825 -4.180868 2.279857,-1.595067 -3.548767 2.493979,-1.33515 -6.323773 1.858307,-1.133479 -5.508024 2.098247,-1.000991 -5.008232 2.28473,-0.8967686 -4.508048 2.464025,-8.57689 -7.013522 0.09561403,-8.010781 -6.760158 0.3726791,-7.519432 -6.182526 0.6125821,-7.165533 -5.676893 0.8744959,-6.81582 -5.432913 1.153536,-7.887472 -4.560915 0.4112968,-7.775842 -3.514297 0.6036905,-7.734339 -2.864233 0.7908864,-7.701911 -2.296771 0.9210798,-8.22928 -4.399525 0.4689527,-8.133307 -3.180496 0.6537057,-8.078956 -2.406765 0.8692654,-8.037586 -1.749785 1.048801,-8.552686 -4.464511 0.5493379,-8.496624 -3.321184 0.7205884,-8.44686 -2.620197 0.8760135,-8.38783 -2.030679 0.9876344,-8.877935 -4.71666 0.6549462,-8.917846 -3.845883 0.8365641,-8.915269 -3.293746 0.9649267,-8.89142 -2.775671 1.048135,2.310,33  0
-1.722382 -8.73777 1.42629,-2.222876 -8.508224 1.973812,-2.670109 -7.914299 2.270501,-3.002346 -7.346797 2.50473,-3.311133 -7.039482 2.764058,-2.263463 -6.300414 2.06292,-2.411204 -5.310852 2.320467,-2.460114 -4.706738 2.531084,-2.47917 -4.121867 2.706695,-1.917537 -6.093147 1.992447,-1.952727 -4.920618 2.250051,-1.952727 -4.920618 2.250051,-1.907847 -3.538564 2.673685,-1.586549 -6.162408 1.971247,-1.531883 -5.035731 2.200151,-1.511278 -4.324275 2.448278,-1.505285 -3.69683 2.671512,-1.254948 -6.47431 1.997342,-1.052661 -5.687257 2.230216,-0.919311 -5.188976 2.429278,-0.8125095 -4.691852 2.625331,-8.570198 -7.033576 0.1624497,-8.014137 -6.766959 0.4395471,-7.528022 -6.179328 0.6872253,-7.183852 -5.660739 0.9577324,-6.837199 -5.41908 1.247701,-7.894859 -4.563756 0.4917046,-7.784503 -3.519238 0.6814491,-7.747164 -2.872768 0.8715187,-7.717955 -2.308867 1.009148,-8.23486 -4.400348 0.5484009,-8.135563 -3.186965 0.7363425,-8.078196 -2.41182 0.9521623,-8.033005 -1.748521 1.136554,-8.558417 -4.468738 0.6250932,-8.49584 -3.332946 0.787322,-8.444587 -2.625475 0.9383311,-8.384768 -2.026078 1.054489,-8.887437 -4.728216 0.7285819,-8.923617 -3.855252 0.8970107,-8.924194 -3.299634 1.021738,-8.907557 -2.776028 1.107486,2.410,33  0
-1.609872 -8.960783 1.11142,-2.1132 -8.750942 1.73253,-2.540406 -8.118124 2.058175,-2.857884 -7.52842 2.298703,-3.173914 -7.186855 2.557945,-2.104075 -6.63318 1.862107,-2.208615 -5.673615 2.18038,-2.265263 -5.14876 2.458752,-2.312567 -4.689482 2.678896,-1.744694 -6.421823 1.751052,-1.750897 -5.28087 2.035401,-1.750897 -5.28087 2.035401,-1.743232 -3.886708 2.438109,-1.404843 -6.508138 1.681753,-1.319498 -5.405588 1.910041,-1.29148 -4.729767 2.137622,-1.279947 -4.109009 2.339567,-1.070033 -6.836398 1.671141,-0.8390341 -6.080584 1.909648,-0.6941924 -5.595253 2.094692,-0.5700665 -5.116807 2.260227,-8.56639 -7.051881 0.1944744,-8.011371 -6.778417 0.4742779,-7.523217 -6.198943 0.7269721,-7.178624 -5.691883 1.006435,-6.833108 -5.439033 1.302471,-7.885365 -4.565723 0.5189179,-7.77459 -3.508621 0.7145068,-7.734883 -2.858982 0.9038322,-7.699749 -2.291343 1.037264,-8.228352 -4.409358 0.5781269,-8.133822 -3.198506 0.7683787,-8.077362 -2.424094 0.9860559,-8.030588 -1.762037 1.17058,-8.556252 -4.478565 0.6610596,-8.496888 -3.348593 0.8281264,-8.447492 -2.637468 0.9833624,-8.386733 -2.03301 1.103501,-8.888063 -4.735841 0.7706643,-8.933814 -3.872941 0.940358,-8.93847 -3.32088 1.065353,-8.921454 -2.795946 1.15182,2.510,33  0
-1.555015 -9.102995 1.202236,-2.038611 -8.844887 1.807145,-2.466676 -8.183004 2.137526,-2.796757 -7.575284 2.369663,-3.109498 -7.246023 2.62217,-2.01807 -6.766382 1.968582,-2.091763 -5.890207 2.294977,-2.114226 -5.387359 2.553982,-2.137094 -4.934892 2.751461,-1.666177 -6.542898 1.868216,-1.66105 -5.430937 2.157013,-1.66105 -5.430937 2.157013,-1.643544 -4.008579 2.522537,-1.333225 -6.613927 1.805732,-1.24128 -5.539417 2.083238,-1.203599 -4.830364 2.30324,-1.193862 -4.208414 2.483833,-1.004097 -6.948455 1.797868,-0.7760987 -6.222459 2.069435,-0.6269073 -5.73946 2.244121,-0.5019674 -5.264231 2.391056,-8.576922 -7.045909 0.1858773,-8.018795 -6.776803 0.4770932,-7.532376 -6.211368 0.7303894,-7.188582 -5.698851 1.006752,-6.847458 -5.434555 1.297883,-7.893024 -4.572652 0.5225513,-7.777043 -3.526717 0.7226653,-7.736027 -2.882241 0.9128705,-7.69964 -2.315319 1.043903,-8.232244 -4.407329 0.5736484,-8.131103 -3.200368 0.7611654,-8.078244 -2.432439 0.9788125,-8.036112 -1.773678 1.158088,-8.557997 -4.472301 0.6477783,-8.494318 -3.340866 0.811344,-8.450246 -2.638259 0.9638446,-8.396816 -2.040458 1.07829,-8.889723 -4.730178 0.7499289,-8.933501 -3.864154 0.9126379,-8.938326 -3.3123 1.032907,-8.923553 -2.790174 1.111999,2.610,33  0
-1.405322 -9.275434 1.288216,-1.88757 -9.00312 1.863949,-2.30968 -8.342529 2.172755,-2.651241 -7.75226 2.392447,-2.964429 -7.453548 2.621041,-1.852872 -6.90851 2.000748,-1.896193 -6.118153 2.324375,-1.902612 -5.710357 2.598727,-1.909474 -5.37159 2.7905,-1.497666 -6.679056 1.913411,-1.482896 -5.615722 2.163529,-1.482896 -5.615722 2.163529,-1.440925 -4.190145 2.501182,-1.165112 -6.769473 1.867507,-1.046409 -5.704383 2.129173,-0.9840045 -5.003878 2.331578,-0.947763 -4.393188 2.492805,-0.8389506 -7.129736 1.877238,-0.6121168 -6.416886 2.10438,-0.4485073 -5.931983 2.240975,-0.3045335 -5.456923 2.344693,-8.579501 -7.072652 0.1851727,-8.022389 -6.794202 0.4721316,-7.53968 -6.217494 0.7293861,-7.195432 -5.705978 1.008995,-6.845434 -5.452821 1.30835,-7.909107 -4.588897 0.5268585,-7.796936 -3.539433 0.7251856,-7.758281 -2.89403 0.913457,-7.727011 -2.319416 1.042971,-8.249208 -4.433681 0.5813821,-8.154097 -3.227753 0.7722491,-8.102829 -2.457256 0.9891212,-8.061081 -1.797252 1.170336,-8.574483 -4.506664 0.6605948,-8.521703 -3.373625 0.8287919,-8.479795 -2.670238 0.9908226,-8.429107 -2.073591 1.11353,-8.904635 -4.767063 0.7650804,-8.948669 -3.899683 0.9383376,-8.953672 -3.336914 1.069359,-8.939176 -2.805509 1.156769,2.710,33  0
-1.368905 -9.313292 1.223682,-1.836121 -9.073277 1.813654,-2.248898 -8.442833 2.145747,-2.560437 -7.831079 2.394692,-2.831908 -7.482959 2.638612,-1.777429 -6.953025 1.926578,-1.806609 -6.17464 2.253421,-1.804021 -5.811302 2.544898,-1.794597 -5.555412 2.757915,-1.424112 -6.7319 1.836576,-1.403296 -5.666597 2.082894,-1.403296 -5.666597 2.082894,-1.343614 -4.236299 2.438289,-1.094687 -6.832238 1.801653,-0.9747977 -5.763832 2.058474,-0.9097748 -5.057051 2.259707,-0.866786 -4.436652 2.421945,-0.7666597 -7.206073 1.81828,-0.533627 -6.490869 2.034213,-0.3697228 -6.001054 2.167975,-0.2266636 -5.518864 2.267939,-8.594469 -7.073267 0.1340519,-8.037129 -6.8113 0.4178818,-7.551785 -6.241771 0.6710641,-7.206038 -5.733943 0.9481156,-6.85885 -5.48266 1.244215,-7.91357 -4.607069 0.4608751,-7.795912 -3.557233 0.6575382,-7.756071 -2.909687 0.8440799,-7.726195 -2.333267 0.9771683,-8.252077 -4.449174 0.5197708,-8.155505 -3.235133 0.7028995,-8.102385 -2.453544 0.922246,-8.064751 -1.776764 1.106487,-8.578988 -4.523448 0.6022702,-8.52214 -3.389444 0.7693684,-8.475587 -2.678334 0.937041,-8.423404 -2.06664 1.067256,-8.911817 -4.787166 0.7115358,-8.955719 -3.916357 0.8884615,-8.960266 -3.357746 1.029351,-8.945764 -2.825901 1.125214,2.810,33  0
-1.274712 -9.402094 1.14483,-1.741609 -9.20833 1.827011,-2.143267 -8.592453 2.208591,-2.425363 -7.963121 2.480519,-2.655635 -7.5452 2.736585,-1.635806 -7.091829 2.026356,-1.609198 -6.284549 2.39557,-1.573647 -5.959617 2.71467,-1.535295 -5.810211 2.950445,-1.274484 -6.87927 1.892147,-1.226289 -5.794146 2.161397,-1.226289 -5.794146 2.161397,-1.130721 -4.313274 2.5285,-0.9388533 -6.991634 1.816101,-0.7980156 -5.927953 2.087503,-0.7141151 -5.220817 2.296002,-0.6526566 -4.601924 2.467124,-0.6095695 -7.366827 1.794813,-0.3630047 -6.630175 2.018161,-0.1922998 -6.138925 2.166907,-0.04431152 -5.663484 2.283461,-8.606922 -7.087399 0.1692868,-8.043384 -6.83361 0.4691016,-7.552322 -6.268991 0.7175284,-7.197955 -5.75983 0.9869559,-6.851778 -5.497112 1.273,-7.916434 -4.614761 0.4898451,-7.801171 -3.55948 0.6816664,-7.759719 -2.902663 0.8680094,-7.724745 -2.322815 0.9965197,-8.257582 -4.451199 0.5355504,-8.169075 -3.239992 0.7068423,-8.120096 -2.463316 0.92151,-8.082643 -1.794677 1.10204,-8.582731 -4.525857 0.6065426,-8.536075 -3.395593 0.7653739,-8.494123 -2.687744 0.9366946,-8.444071 -2.08089 1.069002,-8.912059 -4.791735 0.7060151,-8.970568 -3.937551 0.8810329,-8.978419 -3.387343 1.022995,-8.963524 -2.864343 1.118713,2.910,33  0
-1.143946 -9.44857 1.040013,-1.60042 -9.320471 1.766732,-1.983397 -8.729877 2.171165,-2.24899 -8.119446 2.466517,-2.494079 -7.74176 2.760805,-1.479928 -7.213046 2.005288,-1.427071 -6.450595 2.390082,-1.372561 -6.114336 2.70855,-1.309758 -5.885196 2.948944,-1.111492 -6.985912 1.877182,-1.036865 -5.904871 2.16698,-1.036865 -5.904871 2.16698,-0.9141755 -4.405965 2.565243,-0.7726669 -7.086729 1.808571,-0.6029611 -6.007463 2.11821,-0.5105381 -5.296371 2.324702,-0.4467764 -4.656448 2.504815,-0.4394636 -7.465675 1.795164,-0.1671267 -6.741655 2.060576,0.02748775 -6.260273 2.224497,0.1920385 -5.790208 2.361561,-8.587126 -7.104494 0.1373382,-8.028541 -6.82656 0.4185655,-7.554082 -6.260746 0.6714874,-7.214707 -5.749963 0.9469986,-6.870276 -5.498029 1.243753,-7.924544 -4.637828 0.4761551,-7.810161 -3.588048 0.6830135,-7.770169 -2.940286 0.8747,-7.742498 -2.366294 1.008414,-8.264647 -4.478544 0.5338783,-8.168921 -3.255084 0.732166,-8.118995 -2.473049 0.9591591,-8.082847 -1.795014 1.146247,-8.588723 -4.552186 0.6125536,-8.538669 -3.414071 0.7871591,-8.496024 -2.705415 0.9479746,-8.447447 -2.100329 1.070003,-8.916718 -4.811532 0.7164809,-8.965646 -3.929388 0.8980055,-8.970119 -3.362433 1.035783,-8.955182 -2.824331 1.124813,3.010,33  0
-1.23965 -9.576321 1.888314,-1.842177 -9.365747 2.755354,-2.231937 -8.817509 3.37755,-2.509973 -8.266815 3.84652,-2.723399 -7.866224 4.286767,-1.618342 -7.125903 3.264675,-1.491223 -6.083692 3.739796,-1.396672 -5.427608 4.131936,-1.282858 -4.838308 4.38137,-1.237079 -6.977939 3.04306,-1.082817 -5.716316 3.421481,-1.082817 -5.716316 3.421481,-0.7686782 -4.241786 3.948225,-0.9191656 -7.122077 2.851909,-0.7002993 -5.970994 3.137678,-0.5055618 -5.290798 3.348803,-0.3556437 -4.678955 3.553626,-0.6547461 -7.470069 2.718102,-0.3870125 -6.764654 3.031642,-0.1700444 -6.310074 3.240475,0.01227379 -5.86011 3.435155,-8.595154 -7.099078 0.1335526,-8.03213 -6.86021 0.4303662,-7.544427 -6.298054 0.6848834,-7.198453 -5.794912 0.9625983,-6.854844 -5.539892 1.256391,-7.911119 -4.641265 0.4629763,-7.79653 -3.586305 0.6581702,-7.755627 -2.935886 0.8414503,-7.723604 -2.364903 0.9674463,-8.252071 -4.474438 0.513754,-8.160276 -3.247131 0.6904889,-8.111242 -2.468818 0.9045042,-8.076356 -1.803582 1.083878,-8.579955 -4.544391 0.5896347,-8.525544 -3.393638 0.7515164,-8.483982 -2.676383 0.9206664,-8.434899 -2.063559 1.053065,-8.913157 -4.808576 0.6935396,-8.96691 -3.935256 0.8627973,-8.975742 -3.380228 1.003097,-8.961988 -2.857927 1.101614,3.110,33  0
-1.076701 -9.467644 1.145398,-1.517338 -9.303524 1.844657,-1.897743 -8.687614 2.233868,-2.154841 -8.075417 2.527875,-2.408464 -7.694648 2.811403,-1.341619 -7.156147 2.025348,-1.280184 -6.366642 2.403644,-1.225018 -6.004882 2.71385,-1.155396 -5.735908 2.95043,-0.9736662 -6.952653 1.912206,-0.8798976 -5.844622 2.201853,-0.8798976 -5.844622 2.201853,-0.7305622 -4.311125 2.621778,-0.6400228 -7.06751 1.864141,-0.4631371 -5.954059 2.179367,-0.3741856 -5.16996 2.399295,-0.3010998 -4.485751 2.588338,-0.3112683 -7.474044 1.866265,-0.01486778 -6.741228 2.124214,0.1922069 -6.230539 2.287849,0.37849 -5.736646 2.428595,-8.584416 -7.126024 0.1140801,-8.018123 -6.867177 0.4040027,-7.530744 -6.310384 0.6602558,-7.181259 -5.803247 0.9382588,-6.836834 -5.531194 1.233303,-7.901464 -4.669744 0.4591177,-7.784281 -3.611349 0.6681269,-7.744812 -2.961293 0.8621078,-7.716038 -2.382135 0.9960739,-8.245018 -4.509567 0.5143592,-8.155676 -3.283258 0.7030712,-8.10638 -2.501334 0.9266801,-8.071508 -1.82742 1.115798,-8.575048 -4.585464 0.5941399,-8.526388 -3.444467 0.7666747,-8.483784 -2.728617 0.9424061,-8.433571 -2.113554 1.079206,-8.91054 -4.855142 0.6990027,-8.964735 -3.983132 0.8825369,-8.973888 -3.422241 1.024609,-8.960354 -2.892051 1.119409,3.210,33  0
-1.011098 -9.680206 2.2853,-1.606336 -9.346022 2.991781,-2.111959 -8.712933 3.514201,-2.482252 -8.161676 3.912665,-2.71053 -7.756561 4.312273,-1.477089 -7.164732 3.657037,-1.376708 -6.170148 4.146462,-1.263832 -5.560709 4.574379,-1.153432 -4.983106 4.87545,-1.10625 -6.956785 3.43248,-0.9606647 -5.764638 3.819166,-0.9606647 -5.764638 3.819166,-0.6279917 -4.287913 4.307253,-0.7783003 -7.052925 3.226602,-0.6182427 -5.99394 3.512755,-0.453208 -5.217517 3.681041,-0.3113031 -4.516489 3.868049,-0.4987822 -7.357688 3.051929,-0.3884225 -6.600069 3.267609,-0.2767382 -6.086004 3.366118,-0.1723518 -5.582108 3.49265,-8.580508 -7.147926 0.1395231,-8.02277 -6.882959 0.4328961,-7.542019 -6.31841 0.6978384,-7.193021 -5.818381 0.9861368,-6.842419 -5.562305 1.298511,-7.913678 -4.676361 0.4719608,-7.799855 -3.619704 0.6710375,-7.759207 -2.965611 0.8603918,-7.727541 -2.392194 0.9938244,-8.255367 -4.520579 0.5286156,-8.16398 -3.286591 0.7137095,-8.108915 -2.497185 0.9309654,-8.066888 -1.821222 1.111425,-8.582556 -4.592012 0.6083264,-8.527827 -3.439159 0.7726364,-8.481315 -2.718917 0.9336382,-8.429149 -2.106455 1.055994,-8.913658 -4.848082 0.7158585,-8.956787 -3.956057 0.8895617,-8.960659 -3.385012 1.021962,-8.944871 -2.852014 1.107176,3.310,33  0
-1.029386 -9.350203 1.317753,-1.478262 -9.182123 2.034075,-1.858163 -8.597923 2.445905,-2.108822 -8.011805 2.759373,-2.344533 -7.642957 3.0651,-1.277519 -7.002961 2.227715,-1.221342 -6.214321 2.639029,-1.183291 -5.860078 2.976612,-1.129565 -5.605703 3.223685,-0.896966 -6.794647 2.115962,-0.798068 -5.662124 2.432899,-0.798068 -5.662124 2.432899,-0.6324606 -4.091724 2.88868,-0.5563688 -6.924895 2.069617,-0.3709574 -5.801254 2.402051,-0.2694864 -5.01975 2.633224,-0.1842246 -4.35177 2.834455,-0.224587 -7.344707 2.076841,0.07706738 -6.620809 2.342475,0.286953 -6.128343 2.520184,0.4781656 -5.659797 2.649846,-8.578996 -7.175956 0.1626162,-8.019909 -6.908323 0.4453101,-7.537732 -6.331346 0.6980457,-7.191097 -5.816968 0.9715968,-6.836238 -5.571908 1.270176,-7.91099 -4.697996 0.4719471,-7.796803 -3.648526 0.6556882,-7.758375 -2.997488 0.8370008,-7.731503 -2.427428 0.9689542,-8.25269 -4.537631 0.5206656,-8.161708 -3.310245 0.6920408,-8.109098 -2.525005 0.9045491,-8.071399 -1.848672 1.08663,-8.578826 -4.605233 0.5892836,-8.528597 -3.457333 0.7380788,-8.482581 -2.748249 0.8891233,-8.433214 -2.146212 1.006452,-8.909607 -4.857466 0.6869138,-8.951846 -3.972837 0.8469349,-8.953373 -3.404949 0.9696203,-8.938425 -2.871259 1.04958,3.410,33  0
-1.008288 -9.331736 1.344413,-1.465471 -9.203869 2.141857,-1.844908 -8.655106 2.588529,-2.104588 -8.070356 2.917166,-2.37709 -7.701387 3.223726,-1.302889 -6.999421 2.3723,-1.25984 -6.127364 2.795085,-1.209882 -5.771194 3.165043,-1.150112 -5.574586 3.43272,-0.9207382 -6.798709 2.240033,-0.8052311 -5.612976 2.540697,-0.8052311 -5.612976 2.540697,-0.6047378 -4.00307 3.087691,-0.5737081 -6.937477 2.175979,-0.3913913 -5.786952 2.510582,-0.2761798 -5.026763 2.792587,-0.1819744 -4.321611 3.033661,-0.2287307 -7.365724 2.177478,0.06328297 -6.610666 2.437666,0.28405 -6.126799 2.614027,0.4856777 -5.63639 2.778129,-8.603538 -7.175917 0.1690186,-8.034674 -6.925146 0.4849902,-7.544099 -6.368198 0.7493978,-7.185318 -5.864175 1.030966,-6.828542 -5.594894 1.329779,-7.919203 -4.702081 0.5074179,-7.795034 -3.639375 0.7115179,-7.755075 -2.983796 0.9011083,-7.728001 -2.412843 1.030776,-8.262564 -4.539816 0.5431311,-8.16713 -3.307126 0.7272285,-8.115419 -2.527096 0.9460239,-8.080836 -1.856496 1.132771,-8.590407 -4.612253 0.6066896,-8.539813 -3.465476 0.772101,-8.495906 -2.755311 0.9388286,-8.448606 -2.149789 1.067387,-8.922204 -4.877952 0.6977245,-8.971528 -4.005752 0.8712942,-8.977167 -3.456967 1.007694,-8.963892 -2.934065 1.101162,3.510,33  0
-1.020563 -9.335981 1.285151,-1.480453 -9.209873 2.080529,-1.867255 -8.645161 2.515209,-2.13939 -8.043457 2.82726,-2.409605 -7.665029 3.116159,-1.29816 -7.035934 2.318193,-1.268484 -6.183297 2.747064,-1.218051 -5.822496 3.100976,-1.155461 -5.611589 3.351949,-0.91959 -6.82098 2.179543,-0.806036 -5.630386 2.499528,-0.806036 -5.630386 2.499528,-0.6020961 -3.998071 3.057866,-0.5749965 -6.946377 2.103825,-0.3965626 -5.778677 2.445022,-0.2807693 -5.003448 2.727516,-0.1873541 -4.291122 2.973456,-0.2364454 -7.359638 2.089461,0.06299543 -6.601793 2.347343,0.2827125 -6.114686 2.520472,0.4826279 -5.620502 2.676481,-8.586847 -7.189847 0.1891772,-8.033899 -6.907558 0.4623662,-7.556438 -6.338371 0.7141685,-7.209379 -5.830463 0.9929627,-6.85665 -5.572048 1.296241,-7.935253 -4.69671 0.471489,-7.814701 -3.648273 0.644564,-7.769892 -2.994441 0.8189617,-7.738747 -2.421012 0.9442919,-8.271706 -4.540163 0.5298703,-8.177996 -3.310579 0.6888213,-8.12128 -2.530207 0.8963126,-8.079009 -1.858643 1.070287,-8.59334 -4.609521 0.6115165,-8.54809 -3.46104 0.7550393,-8.504128 -2.749611 0.9042195,-8.449852 -2.140843 1.016883,-8.918704 -4.866102 0.719934,-8.972273 -3.979853 0.8769926,-8.979278 -3.415992 1.001764,-8.96422 -2.885969 1.079732,3.610,33  0
-0.9814892 -9.575743 2.327951,-1.546447 -9.26075 3.046688,-2.020718 -8.57559 3.551893,-2.3652 -8.030933 3.975581,-2.585629 -7.629062 4.367453,-1.343292 -6.984516 3.539815,-1.310631 -6.084918 3.96538,-1.217469 -5.621057 4.308959,-1.13263 -5.259246 4.542589,-0.9254074 -6.79285 3.361085,-0.7977762 -5.657339 3.747122,-0.7977762 -5.657339 3.747122,-0.464148 -4.153471 4.257132,-0.5810199 -6.940464 3.221744,-0.3921518 -5.893998 3.522437,-0.223969 -5.156539 3.818322,-0.06511879 -4.469503 4.056952,-0.2858195 -7.335819 3.098242,-0.04890251 -6.625895 3.39886,0.1575856 -6.170032 3.637158,0.3737545 -5.725975 3.853769,-8.61921 -7.191335 0.1943455,-8.062613 -6.931833 0.4979468,-7.575884 -6.358156 0.7485299,-7.227467 -5.841912 1.020112,-6.880992 -5.579135 1.308643,-7.946796 -4.709692 0.5208653,-7.833446 -3.650909 0.7145004,-7.791386 -2.995397 0.8963844,-7.760378 -2.426729 1.022528,-8.287472 -4.546464 0.5669867,-8.199904 -3.302709 0.7440748,-8.148979 -2.51571 0.9602051,-8.113464 -1.839909 1.141389,-8.612569 -4.619366 0.6360809,-8.570306 -3.46776 0.7991412,-8.530255 -2.752128 0.9644759,-8.481476 -2.137794 1.089267,-8.942613 -4.882247 0.7348621,-9.005743 -4.007601 0.9079894,-9.017846 -3.448917 1.046265,-9.003658 -2.924872 1.135761,3.710,33  0
-0.960423 -9.537628 1.490948,-1.432403 -9.264723 2.087795,-1.815377 -8.641327 2.461687,-2.070615 -8.037016 2.727414,-2.296383 -7.651815 2.982922,-1.22977 -7.112369 2.355873,-1.18508 -6.275611 2.734423,-1.146814 -5.915966 3.047203,-1.106844 -5.651969 3.278646,-0.8472433 -6.922063 2.265219,-0.7469549 -5.73236 2.604964,-0.7469549 -5.73236 2.604964,-0.5550852 -4.214293 3.030818,-0.5007725 -7.057224 2.223889,-0.3263068 -5.914028 2.537677,-0.2315822 -5.146686 2.750252,-0.1527586 -4.475608 2.939259,-0.1718273 -7.460136 2.230725,0.1367731 -6.724527 2.495678,0.3448648 -6.24254 2.671716,0.5351753 -5.77688 2.801581,-8.61431 -7.201205 0.2078121,-8.058176 -6.929515 0.4974501,-7.573206 -6.363183 0.7451846,-7.221073 -5.853161 1.018192,-6.875306 -5.594629 1.310331,-7.950602 -4.705291 0.4995752,-7.836691 -3.653394 0.6871186,-7.794918 -2.997964 0.869812,-7.763803 -2.426382 0.99641,-8.286866 -4.547722 0.5494314,-8.193788 -3.317699 0.7159306,-8.140831 -2.535198 0.9327053,-8.10604 -1.860153 1.112718,-8.609804 -4.629123 0.6257335,-8.564379 -3.486128 0.7757878,-8.523617 -2.770238 0.9357554,-8.479496 -2.155381 1.060199,-8.93854 -4.905155 0.7290285,-9.001054 -4.031562 0.8910457,-9.010956 -3.473874 1.027026,-9.000064 -2.95224 1.116385,3.810,33  0
-0.9657145 -9.602676 1.275353,-1.453874 -9.341978 1.846464,-1.839579 -8.714043 2.161049,-2.10043 -8.1203 2.380685,-2.336766 -7.7667 2.596445,-1.278775 -7.231271 2.10833,-1.226748 -6.441487 2.466682,-1.173281 -6.089935 2.759619,-1.120775 -5.864585 2.97138,-0.8969846 -7.043883 2.029996,-0.78901 -5.892942 2.325751,-0.78901 -5.892942 2.325751,-0.6031876 -4.363482 2.698792,-0.5484629 -7.16447 2.000632,-0.3647375 -6.040157 2.283679,-0.2727342 -5.280269 2.472015,-0.1866207 -4.616765 2.637607,-0.2256012 -7.545747 2.014186,0.0439949 -6.802375 2.276005,0.2328835 -6.311239 2.440759,0.4174919 -5.821 2.551672,-8.607357 -7.21335 0.1951463,-8.055606 -6.940481 0.4839972,-7.577291 -6.364337 0.7449145,-7.234513 -5.848012 1.027378,-6.883104 -5.594884 1.338238,-7.946526 -4.733051 0.5210857,-7.82677 -3.688479 0.7110121,-7.782277 -3.03838 0.8939568,-7.749516 -2.466587 1.024924,-8.284966 -4.567615 0.5714066,-8.187492 -3.341308 0.7500234,-8.129872 -2.554393 0.9688991,-8.089121 -1.877801 1.154143,-8.610225 -4.638169 0.6437258,-8.560213 -3.496564 0.8018488,-8.514857 -2.776357 0.9563538,-8.464443 -2.16481 1.072675,-8.941718 -4.90213 0.7440171,-8.987664 -4.016819 0.9120119,-8.989698 -3.450424 1.043158,-8.973186 -2.922885 1.129438,3.910,33  0
-0.9940877 -9.535711 1.174261,-1.437438 -9.400547 2.040456,-1.783478 -8.79488 2.482263,-1.845336 -8.119761 2.780542,-1.839097 -7.578458 3.018828,-1.283059 -7.203767 2.215002,-1.258123 -6.469056 2.618639,-1.156652 -6.126466 2.987403,-1.041679 -5.974161 3.238303,-0.9033861 -7.034072 2.011154,-0.787797 -5.959693 2.302507,-0.787797 -5.959693 2.302507,-0.5696092 -4.511671 2.815491,-0.5701437 -7.153255 1.918909,-0.3846788 -6.091497 2.225941,-0.2664814 -5.400325 2.512624,-0.1595716 -4.743138 2.745435,-0.237956 -7.545913 1.885787,0.03228378 -6.83288 2.145033,0.2370052 -6.360392 2.338958,0.4255371 -5.869531 2.50668,-8.587859 -7.204015 0.1820432,-8.034751 -6.93758 0.4897795,-7.557455 -6.377903 0.7585154,-7.212069 -5.881204 1.048715,-6.871589 -5.614243 1.359258,-7.937913 -4.718627 0.5436705,-7.821681 -3.651443 0.757858,-7.779455 -2.997381 0.9545938,-7.747869 -2.415818 1.089539,-8.273894 -4.567653 0.6019233,-8.191922 -3.325208 0.8017631,-8.146998 -2.536338 1.02948,-8.1163 -1.859157 1.215281,-8.597011 -4.659257 0.6850306,-8.556035 -3.502143 0.87089,-8.518316 -2.767773 1.060342,-8.474626 -2.137675 1.20688,-8.92465 -4.948112 0.7958627,-8.99017 -4.069014 0.9896242,-9.003545 -3.499618 1.146466,-8.991216 -2.966273 1.251439,4.010,33  0
-1.039839 -9.525511 1.144853,-1.45548 -9.30135 1.868014,-1.801852 -8.680607 2.328994,-1.823647 -8.013706 2.707178,-1.609691 -7.555851 3.00869,-1.30299 -7.093729 1.878232,-1.265018 -6.380602 2.260599,-1.161623 -6.045034 2.704274,-1.040852 -5.901895 3.007263,-0.9028225 -6.965092 1.734539,-0.832757 -6.166364 2.028093,-0.832757 -6.166364 2.028093,-0.5753641 -5.754631 2.62299,-0.5738888 -7.086122 1.668899,-0.4213724 -6.261323 1.919101,-0.2706509 -5.913558 2.278149,-0.1383791 -5.79278 2.567887,-0.2578239 -7.481864 1.678707,-0.05745697 -6.816922 1.878909,0.109036 -6.553581 2.150727,0.2459245 -6.414917 2.408885,-8.588966 -7.19988 0.2114772,-8.024654 -6.931023 0.4893371,-7.53671 -6.368919 0.7363852,-7.186707 -5.863263 1.008801,-6.83527 -5.609794 1.301808,-7.914654 -4.710866 0.5244819,-7.795328 -3.654845 0.7071506,-7.756248 -3.000338 0.8814268,-7.726039 -2.426132 0.9996094,-8.25736 -4.548791 0.5752102,-8.165384 -3.324929 0.7409514,-8.120659 -2.545125 0.9503388,-8.087249 -1.882581 1.123569,-8.585017 -4.622495 0.6467927,-8.535295 -3.479328 0.7998993,-8.497342 -2.766819 0.9636555,-8.447088 -2.160938 1.087487,-8.913816 -4.889049 0.743923,-8.973391 -4.01762 0.9107997,-8.981929 -3.458557 1.046819,-8.961201 -2.938262 1.134161,4.110,33  0
-1.020435 -9.334938 0.6328896,-1.448438 -9.080294 1.36104,-1.74702 -8.414063 1.850557,-1.722941 -7.754102 2.240618,-1.451231 -7.342361 2.579471,-1.24307 -7.062856 1.560747,-1.214829 -6.319295 2.030997,-1.128362 -5.922279 2.500351,-1.029397 -5.767457 2.799324,-0.8454933 -6.991617 1.440571,-0.7348671 -6.206734 1.9411,-0.7348671 -6.206734 1.9411,-0.5870533 -6.065322 2.597072,-0.5186305 -7.098283 1.380041,-0.3933668 -6.291404 1.799266,-0.3043423 -6.148796 2.188375,-0.2418146 -6.349471 2.445414,-0.2109265 -7.416339 1.38371,-0.05218172 -6.710862 1.738726,0.01813126 -6.596031 2.071954,0.0479579 -6.759808 2.338755,-8.599771 -7.221447 0.2205406,-8.039834 -6.949134 0.5153644,-7.559411 -6.369703 0.7704479,-7.207826 -5.854755 1.045069,-6.846703 -5.607813 1.343583,-7.929142 -4.734073 0.5367984,-7.816568 -3.694068 0.7162428,-7.777526 -3.049029 0.8925282,-7.749197 -2.480175 1.017302,-8.268284 -4.567577 0.5832707,-8.173631 -3.349476 0.7449858,-8.120887 -2.571455 0.9549222,-8.080942 -1.901873 1.132767,-8.593995 -4.630369 0.6529279,-8.542142 -3.487432 0.8005449,-8.499574 -2.776183 0.9578056,-8.44945 -2.169084 1.076819,-8.923878 -4.883603 0.7504807,-8.97212 -4.005775 0.9163838,-8.977625 -3.438247 1.047324,-8.963963 -2.908972 1.133732,4.210,33  0
-1.02935 -9.335234 0.3505635,-1.46685 -9.054422 1.081703,-1.742868 -8.327791 1.57099,-1.685301 -7.659134 1.955665,-1.411828 -7.243333 2.303599,-1.213695 -7.077343 1.242403,-1.165359 -6.325475 1.721701,-1.084968 -5.923226 2.229261,-1.019163 -5.811862 2.570149,-0.8139324 -7.07036 1.127664,-0.6883945 -6.25774 1.649713,-0.6883945 -6.25774 1.649713,-0.6172314 -6.269628 2.337725,-0.4830599 -7.218277 1.077076,-0.3231983 -6.386837 1.518983,-0.2626591 -6.307887 1.880764,-0.2592878 -6.5773 2.098376,-0.1741724 -7.546688 1.09056,0.01991177 -6.798131 1.442708,0.0587616 -6.737848 1.723193,0.03754234 -6.990266 1.924099,-8.620192 -7.229444 0.1844008,-8.05484 -6.959941 0.469566,-7.574049 -6.404185 0.724251,-7.22462 -5.886793 0.9981793,-6.872593 -5.620792 1.297221,-7.942381 -4.754685 0.4946604,-7.828263 -3.699674 0.6731417,-7.787148 -3.054206 0.8468327,-7.75631 -2.48896 0.965393,-8.283136 -4.585928 0.5407788,-8.190853 -3.350067 0.7015128,-8.13925 -2.57654 0.9065546,-8.100877 -1.912324 1.078275,-8.610017 -4.652301 0.6094015,-8.562135 -3.499428 0.7532491,-8.520905 -2.795112 0.9070703,-8.472707 -2.194381 1.023686,-8.940058 -4.908264 0.703824,-8.988899 -4.023773 0.865383,-8.993863 -3.456329 0.99976,-8.977847 -2.924831 1.087112,4.310,33  0
-0.9940062 -9.289516 0.06497894,-1.423141 -9.063486 0.7930574,-1.71161 -8.370716 1.289383,-1.670459 -7.711942 1.683084,-1.388327 -7.293466 2.027404,-1.214132 -7.130666 0.9601025,-1.186705 -6.412632 1.454424,-1.094223 -6.032354 1.938195,-1.006877 -5.878631 2.260442,-0.8092365 -7.107209 0.8379183,-0.6993937 -6.325242 1.369578,-0.6993937 -6.325242 1.369578,-0.615828 -6.074161 2.100992,-0.46733 -7.234073 0.7801158,-0.3144083 -6.420378 1.245285,-0.2738609 -6.363626 1.629896,-0.2864771 -6.617683 1.854918,-0.1457992 -7.554687 0.7830833,0.05531549 -6.801252 1.15569,0.06736469 -6.780035 1.459793,0.01546717 -7.073785 1.659381,-8.602911 -7.237919 0.2328358,-8.041396 -6.952994 0.5237998,-7.561558 -6.383152 0.7795442,-7.217951 -5.864946 1.058124,-6.867905 -5.610546 1.363969,-7.938659 -4.737289 0.5432227,-7.830339 -3.689789 0.7304329,-7.793764 -3.045732 0.9145528,-7.766352 -2.480157 1.042433,-8.279108 -4.578975 0.5915169,-8.187567 -3.367909 0.7601617,-8.139544 -2.596467 0.976858,-8.107447 -1.927067 1.160384,-8.605768 -4.654434 0.665676,-8.558921 -3.531578 0.8135931,-8.520275 -2.827742 0.9717976,-8.477173 -2.224155 1.097358,-8.94047 -4.922676 0.766828,-8.995534 -4.056681 0.9288434,-9.001595 -3.498695 1.062986,-8.986464 -2.970678 1.156371,4.410,33  0
-0.9817719 -9.245672 -0.07021715,-1.431463 -9.008959 0.6649727,-1.726849 -8.338259 1.176289,-1.692607 -7.702957 1.592304,-1.390064 -7.280557 1.958532,-1.220945 -7.108579 0.8140839,-1.191308 -6.385641 1.343872,-1.085587 -6.039733 1.868017,-0.9836788 -5.948949 2.209223,-0.8066759 -7.097803 0.6861038,-0.6937065 -6.314382 1.21998,-0.6937065 -6.314382 1.21998,-0.5835371 -5.973876 1.986287,-0.4579902 -7.238759 0.6315327,-0.2958665 -6.444145 1.100399,-0.2496204 -6.397712 1.497029,-0.266871 -6.636644 1.723443,-0.1369758 -7.566844 0.6382987,0.05762434 -6.814857 0.9984404,0.07191896 -6.793979 1.285777,0.01815414 -7.075597 1.474532,-8.615795 -7.232349 0.2287817,-8.057493 -6.973572 0.5328685,-7.573065 -6.409326 0.7945043,-7.225365 -5.900022 1.076216,-6.877085 -5.634586 1.378667,-7.944549 -4.739545 0.5551842,-7.823425 -3.694016 0.7536174,-7.780496 -3.053644 0.9402767,-7.749176 -2.484679 1.068701,-8.284435 -4.577954 0.6051193,-8.196571 -3.351453 0.7766697,-8.151464 -2.574571 0.9935132,-8.120058 -1.90403 1.173762,-8.610425 -4.657676 0.6826814,-8.569813 -3.511952 0.8450099,-8.534362 -2.796447 1.022146,-8.49154 -2.179241 1.159525,-8.940316 -4.935492 0.7886133,-9.001624 -4.066508 0.9648318,-9.01335 -3.502771 1.112587,-9.00023 -2.972759 1.211442,4.510,33  0
-1.015499 -9.290642 0.1408744,-1.450441 -9.040104 0.9126473,-1.739908 -8.341463 1.450029,-1.693824 -7.706685 1.870941,-1.382715 -7.349368 2.234803,-1.206622 -7.159271 1.188965,-1.168806 -6.461915 1.799413,-1.068514 -6.12256 2.353517,-0.9842334 -6.034425 2.692469,-0.7841139 -7.143329 1.052347,-0.6479607 -6.363416 1.658884,-0.6479607 -6.363416 1.658884,-0.5627508 -6.097964 2.39316,-0.4375539 -7.279492 0.9891771,-0.2443485 -6.490151 1.518607,-0.2107515 -6.449373 1.905153,-0.247993 -6.709962 2.117549,-0.1217661 -7.62223 0.986918,0.1021576 -6.898717 1.391618,0.1124558 -6.883798 1.696175,0.05011892 -7.177078 1.882214,-8.60569 -7.239099 0.1645926,-8.051569 -6.965681 0.4704612,-7.572221 -6.415847 0.7396288,-7.230439 -5.916319 1.031533,-6.88326 -5.640043 1.342964,-7.948904 -4.762029 0.5302867,-7.83235 -3.695772 0.7520673,-7.792572 -3.042277 0.9488769,-7.766399 -2.460417 1.082367,-8.29231 -4.607938 0.5856206,-8.205971 -3.36663 0.7847831,-8.161934 -2.575841 1.019521,-8.134892 -1.897543 1.213972,-8.621237 -4.686111 0.6649587,-8.578948 -3.530485 0.8476465,-8.543549 -2.808415 1.032387,-8.502235 -2.194952 1.17632,-8.95555 -4.955926 0.7729301,-9.012472 -4.077897 0.9584287,-9.023372 -3.516284 1.107653,-9.010782 -2.986503 1.210466,4.610,33  0
-0.9657068 -9.234713 0.06187167,-1.417117 -9.053024 0.8608119,-1.721911 -8.376732 1.404853,-1.695096 -7.742711 1.845145,-1.372458 -7.364497 2.218712,-1.226893 -7.132484 1.115211,-1.179832 -6.396553 1.73993,-1.05585 -6.095216 2.321196,-0.9358683 -6.082742 2.697209,-0.7990198 -7.104389 0.9696221,-0.6693382 -6.333663 1.57577,-0.6693382 -6.333663 1.57577,-0.5289531 -6.055294 2.372524,-0.4427977 -7.235998 0.900153,-0.2613974 -6.461262 1.429607,-0.1950188 -6.420385 1.842073,-0.2125344 -6.641866 2.082681,-0.1204338 -7.576164 0.896648,0.09118748 -6.893739 1.299267,0.1163883 -6.908453 1.609791,0.05914068 -7.183935 1.819221,-8.646199 -7.231946 0.1783675,-8.084973 -6.980669 0.4903519,-7.596762 -6.430131 0.7490591,-7.239923 -5.925224 1.027584,-6.891811 -5.650899 1.322668,-7.963964 -4.754955 0.4864565,-7.843448 -3.699319 0.6733678,-7.802341 -3.051223 0.8502657,-7.771854 -2.485508 0.9712684,-8.303946 -4.589384 0.5239186,-8.214167 -3.363938 0.6844499,-8.162286 -2.587802 0.8965266,-8.125426 -1.915269 1.076086,-8.631636 -4.660116 0.5899172,-8.584291 -3.519867 0.7371395,-8.543943 -2.81076 0.9061636,-8.497783 -2.198889 1.038473,-8.964321 -4.921827 0.6850496,-9.021027 -4.054502 0.8465552,-9.029685 -3.505067 0.9872777,-9.014783 -2.987006 1.083098,4.710,33  0
-0.9897432 -9.312752 0.1705659,-1.444148 -9.078918 0.9528583,-1.757344 -8.395882 1.492607,-1.746924 -7.767873 1.926675,-1.432275 -7.384859 2.299165,-1.229712 -7.199331 1.238547,-1.191094 -6.508037 1.835989,-1.099105 -6.170234 2.37276,-1.016918 -6.04588 2.704194,-0.7982521 -7.161417 1.103519,-0.685802 -6.407806 1.660488,-0.685802 -6.407806 1.660488,-0.5583711 -5.809547 2.443292,-0.4459252 -7.299994 1.042048,-0.281189 -6.530326 1.530533,-0.2353888 -6.35238 1.937263,-0.2628217 -6.417249 2.192796,-0.1307259 -7.650426 1.038038,0.08248234 -6.951675 1.419277,0.1152272 -6.880406 1.719291,0.07053185 -7.068685 1.923602,-8.632284 -7.240308 0.1845489,-8.076655 -6.973835 0.4878913,-7.595755 -6.39948 0.7420999,-7.250593 -5.89026 1.015712,-6.899787 -5.640748 1.308738,-7.974414 -4.754302 0.5164537,-7.858465 -3.710307 0.7178907,-7.819619 -3.071224 0.9054763,-7.793154 -2.506339 1.033563,-8.317329 -4.59664 0.5601254,-8.229251 -3.366777 0.7348515,-8.169993 -2.624013 0.9093202,-8.138612 -1.956563 1.093171,-8.626054 -4.663924 0.5926889,-8.579446 -3.536112 0.7441922,-8.547497 -2.840637 0.9014087,-8.512794 -2.241367 1.021718,-8.956695 -4.92243 0.688841,-9.006255 -4.064737 0.8489385,-9.012246 -3.511449 0.9760405,-9.002171 -2.987046 1.061775,4.810,33  0
-1.03807 -9.329737 0.1016345,-1.487428 -9.047707 0.8241008,-1.787594 -8.350809 1.330235,-1.753883 -7.709159 1.743455,-1.428835 -7.349266 2.092169,-1.267738 -7.155651 1.011003,-1.234552 -6.456077 1.551051,-1.143609 -6.113613 2.060036,-1.057969 -6.023124 2.387774,-0.8573356 -7.140764 0.8879702,-0.7477574 -6.368418 1.383569,-0.7477574 -6.368418 1.383569,-0.6329689 -5.802333 2.134892,-0.513936 -7.290049 0.8337708,-0.3533611 -6.511722 1.276082,-0.3164115 -6.394584 1.660396,-0.3422146 -6.518726 1.913047,-0.2014894 -7.640249 0.8359283,0.01892853 -6.928096 1.158756,0.06157064 -6.83038 1.428974,0.02821827 -7.006315 1.61325,-8.639965 -7.247715 0.2363975,-8.083918 -6.973629 0.5436278,-7.601104 -6.399137 0.8004627,-7.252041 -5.893056 1.080047,-6.897116 -5.627273 1.383808,-7.974461 -4.741034 0.5489004,-7.859653 -3.689519 0.7459757,-7.817674 -3.03735 0.9348723,-7.784167 -2.45732 1.064632,-8.317738 -4.587696 0.5961763,-8.233656 -3.372965 0.7639721,-8.18596 -2.596262 0.9819857,-8.152233 -1.923988 1.166904,-8.644773 -4.668342 0.6725822,-8.604381 -3.532618 0.831219,-8.56833 -2.822329 1.004178,-8.526617 -2.210419 1.137531,-8.977393 -4.94333 0.7778447,-9.035296 -4.078064 0.9498539,-9.044377 -3.5228 1.089462,-9.033061 -2.99306 1.183538,4.910,33  0
-1.139996 -9.324047 -0.2318353,-1.585876 -9.034468 0.4719939,-1.894176 -8.380413 0.9568963,-1.895711 -7.759634 1.36024,-1.582947 -7.389735 1.70384,-1.38065 -7.226787 0.6155071,-1.360754 -6.491849 1.110356,-1.279552 -6.104493 1.589457,-1.191689 -5.974721 1.910293,-0.9877405 -7.213308 0.4954545,-0.8967094 -6.43538 1.007672,-0.8967094 -6.43538 1.007672,-0.8313818 -6.164251 1.747189,-0.6565857 -7.338597 0.4390242,-0.5149403 -6.537472 0.8734587,-0.4832449 -6.468592 1.230449,-0.5071707 -6.693811 1.44025,-0.3508005 -7.647499 0.4401346,-0.1514111 -6.941566 0.7700288,-0.1297793 -6.894883 1.044523,-0.1726618 -7.145357 1.226131,-8.638656 -7.217353 0.1537457,-8.074458 -6.959629 0.4548961,-7.592386 -6.395702 0.705416,-7.249354 -5.88915 0.9770855,-6.900941 -5.63633 1.264336,-7.970484 -4.738962 0.4699198,-7.855535 -3.685957 0.664915,-7.816444 -3.04269 0.845089,-7.786067 -2.471179 0.9649425,-8.314118 -4.58117 0.5102516,-8.236691 -3.353863 0.6762251,-8.194704 -2.587057 0.8872735,-8.163217 -1.923288 1.066491,-8.643136 -4.657581 0.5738704,-8.602475 -3.506583 0.7329998,-8.573183 -2.801754 0.9058681,-8.535458 -2.191831 1.041013,-8.972865 -4.924597 0.6664064,-9.030977 -4.068079 0.8287276,-9.04425 -3.519832 0.9692564,-9.032228 -2.997221 1.068692,5.010,33  0
-1.178836 -9.301929 -0.1123136,-1.616506 -9.046148 0.5934613,-1.912279 -8.373297 1.073035,-1.889358 -7.747291 1.472132,-1.594847 -7.33391 1.827549,-1.42434 -7.195446 0.7960696,-1.400334 -6.428407 1.28445,-1.33841 -6.007522 1.733754,-1.278052 -5.816532 2.019618,-1.03158 -7.182405 0.6921544,-0.9413843 -6.389667 1.182714,-0.9413843 -6.389667 1.182714,-0.8983426 -5.870524 1.934764,-0.6963491 -7.322346 0.652616,-0.5669432 -6.532472 1.069365,-0.5254774 -6.295963 1.456601,-0.5463572 -6.331485 1.718641,-0.3796821 -7.645693 0.6614202,-0.1881599 -6.93814 1.007498,-0.1462865 -6.809249 1.295133,-0.1800604 -6.950666 1.496843,-8.634995 -7.21801 0.1461071,-8.080012 -6.950044 0.441578,-7.602095 -6.392122 0.7018183,-7.250569 -5.886964 0.9878644,-6.894866 -5.622283 1.30061,-7.971499 -4.742731 0.4531646,-7.855968 -3.700092 0.6531064,-7.814534 -3.054661 0.8447856,-7.782905 -2.486756 0.9749957,-8.309813 -4.585498 0.5127007,-8.224445 -3.359819 0.6836938,-8.176622 -2.584626 0.902059,-8.14244 -1.916791 1.082271,-8.634483 -4.665056 0.5980914,-8.592013 -3.519178 0.758765,-8.554884 -2.80506 0.9373544,-8.51514 -2.188453 1.073183,-8.964547 -4.941747 0.7125721,-9.028527 -4.071718 0.8865022,-9.038912 -3.512537 1.028942,-9.028786 -2.984512 1.125719,5.110,33  0
-1.175434 -9.26158 -0.2549555,-1.608344 -8.985462 0.4266584,-1.903759 -8.297085 0.8739154,-1.872046 -7.682042 1.245174,-1.549037 -7.365541 1.569938,-1.376043 -7.160516 0.6046435,-1.34395 -6.395075 1.082867,-1.255992 -5.969593 1.552477,-1.18224 -5.835641 1.855252,-0.983613 -7.170129 0.4978887,-0.8499517 -6.397703 0.998678,-0.8499517 -6.397703 0.998678,-0.818675 -6.167405 1.695721,-0.6610303 -7.322759 0.4597567,-0.4960217 -6.557161 0.8995638,-0.4497933 -6.377397 1.289189,-0.4754515 -6.522585 1.525774,-0.3604817 -7.648319 0.4709415,-0.1754413 -6.966146 0.8308667,-0.1272516 -6.829992 1.123004,-0.1571379 -6.967075 1.322109,-8.62053 -7.207891 0.123727,-8.056561 -6.947898 0.417053,-7.570063 -6.401858 0.6753378,-7.219217 -5.898577 0.9537131,-6.879919 -5.623333 1.251421,-7.946119 -4.742181 0.4401309,-7.835038 -3.687181 0.6403047,-7.794157 -3.036858 0.8279328,-7.762743 -2.471742 0.9524173,-8.286534 -4.582588 0.4872188,-8.202515 -3.362648 0.6588823,-8.154483 -2.588372 0.8723412,-8.121964 -1.926188 1.05055,-8.614011 -4.659439 0.5583849,-8.570204 -3.532466 0.7174659,-8.532806 -2.823406 0.8866785,-8.491008 -2.219472 1.013755,-8.945932 -4.9287 0.6571273,-9.009032 -4.065145 0.824046,-9.018652 -3.508835 0.9625415,-9.004947 -2.987893 1.055864,5.210,33  0
-1.144152 -9.246168 -0.1357919,-1.582513 -9.012812 0.6104552,-1.879537 -8.321472 1.09622,-1.845988 -7.696143 1.477131,-1.554452 -7.32942 1.811222,-1.387599 -7.187658 0.9010642,-1.342503 -6.446596 1.431728,-1.253845 -6.04263 1.921415,-1.177615 -5.880225 2.234854,-0.9836607 -7.177587 0.7730262,-0.8549976 -6.401336 1.31762,-0.8549976 -6.401336 1.31762,-0.7789049 -6.006303 2.068755,-0.6457539 -7.314672 0.7091833,-0.4907217 -6.540956 1.191766,-0.4350815 -6.356174 1.597807,-0.4466276 -6.483645 1.856752,-0.3312855 -7.628421 0.6960961,-0.1394711 -6.936593 1.102749,-0.1003962 -6.826129 1.425093,-0.1412735 -6.996614 1.649664,-8.604668 -7.204407 0.1263246,-8.043621 -6.938983 0.4378533,-7.567022 -6.377059 0.7087787,-7.226355 -5.87007 0.994772,-6.875436 -5.619718 1.302589,-7.941879 -4.742401 0.4977057,-7.8283 -3.683761 0.7077855,-7.791574 -3.039104 0.8943126,-7.765771 -2.471851 1.017216,-8.287331 -4.583237 0.5370343,-8.200623 -3.349576 0.7280956,-8.152091 -2.572564 0.9453945,-8.116777 -1.904068 1.127389,-8.618086 -4.657896 0.597919,-8.570431 -3.50447 0.7735037,-8.531254 -2.789213 0.9495258,-8.485106 -2.178908 1.081969,-8.951765 -4.920284 0.6861886,-9.002705 -4.047016 0.8638056,-9.009824 -3.481279 1.007746,-8.993515 -2.950374 1.106896,5.310,33  0
-1.132095 -9.305756 -0.03933964,-1.581287 -9.057058 0.7268454,-1.895958 -8.396025 1.240292,-1.865026 -7.79359 1.641773,-1.545527 -7.480175 1.984394,-1.388503 -7.260616 1.056755,-1.364905 -6.528852 1.630774,-1.289968 -6.156503 2.134742,-1.22266 -6.013933 2.450467,-0.9697227 -7.233206 0.9274692,-0.8509178 -6.443496 1.479609,-0.8509178 -6.443496 1.479609,-0.7463474 -5.835432 2.232402,-0.6278267 -7.370619 0.8636028,-0.4590683 -6.590812 1.359667,-0.4018526 -6.359273 1.767174,-0.4187021 -6.381158 2.03194,-0.3197842 -7.706396 0.8523295,-0.107234 -7.028751 1.233352,-0.04507971 -6.860103 1.538499,-0.07308769 -6.926208 1.748551,-8.620884 -7.216236 0.1654971,-8.060566 -6.950337 0.4648704,-7.578802 -6.393177 0.7257632,-7.229954 -5.882365 1.004031,-6.882439 -5.619689 1.303924,-7.951715 -4.743879 0.5020825,-7.838691 -3.694726 0.6954309,-7.800402 -3.043944 0.8782908,-7.774768 -2.475942 1.003017,-8.291634 -4.579958 0.541716,-8.19832 -3.354009 0.7224633,-8.148026 -2.572751 0.9415274,-8.11472 -1.903666 1.126046,-8.617328 -4.646662 0.6033039,-8.571075 -3.515133 0.759582,-8.531591 -2.805498 0.9199307,-8.486267 -2.207153 1.044214,-8.947145 -4.90095 0.6924386,-8.998522 -4.026349 0.8556867,-9.00218 -3.461622 0.9882348,-8.985548 -2.938307 1.076201,5.410,33  0
-1.099497 -9.307673 0.0004259465,-1.554928 -9.1003 0.7643461,-1.883696 -8.44607 1.278592,-1.85462 -7.870847 1.68333,-1.531538 -7.57262 2.021189,-1.35162 -7.264241 1.121787,-1.331376 -6.530395 1.687547,-1.259126 -6.154665 2.189854,-1.192191 -6.015153 2.503272,-0.9268999 -7.238014 0.9981684,-0.8136282 -6.454913 1.567812,-0.8136282 -6.454913 1.567812,-0.7434063 -5.890951 2.345671,-0.5794458 -7.384776 0.9368386,-0.4156256 -6.610048 1.445213,-0.379292 -6.466394 1.868099,-0.4131622 -6.575346 2.144076,-0.2625074 -7.735466 0.9282379,-0.04695368 -7.055526 1.330994,-0.009245396 -6.958037 1.656516,-0.06011677 -7.121181 1.879869,-8.628137 -7.231411 0.1844795,-8.067492 -6.958095 0.4938937,-7.589905 -6.395738 0.7588849,-7.243347 -5.885755 1.043883,-6.889334 -5.612253 1.349785,-7.958789 -4.752841 0.5118779,-7.84616 -3.697256 0.7072365,-7.805427 -3.048036 0.8873367,-7.775198 -2.477577 1.009006,-8.297061 -4.588823 0.5535566,-8.204905 -3.362976 0.7313768,-8.154824 -2.58863 0.9494762,-8.119188 -1.919076 1.131026,-8.622705 -4.656841 0.6208299,-8.576255 -3.510297 0.7832505,-8.539418 -2.800173 0.954973,-8.496359 -2.190962 1.08674,-8.955573 -4.916397 0.7153666,-9.009306 -4.042381 0.887895,-9.014077 -3.480497 1.028476,-8.997628 -2.95236 1.124383,5.510,33  0
-1.011386 -9.29314 0.4501303,-1.506198 -9.14677 1.311788,-1.855321 -8.463625 1.882984,-1.808737 -7.866336 2.301817,-1.443158 -7.599085 2.653162,-1.332015 -7.268928 1.844471,-1.309868 -6.580051 2.503981,-1.217162 -6.202131 3.05167,-1.123351 -5.965641 3.385357,-0.866889 -7.204265 1.688197,-0.7315722 -6.457767 2.353474,-0.7315722 -6.457767 2.353474,-0.6145797 -5.913013 3.219186,-0.4828892 -7.32876 1.58828,-0.273334 -6.596015 2.191854,-0.2405214 -6.48351 2.631083,-0.2848053 -6.584268 2.905952,-0.1449966 -7.686567 1.5487,0.1062613 -7.048803 2.0209,0.1104631 -7.029645 2.372889,0.02539635 -7.243215 2.616468,-8.637808 -7.229011 0.1844045,-8.075816 -6.958126 0.5006535,-7.592522 -6.3918 0.7572994,-7.2447 -5.879091 1.02875,-6.897838 -5.611852 1.318037,-7.966576 -4.752094 0.5198165,-7.851771 -3.703885 0.7215914,-7.812269 -3.056778 0.9077049,-7.783498 -2.485102 1.034557,-8.308799 -4.586005 0.552081,-8.217889 -3.364174 0.7293689,-8.170035 -2.597035 0.9450381,-8.135515 -1.927778 1.124495,-8.634233 -4.649549 0.6108691,-8.592567 -3.508775 0.7742556,-8.557725 -2.807704 0.9400336,-8.515811 -2.203199 1.066314,-8.962998 -4.902744 0.6970802,-9.023071 -4.047904 0.8703878,-9.030108 -3.494536 1.010365,-9.012535 -2.972316 1.10492,5.610,33  0
-1.087331 -9.361481 0.6181431,-1.541697 -9.115345 1.498735,-1.858634 -8.418669 2.130165,-1.78793 -7.838769 2.61498,-1.414011 -7.626775 3.015529,-1.242235 -7.189415 1.929557,-1.167078 -6.460548 2.709146,-1.097975 -6.282339 3.331482,-1.080881 -6.36816 3.684801,-0.7924051 -7.191959 1.784169,-0.5592461 -6.321098 2.547513,-0.5592461 -6.321098 2.547513,-0.5801029 -6.280813 3.36806,-0.4453382 -7.362669 1.708518,-0.1578422 -6.544605 2.361635,-0.1661119 -6.56461 2.784677,-0.2871809 -6.819616 3.021081,-0.1491756 -7.754489 1.703673,0.1324434 -7.087239 2.181543,0.1193357 -7.116338 2.524295,0.005297661 -7.377315 2.737692,-8.645741 -7.221732 0.1874283,-8.081737 -6.954721 0.496576,-7.59907 -6.39785 0.7546483,-7.254123 -5.890556 1.03095,-6.903535 -5.62488 1.327739,-7.979915 -4.734045 0.522182,-7.861704 -3.677948 0.7262294,-7.819011 -3.029919 0.9124491,-7.786056 -2.459106 1.035693,-8.326039 -4.577444 0.5605915,-8.242334 -3.35017 0.7349819,-8.196906 -2.583405 0.9495642,-8.166082 -1.918149 1.12974,-8.654865 -4.656059 0.6228608,-8.613415 -3.509616 0.7836179,-8.579803 -2.806229 0.9584548,-8.541387 -2.19573 1.09286,-8.986537 -4.926184 0.7139515,-9.045379 -4.066538 0.8776209,-9.052652 -3.518045 1.018172,-9.037822 -2.994102 1.118326,5.710,33  0
-1.025685 -9.346506 0.7876263,-1.506525 -9.167879 1.748918,-1.846872 -8.52424 2.439313,-1.773368 -7.955219 2.960191,-1.390832 -7.74373 3.398723,-1.301852 -7.260771 2.261357,-1.260753 -6.597757 3.139135,-1.145772 -6.385044 3.810205,-1.065978 -6.422275 4.189686,-0.8187537 -7.197185 2.104272,-0.5984831 -6.364398 3.005,-0.5984831 -6.364398 3.005,-0.589303 -6.566806 3.846367,-0.438714 -7.317509 2.025225,-0.1450405 -6.553501 2.790711,-0.1645451 -6.720237 3.20227,-0.2860088 -7.05586 3.389083,-0.1194024 -7.667149 2.022789,0.1738138 -7.058959 2.594377,0.1391392 -7.176656 2.957509,0.01133442 -7.48694 3.157712,-8.65033 -7.234293 0.1582969,-8.089804 -6.95715 0.4639198,-7.611113 -6.394603 0.7265905,-7.265956 -5.887294 1.007365,-6.913562 -5.632377 1.305302,-7.987736 -4.761527 0.5083739,-7.878569 -3.708547 0.7132276,-7.840421 -3.064538 0.9016722,-7.811589 -2.498661 1.031996,-8.3302 -4.601165 0.5495114,-8.245591 -3.364142 0.7354771,-8.198703 -2.588889 0.9555494,-8.16513 -1.915164 1.143016,-8.656889 -4.666265 0.6114427,-8.608418 -3.509379 0.7776188,-8.571758 -2.799409 0.9401253,-8.530518 -2.187094 1.066127,-8.986655 -4.921834 0.7021704,-9.04015 -4.047304 0.8624048,-9.049294 -3.490663 0.9898629,-9.038923 -2.964397 1.081071,5.810,33  0
-1.048521 -9.382717 1.063872,-1.52409 -9.160084 1.978419,-1.867295 -8.481524 2.658224,-1.787214 -7.943958 3.169578,-1.360624 -7.787743 3.600235,-1.339188 -7.197736 2.534134,-1.25718 -6.534505 3.375026,-1.132276 -6.335559 4.025907,-1.048179 -6.352506 4.409989,-0.8556094 -7.159864 2.414132,-0.6265326 -6.363936 3.284567,-0.6265326 -6.363936 3.284567,-0.57024 -6.280398 4.270753,-0.4705696 -7.319673 2.354156,-0.1656413 -6.571496 3.096421,-0.1570272 -6.620912 3.535774,-0.2743587 -6.804622 3.765716,-0.1495256 -7.712541 2.36315,0.1540141 -7.101984 2.886672,0.142458 -7.184334 3.22836,0.02165985 -7.414888 3.436841,-8.65438 -7.240401 0.1986067,-8.096983 -6.978641 0.5345533,-7.619038 -6.431018 0.8139395,-7.270106 -5.928846 1.109216,-6.913848 -5.638357 1.422524,-7.994608 -4.752893 0.5611097,-7.880211 -3.695352 0.774016,-7.838593 -3.051754 0.967185,-7.808167 -2.483581 1.093491,-8.337671 -4.596027 0.5958658,-8.255378 -3.366365 0.7798972,-8.209698 -2.592721 1.003238,-8.178371 -1.925484 1.189713,-8.665473 -4.674165 0.6567028,-8.623509 -3.518675 0.8273409,-8.588636 -2.799303 1.011464,-8.547624 -2.184345 1.152149,-8.996708 -4.945025 0.7487636,-9.052402 -4.073839 0.9240707,-9.057461 -3.516678 1.071385,-9.03995 -2.994364 1.174074,5.910,33  0
-1.06243 -9.33313 1.135744,-1.542881 -9.10557 2.077869,-1.876752 -8.412458 2.772034,-1.785527 -7.890253 3.296906,-1.3535 -7.777457 3.73657,-1.31116 -7.130853 2.651975,-1.227254 -6.473708 3.508155,-1.109258 -6.25962 4.160104,-1.038247 -6.274014 4.539515,-0.8195939 -7.114335 2.523921,-0.5735731 -6.315504 3.416569,-0.5735731 -6.315504 3.416569,-0.5776892 -6.426737 4.357377,-0.4324002 -7.292901 2.459318,-0.1187944 -6.558268 3.219264,-0.1324463 -6.704607 3.647717,-0.2687941 -6.987 3.853653,-0.1115036 -7.703938 2.468729,0.196084 -7.0998 3.024602,0.1560974 -7.224531 3.369694,0.003713608 -7.517687 3.561347,-8.666851 -7.243183 0.1882495,-8.103003 -6.982419 0.5045766,-7.616763 -6.42554 0.7708054,-7.264102 -5.914059 1.056974,-6.902821 -5.635047 1.357498,-7.988466 -4.761261 0.5290945,-7.87639 -3.695123 0.7358055,-7.839354 -3.043062 0.9189878,-7.81098 -2.471961 1.036774,-8.335331 -4.600773 0.566,-8.248442 -3.362328 0.7476767,-8.203806 -2.586578 0.9679063,-8.175214 -1.915559 1.151663,-8.668074 -4.673729 0.6272064,-8.618943 -3.512228 0.7935676,-8.582927 -2.800245 0.9737223,-8.542145 -2.186183 1.110881,-9.004567 -4.939188 0.7174008,-9.057611 -4.064994 0.8833023,-9.064684 -3.513696 1.026306,-9.050258 -2.989081 1.126484,6.010,33  0
-1.051936 -9.339531 1.276963,-1.54391 -9.133846 2.26018,-1.877561 -8.453936 2.980296,-1.780313 -7.91089 3.524147,-1.358808 -7.751087 3.978423,-1.321609 -7.100347 2.800675,-1.219098 -6.454795 3.698576,-1.096302 -6.304121 4.39379,-1.024836 -6.375492 4.813919,-0.8276048 -7.067945 2.659824,-0.5579367 -6.258379 3.597768,-0.5579367 -6.258379 3.597768,-0.5569429 -6.587798 4.548117,-0.4298353 -7.224021 2.589151,-0.1007328 -6.490757 3.377887,-0.1118593 -6.756933 3.778685,-0.2463226 -7.098157 3.953582,-0.09887695 -7.603647 2.599386,0.2138805 -7.011377 3.176855,0.1667943 -7.210446 3.502031,0.004822731 -7.538524 3.672632,-8.662586 -7.259019 0.2157882,-8.101788 -6.975034 0.5239374,-7.629947 -6.414403 0.7897948,-7.286547 -5.897938 1.076655,-6.928598 -5.619926 1.385424,-7.997598 -4.766069 0.550985,-7.88099 -3.705332 0.7589478,-7.839577 -3.059448 0.9488075,-7.809108 -2.491494 1.076903,-8.341991 -4.607874 0.5978437,-8.25712 -3.373432 0.7759362,-8.214714 -2.601085 0.9916863,-8.186541 -1.935955 1.172423,-8.669623 -4.679223 0.6696221,-8.626711 -3.523622 0.8311371,-8.592656 -2.810756 1.002783,-8.556653 -2.199842 1.131737,-9.002329 -4.942884 0.7713354,-9.055768 -4.066408 0.9398489,-9.060909 -3.506204 1.080621,-9.04924 -2.975401 1.175848,6.110,33  0
-1.089982 -9.390434 1.220566,-1.572406 -9.14962 2.184437,-1.915699 -8.479622 2.880413,-1.847785 -7.914516 3.410414,-1.422615 -7.725811 3.862291,-1.361567 -7.162561 2.759027,-1.255447 -6.479211 3.616343,-1.112906 -6.248056 4.285061,-1.019826 -6.222214 4.684699,-0.8702087 -7.149269 2.622733,-0.6104593 -6.314218 3.542826,-0.6104593 -6.314218 3.542826,-0.6024237 -6.479923 4.513052,-0.4768076 -7.329379 2.552696,-0.1394854 -6.548605 3.319577,-0.1482744 -6.75427 3.710688,-0.2863631 -7.060387 3.882215,-0.1488008 -7.730331 2.564305,0.1783133 -7.085377 3.125395,0.1420279 -7.244178 3.440135,-0.01378155 -7.548733 3.598664,-8.678589 -7.29059 0.2187706,-8.116795 -7.008033 0.5128379,-7.637472 -6.437129 0.7683376,-7.294725 -5.920475 1.048887,-6.943527 -5.64396 1.343047,-8.018094 -4.788697 0.5390774,-7.910222 -3.716341 0.7370963,-7.875481 -3.058917 0.9183803,-7.852432 -2.488931 1.037173,-8.362844 -4.636261 0.5885619,-8.27838 -3.392631 0.7682634,-8.234217 -2.609642 0.9869404,-8.2071 -1.942783 1.168804,-8.69335 -4.715215 0.6595001,-8.647102 -3.555688 0.8263739,-8.609792 -2.831695 1.00339,-8.569556 -2.215322 1.13576,-9.02788 -4.988283 0.7575111,-9.083392 -4.108157 0.9263635,-9.088475 -3.548995 1.068432,-9.07337 -3.021675 1.166952,6.210,33  0
-1.116128 -9.553402 1.276673,-1.604322 -9.271896 2.208884,-1.939233 -8.5478 2.882199,-1.846642 -7.957382 3.390085,-1.419346 -7.789669 3.822365,-1.348589 -7.229898 2.696358,-1.248273 -6.477932 3.517534,-1.147573 -6.271999 4.199699,-1.101541 -6.285909 4.605801,-0.8497415 -7.235174 2.571739,-0.6155405 -6.365153 3.41788,-0.6155405 -6.365153 3.41788,-0.61028 -6.34818 4.430676,-0.4617524 -7.442642 2.521226,-0.1583529 -6.612228 3.240449,-0.1606236 -6.665998 3.693467,-0.2893357 -6.856162 3.944026,-0.1398926 -7.876485 2.545689,0.1782341 -7.211135 3.067851,0.1453104 -7.303945 3.41024,0.001250744 -7.544246 3.615336,-8.695084 -7.319595 0.2346006,-8.133265 -7.04879 0.5272636,-7.656407 -6.477643 0.7692639,-7.315924 -5.946453 1.034549,-6.97357 -5.659236 1.313858,-8.020578 -4.816064 0.5221389,-7.909903 -3.748854 0.6975266,-7.870297 -3.084278 0.8716937,-7.840194 -2.511683 0.9921255,-8.359942 -4.657703 0.563682,-8.279868 -3.421566 0.7218027,-8.234701 -2.634845 0.941821,-8.207047 -1.961399 1.128677,-8.686572 -4.73426 0.6313457,-8.645779 -3.585851 0.7765346,-8.60905 -2.861845 0.9542031,-8.571959 -2.248268 1.092612,-9.019585 -5.004804 0.7254597,-9.085791 -4.13975 0.8809365,-9.096446 -3.588668 1.028492,-9.087496 -3.06323 1.131907,6.310,33  0
-1.106931 -9.762419 1.076189,-1.576119 -9.420319 1.989953,-1.900386 -8.697586 2.652935,-1.814059 -8.095942 3.159295,-1.417937 -7.990488 3.606305,-1.284885 -7.374666 2.33609,-1.174084 -6.553751 3.120281,-1.07513 -6.38047 3.76752,-1.032556 -6.506038 4.146672,-0.8026171 -7.427311 2.205143,-0.5297303 -6.519933 3.01141,-0.5297303 -6.519933 3.01141,-0.6269779 -7.138975 3.849635,-0.4323654 -7.684484 2.169749,-0.1073303 -6.8715 2.835253,-0.1636672 -7.161195 3.233832,-0.3336287 -7.566872 3.43399,-0.1239395 -8.143049 2.207025,0.202064 -7.50188 2.733296,0.1478305 -7.66005 3.062601,-0.02713966 -7.973455 3.245716,-8.678572 -7.437773 0.3236853,-8.112249 -7.14656 0.5763063,-7.64125 -6.53615 0.7818612,-7.322974 -5.940406 1.015502,-6.98844 -5.60991 1.253018,-7.972375 -4.943374 0.5697826,-7.832244 -3.91802 0.7393631,-7.765759 -3.294597 0.9073675,-7.712598 -2.737463 1.015288,-8.295657 -4.755464 0.6451331,-8.197279 -3.581532 0.7907796,-8.13197 -2.85114 1.000245,-8.079226 -2.21944 1.157376,-8.613961 -4.809263 0.7502738,-8.562715 -3.695652 0.8929538,-8.514653 -3.006165 1.085623,-8.458419 -2.421476 1.233104,-8.94777 -5.057254 0.8759078,-9.005632 -4.21395 1.052376,-9.00583 -3.656342 1.212244,-8.978197 -3.130221 1.318739,6.410,33  0
-1.10421 -9.864367 1.040822,-1.555077 -9.529211 1.925458,-1.876252 -8.783289 2.581137,-1.817552 -8.182848 3.087929,-1.427927 -8.076591 3.549831,-1.278943 -7.459025 2.29841,-1.169148 -6.601629 3.06529,-1.050715 -6.369006 3.68303,-0.9908018 -6.450362 4.052956,-0.7942734 -7.549117 2.185844,-0.5146799 -6.622991 3.007366,-0.5146799 -6.622991 3.007366,-0.59056 -7.253089 3.805936,-0.4222336 -7.853382 2.161866,-0.09593773 -7.031303 2.840887,-0.150032 -7.289114 3.221784,-0.3179703 -7.663206 3.397735,-0.1163826 -8.365242 2.21294,0.2095823 -7.726342 2.74728,0.1522684 -7.85643 3.074137,-0.02158213 -8.116549 3.253847,-8.668977 -7.454587 0.2067691,-8.086315 -7.204023 0.4930693,-7.607586 -6.592725 0.6923509,-7.306084 -5.956745 0.9161603,-6.990473 -5.59007 1.131754,-7.909472 -5.043766 0.4800436,-7.727006 -4.035656 0.6831277,-7.642213 -3.433424 0.8580969,-7.572665 -2.881748 0.9674669,-8.237666 -4.814847 0.53787,-8.099661 -3.659079 0.6989097,-8.004599 -2.926725 0.9213776,-7.924417 -2.303298 1.090419,-8.562513 -4.835515 0.6329206,-8.474018 -3.726768 0.7944738,-8.400593 -3.043422 1.000031,-8.313016 -2.476831 1.166502,-8.906584 -5.046076 0.7539921,-8.930129 -4.195798 0.9465263,-8.909174 -3.646815 1.118625,-8.849402 -3.143608 1.237159,6.510,33  0
-0.9933381 -10.18281 0.751304,-1.456866 -9.981699 1.691423,-1.790121 -9.298464 2.351691,-1.82212 -8.658672 2.881183,-1.530129 -8.380686 3.379945,-1.250803 -7.800169 1.954522,-1.147885 -6.818622 2.716426,-1.025516 -6.518631 3.317535,-0.9671645 -6.550292 3.663111,-0.7756705 -7.907135 1.808503,-0.4685068 -6.856867 2.681012,-0.4685068 -6.856867 2.681012,-0.5692644 -7.909353 3.363637,-0.3998299 -8.223705 1.763099,-0.05362606 -7.32779 2.501844,-0.1170435 -7.832613 2.850883,-0.2971511 -8.36087 2.948289,-0.06882572 -8.712713 1.790226,0.2533789 -7.988101 2.349808,0.2009664 -8.210873 2.659482,0.02834654 -8.545382 2.778252,-8.616887 -7.515304 0.1547467,-8.017429 -7.267094 0.3343063,-7.537199 -6.601076 0.4739062,-7.262621 -5.903208 0.6475873,-6.958732 -5.45051 0.8366219,-7.774254 -5.142416 0.2632507,-7.565837 -4.228044 0.4354401,-7.441061 -3.683269 0.5994391,-7.329329 -3.181635 0.697593,-8.071784 -4.900321 0.3755942,-7.891327 -3.846887 0.5003322,-7.751746 -3.177188 0.7141404,-7.621202 -2.617054 0.8831055,-8.375996 -4.897624 0.5329133,-8.252453 -3.851673 0.662618,-8.141428 -3.211844 0.8724743,-8.012259 -2.690367 1.059088,-8.710855 -5.083461 0.7120938,-8.683816 -4.243392 0.9018885,-8.625866 -3.711726 1.080275,-8.522806 -3.22212 1.212943,6.610,33  0
-0.9014235 -10.605 0.9154729,-1.384274 -10.36762 1.829658,-1.721059 -9.712395 2.466852,-1.769294 -9.098488 2.962472,-1.54492 -8.694368 3.447812,-1.146841 -8.184265 2.117464,-1.089775 -7.076376 2.713109,-0.9940557 -6.697175 3.284716,-0.9378004 -6.729137 3.670981,-0.6894636 -8.275215 1.96874,-0.4353466 -7.151918 2.698395,-0.4353466 -7.151918 2.698395,-0.46031 -7.974185 3.529928,-0.3101149 -8.604815 1.895874,-0.04785252 -7.65485 2.501943,-0.06335354 -8.076777 2.904284,-0.1649094 -8.626175 3.119654,0.03399563 -9.114325 1.903808,0.2894897 -8.37532 2.42166,0.2694426 -8.57938 2.778757,0.1600156 -8.927446 2.994248,-8.559525 -7.531831 -0.0277074,-7.958995 -7.300203 0.001061689,-7.499701 -6.615993 0.05755704,-7.241337 -5.925103 0.1849957,-6.943441 -5.449878 0.3398937,-7.680492 -5.202232 -0.1877384,-7.464082 -4.328311 -0.06225533,-7.30876 -3.820591 0.07781193,-7.156179 -3.380136 0.18414,-7.954033 -4.974481 0.001355708,-7.742409 -3.943672 0.07388663,-7.564373 -3.328952 0.2616453,-7.392695 -2.827994 0.4204392,-8.239508 -4.982679 0.22903,-8.075176 -3.962526 0.3357787,-7.917093 -3.38902 0.5377597,-7.741394 -2.934234 0.7274069,-8.557295 -5.175128 0.4815383,-8.474154 -4.370336 0.677857,-8.351314 -3.884519 0.8722771,-8.183226 -3.459569 1.024978,6.710,33  0
-0.6532621 -10.9503 1.296345,-0.9802647 -10.63452 2.147494,-1.267528 -9.881006 2.831132,-1.40837 -9.305393 3.358741,-1.371199 -8.905861 3.845334,-0.9103532 -8.690699 3.042637,-0.909472 -7.649759 3.707923,-0.837636 -7.437713 4.16812,-0.7749462 -7.615198 4.502958,-0.6220284 -8.879887 2.989071,-0.5099425 -7.851171 3.848653,-0.5099425 -7.851171 3.848653,-0.3725934 -8.271326 4.714318,-0.3869286 -9.339138 2.928588,-0.2740989 -8.424891 3.670816,-0.2088895 -8.709352 4.015143,-0.1633544 -9.065308 4.229085,-0.2032695 -9.916641 2.941931,-0.1196842 -9.294003 3.519123,-0.05576706 -9.497089 3.804102,0.01210546 -9.739115 4.027771,-8.45884 -7.293226 -0.7629718,-7.88169 -7.046306 -0.9150625,-7.486046 -6.347528 -0.9023455,-7.262909 -5.667903 -0.7737781,-7.004021 -5.121536 -0.5981679,-7.59324 -5.114892 -1.059173,-7.410599 -4.209997 -0.9501911,-7.252574 -3.706134 -0.8266686,-7.085716 -3.276546 -0.7209471,-7.80187 -4.96627 -0.7837998,-7.565203 -3.965349 -0.7009026,-7.365399 -3.369439 -0.510632,-7.168243 -2.848608 -0.3638815,-8.029454 -4.980094 -0.4788009,-7.806677 -4.020277 -0.3989035,-7.596156 -3.47311 -0.2033476,-7.371871 -3.031403 -0.02696323,-8.308195 -5.136169 -0.1712251,-8.114754 -4.372514 -0.02791202,-7.923027 -3.929845 0.1326746,-7.697615 -3.55017 0.2687048,6.810,33  0
-0.6532621 -10.9503 1.296345,-0.9802647 -10.63452 2.147494,-1.267528 -9.881006 2.831132,-1.40837 -9.305393 3.358741,-1.371199 -8.905861 3.845334,-0.9103532 -8.690699 3.042637,-0.909472 -7.649759 3.707923,-0.837636 -7.437713 4.16812,-0.7749462 -7.615198 4.502958,-0.6220284 -8.879887 2.989071,-0.5099425 -7.851171 3.848653,-0.5099425 -7.851171 3.848653,-0.3725934 -8.271326 4.714318,-0.3869286 -9.339138 2.928588,-0.2740989 -8.424891 3.670816,-0.2088895 -8.709352 4.015143,-0.1633544 -9.065308 4.229085,-0.2032695 -9.916641 2.941931,-0.1196842 -9.294003 3.519123,-0.05576706 -9.497089 3.804102,0.01210546 -9.739115 4.027771,-8.412011 -7.086252 -0.905386,-7.850236 -6.828315 -1.101281,-7.488585 -6.063003 -1.103491,-7.279547 -5.395614 -0.9743952,-7.043222 -4.850732 -0.7893977,-7.561227 -4.934492 -1.304765,-7.366364 -4.068077 -1.214922,-7.224651 -3.528971 -1.104326,-7.085004 -3.049051 -0.9986067,-7.752099 -4.80503 -1.015021,-7.509695 -3.861092 -0.9309611,-7.311232 -3.276153 -0.7532946,-7.113353 -2.70837 -0.6207981,-7.963718 -4.815646 -0.684641,-7.726075 -3.924448 -0.6121124,-7.507606 -3.411857 -0.4407379,-7.28161 -2.958063 -0.2949333,-8.213802 -4.971353 -0.3543684,-8.002103 -4.249697 -0.2305139,-7.810603 -3.835512 -0.08460402,-7.587642 -3.447311 0.03290212,6.910,33  0
-0.6532621 -10.9503 1.296345,-0.9802647 -10.63452 2.147494,-1.267528 -9.881006 2.831132,-1.40837 -9.305393 3.358741,-1.371199 -8.905861 3.845334,-0.9103532 -8.690699 3.042637,-0.909472 -7.649759 3.707923,-0.837636 -7.437713 4.16812,-0.7749462 -7.615198 4.502958,-0.6220284 -8.879887 2.989071,-0.5099425 -7.851171 3.848653,-0.5099425 -7.851171 3.848653,-0.3725934 -8.271326 4.714318,-0.3869286 -9.339138 2.928588,-0.2740989 -8.424891 3.670816,-0.2088895 -8.709352 4.015143,-0.1633544 -9.065308 4.229085,-0.2032695 -9.916641 2.941931,-0.1196842 -9.294003 3.519123,-0.05576706 -9.497089 3.804102,0.01210546 -9.739115 4.027771,-8.118805 -6.927096 -1.033463,-7.573863 -6.60416 -1.350899,-7.310086 -5.77211 -1.43375,-7.178694 -5.090879 -1.397268,-7.046988 -4.53461 -1.281984,-7.435652 -4.739875 -1.540436,-7.259004 -3.892861 -1.48286,-7.073918 -3.308671 -1.35004,-6.905614 -2.820816 -1.203835,-7.58263 -4.656329 -1.222236,-7.355159 -3.738798 -1.149554,-7.109059 -3.095127 -0.9807664,-6.883122 -2.51336 -0.836852,-7.741158 -4.684114 -0.8854991,-7.505157 -3.762593 -0.8460162,-7.238103 -3.186315 -0.7633468,-7.000817 -2.712219 -0.661001,-7.915314 -4.836891 -0.5427781,-7.702673 -4.135717 -0.4661767,-7.472807 -3.691038 -0.4213198,-7.234336 -3.293824 -0.3819979,7.010,33  0
-0.6532621 -10.9503 1.296345,-0.9802647 -10.63452 2.147494,-1.267528 -9.881006 2.831132,-1.40837 -9.305393 3.358741,-1.371199 -8.905861 3.845334,-0.9103532 -8.690699 3.042637,-0.909472 -7.649759 3.707923,-0.837636 -7.437713 4.16812,-0.7749462 -7.615198 4.502958,-0.6220284 -8.879887 2.989071,-0.5099425 -7.851171 3.848653,-0.5099425 -7.851171 3.848653,-0.3725934 -8.271326 4.714318,-0.3869286 -9.339138 2.928588,-0.2740989 -8.424891 3.670816,-0.2088895 -8.709352 4.015143,-0.1633544 -9.065308 4.229085,-0.2032695 -9.916641 2.941931,-0.1196842 -9.294003 3.519123,-0.05576706 -9.497089 3.804102,0.01210546 -9.739115 4.027771,-7.997939 -6.906589 -0.9935284,-7.457897 -6.630241 -1.386903,-7.209249 -5.75079 -1.499719,-7.078791 -5.095748 -1.482893,-6.948547 -4.567237 -1.408618,-7.375676 -4.653674 -1.542134,-7.183667 -3.849247 -1.47036,-6.974751 -3.294987 -1.318778,-6.767785 -2.831043 -1.155064,-7.505153 -4.613475 -1.172158,-7.26928 -3.714955 -1.093179,-6.994723 -3.095474 -0.9210604,-6.740004 -2.556709 -0.7644045,-7.643829 -4.696601 -0.7967966,-7.413077 -3.760207 -0.723287,-7.114676 -3.196882 -0.6219057,-6.850285 -2.76065 -0.5072306,-7.78882 -4.914333 -0.4218507,-7.577815 -4.19551 -0.3263261,-7.328637 -3.759042 -0.2807381,-7.076397 -3.374769 -0.2423675,7.110,33  0
-0.6532621 -10.9503 1.296345,-0.9802647 -10.63452 2.147494,-1.267528 -9.881006 2.831132,-1.40837 -9.305393 3.358741,-1.371199 -8.905861 3.845334,-0.9103532 -8.690699 3.042637,-0.909472 -7.649759 3.707923,-0.837636 -7.437713 4.16812,-0.7749462 -7.615198 4.502958,-0.6220284 -8.879887 2.989071,-0.5099425 -7.851171 3.848653,-0.5099425 -7.851171 3.848653,-0.3725934 -8.271326 4.714318,-0.3869286 -9.339138 2.928588,-0.2740989 -8.424891 3.670816,-0.2088895 -8.709352 4.015143,-0.1633544 -9.065308 4.229085,-0.2032695 -9.916641 2.941931,-0.1196842 -9.294003 3.519123,-0.05576706 -9.497089 3.804102,0.01210546 -9.739115 4.027771,-7.864891 -6.986012 -1.29537,-7.2706 -6.837648 -1.680015,-6.980061 -6.019259 -1.80436,-6.842615 -5.388326 -1.780028,-6.717238 -4.911296 -1.718975,-7.148294 -4.865388 -1.862147,-6.915144 -4.173955 -1.811717,-6.650963 -3.737671 -1.692074,-6.388142 -3.389316 -1.576484,-7.284043 -4.805128 -1.497061,-6.94404 -4.021598 -1.452912,-6.592299 -3.516248 -1.276742,-6.274914 -3.121133 -1.12042,-7.421246 -4.874971 -1.133515,-7.066953 -4.074517 -1.08395,-6.691958 -3.63081 -0.9702128,-6.376467 -3.353951 -0.8519056,-7.533319 -5.08614 -0.7714192,-7.209407 -4.470176 -0.6916373,-6.91182 -4.120164 -0.6257823,-6.623425 -3.870847 -0.5492141,7.210,33  0
-0.6532621 -10.9503 1.296345,-0.9802647 -10.63452 2.147494,-1.267528 -9.881006 2.831132,-1.40837 -9.305393 3.358741,-1.371199 -8.905861 3.845334,-0.9103532 -8.690699 3.042637,-0.909472 -7.649759 3.707923,-0.837636 -7.437713 4.16812,-0.7749462 -7.615198 4.502958,-0.6220284 -8.879887 2.989071,-0.5099425 -7.851171 3.848653,-0.5099425 -7.851171 3.848653,-0.3725934 -8.271326 4.714318,-0.3869286 -9.339138 2.928588,-0.2740989 -8.424891 3.670816,-0.2088895 -8.709352 4.015143,-0.1633544 -9.065308 4.229085,-0.2032695 -9.916641 2.941931,-0.1196842 -9.294003 3.519123,-0.05576706 -9.497089 3.804102,0.01210546 -9.739115 4.027771,-7.736083 -7.072414 -1.450027,-7.149728 -6.967134 -1.816768,-6.824728 -6.244768 -1.89542,-6.633671 -5.682939 -1.816778,-6.472425 -5.204193 -1.691206,-7.069841 -4.964195 -1.919102,-6.791924 -4.28254 -1.851572,-6.47315 -3.87582 -1.711846,-6.147157 -3.572395 -1.574371,-7.201709 -4.918369 -1.553998,-6.820087 -4.155317 -1.50676,-6.416092 -3.752788 -1.362263,-6.052763 -3.470928 -1.231388,-7.315131 -5.017366 -1.190782,-6.90744 -4.205209 -1.116215,-6.48736 -3.834968 -0.9983008,-6.129944 -3.653817 -0.8892204,-7.371022 -5.282173 -0.8335822,-7.013326 -4.631372 -0.7570978,-6.69638 -4.304502 -0.7185391,-6.381159 -4.099 -0.6675655,7.310,33  0
-0.6532621 -10.9503 1.296345,-0.9802647 -10.63452 2.147494,-1.267528 -9.881006 2.831132,-1.40837 -9.305393 3.358741,-1.371199 -8.905861 3.845334,-0.9103532 -8.690699 3.042637,-0.909472 -7.649759 3.707923,-0.837636 -7.437713 4.16812,-0.7749462 -7.615198 4.502958,-0.6220284 -8.879887 2.989071,-0.5099425 -7.851171 3.848653,-0.5099425 -7.851171 3.848653,-0.3725934 -8.271326 4.714318,-0.3869286 -9.339138 2.928588,-0.2740989 -8.424891 3.670816,-0.2088895 -8.709352 4.015143,-0.1633544 -9.065308 4.229085,-0.2032695 -9.916641 2.941931,-0.1196842 -9.294003 3.519123,-0.05576706 -9.497089 3.804102,0.01210546 -9.739115 4.027771,-7.687736 -7.152112 -1.300567,-7.09776 -7.047082 -1.719617,-6.749065 -6.349666 -1.83187,-6.537563 -5.819707 -1.764179,-6.344275 -5.344528 -1.634356,-6.983421 -5.056917 -1.959066,-6.722347 -4.422976 -1.949628,-6.429848 -4.043079 -1.834625,-6.140749 -3.76961 -1.729364,-7.107945 -4.983198 -1.596686,-6.754097 -4.259689 -1.634542,-6.382209 -3.899062 -1.523734,-6.052961 -3.659622 -1.42598,-7.216974 -5.04869 -1.233327,-6.833743 -4.280527 -1.240779,-6.445318 -3.962368 -1.175651,-6.125005 -3.839338 -1.104865,-7.276842 -5.269239 -0.8741428,-6.923849 -4.663662 -0.8802404,-6.612355 -4.389749 -0.9020476,-6.310012 -4.232614 -0.8896062,7.410,33  0
-0.6532621 -10.9503 1.296345,-0.9802647 -10.63452 2.147494,-1.267528 -9.881006 2.831132,-1.40837 -9.305393 3.358741,-1.371199 -8.905861 3.845334,-0.9103532 -8.690699 3.042637,-0.909472 -7.649759 3.707923,-0.837636 -7.437713 4.16812,-0.7749462 -7.615198 4.502958,-0.6220284 -8.879887 2.989071,-0.5099425 -7.851171 3.848653,-0.5099425 -7.851171 3.848653,-0.3725934 -8.271326 4.714318,-0.3869286 -9.339138 2.928588,-0.2740989 -8.424891 3.670816,-0.2088895 -8.709352 4.015143,-0.1633544 -9.065308 4.229085,-0.2032695 -9.916641 2.941931,-0.1196842 -9.294003 3.519123,-0.05576706 -9.497089 3.804102,0.01210546 -9.739115 4.027771,-7.578493 -7.238204 -1.486044,-6.98693 -7.167591 -1.889416,-6.587685 -6.542495 -1.985168,-6.319409 -6.083175 -1.916692,-6.058093 -5.715704 -1.771222,-6.743182 -5.248979 -2.146866,-6.533815 -4.544485 -2.182498,-6.29875 -4.119316 -2.089511,-6.053608 -3.800723 -1.980921,-6.870802 -5.163532 -1.778511,-6.607624 -4.383312 -1.819434,-6.314633 -3.988895 -1.702683,-6.017396 -3.698116 -1.600035,-7.007937 -5.202951 -1.393926,-6.721171 -4.406431 -1.408826,-6.402782 -4.0889 -1.331003,-6.114861 -3.91119 -1.236944,-7.148962 -5.371053 -1.014539,-6.864298 -4.733869 -0.9830653,-6.599619 -4.471771 -0.9504958,-6.338733 -4.305634 -0.9011064,7.510,33  0
-0.6532621 -10.9503 1.296345,-0.9802647 -10.63452 2.147494,-1.267528 -9.881006 2.831132,-1.40837 -9.305393 3.358741,-1.371199 -8.905861 3.845334,-0.9103532 -8.690699 3.042637,-0.909472 -7.649759 3.707923,-0.837636 -7.437713 4.16812,-0.7749462 -7.615198 4.502958,-0.6220284 -8.879887 2.989071,-0.5099425 -7.851171 3.848653,-0.5099425 -7.851171 3.848653,-0.3725934 -8.271326 4.714318,-0.3869286 -9.339138 2.928588,-0.2740989 -8.424891 3.670816,-0.2088895 -8.709352 4.015143,-0.1633544 -9.065308 4.229085,-0.2032695 -9.916641 2.941931,-0.1196842 -9.294003 3.519123,-0.05576706 -9.497089 3.804102,0.01210546 -9.739115 4.027771,-7.426037 -7.169055 -1.504071,-6.816335 -7.14419 -1.918772,-6.37413 -6.639898 -2.045889,-6.033078 -6.336654 -2.005875,-5.685726 -6.20636 -1.893509,-6.518708 -5.249874 -2.279742,-6.356922 -4.529899 -2.384835,-6.169933 -4.109628 -2.371509,-5.972514 -3.809715 -2.317152,-6.653868 -5.144958 -1.921641,-6.450546 -4.345431 -1.990214,-6.199117 -3.977834 -1.923621,-5.961088 -3.726799 -1.871202,-6.798687 -5.163177 -1.535375,-6.56771 -4.356271 -1.582257,-6.285602 -4.038394 -1.510202,-6.050536 -3.854189 -1.427629,-6.946078 -5.313745 -1.150124,-6.695642 -4.633482 -1.133408,-6.448525 -4.328731 -1.070197,-6.217021 -4.122724 -1.003314,7.610,33  0
-0.6532621 -10.9503 1.296345,-0.9802647 -10.63452 2.147494,-1.267528 -9.881006 2.831132,-1.40837 -9.305393 3.358741,-1.371199 -8.905861 3.845334,-0.9103532 -8.690699 3.042637,-0.909472 -7.649759 3.707923,-0.837636 -7.437713 4.16812,-0.7749462 -7.615198 4.502958,-0.6220284 -8.879887 2.989071,-0.5099425 -7.851171 3.848653,-0.5099425 -7.851171 3.848653,-0.3725934 -8.271326 4.714318,-0.3869286 -9.339138 2.928588,-0.2740989 -8.424891 3.670816,-0.2088895 -8.709352 4.015143,-0.1633544 -9.065308 4.229085,-0.2032695 -9.916641 2.941931,-0.1196842 -9.294003 3.519123,-0.05576706 -9.497089 3.804102,0.01210546 -9.739115 4.027771,-7.367329 -7.074614 -1.55929,-6.753762 -7.060575 -1.938587,-6.30183 -6.575439 -2.035589,-5.929142 -6.299165 -1.972186,-5.547419 -6.186086 -1.833714,-6.430384 -5.171053 -2.284717,-6.25398 -4.501445 -2.392524,-6.07101 -4.075342 -2.399805,-5.889936 -3.75229 -2.365966,-6.563687 -5.072406 -1.937958,-6.338127 -4.329607 -2.006177,-6.082598 -3.976305 -1.952854,-5.845642 -3.719318 -1.905053,-6.704607 -5.092457 -1.564321,-6.454942 -4.328647 -1.589292,-6.172254 -4.031718 -1.523875,-5.94338 -3.857961 -1.448133,-6.844899 -5.258618 -1.186267,-6.564664 -4.618337 -1.151852,-6.308221 -4.347837 -1.078549,-6.069922 -4.174355 -0.9981971,7.710,33  0
-0.6532621 -10.9503 1.296345,-0.9802647 -10.63452 2.147494,-1.267528 -9.881006 2.831132,-1.40837 -9.305393 3.358741,-1.371199 -8.905861 3.845334,-0.9103532 -8.690699 3.042637,-0.909472 -7.649759 3.707923,-0.837636 -7.437713 4.16812,-0.7749462 -7.615198 4.502958,-0.6220284 -8.879887 2.989071,-0.5099425 -7.851171 3.848653,-0.5099425 -7.851171 3.848653,-0.3725934 -8.271326 4.714318,-0.3869286 -9.339138 2.928588,-0.2740989 -8.424891 3.670816,-0.2088895 -8.709352 4.015143,-0.1633544 -9.065308 4.229085,-0.2032695 -9.916641 2.941931,-0.1196842 -9.294003 3.519123,-0.05576706 -9.497089 3.804102,0.01210546 -9.739115 4.027771,-7.253361 -6.788573 -1.245111,-6.61763 -6.752164 -1.653229,-6.151192 -6.244948 -1.784566,-5.753219 -5.978551 -1.771152,-5.343576 -5.889804 -1.695012,-6.313354 -4.81973 -1.989975,-6.088648 -4.230026 -2.140191,-5.874846 -3.831621 -2.169259,-5.662066 -3.501884 -2.128721,-6.438717 -4.697078 -1.647334,-6.162206 -4.021377 -1.759459,-5.857486 -3.703527 -1.741149,-5.577328 -3.477982 -1.698261,-6.566076 -4.703991 -1.287814,-6.248432 -4.006445 -1.33549,-5.927608 -3.742406 -1.310658,-5.669809 -3.588009 -1.267759,-6.677938 -4.860103 -0.9232181,-6.317248 -4.299425 -0.8950485,-6.034382 -4.083539 -0.8515346,-5.76646 -3.947738 -0.7942743,7.810,33  0
