TiagoOliveira98/Thesis-Project/Difficulty_1/Motor_Task/Unity_Project/DataLogging/JointData/Logs(1647316443)_ddddd_Motor.csv
WRIST,THUMB_CMC,THUMB_MCP,THUMB_IP,THUMB_TIP,INDEX_FINGER_MCP,INDEX_FINGER_PIP,INDEX_FINGER_DIP,INDEX_FINGER_TIP,MIDDLE_FINGER_MCP,MIDDLE_FINGER_PIP,MIDDLE_FINGER_DIP,MIDDLE_FINGER_TIP,RING_FINGER_MCP,RING_FINGER_PIP,RING_FINGER_DIP,RING_FINGER_TIP,PINKY_MCP,PINKY_PIP,PINKY_DIP,PINKY_TIP,WRIST2,THUMB_CMC2,THUMB_MCP2,THUMB_IP2,THUMB_TIP2,INDEX_FINGER_MCP2,INDEX_FINGER_PIP2,INDEX_FINGER_DIP2,INDEX_FINGER_TIP2,MIDDLE_FINGER_MCP2,MIDDLE_FINGER_PIP2,MIDDLE_FINGER_DIP2,MIDDLE_FINGER_TIP2,RING_FINGER_MCP2,RING_FINGER_PIP2,RING_FINGER_DIP2,RING_FINGER_TIP2,PINKY_MCP2,PINKY_PIP2,PINKY_DIP2,PINKY_TIP2,Timestamp,Event
-1.852684 -8.135954 -0.01407967,-2.509979 -7.877227 0.4140479,-3.077613 -7.174327 0.6509441,-3.456366 -6.485738 0.8612458,-3.726969 -5.962297 1.087245,-2.579875 -5.341819 0.3686098,-2.811041 -4.168161 0.6251782,-2.93012 -3.472791 0.813808,-3.017065 -2.805807 0.9740967,-2.184079 -5.121152 0.3893715,-2.289496 -3.757577 0.6369035,-2.289496 -3.757577 0.6369035,-2.382342 -2.120181 1.11198,-1.791086 -5.196121 0.491932,-1.813201 -3.915033 0.7344602,-1.861382 -3.075703 0.9989738,-1.919813 -2.353947 1.242679,-1.387167 -5.536502 0.6274561,-1.229057 -4.552299 0.8349006,-1.141642 -3.915115 1.054085,-1.084217 -3.300148 1.266567,-8.36254 -8.119164 -0.0117495,-7.684497 -7.726558 0.1760749,-7.112379 -6.942045 0.3752415,-6.683998 -6.283126 0.6063262,-6.291587 -6.001674 0.8431959,-7.656952 -5.150444 0.2901227,-7.555429 -3.869184 0.4950022,-7.533514 -3.095497 0.6723912,-7.51668 -2.409957 0.8054118,-8.065223 -4.990375 0.371331,-7.976893 -3.4948 0.582063,-7.940195 -2.54147 0.8301045,-7.916799 -1.725394 1.046829,-8.457481 -5.096744 0.449812,-8.406424 -3.710304 0.6480324,-8.373032 -2.811233 0.8376561,-8.330796 -2.044485 0.9929399,-8.844767 -5.437095 0.5362593,-8.956896 -4.398862 0.7199844,-9.009715 -3.748895 0.8677764,-9.028231 -3.120267 0.9863782,0.010,28  0
-1.865134 -8.134829 -0.02086337,-2.521018 -7.869129 0.4083179,-3.083672 -7.160469 0.6457399,-3.456519 -6.458121 0.8532846,-3.732669 -5.935694 1.078204,-2.584646 -5.350013 0.3795615,-2.817055 -4.179454 0.6372553,-2.935879 -3.477749 0.8273848,-3.021493 -2.805278 0.9908286,-2.189098 -5.123004 0.3957764,-2.299222 -3.763044 0.6448782,-2.299222 -3.763044 0.6448782,-2.4 -2.126997 1.109932,-1.79818 -5.194665 0.4941052,-1.820136 -3.904686 0.7422524,-1.867195 -3.061428 1.009936,-1.924189 -2.332078 1.2589,-1.396762 -5.536216 0.6231861,-1.238759 -4.552381 0.8320634,-1.152645 -3.91624 1.053735,-1.095867 -3.302495 1.271216,-8.34564 -8.118023 0.01419361,-7.67547 -7.728704 0.1866508,-7.111526 -6.933969 0.3743476,-6.68619 -6.282255 0.6007202,-6.292622 -6.003309 0.8368112,-7.663419 -5.134294 0.2590984,-7.558787 -3.870933 0.4450946,-7.536388 -3.105985 0.6212553,-7.519571 -2.425336 0.7587961,-8.067118 -4.975117 0.3548952,-7.979462 -3.489291 0.5420429,-7.945482 -2.544013 0.7927158,-7.923328 -1.741074 1.013452,-8.45382 -5.085321 0.4506711,-8.406362 -3.709555 0.6395003,-8.372502 -2.809532 0.840032,-8.32762 -2.043076 1.003332,-8.836559 -5.432657 0.5551381,-8.948133 -4.403286 0.7425513,-8.998308 -3.750543 0.8924305,-9.014633 -3.123878 1.012994,0.110,28  0
-1.870768 -8.099247 -0.1240825,-2.523403 -7.840457 0.319695,-3.083761 -7.148744 0.5618909,-3.461329 -6.447508 0.763269,-3.741245 -5.934574 0.9717065,-2.579652 -5.346254 0.3334152,-2.816651 -4.176342 0.6093069,-2.930966 -3.481552 0.8074976,-3.016399 -2.804206 0.9818964,-2.189384 -5.123 0.3347154,-2.303617 -3.774658 0.606571,-2.303617 -3.774658 0.606571,-2.396291 -2.162101 1.085265,-1.803171 -5.199062 0.4144738,-1.8248 -3.915263 0.6766499,-1.86981 -3.089842 0.9467804,-1.927825 -2.362251 1.200596,-1.402713 -5.54336 0.5243888,-1.24147 -4.559387 0.7405711,-1.146426 -3.930416 0.9716146,-1.075793 -3.310678 1.193346,-8.413222 -8.078646 -0.4577507,-7.683025 -7.705785 -0.459902,-7.113932 -6.986457 -0.3503156,-6.676423 -6.307609 -0.2301255,-6.294004 -6.027468 -0.1128249,-7.678357 -5.25807 -0.1886151,-7.560526 -3.883852 -0.09889936,-7.54644 -3.064283 -0.000884831,-7.531248 -2.396783 0.07476616,-8.107973 -5.066982 -0.1919012,-7.99218 -3.50448 -0.08298677,-7.951666 -2.510674 0.06197453,-7.925366 -1.733471 0.2131371,-8.51344 -5.131113 -0.2523651,-8.4233 -3.721149 -0.2022462,-8.382113 -2.786858 -0.1145069,-8.338817 -2.04873 -0.0301331,-8.893587 -5.416549 -0.3301378,-8.978304 -4.359687 -0.3278623,-9.02433 -3.723922 -0.2799275,-9.03486 -3.145643 -0.21921,0.210,28  0
-1.907041 -8.044107 -0.4030467,-2.566592 -7.792514 0.08219075,-3.117318 -7.130788 0.3501528,-3.481608 -6.437767 0.5602454,-3.765627 -5.907148 0.7818636,-2.573812 -5.373449 0.1846389,-2.801189 -4.180498 0.4981477,-2.919815 -3.471022 0.7073084,-3.008871 -2.794928 0.8763378,-2.175615 -5.164137 0.1696057,-2.276111 -3.815316 0.4983915,-2.276111 -3.815316 0.4983915,-2.367215 -2.180271 0.9702173,-1.786398 -5.251435 0.2283082,-1.801991 -3.977546 0.5368284,-1.85358 -3.13401 0.8135766,-1.909329 -2.396434 1.0682,-1.389503 -5.597921 0.315181,-1.219937 -4.614797 0.5646401,-1.129706 -3.970628 0.8068645,-1.060841 -3.342608 1.03967,-8.403775 -8.060274 -0.4832427,-7.687222 -7.722629 -0.5095271,-7.125517 -7.004547 -0.4137723,-6.70332 -6.314998 -0.30616,-6.32154 -6.026165 -0.2038933,-7.697527 -5.242131 -0.275251,-7.578717 -3.85111 -0.2097938,-7.561738 -3.019965 -0.1092604,-7.544916 -2.350801 -0.02744067,-8.124755 -5.048444 -0.2813831,-8.012118 -3.482975 -0.2069969,-7.969993 -2.487888 -0.07525024,-7.945717 -1.728928 0.06610632,-8.527597 -5.112792 -0.3474174,-8.440784 -3.702707 -0.326504,-8.396859 -2.775901 -0.2469855,-8.349007 -2.054435 -0.1719449,-8.90058 -5.40192 -0.4297976,-8.98297 -4.350686 -0.454909,-9.027862 -3.721456 -0.417863,-9.034074 -3.151663 -0.3584671,0.310,28  0
-1.924772 -8.012804 -0.4485021,-2.579178 -7.761384 0.01545444,-3.118438 -7.087041 0.2727014,-3.480732 -6.413417 0.4789849,-3.766805 -5.9031 0.6961102,-2.570523 -5.345604 0.1187452,-2.789521 -4.155807 0.4158896,-2.914217 -3.453932 0.6084492,-3.012232 -2.794902 0.7655849,-2.175903 -5.142505 0.1140836,-2.270677 -3.808275 0.4312131,-2.270677 -3.808275 0.4312131,-2.377542 -2.206292 0.8771582,-1.788471 -5.238984 0.1833875,-1.800661 -3.960966 0.4926224,-1.848974 -3.111514 0.7710005,-1.904158 -2.37636 1.029768,-1.393441 -5.605857 0.2805605,-1.22204 -4.624984 0.5300719,-1.128613 -3.972944 0.7768399,-1.053673 -3.341095 1.014099,-8.387116 -8.059097 -0.4973909,-7.681438 -7.707441 -0.5171229,-7.1296 -6.988273 -0.4197629,-6.708983 -6.300991 -0.3098686,-6.32325 -6.019044 -0.200357,-7.711144 -5.239181 -0.2845391,-7.587636 -3.860233 -0.2118542,-7.562266 -3.032097 -0.09833437,-7.537855 -2.358007 -0.001568377,-8.134306 -5.048924 -0.2963737,-8.021711 -3.496906 -0.2210199,-7.978113 -2.500822 -0.07771069,-7.952871 -1.734079 0.07241726,-8.530252 -5.11427 -0.3673798,-8.440909 -3.711671 -0.3485739,-8.394643 -2.783594 -0.2590206,-8.345773 -2.056403 -0.1756918,-8.895385 -5.40238 -0.4548265,-8.971672 -4.354982 -0.4810274,-9.011617 -3.72714 -0.4371863,-9.014059 -3.16068 -0.3736968,0.410,28  0
-1.921846 -8.029016 -0.3489123,-2.58014 -7.808882 0.1113546,-3.124589 -7.107997 0.3518609,-3.486683 -6.417222 0.5411654,-3.773347 -5.90602 0.744347,-2.585728 -5.335597 0.1491374,-2.803039 -4.166546 0.4248466,-2.920858 -3.462286 0.6130271,-3.009872 -2.797374 0.7723053,-2.183523 -5.11856 0.1479986,-2.276932 -3.788095 0.4261205,-2.276932 -3.788095 0.4261205,-2.371776 -2.176147 0.8766925,-1.790955 -5.208244 0.2245985,-1.803201 -3.926054 0.4981616,-1.850438 -3.086108 0.7745868,-1.904188 -2.364576 1.033952,-1.393171 -5.569234 0.3316767,-1.224349 -4.59047 0.5618442,-1.133068 -3.952265 0.8023504,-1.065205 -3.336239 1.038597,-8.391129 -8.039989 -0.5674709,-7.685881 -7.699497 -0.5476303,-7.137712 -6.986441 -0.419695,-6.717484 -6.304355 -0.2947362,-6.336835 -6.019627 -0.1759034,-7.720846 -5.253426 -0.2188346,-7.591752 -3.862164 -0.1132451,-7.566935 -3.034244 0.001547337,-7.544766 -2.356565 0.0990774,-8.147419 -5.06002 -0.2437468,-8.027765 -3.498363 -0.1261582,-7.977541 -2.499626 0.02150989,-7.948584 -1.726241 0.1795251,-8.54344 -5.121873 -0.3338694,-8.45155 -3.706236 -0.2806641,-8.400527 -2.774887 -0.1822297,-8.350322 -2.04553 -0.09002757,-8.904946 -5.402977 -0.4392681,-8.979846 -4.346237 -0.4434552,-9.018187 -3.719004 -0.389995,-9.022258 -3.150739 -0.3167885,0.510,28  0
-1.899564 -8.029169 -0.3280783,-2.553679 -7.79915 0.1317968,-3.111429 -7.104112 0.3800011,-3.488614 -6.417348 0.573961,-3.78606 -5.917394 0.7785431,-2.585913 -5.343675 0.1987056,-2.806512 -4.174787 0.4876041,-2.929013 -3.46356 0.6878452,-3.024929 -2.792106 0.8552001,-2.184093 -5.120328 0.2001517,-2.283528 -3.78806 0.4947636,-2.283528 -3.78806 0.4947636,-2.385675 -2.163926 0.9531232,-1.789937 -5.204536 0.2774842,-1.804903 -3.921078 0.5714459,-1.852068 -3.074203 0.8549435,-1.908093 -2.343915 1.116165,-1.387971 -5.56389 0.3839305,-1.22045 -4.587513 0.6256777,-1.126165 -3.945971 0.8721515,-1.053586 -3.322786 1.10952,-8.397383 -8.062199 -0.5679809,-7.685829 -7.714029 -0.540681,-7.125134 -6.99315 -0.4176018,-6.701413 -6.321199 -0.2762762,-6.336565 -6.042846 -0.1387446,-7.681468 -5.263776 -0.2909439,-7.55991 -3.875524 -0.1647466,-7.539105 -3.043117 -0.03957671,-7.518779 -2.349458 0.0502398,-8.11046 -5.081731 -0.2886166,-8.008429 -3.529462 -0.1577001,-7.974198 -2.531821 0.01403964,-7.954217 -1.737516 0.1831521,-8.518278 -5.151712 -0.3363912,-8.43788 -3.74069 -0.272736,-8.406703 -2.80681 -0.1722842,-8.376218 -2.060152 -0.079871,-8.903064 -5.443178 -0.3961007,-8.98412 -4.364642 -0.3767343,-9.031254 -3.708985 -0.3172618,-9.048738 -3.099863 -0.2514904,0.610,28  0
-1.913505 -8.066151 -0.1575849,-2.557383 -7.827413 0.2957762,-3.099962 -7.109024 0.5298084,-3.468909 -6.415724 0.7231314,-3.769849 -5.910603 0.9240942,-2.574651 -5.314529 0.2963949,-2.79904 -4.153033 0.5704149,-2.922609 -3.448293 0.7643533,-3.016167 -2.779167 0.9322482,-2.176445 -5.095441 0.3101239,-2.271821 -3.776925 0.5793398,-2.271821 -3.776925 0.5793398,-2.376897 -2.163305 1.012584,-1.786819 -5.188795 0.4076124,-1.793724 -3.909622 0.6774095,-1.840545 -3.070667 0.9547009,-1.895991 -2.3465 1.208546,-1.389341 -5.561128 0.5389091,-1.217091 -4.59053 0.7716489,-1.122501 -3.944864 1.018332,-1.052066 -3.319812 1.253486,-8.395368 -8.01404 -0.6127745,-7.685616 -7.685266 -0.5751904,-7.12824 -6.971263 -0.4285607,-6.702802 -6.302829 -0.2742077,-6.335823 -6.014005 -0.1167568,-7.688737 -5.249848 -0.2860576,-7.562215 -3.871109 -0.1523043,-7.545435 -3.053497 -0.02467841,-7.531007 -2.376481 0.06053752,-8.11655 -5.051225 -0.2803954,-8.003315 -3.489827 -0.141939,-7.96551 -2.493425 0.01985425,-7.943423 -1.713665 0.1749026,-8.519092 -5.116392 -0.3298492,-8.435512 -3.689211 -0.2496764,-8.393944 -2.745221 -0.1343149,-8.354225 -2.000254 -0.03025901,-8.895445 -5.400035 -0.3915043,-8.979525 -4.339935 -0.3617879,-9.025784 -3.689679 -0.2882543,-9.039783 -3.099795 -0.2104047,0.710,28  0
-1.906159 -8.076618 -0.1431746,-2.54705 -7.81425 0.3003582,-3.094084 -7.102053 0.5423657,-3.466341 -6.418129 0.7409655,-3.754317 -5.918058 0.9443623,-2.574339 -5.321428 0.3351215,-2.80525 -4.156364 0.6205475,-2.92827 -3.448901 0.8152978,-3.019024 -2.778994 0.9801419,-2.178677 -5.10725 0.3530875,-2.281374 -3.770021 0.6324715,-2.281374 -3.770021 0.6324715,-2.387545 -2.155703 1.07118,-1.790521 -5.198737 0.4524057,-1.800742 -3.909614 0.7331142,-1.843816 -3.066086 1.007721,-1.898896 -2.341074 1.256658,-1.395984 -5.566019 0.583521,-1.223208 -4.588262 0.8160731,-1.125992 -3.942575 1.055537,-1.053356 -3.320902 1.279844,-8.426675 -8.008644 -0.6404634,-7.699424 -7.688499 -0.601012,-7.135847 -6.977726 -0.455084,-6.710004 -6.296192 -0.3067152,-6.344002 -5.991437 -0.156678,-7.691213 -5.262054 -0.292751,-7.561952 -3.87932 -0.1529374,-7.545845 -3.059194 -0.02472961,-7.533482 -2.38202 0.05587184,-8.12346 -5.057525 -0.2969605,-8.010219 -3.492541 -0.1587659,-7.971497 -2.492642 -0.002782106,-7.95225 -1.719492 0.1469,-8.530146 -5.117703 -0.3593243,-8.448561 -3.686855 -0.276859,-8.403893 -2.741722 -0.1628792,-8.364351 -2.004403 -0.06103742,-8.908389 -5.39643 -0.433632,-8.993507 -4.328214 -0.3981822,-9.037092 -3.670635 -0.320172,-9.049915 -3.077421 -0.2403121,0.810,28  0
-1.910268 -8.070721 -0.1452816,-2.555453 -7.809612 0.2976236,-3.105719 -7.087548 0.5366685,-3.480479 -6.401606 0.7341699,-3.774349 -5.909875 0.9386984,-2.580886 -5.31055 0.3103325,-2.805551 -4.146715 0.5966032,-2.930554 -3.443736 0.7914849,-3.027869 -2.779506 0.9580889,-2.186442 -5.098272 0.3261355,-2.286599 -3.767935 0.6022612,-2.286599 -3.767935 0.6022612,-2.399354 -2.154581 1.04149,-1.799585 -5.186409 0.4260106,-1.813497 -3.905283 0.6993765,-1.860858 -3.065008 0.9684327,-1.92064 -2.338316 1.209481,-1.402324 -5.551016 0.559128,-1.234073 -4.575283 0.7838122,-1.138567 -3.939583 1.01207,-1.068523 -3.320858 1.227993,-8.418475 -7.995765 -0.64145,-7.70647 -7.683036 -0.5796575,-7.145566 -6.977687 -0.428981,-6.721485 -6.306539 -0.2816177,-6.353886 -6.014286 -0.1365802,-7.708811 -5.249991 -0.2665721,-7.57175 -3.880069 -0.1179008,-7.552535 -3.064146 0.02692282,-7.535276 -2.379822 0.1299921,-8.135403 -5.04496 -0.2807413,-8.01728 -3.502393 -0.1377842,-7.979024 -2.515298 0.03355461,-7.958422 -1.735637 0.202203,-8.535563 -5.103162 -0.3495753,-8.446934 -3.694635 -0.2664548,-8.403084 -2.759761 -0.1429422,-8.35975 -2.01941 -0.02986044,-8.908238 -5.381871 -0.4271964,-8.993197 -4.342065 -0.4007772,-9.040003 -3.708923 -0.3257304,-9.052644 -3.130034 -0.2390965,0.910,28  0
-1.903364 -8.092096 -0.1439167,-2.553184 -7.828886 0.3279805,-3.105612 -7.137734 0.5896698,-3.473288 -6.45227 0.8079059,-3.772362 -5.939806 1.042157,-2.588605 -5.33544 0.3441102,-2.815996 -4.166288 0.6386851,-2.940089 -3.464273 0.8522121,-3.039121 -2.798577 1.035822,-2.190937 -5.123363 0.346134,-2.288603 -3.790262 0.6312838,-2.288603 -3.790262 0.6312838,-2.389512 -2.165582 1.099684,-1.801842 -5.211645 0.4303046,-1.814177 -3.94075 0.7013113,-1.861782 -3.112982 0.9734347,-1.917747 -2.397385 1.21815,-1.402644 -5.562876 0.550172,-1.242783 -4.586015 0.7795364,-1.154722 -3.945179 1.015883,-1.088963 -3.325023 1.240106,-8.427396 -7.983948 -0.6798815,-7.711006 -7.674949 -0.6217279,-7.154623 -6.965864 -0.4686229,-6.735598 -6.293703 -0.3115887,-6.370263 -5.985464 -0.1529519,-7.701129 -5.240133 -0.3425695,-7.569967 -3.871976 -0.2016816,-7.551969 -3.055854 -0.06844217,-7.534039 -2.380775 0.01130521,-8.132898 -5.042131 -0.346864,-8.025776 -3.493809 -0.2192262,-7.99119 -2.508096 -0.06457734,-7.971957 -1.749016 0.08697534,-8.539984 -5.106258 -0.4011266,-8.463559 -3.688173 -0.3280711,-8.426315 -2.754739 -0.2127493,-8.38978 -2.023351 -0.1114528,-8.922741 -5.390654 -0.4635513,-9.012105 -4.330905 -0.4315872,-9.057657 -3.679857 -0.354104,-9.070564 -3.090271 -0.2719905,1.010,28  0
-1.89963 -8.089191 -0.146422,-2.544744 -7.838549 0.2968377,-3.092739 -7.134413 0.5433674,-3.461575 -6.432266 0.7533538,-3.758531 -5.900442 0.9769617,-2.586695 -5.337856 0.3022902,-2.825418 -4.16673 0.5807929,-2.953006 -3.462255 0.7795056,-3.047976 -2.791819 0.9555932,-2.197825 -5.118377 0.3196631,-2.303026 -3.777195 0.5919238,-2.303026 -3.777195 0.5919238,-2.40474 -2.159528 1.033978,-1.814103 -5.200668 0.4212225,-1.832314 -3.915656 0.6828747,-1.88041 -3.072956 0.9571893,-1.934566 -2.341992 1.211196,-1.41821 -5.552499 0.5558482,-1.26652 -4.563123 0.7783192,-1.182733 -3.913263 1.017225,-1.12072 -3.28572 1.242905,-8.435225 -7.980123 -0.6127221,-7.732032 -7.667534 -0.5627601,-7.181789 -6.938659 -0.4254166,-6.773887 -6.244624 -0.2732805,-6.405467 -5.93283 -0.1235085,-7.713291 -5.216922 -0.3309403,-7.582199 -3.868356 -0.2008017,-7.560542 -3.059162 -0.0704776,-7.538465 -2.382951 0.01248664,-8.138602 -5.015424 -0.3143459,-8.029267 -3.489212 -0.2005076,-7.991689 -2.518338 -0.04021478,-7.96716 -1.762267 0.111616,-8.540217 -5.077674 -0.3420853,-8.464314 -3.67021 -0.2628343,-8.421844 -2.762162 -0.1080319,-8.383122 -2.024318 0.003980815,-8.928427 -5.387582 -0.3980358,-9.013453 -4.334028 -0.3579056,-9.056977 -3.690586 -0.2712521,-9.06913 -3.106258 -0.1823623,1.110,28  0
-1.875221 -8.089502 -0.1630555,-2.521634 -7.824218 0.2746247,-3.074109 -7.129071 0.5167624,-3.439206 -6.425264 0.7259409,-3.729341 -5.881364 0.9529542,-2.582837 -5.342474 0.2674193,-2.824376 -4.171067 0.5445293,-2.946919 -3.462888 0.7521498,-3.035091 -2.785425 0.9335178,-2.192632 -5.122348 0.2823639,-2.304072 -3.774042 0.5487207,-2.304072 -3.774042 0.5487207,-2.391658 -2.145538 1.011042,-1.807467 -5.198698 0.3816246,-1.830786 -3.917678 0.6334877,-1.873262 -3.080129 0.9112771,-1.926088 -2.357491 1.170801,-1.41099 -5.539583 0.512517,-1.266495 -4.550468 0.7332451,-1.187911 -3.903694 0.9784737,-1.134024 -3.282317 1.207504,-8.435557 -7.980281 -0.5121221,-7.740359 -7.662902 -0.3990842,-7.187044 -6.922523 -0.2298284,-6.775852 -6.238391 -0.04714334,-6.407061 -5.922004 0.1339399,-7.719871 -5.182057 -0.2044373,-7.597003 -3.840982 -0.04662615,-7.571543 -3.039507 0.1102366,-7.547658 -2.366004 0.2112641,-8.142269 -4.988765 -0.1890549,-8.044661 -3.471193 -0.04853398,-8.00917 -2.513158 0.1366559,-7.985359 -1.748446 0.30452,-8.543438 -5.061959 -0.2064224,-8.473397 -3.655494 -0.09918231,-8.433782 -2.742809 0.04212195,-8.390141 -2.006187 0.157412,-8.925668 -5.356201 -0.2244456,-9.01716 -4.314285 -0.1588155,-9.061181 -3.660826 -0.06487712,-9.071765 -3.056077 0.02040774,1.210,28  0
-1.848762 -8.087004 -0.175758,-2.50452 -7.817699 0.2740627,-3.055637 -7.138232 0.5142288,-3.40996 -6.446187 0.7214031,-3.68266 -5.901569 0.944666,-2.559472 -5.342634 0.2525223,-2.78773 -4.171113 0.5231192,-2.899292 -3.473304 0.7390442,-2.979455 -2.795269 0.9148463,-2.161273 -5.121502 0.259481,-2.267182 -3.76801 0.5203601,-2.267182 -3.76801 0.5203601,-2.336911 -2.120742 1.016638,-1.772779 -5.197914 0.3413594,-1.792215 -3.922275 0.5850586,-1.832417 -3.093027 0.8532727,-1.885381 -2.382917 1.107061,-1.374995 -5.529249 0.4593738,-1.225019 -4.544611 0.6760895,-1.149097 -3.896768 0.9112381,-1.10166 -3.281002 1.126605,-8.490431 -8.028753 -0.4503978,-7.7975 -7.681925 -0.4083647,-7.245126 -6.907234 -0.2666879,-6.826612 -6.210005 -0.1117992,-6.450109 -5.912004 0.05743408,-7.78907 -5.199778 -0.1982946,-7.660995 -3.847528 -0.07130519,-7.640681 -3.043097 0.05399483,-7.62415 -2.365098 0.1409048,-8.205963 -5.0147 -0.1658091,-8.101477 -3.498397 -0.05972019,-8.068763 -2.531453 0.1039298,-8.051547 -1.757016 0.2614923,-8.603975 -5.092503 -0.1712947,-8.528271 -3.693595 -0.100466,-8.489 -2.788383 0.03289515,-8.45026 -2.060192 0.1527724,-8.980358 -5.389471 -0.1843845,-9.063025 -4.346473 -0.1492966,-9.101405 -3.70054 -0.04880625,-9.114826 -3.106663 0.04886305,1.310,28  0
-1.825359 -8.093611 -0.1607905,-2.475068 -7.834968 0.2808132,-3.031887 -7.145081 0.5100461,-3.392975 -6.435085 0.7064207,-3.663277 -5.879463 0.9128001,-2.521281 -5.335145 0.2457948,-2.752091 -4.155359 0.5001528,-2.876254 -3.446159 0.6909758,-2.96363 -2.77001 0.8516639,-2.13189 -5.119375 0.2475331,-2.242893 -3.768193 0.4971006,-2.242893 -3.768193 0.4971006,-2.333409 -2.131847 0.9716399,-1.74964 -5.198969 0.3275574,-1.773409 -3.935096 0.5612271,-1.81732 -3.103239 0.8283165,-1.867053 -2.384023 1.081604,-1.356919 -5.533107 0.4428986,-1.215952 -4.556828 0.6512136,-1.144551 -3.924177 0.886232,-1.099366 -3.321054 1.110165,-8.496369 -8.028109 -0.4513585,-7.806364 -7.677898 -0.365501,-7.256634 -6.927494 -0.2089453,-6.846233 -6.240968 -0.0344815,-6.478359 -5.935335 0.1391644,-7.783355 -5.203545 -0.1722058,-7.653141 -3.864572 -0.03027236,-7.629616 -3.058159 0.1062818,-7.606564 -2.385387 0.1972024,-8.205551 -5.015762 -0.1575908,-8.108212 -3.49127 -0.03279316,-8.076652 -2.527228 0.1401035,-8.057034 -1.757303 0.3001285,-8.60291 -5.079481 -0.1755384,-8.538619 -3.674462 -0.09435523,-8.512068 -2.768973 0.01821899,-8.481981 -2.036838 0.1178685,-8.97872 -5.360987 -0.1972746,-9.067274 -4.306268 -0.1625348,-9.115465 -3.656904 -0.08933002,-9.136466 -3.056788 -0.01572546,1.410,28  0
-1.815838 -8.135664 -0.10422,-2.470569 -7.871997 0.3269255,-3.027633 -7.161305 0.5543859,-3.392796 -6.432691 0.7478809,-3.671741 -5.873001 0.9537574,-2.522794 -5.361251 0.2934257,-2.747992 -4.180358 0.5384406,-2.872266 -3.464696 0.7187713,-2.960589 -2.78753 0.8822106,-2.134845 -5.145664 0.2990041,-2.239607 -3.797792 0.5341172,-2.239607 -3.797792 0.5341172,-2.339524 -2.182543 0.9686795,-1.755648 -5.22745 0.385567,-1.771816 -3.954776 0.6118578,-1.816407 -3.125656 0.8707948,-1.863262 -2.404768 1.117009,-1.364152 -5.572765 0.5084747,-1.221219 -4.59616 0.7083448,-1.1456 -3.972065 0.9335688,-1.090699 -3.376369 1.146271,-8.506887 -8.067665 -0.3983648,-7.82146 -7.710741 -0.316221,-7.273755 -6.939212 -0.1661084,-6.871616 -6.232635 0.008608341,-6.50608 -5.918439 0.183089,-7.807038 -5.218189 -0.1455042,-7.684587 -3.869377 -0.01097479,-7.665107 -3.057205 0.1188236,-7.648551 -2.384153 0.2041123,-8.229289 -5.035999 -0.1354183,-8.139692 -3.510755 -0.01695025,-8.118601 -2.549242 0.1520571,-8.111857 -1.784755 0.3053655,-8.626293 -5.105492 -0.1547218,-8.568514 -3.714397 -0.08485922,-8.547733 -2.813234 0.01708397,-8.524328 -2.084149 0.1084968,-9.001447 -5.393381 -0.1784352,-9.092154 -4.345184 -0.1467687,-9.1386 -3.693627 -0.07209706,-9.15707 -3.086833 -0.001181304,1.510,28  0
-1.842063 -8.130129 -0.1327853,-2.487061 -7.857632 0.2793204,-3.040068 -7.151927 0.5007276,-3.403021 -6.443863 0.69844,-3.669112 -5.902622 0.9123268,-2.535202 -5.35247 0.2238459,-2.762699 -4.178334 0.4661221,-2.885141 -3.472797 0.6469348,-2.971764 -2.798515 0.8014963,-2.153753 -5.144199 0.243927,-2.254903 -3.795704 0.4776899,-2.254903 -3.795704 0.4776899,-2.338138 -2.178442 0.9280882,-1.780267 -5.228073 0.3442661,-1.792986 -3.95732 0.5686052,-1.835262 -3.12925 0.8239887,-1.879892 -2.413705 1.066089,-1.394207 -5.569994 0.4802436,-1.247616 -4.59426 0.6778951,-1.170113 -3.966051 0.8988104,-1.111405 -3.362615 1.104257,-8.518105 -8.103809 -0.3557115,-7.829787 -7.725697 -0.314532,-7.286338 -6.942526 -0.1908528,-6.879924 -6.227489 -0.04210719,-6.509237 -5.934471 0.1112955,-7.821489 -5.227024 -0.168459,-7.69556 -3.886869 -0.07911289,-7.674575 -3.081316 0.020818,-7.654071 -2.423432 0.08692947,-8.243304 -5.054323 -0.1632344,-8.150961 -3.53256 -0.0805282,-8.133383 -2.584383 0.06717727,-8.129211 -1.839247 0.2053278,-8.639869 -5.134265 -0.1907309,-8.582398 -3.751464 -0.1528408,-8.562995 -2.86574 -0.07947877,-8.537978 -2.155089 -0.01381987,-9.013638 -5.429031 -0.2260916,-9.10249 -4.3759 -0.2171161,-9.149666 -3.73543 -0.1624091,-9.166219 -3.144589 -0.107398,1.610,28  0
-1.842138 -8.142269 -0.1417075,-2.488254 -7.862829 0.2795112,-3.039026 -7.160047 0.499391,-3.396225 -6.452297 0.6937007,-3.660054 -5.900922 0.9000798,-2.531365 -5.376611 0.2495306,-2.769106 -4.203186 0.5032458,-2.891743 -3.495733 0.6886574,-2.976849 -2.813814 0.8464865,-2.148002 -5.161978 0.2630959,-2.258353 -3.808001 0.5086161,-2.258353 -3.808001 0.5086161,-2.348805 -2.178967 0.9643388,-1.773376 -5.238821 0.3573165,-1.790095 -3.961458 0.585638,-1.834351 -3.128298 0.8460752,-1.883039 -2.413074 1.094367,-1.386951 -5.569452 0.4850236,-1.24738 -4.57831 0.6824648,-1.178453 -3.939119 0.9132092,-1.132407 -3.3311 1.126119,-8.520517 -8.125608 -0.3139155,-7.837823 -7.735549 -0.2637884,-7.292324 -6.94211 -0.1470766,-6.888515 -6.218134 -0.005078256,-6.524237 -5.923289 0.1382038,-7.822825 -5.23427 -0.1165681,-7.699397 -3.885177 -0.02084556,-7.685392 -3.071609 0.08600429,-7.670835 -2.399849 0.1645784,-8.240678 -5.064949 -0.1153025,-8.143301 -3.558748 -0.03024584,-8.128346 -2.615256 0.1264002,-8.126922 -1.860126 0.2764906,-8.63507 -5.14632 -0.1416082,-8.570023 -3.785553 -0.09674086,-8.550914 -2.906774 -0.01106477,-8.52911 -2.199337 0.06686798,-9.008902 -5.445052 -0.1754385,-9.095407 -4.406588 -0.1576681,-9.145169 -3.77603 -0.09314169,-9.168224 -3.18822 -0.03047273,1.710,28  0
-1.822268 -8.175802 -0.1182495,-2.469409 -7.898057 0.3107003,-3.025078 -7.191415 0.5346166,-3.383957 -6.471306 0.728553,-3.645324 -5.909406 0.9319642,-2.514019 -5.406618 0.2831958,-2.74907 -4.229425 0.5400518,-2.872097 -3.516498 0.7296879,-2.95798 -2.832273 0.896454,-2.131871 -5.189891 0.2925575,-2.244396 -3.830001 0.5408448,-2.244396 -3.830001 0.5408448,-2.332051 -2.195953 1.009944,-1.757317 -5.268217 0.3817844,-1.778687 -3.988859 0.6177197,-1.822183 -3.154731 0.885321,-1.871047 -2.435787 1.141899,-1.371256 -5.605472 0.5070159,-1.229679 -4.622396 0.7123891,-1.157516 -3.992724 0.9489809,-1.109351 -3.391926 1.171047,-8.541548 -8.172861 -0.2730686,-7.85451 -7.752795 -0.2720065,-7.319975 -6.953746 -0.1711441,-6.91778 -6.237322 -0.03561041,-6.541073 -5.94064 0.1132573,-7.844725 -5.243286 -0.1668117,-7.713518 -3.918769 -0.1239357,-7.686096 -3.120662 -0.06430782,-7.66512 -2.473123 -0.02570409,-8.267836 -5.096221 -0.1438231,-8.181396 -3.621964 -0.1058974,-8.170542 -2.71496 0.006796539,-8.173603 -2.017158 0.1085472,-8.665624 -5.188709 -0.1508964,-8.613018 -3.845533 -0.1445771,-8.593102 -3.00452 -0.1099042,-8.570201 -2.344583 -0.08984381,-9.039475 -5.484756 -0.1681865,-9.118613 -4.43241 -0.1740499,-9.152872 -3.796413 -0.1451511,-9.16467 -3.220077 -0.1273154,1.810,28  0
-1.819628 -8.21073 -0.09165855,-2.461898 -7.927555 0.344563,-3.008743 -7.217126 0.5758737,-3.362728 -6.490386 0.7749538,-3.633593 -5.928777 0.9842973,-2.493645 -5.426385 0.327389,-2.722456 -4.249643 0.5879437,-2.843907 -3.541467 0.7772462,-2.929955 -2.861587 0.9435017,-2.109302 -5.217315 0.3349715,-2.220725 -3.863996 0.5874321,-2.220725 -3.863996 0.5874321,-2.305632 -2.240405 1.050338,-1.733895 -5.3029 0.4218467,-1.75474 -4.029191 0.6608325,-1.797361 -3.199134 0.92958,-1.843193 -2.481802 1.185391,-1.349405 -5.64755 0.5458696,-1.208249 -4.667325 0.7503594,-1.137395 -4.037687 0.9839957,-1.089505 -3.440294 1.204233,-8.580845 -8.226551 -0.06112073,-7.891601 -7.796934 -0.03790917,-7.35547 -6.979322 0.07509369,-6.955769 -6.279663 0.2264979,-6.577793 -5.954889 0.4079836,-7.875032 -5.228377 -0.0293151,-7.731229 -3.952654 -0.01999795,-7.696607 -3.198127 0.009666085,-7.670446 -2.572938 0.03242012,-8.300189 -5.087753 0.006147951,-8.207006 -3.723585 -0.006692879,-8.201993 -2.925612 0.06015347,-8.206454 -2.318702 0.1193774,-8.694946 -5.179629 0.02919829,-8.638326 -3.919746 0.006458722,-8.625011 -3.146467 0.0296111,-8.60416 -2.534177 0.03886394,-9.062766 -5.474411 0.04537018,-9.13721 -4.477811 0.02189875,-9.169428 -3.872985 0.04407752,-9.176482 -3.320323 0.06013598,1.910,28  0
-1.809025 -8.218178 -0.08925954,-2.452275 -7.939853 0.3638027,-3.002953 -7.227016 0.6086271,-3.358946 -6.500376 0.8198613,-3.635039 -5.928796 1.043575,-2.485785 -5.434245 0.361889,-2.712676 -4.256625 0.6349687,-2.832605 -3.548305 0.8301149,-2.920416 -2.866809 1.00265,-2.099661 -5.228611 0.3674425,-2.209946 -3.878799 0.6349397,-2.209946 -3.878799 0.6349397,-2.293004 -2.258906 1.106642,-1.723903 -5.318651 0.4537361,-1.744404 -4.044267 0.7085808,-1.784643 -3.215444 0.9880689,-1.828476 -2.496838 1.251647,-1.338171 -5.669894 0.5767223,-1.197753 -4.687494 0.7966973,-1.126745 -4.059467 1.042101,-1.078754 -3.462067 1.271293,-8.592772 -8.205151 -0.1406235,-7.901692 -7.789751 -0.1303651,-7.362482 -6.991004 -0.04077788,-6.965694 -6.297216 0.08329949,-6.604883 -5.960895 0.238719,-7.915543 -5.21339 -0.2341701,-7.766484 -3.97759 -0.2498353,-7.733674 -3.234479 -0.2154419,-7.703959 -2.620407 -0.1813681,-8.341744 -5.086556 -0.2034604,-8.270833 -3.830904 -0.2680432,-8.283491 -3.132193 -0.222451,-8.303351 -2.620637 -0.1798594,-8.734416 -5.194193 -0.1700188,-8.698125 -4.035596 -0.2196187,-8.705864 -3.338502 -0.2038756,-8.702858 -2.793418 -0.2095596,-9.100119 -5.502738 -0.1383357,-9.178843 -4.56208 -0.1855349,-9.22139 -3.990871 -0.1872202,-9.233063 -3.479231 -0.1906067,2.010,28  0
-1.819575 -8.228678 -0.1075674,-2.46203 -7.942739 0.3232751,-3.005878 -7.228823 0.5527329,-3.358664 -6.507783 0.7566669,-3.628651 -5.92978 0.9704669,-2.489206 -5.436155 0.2887935,-2.713141 -4.259466 0.5538698,-2.832524 -3.556471 0.7487916,-2.918978 -2.878988 0.9221526,-2.105896 -5.23796 0.3076718,-2.207973 -3.892826 0.5646569,-2.207973 -3.892826 0.5646569,-2.28649 -2.277133 1.041097,-1.731995 -5.33584 0.4078022,-1.743266 -4.074573 0.6535329,-1.783776 -3.248409 0.924606,-1.82647 -2.53171 1.183756,-1.350334 -5.690393 0.5442795,-1.201749 -4.726551 0.7551913,-1.128309 -4.102742 0.9928083,-1.075772 -3.500438 1.214114,-8.613356 -8.116135 -0.2765906,-7.92526 -7.729051 -0.2543864,-7.386494 -6.949186 -0.1700324,-6.987911 -6.270502 -0.06277569,-6.630847 -5.935854 0.0872708,-7.933251 -5.157302 -0.3879599,-7.778156 -3.920988 -0.4005372,-7.746913 -3.172073 -0.3496073,-7.72398 -2.566675 -0.3105057,-8.359893 -5.03779 -0.3783932,-8.299685 -3.825758 -0.4683114,-8.312753 -3.170864 -0.4425485,-8.336304 -2.7271 -0.4188928,-8.755484 -5.156105 -0.3590416,-8.727283 -4.053367 -0.4243687,-8.735217 -3.403047 -0.4046454,-8.733397 -2.919418 -0.4112804,-9.122649 -5.474467 -0.336352,-9.204041 -4.574281 -0.4009927,-9.243924 -4.026066 -0.4038704,-9.250104 -3.544027 -0.4062295,2.110,28  0
-1.81625 -8.229876 -0.1072695,-2.45541 -7.941556 0.3273746,-2.997145 -7.222315 0.5638606,-3.35416 -6.502247 0.7727131,-3.624973 -5.930988 0.9934324,-2.483148 -5.43927 0.2919045,-2.707062 -4.264491 0.556928,-2.829957 -3.560262 0.749122,-2.920228 -2.883913 0.9211282,-2.101056 -5.239147 0.309589,-2.204553 -3.893744 0.5616495,-2.204553 -3.893744 0.5616495,-2.2901 -2.278082 1.024643,-1.728042 -5.336313 0.4108946,-1.744853 -4.069042 0.6559401,-1.786764 -3.234296 0.9275907,-1.832103 -2.508444 1.187147,-1.347507 -5.695449 0.5498682,-1.194683 -4.732086 0.7625612,-1.116214 -4.108015 0.9995724,-1.06054 -3.507283 1.220993,-8.598576 -8.116543 -0.2958167,-7.92045 -7.717906 -0.272482,-7.381289 -6.946849 -0.1930667,-6.979918 -6.273863 -0.09050973,-6.627337 -5.927137 0.05596566,-7.933211 -5.165079 -0.4227777,-7.774103 -3.955636 -0.4288899,-7.748772 -3.217909 -0.3727996,-7.736694 -2.622783 -0.3300228,-8.359858 -5.043098 -0.413761,-8.307054 -3.865238 -0.5147265,-8.324244 -3.262139 -0.4990603,-8.352966 -2.858077 -0.4804375,-8.753489 -5.157761 -0.3920634,-8.736351 -4.094409 -0.4622355,-8.742207 -3.496832 -0.4542251,-8.739321 -3.067369 -0.4679441,-9.114977 -5.468191 -0.3630604,-9.200418 -4.598956 -0.424761,-9.239706 -4.062099 -0.4289713,-9.245291 -3.597072 -0.4338851,2.210,28  0
-1.800458 -8.227787 -0.123086,-2.449403 -7.944278 0.3211471,-2.994263 -7.215036 0.5487059,-3.339897 -6.482343 0.7423651,-3.608385 -5.919378 0.9395162,-2.507382 -5.46047 0.3111919,-2.732943 -4.265106 0.5792843,-2.860806 -3.556864 0.7610829,-2.960563 -2.8869 0.9246681,-2.121014 -5.249059 0.3197134,-2.225963 -3.895342 0.5747121,-2.225963 -3.895342 0.5747121,-2.336231 -2.302099 1.016184,-1.744299 -5.334623 0.4134131,-1.769574 -4.067485 0.6678286,-1.821095 -3.242214 0.9340312,-1.875121 -2.517847 1.184393,-1.358016 -5.68026 0.5435135,-1.219522 -4.724739 0.7597144,-1.146933 -4.108387 0.9908746,-1.095622 -3.510187 1.204235,-8.618021 -8.032265 -0.5150005,-7.926536 -7.706268 -0.557587,-7.383607 -6.951192 -0.5208,-6.965428 -6.286052 -0.4770526,-6.633228 -5.941745 -0.4021557,-7.930758 -5.155521 -0.707389,-7.767081 -3.928192 -0.7015244,-7.741321 -3.165661 -0.6464939,-7.73043 -2.593853 -0.6361247,-8.372225 -5.026742 -0.7172875,-8.328917 -3.834545 -0.8865845,-8.339783 -3.347076 -0.9931496,-8.359333 -3.124888 -1.0782,-8.775184 -5.147583 -0.7179274,-8.772929 -4.101533 -0.8349721,-8.77204 -3.599136 -0.8954293,-8.76357 -3.314271 -0.9650849,-9.13417 -5.460429 -0.711068,-9.200896 -4.603647 -0.8065495,-9.226191 -4.083206 -0.8315023,-9.21815 -3.671552 -0.8618894,2.310,28  0
-1.854956 -8.288872 -0.1568979,-2.518731 -7.998344 0.2230304,-3.038038 -7.249019 0.4414459,-3.336567 -6.471918 0.6502653,-3.633945 -5.882078 0.8686939,-2.611869 -5.545181 0.264581,-2.876572 -4.439262 0.5626325,-3.012018 -3.744546 0.7732842,-3.110301 -3.066243 0.9590006,-2.222297 -5.328907 0.3086535,-2.365632 -4.04548 0.6100029,-2.365632 -4.04548 0.6100029,-2.524937 -2.50027 1.084319,-1.838023 -5.405664 0.4346451,-1.875187 -4.188519 0.7177543,-1.95519 -3.409885 1.012015,-2.016998 -2.681364 1.284645,-1.441825 -5.735252 0.5802792,-1.339662 -4.792423 0.8535265,-1.316097 -4.17904 1.120729,-1.304496 -3.568574 1.354149,-8.635392 -8.036907 -0.4075128,-7.952057 -7.706273 -0.2950607,-7.399751 -6.962168 -0.2034512,-6.98267 -6.294412 -0.1045654,-6.644741 -5.916564 0.04146037,-7.942472 -5.126227 -0.5488539,-7.773892 -3.938746 -0.5384945,-7.743138 -3.220369 -0.469703,-7.744032 -2.648555 -0.4297163,-8.370475 -5.00036 -0.5812448,-8.323781 -3.877571 -0.6961281,-8.351598 -3.335238 -0.6847086,-8.404471 -2.996255 -0.6727061,-8.76958 -5.133299 -0.5807249,-8.772512 -4.1317 -0.6501361,-8.787216 -3.608209 -0.6150832,-8.803527 -3.260865 -0.6048071,-9.140321 -5.466838 -0.5574659,-9.217922 -4.660641 -0.5910227,-9.253708 -4.156188 -0.5397111,-9.258711 -3.731354 -0.5076905,2.410,28  0
-1.861751 -8.341259 -0.3247845,-2.553097 -8.045088 0.02535784,-3.068804 -7.298383 0.2092454,-3.314415 -6.474231 0.3821609,-3.605174 -5.838935 0.5421946,-2.689085 -5.655855 0.1072471,-2.954439 -4.55536 0.4091678,-3.088045 -3.858127 0.6127868,-3.183401 -3.154014 0.795205,-2.292843 -5.440012 0.1471749,-2.452796 -4.220528 0.4716367,-2.452796 -4.220528 0.4716367,-2.626526 -2.750045 0.9462265,-1.902033 -5.505156 0.2551015,-1.952403 -4.361669 0.5514677,-2.035869 -3.62794 0.8485376,-2.102807 -2.953414 1.11805,-1.503531 -5.806287 0.3807226,-1.44095 -4.903597 0.6733112,-1.456835 -4.318991 0.9591353,-1.487615 -3.745729 1.194014,-8.632609 -8.067587 -0.4680451,-7.943252 -7.703269 -0.3502612,-7.405873 -6.957239 -0.2288578,-7.010939 -6.285808 -0.09313336,-6.659592 -5.929479 0.0880478,-7.956246 -5.16808 -0.5039894,-7.797112 -3.943758 -0.4658192,-7.760628 -3.212905 -0.3822514,-7.744232 -2.606712 -0.319732,-8.381736 -5.04247 -0.5031515,-8.341881 -3.857913 -0.5435752,-8.370662 -3.204458 -0.4705064,-8.417262 -2.743842 -0.4098844,-8.778343 -5.166934 -0.4770557,-8.769236 -4.085124 -0.4986599,-8.785888 -3.460741 -0.4358463,-8.799596 -2.98808 -0.401625,-9.149055 -5.496327 -0.4342532,-9.231138 -4.637849 -0.4415199,-9.274702 -4.107444 -0.3896602,-9.284733 -3.635265 -0.3501169,2.510,28  0
-1.883182 -8.397671 -0.6362822,-2.608865 -8.193016 -0.3184065,-3.117287 -7.355203 -0.220736,-3.310707 -6.476484 -0.08221871,-3.564425 -5.755958 0.07007104,-2.839982 -5.780947 -0.7672493,-3.118143 -4.719388 -0.7048448,-3.278385 -4.038158 -0.5863323,-3.379547 -3.395444 -0.4578245,-2.439072 -5.571512 -0.7305608,-2.602335 -4.505964 -0.5816605,-2.602335 -4.505964 -0.5816605,-2.644987 -3.838431 -0.1367084,-2.051767 -5.565373 -0.6199045,-2.15433 -4.550443 -0.4161625,-2.203674 -4.170567 -0.02296388,-2.216028 -4.183877 0.2532572,-1.630999 -5.716949 -0.4647229,-1.635608 -4.863791 -0.2224998,-1.712583 -4.621032 0.09993953,-1.764653 -4.733223 0.3446357,-8.627025 -8.039568 -0.4948495,-7.950212 -7.683356 -0.2924342,-7.413821 -6.951616 -0.09770021,-7.03048 -6.29623 0.1133057,-6.681278 -5.925095 0.3380054,-7.961401 -5.160043 -0.2982175,-7.820218 -3.932541 -0.1703592,-7.782733 -3.192209 -0.04067308,-7.755894 -2.557945 0.05235112,-8.381538 -5.029081 -0.2807191,-8.328775 -3.748245 -0.2076412,-8.348657 -2.980368 -0.05327824,-8.377692 -2.35113 0.09146202,-8.774417 -5.155768 -0.2541847,-8.759562 -3.963905 -0.1692337,-8.780428 -3.228074 -0.02494153,-8.792308 -2.61206 0.08259571,-9.154789 -5.484206 -0.2053938,-9.256062 -4.560588 -0.1434612,-9.304656 -3.977375 -0.05280358,-9.314307 -3.417569 0.02644199,2.610,28  0
-2.012748 -8.355877 -0.8779097,-2.673718 -8.161892 -0.4287317,-3.139574 -7.40122 -0.1293032,-3.319697 -6.568666 0.1776832,-3.58465 -5.830308 0.532218,-3.050545 -5.805315 -0.6965526,-3.299347 -4.8071 -0.4792303,-3.459225 -4.111806 -0.1586042,-3.583884 -3.546786 0.143521,-2.642853 -5.623895 -0.6507171,-2.765579 -4.47072 -0.1658621,-2.765579 -4.47072 -0.1658621,-2.813258 -4.601834 0.7286177,-2.233658 -5.658092 -0.5221888,-2.279616 -4.565194 -0.01237261,-2.367694 -4.714969 0.5543388,-2.375916 -5.2684 0.8898939,-1.78058 -5.876653 -0.3580575,-1.762566 -5.009895 0.1340559,-1.872748 -5.05961 0.6149244,-1.925747 -5.482584 0.9906,-8.632599 -8.03796 -0.3644141,-7.962377 -7.687994 -0.1494867,-7.424573 -6.933702 0.05681974,-7.041368 -6.26193 0.2869136,-6.68525 -5.892796 0.5316567,-7.967264 -5.133476 -0.1621939,-7.830615 -3.928632 -0.03045425,-7.798365 -3.19021 0.108961,-7.777173 -2.545045 0.2103913,-8.374976 -4.992719 -0.1266826,-8.31862 -3.692894 -0.05210415,-8.328179 -2.893125 0.1215756,-8.34502 -2.235403 0.2795419,-8.765853 -5.120409 -0.07802695,-8.742075 -3.897129 0.009396136,-8.751732 -3.125512 0.1621807,-8.755819 -2.481348 0.2760433,-9.150691 -5.46265 -0.005824387,-9.263216 -4.519336 0.07821792,-9.315222 -3.903811 0.1832831,-9.337113 -3.317253 0.2688817,2.710,28  0
-2.090125 -8.464392 -0.9763169,-2.728622 -8.220278 -0.5228346,-3.161842 -7.439216 -0.1951842,-3.353416 -6.607459 0.1417825,-3.638899 -5.831317 0.5339677,-3.099266 -5.895813 -0.6971299,-3.331172 -4.909987 -0.3667585,-3.523487 -4.222784 0.03246307,-3.683905 -3.683993 0.4004569,-2.694301 -5.769296 -0.6208893,-2.791579 -4.615617 0.04434204,-2.791579 -4.615617 0.04434204,-2.839797 -5.011436 1.07307,-2.293578 -5.830242 -0.4717066,-2.322417 -4.758659 0.1536651,-2.450025 -4.984777 0.7356089,-2.475517 -5.504346 1.044857,-1.852035 -6.060371 -0.2940313,-1.869031 -5.212396 0.2536229,-2.021674 -5.314441 0.7326438,-2.091335 -5.724886 1.082911,-8.625035 -8.041037 -0.3895119,-7.960728 -7.679964 -0.1811764,-7.427657 -6.937799 0.02519602,-7.049097 -6.266254 0.2528648,-6.697792 -5.901044 0.49002,-7.97286 -5.146905 -0.1652923,-7.8371 -3.919372 -0.03121632,-7.803279 -3.171218 0.1031475,-7.780982 -2.524062 0.2004431,-8.38236 -5.003148 -0.1348867,-8.322927 -3.677421 -0.05598462,-8.33226 -2.858264 0.1181129,-8.348255 -2.186267 0.2811174,-8.77238 -5.125895 -0.09842348,-8.743859 -3.87744 -0.009878427,-8.752535 -3.090606 0.135743,-8.754435 -2.43535 0.2481066,-9.155932 -5.457093 -0.03911927,-9.272931 -4.493433 0.03966114,-9.330579 -3.876155 0.1393631,-9.356103 -3.293566 0.2236587,2.810,28  0
-2.127026 -8.48283 -1.206579,-2.757808 -8.202177 -0.8482925,-3.207006 -7.422105 -0.5731404,-3.429762 -6.576438 -0.310571,-3.709846 -5.901615 -0.06196177,-3.206696 -6.051647 -0.8229667,-3.452067 -5.1219 -0.3445392,-3.664146 -4.461214 0.04893208,-3.845381 -3.773216 0.3418496,-2.789629 -5.887261 -0.7421505,-2.907342 -4.974004 0.001144171,-2.907342 -4.974004 0.001144171,-2.892444 -6.435138 0.2367641,-2.354247 -5.958368 -0.5930371,-2.413292 -5.150447 0.03303683,-2.526303 -6.149805 0.04989803,-2.514417 -6.564227 -0.07940531,-1.907659 -6.198614 -0.4213855,-1.991152 -5.505943 4.804134E-05,-2.1269 -6.177779 0.03318107,-2.144181 -6.555061 -0.01787734,-8.653094 -8.079706 -0.3901718,-7.983662 -7.714068 -0.2201401,-7.449509 -6.963906 -0.03006101,-7.063749 -6.280017 0.1765643,-6.711212 -5.92108 0.3908982,-7.997624 -5.192409 -0.1733244,-7.864547 -3.95219 -0.04885733,-7.835587 -3.188858 0.07099223,-7.815172 -2.535347 0.1547526,-8.409153 -5.040685 -0.153332,-8.343556 -3.695127 -0.07646585,-8.350403 -2.85655 0.07855779,-8.364968 -2.179845 0.2211648,-8.799688 -5.148533 -0.1332572,-8.771028 -3.886089 -0.06260213,-8.778822 -3.091731 0.05330357,-8.77854 -2.44191 0.1400199,-9.177182 -5.468908 -0.0964995,-9.299541 -4.496496 -0.04141477,-9.358907 -3.878838 0.04169187,-9.386628 -3.306591 0.1126806,2.910,28  0
-2.187493 -8.443184 -0.9669718,-2.811013 -8.206364 -0.6253372,-3.334247 -7.264818 -0.4024996,-3.5653 -6.501219 -0.1558795,-3.798094 -5.935112 0.09746397,-3.255816 -5.94001 -0.5775824,-3.552317 -5.247425 0.02958488,-3.789034 -4.713666 0.5164156,-4.012108 -4.161087 0.8547328,-2.847368 -5.78624 -0.4432628,-3.060107 -5.229845 0.3942579,-3.060107 -5.229845 0.3942579,-3.081266 -6.899866 0.6073006,-2.409499 -5.917758 -0.2264224,-2.582644 -5.502895 0.5683297,-2.702496 -6.622858 0.6130724,-2.680885 -7.122896 0.4931623,-1.930774 -6.257562 -0.05915391,-2.071545 -5.755853 0.5023271,-2.256632 -6.4929 0.5614159,-2.292178 -6.878503 0.5158341,-8.654634 -8.099533 -0.2692322,-7.993873 -7.744302 -0.07550466,-7.457562 -6.982857 0.1237206,-7.080428 -6.299963 0.3495418,-6.727064 -5.935358 0.5847625,-8.00708 -5.172884 -0.08044024,-7.87241 -3.953543 0.04978812,-7.841611 -3.204783 0.1878276,-7.82224 -2.553297 0.2843776,-8.415843 -5.024896 -0.03807871,-8.359146 -3.690378 0.041502,-8.368824 -2.868436 0.2138157,-8.387198 -2.193236 0.370269,-8.805119 -5.14479 0.01450944,-8.778398 -3.885255 0.09700197,-8.788161 -3.092728 0.2355644,-8.79355 -2.434738 0.3413116,-9.186749 -5.481592 0.0873839,-9.311032 -4.519004 0.1608719,-9.372456 -3.897943 0.256896,-9.407317 -3.315517 0.3385878,3.010,28  0
-2.198074 -8.440163 -1.164439,-2.810921 -8.182936 -0.8036113,-3.349367 -7.282237 -0.5787265,-3.589025 -6.564085 -0.3234779,-3.830564 -6.025037 -0.05684161,-3.2616 -6.001058 -0.7188239,-3.563366 -5.281374 -0.07001817,-3.812078 -4.794733 0.4337157,-4.058159 -4.359653 0.7768323,-2.858493 -5.855731 -0.579749,-3.102409 -5.315835 0.2721009,-3.102409 -5.315835 0.2721009,-3.127626 -7.021871 0.5366683,-2.419175 -5.996926 -0.3632455,-2.628139 -5.621482 0.485332,-2.746505 -6.678461 0.5778124,-2.747793 -7.299745 0.4930671,-1.956959 -6.320541 -0.1136165,-2.174389 -5.983804 0.5511334,-2.361045 -6.727211 0.6632502,-2.423966 -7.223766 0.6554964,-8.70105 -8.147173 -0.3576001,-8.012345 -7.767941 -0.2469767,-7.473188 -7.013761 -0.08376947,-7.085234 -6.318565 0.1039692,-6.72547 -5.97071 0.301021,-8.024831 -5.25041 -0.1780491,-7.890188 -3.98912 -0.06882721,-7.866489 -3.223226 0.0406583,-7.854101 -2.572958 0.1119497,-8.446268 -5.097644 -0.1485315,-8.378633 -3.724229 -0.07750291,-8.390141 -2.879171 0.05788612,-8.412068 -2.210345 0.1815515,-8.842459 -5.200265 -0.1266382,-8.812696 -3.926157 -0.07022816,-8.822471 -3.126138 0.0198679,-8.827479 -2.481639 0.08692676,-9.221622 -5.512439 -0.09308064,-9.333809 -4.534941 -0.06714049,-9.392028 -3.914281 -0.004706949,-9.422022 -3.34049 0.05252376,3.110,28  0
-2.210259 -8.546043 -1.209726,-2.825737 -8.280264 -0.8305314,-3.382035 -7.350328 -0.586534,-3.638489 -6.629989 -0.3187979,-3.941154 -6.168924 -0.03310394,-3.300351 -6.152261 -0.695721,-3.62233 -5.477669 0.03122675,-3.898939 -5.041017 0.5659817,-4.178459 -4.68238 0.9337052,-2.886446 -5.996047 -0.5562302,-3.161471 -5.511585 0.3452342,-3.161471 -5.511585 0.3452342,-3.132781 -7.272254 0.5520252,-2.434039 -6.124715 -0.3303815,-2.662584 -5.822857 0.5740062,-2.75292 -6.916219 0.628088,-2.732365 -7.545351 0.5067554,-1.960159 -6.455797 -0.06895494,-2.197684 -6.209808 0.6272149,-2.372203 -6.98518 0.7170272,-2.405272 -7.465614 0.6897407,-8.699831 -8.177288 -0.256897,-8.030862 -7.802751 -0.08958989,-7.489555 -7.035741 0.09601796,-7.106991 -6.342449 0.3104368,-6.745589 -5.982711 0.5355545,-8.043329 -5.240386 -0.08543769,-7.908632 -4.004127 0.03298473,-7.878347 -3.256131 0.1602,-7.85856 -2.601667 0.2475307,-8.455829 -5.098989 -0.03287929,-8.392976 -3.747432 0.04769173,-8.40057 -2.923842 0.2161326,-8.415463 -2.247341 0.3655936,-8.845344 -5.223016 0.02720383,-8.82068 -3.955548 0.1185576,-8.834222 -3.154407 0.2649249,-8.840037 -2.483411 0.3767005,-9.226645 -5.565914 0.1027963,-9.352693 -4.596674 0.1846598,-9.41766 -3.972247 0.2894395,-9.452997 -3.382895 0.3780838,3.210,28  0
-2.208032 -8.570463 -0.9651351,-2.821671 -8.362814 -0.6322211,-3.419407 -7.447261 -0.3786923,-3.69487 -6.742117 -0.08809394,-3.989987 -6.254095 0.2255998,-3.312201 -6.128362 -0.4537227,-3.644804 -5.524548 0.3455017,-3.948776 -5.17237 0.9084742,-4.245331 -4.905527 1.268355,-2.895958 -5.955773 -0.2858138,-3.204776 -5.731696 0.6238685,-3.204776 -5.731696 0.6238685,-3.129869 -7.451662 0.705959,-2.442673 -6.090559 -0.02743173,-2.702277 -6.019269 0.8731055,-2.771074 -7.131587 0.8618345,-2.731213 -7.685493 0.7011801,-1.972824 -6.417621 0.2623721,-2.230755 -6.338571 0.9288509,-2.393728 -7.13546 0.9678193,-2.415283 -7.571517 0.892655,-8.708238 -8.194527 -0.1883775,-8.047593 -7.81483 0.0135437,-7.507704 -7.050297 0.2275483,-7.12413 -6.363307 0.4629285,-6.75686 -6.000234 0.7138141,-8.058365 -5.241553 0.04696827,-7.924941 -4.01098 0.1868465,-7.898606 -3.263319 0.3215103,-7.883865 -2.61151 0.4137262,-8.474358 -5.100011 0.08819324,-8.410967 -3.754727 0.1849934,-8.42553 -2.931474 0.3520035,-8.447263 -2.251391 0.5050727,-8.866669 -5.228575 0.1353515,-8.839684 -3.961364 0.2351554,-8.858158 -3.164274 0.37438,-8.868162 -2.494964 0.4816927,-9.250134 -5.578411 0.2022628,-9.368529 -4.602766 0.2862585,-9.434557 -3.983536 0.385844,-9.471917 -3.39948 0.474687,3.310,28  0
-2.222234 -8.649464 -0.8891553,-2.842116 -8.461483 -0.5751365,-3.445228 -7.613403 -0.2932828,-3.741739 -6.896345 0.01577121,-4.035472 -6.370775 0.3403453,-3.368252 -6.239715 -0.3696382,-3.719848 -5.714729 0.4194174,-4.030893 -5.414312 0.9613794,-4.336475 -5.140289 1.293874,-2.9454 -6.023304 -0.2013581,-3.23855 -5.942236 0.7085967,-3.23855 -5.942236 0.7085967,-3.111588 -7.600347 0.7310563,-2.479171 -6.142762 0.04983985,-2.72001 -6.256233 0.926568,-2.756706 -7.379136 0.8434469,-2.702013 -7.829549 0.6495162,-2.003543 -6.452701 0.3358977,-2.246212 -6.475242 0.9338393,-2.393725 -7.280029 0.895883,-2.406942 -7.64509 0.797088,-8.700933 -8.224199 -0.1621644,-8.044199 -7.840425 0.04995182,-7.511728 -7.073779 0.2681829,-7.138241 -6.37979 0.5133204,-6.767548 -6.008852 0.7755198,-8.071359 -5.260897 0.05991662,-7.940343 -4.037796 0.2008973,-7.914301 -3.296976 0.3454461,-7.900988 -2.647196 0.4455122,-8.48637 -5.120261 0.1090831,-8.427875 -3.780675 0.2070953,-8.439795 -2.963117 0.386948,-8.458914 -2.28597 0.5481357,-8.875189 -5.248071 0.1689177,-8.858875 -3.989616 0.2740834,-8.877779 -3.191836 0.4291295,-8.886804 -2.518301 0.5453254,-9.256483 -5.597255 0.2513323,-9.382565 -4.637731 0.3410018,-9.450053 -4.016204 0.4430751,-9.485593 -3.422668 0.5297583,3.410,28  0
-2.204351 -8.689476 -0.7296433,-2.84913 -8.550547 -0.4614365,-3.482714 -7.746728 -0.1444176,-3.801149 -7.019742 0.1968029,-4.127369 -6.497028 0.560869,-3.378742 -6.296259 -0.1749181,-3.750805 -5.761693 0.6313561,-4.069618 -5.495501 1.172095,-4.391811 -5.298357 1.505666,-2.938578 -6.035219 0.02319735,-3.295527 -6.121259 0.9376403,-3.295527 -6.121259 0.9376403,-3.082372 -7.75385 0.946152,-2.469613 -6.129308 0.2954487,-2.788541 -6.410182 1.139331,-2.783837 -7.509733 1.031415,-2.698339 -7.944141 0.8391761,-2.002252 -6.419839 0.6027007,-2.309481 -6.551652 1.166366,-2.43589 -7.339752 1.102756,-2.419669 -7.68703 0.9996455,-8.738669 -8.249235 -0.1163225,-8.07675 -7.871728 0.05533168,-7.532154 -7.089082 0.2463914,-7.161737 -6.398681 0.4745934,-6.811242 -6.032886 0.7139654,-8.084948 -5.271335 0.04614437,-7.951996 -4.056486 0.1770199,-7.929311 -3.310691 0.318191,-7.916164 -2.646896 0.4173087,-8.498013 -5.130941 0.1165389,-8.445302 -3.803701 0.200236,-8.461891 -2.982961 0.3809887,-8.485994 -2.297994 0.5381091,-8.887731 -5.261198 0.1989267,-8.871252 -4.012369 0.2917103,-8.892329 -3.21094 0.4425093,-8.903853 -2.533307 0.5586949,-9.272071 -5.617476 0.2993556,-9.399076 -4.655948 0.3864347,-9.468462 -4.028802 0.4963828,-9.509678 -3.430157 0.5891326,3.510,28  0
-2.198106 -8.735434 -1.035663,-2.875727 -8.58943 -0.8463763,-3.498725 -7.778102 -0.5089608,-3.82918 -7.045198 -0.1203308,-4.198277 -6.552448 0.2963182,-3.421604 -6.508873 -0.5351061,-3.834848 -5.933896 0.2500736,-4.160602 -5.644562 0.7538426,-4.499954 -5.404435 1.078076,-2.974951 -6.184547 -0.2946585,-3.375914 -6.291391 0.6414293,-3.375914 -6.291391 0.6414293,-3.102979 -7.865186 0.6028258,-2.506446 -6.1772 0.01199639,-2.878258 -6.552797 0.841411,-2.809693 -7.65056 0.6564553,-2.692542 -8.004845 0.4110684,-2.039121 -6.373327 0.3525397,-2.419147 -6.610204 0.8614589,-2.485766 -7.411802 0.7115021,-2.409327 -7.685096 0.5519741,-8.738314 -8.26207 -0.1752641,-8.077085 -7.890504 0.03358305,-7.536012 -7.124574 0.2486011,-7.162309 -6.442673 0.4939123,-6.803987 -6.071115 0.7494102,-8.091836 -5.305187 0.05188733,-7.959959 -4.071979 0.2027557,-7.937657 -3.326655 0.3526818,-7.924992 -2.666299 0.4565904,-8.508245 -5.164474 0.1120334,-8.455441 -3.831731 0.2222576,-8.473832 -3.005896 0.4140992,-8.499643 -2.319882 0.5865953,-8.900877 -5.294954 0.1832985,-8.882751 -4.041145 0.3012491,-8.904388 -3.231211 0.4720564,-8.917113 -2.548107 0.603321,-9.288809 -5.648346 0.2762304,-9.415159 -4.688873 0.3767831,-9.484332 -4.065483 0.4927706,-9.522216 -3.469529 0.5953373,3.610,28  0
-2.207518 -8.726273 -1.194871,-2.891258 -8.612345 -1.016579,-3.521735 -7.84266 -0.6173683,-3.860981 -7.128562 -0.1710572,-4.214016 -6.642889 0.2931871,-3.475747 -6.65087 -0.5386489,-3.895916 -5.973545 0.2907439,-4.195299 -5.671114 0.7481389,-4.503052 -5.496851 1.022685,-2.997507 -6.29173 -0.2681758,-3.402475 -6.437036 0.7200685,-3.402475 -6.437036 0.7200685,-3.11133 -7.877789 0.6217905,-2.50909 -6.237951 0.06207073,-2.882623 -6.666395 0.9157927,-2.79899 -7.70009 0.6852487,-2.687722 -7.981177 0.38644,-2.031331 -6.390375 0.4195424,-2.421479 -6.659708 0.9522357,-2.481603 -7.427423 0.7930158,-2.405935 -7.632598 0.6075993,-8.75305 -8.263126 -0.2908689,-8.085743 -7.897802 -0.1099287,-7.543637 -7.147165 0.09704772,-7.169695 -6.468305 0.3303646,-6.814518 -6.092716 0.5735865,-8.106256 -5.338447 -0.06823502,-7.976637 -4.088841 0.07764697,-7.953388 -3.340666 0.217474,-7.93634 -2.686991 0.310048,-8.527201 -5.198005 -0.008775443,-8.473912 -3.860545 0.09266743,-8.49117 -3.034151 0.2692819,-8.511927 -2.358128 0.4319886,-8.924012 -5.331102 0.05783397,-8.905078 -4.071954 0.1602957,-8.926201 -3.264594 0.3128718,-8.934981 -2.592464 0.4323316,-9.313076 -5.684328 0.1422789,-9.436839 -4.716489 0.2232087,-9.505373 -4.090389 0.3270109,-9.538274 -3.496624 0.4191101,3.710,28  0
-2.215609 -8.712826 -1.033076,-2.906474 -8.592644 -0.8414041,-3.542393 -7.818568 -0.4213645,-3.891798 -7.112123 0.03285575,-4.251422 -6.645849 0.5045065,-3.483032 -6.583852 -0.385731,-3.896994 -5.948768 0.4572251,-4.209776 -5.65641 0.9462805,-4.522865 -5.493003 1.246129,-3.002249 -6.221719 -0.1168806,-3.404395 -6.468767 0.8973843,-3.404395 -6.468767 0.8973843,-3.114837 -7.89122 0.8228709,-2.511304 -6.187262 0.2147117,-2.884306 -6.666761 1.06263,-2.808669 -7.704844 0.8304862,-2.70088 -7.961076 0.5357437,-2.032439 -6.36392 0.5757117,-2.41231 -6.681495 1.102525,-2.479361 -7.456227 0.9372482,-2.409214 -7.642073 0.7528626,-8.767642 -8.266041 -0.3041276,-8.096947 -7.903036 -0.1226447,-7.551254 -7.150741 0.08133313,-7.176373 -6.473205 0.31356,-6.826625 -6.093679 0.5565493,-8.112645 -5.348368 -0.08088139,-7.982273 -4.106142 0.07515839,-7.960163 -3.359173 0.2212228,-7.945277 -2.704465 0.3177536,-8.53415 -5.2059 -0.01567283,-8.482372 -3.873219 0.09578228,-8.501629 -3.048571 0.2774845,-8.528448 -2.371408 0.4439219,-8.933232 -5.337291 0.0583674,-8.914095 -4.078395 0.1711376,-8.93533 -3.273372 0.3295662,-8.949325 -2.600338 0.4557334,-9.327458 -5.687857 0.150048,-9.448137 -4.718917 0.2434155,-9.515117 -4.093444 0.3537784,-9.549751 -3.499164 0.4543219,3.810,28  0
-2.274429 -8.640535 -0.6486492,-2.962365 -8.57795 -0.3904991,-3.629705 -7.769098 0.02924931,-4.008471 -7.064996 0.4702698,-4.392948 -6.667324 0.9300348,-3.547647 -6.412796 0.06658834,-3.946032 -5.902557 0.9304783,-4.258399 -5.631109 1.437142,-4.588479 -5.454295 1.733371,-3.060068 -6.045479 0.3170016,-3.440833 -6.452146 1.341512,-3.440833 -6.452146 1.341512,-3.164995 -7.992044 1.236908,-2.553976 -6.059503 0.6374215,-2.906014 -6.653484 1.524941,-2.841963 -7.725523 1.313804,-2.747843 -8.034025 1.023825,-2.062224 -6.286841 0.9902105,-2.410013 -6.670825 1.539086,-2.500029 -7.460067 1.385002,-2.463473 -7.702877 1.21729,-8.765354 -8.285624 -0.3284305,-8.104134 -7.934394 -0.1288188,-7.564687 -7.193283 0.08108914,-7.200427 -6.515001 0.3144995,-6.863551 -6.118507 0.5545684,-8.138601 -5.380893 -0.100824,-8.004229 -4.14369 0.05916965,-7.980869 -3.397757 0.2107133,-7.96332 -2.741727 0.3151125,-8.559574 -5.22966 -0.04885679,-8.510262 -3.902553 0.0592382,-8.531796 -3.081639 0.2470282,-8.561707 -2.39849 0.4215935,-8.956929 -5.361022 0.01312968,-8.939479 -4.109237 0.1128362,-8.960047 -3.310689 0.2666243,-8.974449 -2.642752 0.3954551,-9.35006 -5.716337 0.09409395,-9.476835 -4.7541 0.1747952,-9.54371 -4.132802 0.2838496,-9.578352 -3.548056 0.385053,3.910,28  0
-2.291282 -8.7157 -1.159912,-2.993355 -8.559141 -0.9503872,-3.661572 -7.746665 -0.5395895,-4.037201 -7.001059 -0.1025195,-4.429578 -6.558967 0.3537188,-3.539931 -6.647031 -0.3266024,-3.956009 -5.946009 0.5281149,-4.291535 -5.629419 0.9419701,-4.608639 -5.439538 1.178658,-3.038124 -6.322737 -0.07348001,-3.443666 -6.429903 0.9183223,-3.443666 -6.429903 0.9183223,-3.181967 -7.937162 0.6470069,-2.526102 -6.298469 0.2455511,-2.89365 -6.636013 1.103516,-2.85313 -7.709001 0.7775345,-2.748281 -8.022301 0.4149059,-2.033966 -6.467058 0.5908954,-2.398156 -6.652574 1.146273,-2.496236 -7.409212 0.9525516,-2.445418 -7.630235 0.7512755,-8.798178 -8.30822 -0.3301728,-8.139144 -7.95786 -0.1170936,-7.600756 -7.217793 0.1048062,-7.235973 -6.545511 0.3470584,-6.892247 -6.165801 0.5973464,-8.16947 -5.403968 -0.04911828,-8.036669 -4.172616 0.1258649,-8.011417 -3.427811 0.276432,-7.992152 -2.774618 0.3785489,-8.590779 -5.258221 0.002884686,-8.545383 -3.93956 0.1245196,-8.567028 -3.117441 0.3096889,-8.595065 -2.426169 0.485994,-8.989869 -5.391195 0.06268954,-8.975129 -4.150486 0.1839741,-8.997357 -3.350885 0.347528,-9.010675 -2.675357 0.4789433,-9.384996 -5.745071 0.1423783,-9.511878 -4.789513 0.238205,-9.583011 -4.171549 0.3471605,-9.618734 -3.584716 0.4514625,4.010,28  0
-2.333149 -8.67458 -1.002585,-3.044623 -8.531122 -0.7950808,-3.712071 -7.749338 -0.3684288,-4.071708 -7.033262 0.08269119,-4.441418 -6.607686 0.5522181,-3.607098 -6.588327 -0.159821,-4.009954 -5.905305 0.7228413,-4.338335 -5.624532 1.158771,-4.653434 -5.492635 1.403013,-3.094059 -6.245368 0.1073818,-3.510935 -6.436135 1.14802,-3.510935 -6.436135 1.14802,-3.222355 -7.935894 0.9602702,-2.572067 -6.226517 0.4394259,-2.950785 -6.623647 1.336319,-2.896778 -7.674919 1.053874,-2.782373 -7.949503 0.7022355,-2.066473 -6.409262 0.7951248,-2.438854 -6.665309 1.374642,-2.525047 -7.415929 1.214958,-2.456217 -7.587381 1.026946,-8.818088 -8.328354 -0.2650385,-8.159228 -7.983242 0.006652802,-7.621634 -7.242963 0.2639536,-7.256337 -6.571819 0.5411737,-6.907069 -6.156826 0.8303679,-8.190266 -5.404294 0.02653623,-8.054616 -4.181116 0.232856,-8.026793 -3.443201 0.4105194,-8.007064 -2.786958 0.523401,-8.605476 -5.262113 0.08738381,-8.566385 -3.957119 0.2406344,-8.587831 -3.143423 0.4570825,-8.619013 -2.450411 0.6498337,-8.999587 -5.40822 0.1724799,-8.996092 -4.171606 0.3303116,-9.024172 -3.373789 0.5368464,-9.043947 -2.691952 0.6948773,-9.394447 -5.781192 0.2809551,-9.530443 -4.828805 0.4224122,-9.604252 -4.208274 0.569845,-9.644981 -3.613711 0.6983053,4.110,28  0
-2.366346 -8.598692 -0.682618,-3.079008 -8.473141 -0.4254645,-3.73595 -7.730857 0.04263949,-4.104206 -7.110174 0.5090286,-4.504325 -6.783645 0.9475412,-3.623064 -6.439384 0.2853609,-4.052125 -5.909935 1.117236,-4.357649 -5.743045 1.444765,-4.620293 -5.650745 1.643239,-3.099091 -6.109813 0.5409293,-3.541147 -6.586464 1.551997,-3.541147 -6.586464 1.551997,-3.230658 -7.974428 1.234865,-2.574487 -6.159685 0.86889,-2.971084 -6.720545 1.724886,-2.917206 -7.744001 1.367226,-2.794053 -7.920317 0.9957315,-2.065871 -6.416786 1.225181,-2.422349 -6.820198 1.804485,-2.519055 -7.569487 1.637976,-2.459084 -7.683098 1.470947,-8.869466 -8.360006 -0.2515419,-8.209664 -8.009333 -0.00806208,-7.672193 -7.26019 0.2301367,-7.309028 -6.589283 0.4911089,-6.968816 -6.193315 0.7667961,-8.244528 -5.423284 0.003080815,-8.111587 -4.205835 0.1819458,-8.087894 -3.467542 0.3439645,-8.0707 -2.812632 0.4538695,-8.662702 -5.285021 0.0594469,-8.624707 -3.990978 0.1840431,-8.65127 -3.188691 0.3810197,-8.689075 -2.507142 0.5588592,-9.057873 -5.433052 0.136104,-9.052407 -4.205933 0.2643733,-9.083777 -3.413228 0.4538893,-9.10877 -2.734514 0.6067926,-9.45168 -5.808652 0.2328974,-9.58634 -4.868562 0.3452096,-9.663294 -4.261139 0.4762486,-9.708674 -3.67815 0.5980668,4.210,28  0
-2.385004 -8.570442 -0.6109951,-3.073819 -8.508844 -0.3341249,-3.722286 -7.83242 0.1573468,-4.093135 -7.24533 0.6460737,-4.493696 -6.911663 1.108817,-3.617386 -6.403352 0.3919598,-4.048854 -5.932401 1.271864,-4.40519 -5.672262 1.662405,-4.730022 -5.482419 1.896688,-3.111623 -6.072631 0.6455766,-3.536137 -6.715883 1.660956,-3.536137 -6.715883 1.660956,-3.283762 -8.150331 1.349963,-2.586174 -6.157712 0.9739001,-2.962319 -6.860679 1.826323,-2.935341 -7.874881 1.482733,-2.826683 -8.079865 1.127485,-2.075 -6.442279 1.336203,-2.404743 -6.949941 1.893994,-2.532374 -7.691162 1.725168,-2.50591 -7.838312 1.5604,-8.885959 -8.37863 -0.1963529,-8.228098 -8.02944 0.06899899,-7.693362 -7.27431 0.3182555,-7.328406 -6.603908 0.5888893,-6.979786 -6.203233 0.8740182,-8.270669 -5.423584 0.07168218,-8.140511 -4.212232 0.2591594,-8.118345 -3.479122 0.4280913,-8.104524 -2.831625 0.5417538,-8.686686 -5.288483 0.1267449,-8.658493 -3.997032 0.2571626,-8.688055 -3.199734 0.4585569,-8.727245 -2.517416 0.6447282,-9.080697 -5.438915 0.205577,-9.083739 -4.212167 0.3417833,-9.118054 -3.426207 0.5347747,-9.143246 -2.746741 0.6871936,-9.473617 -5.81747 0.307285,-9.608621 -4.872581 0.4274852,-9.686384 -4.264509 0.5563995,-9.731289 -3.67315 0.6749735,4.310,28  0
-2.379681 -8.552444 -0.7476902,-3.078473 -8.533522 -0.4518132,-3.732426 -7.969377 0.08973318,-4.101321 -7.423914 0.5930687,-4.494171 -7.087102 1.060879,-3.67171 -6.552841 0.4541743,-4.127813 -6.125636 1.339705,-4.48736 -5.830986 1.697018,-4.812012 -5.584187 1.917632,-3.145876 -6.220369 0.7002645,-3.612206 -6.832016 1.663227,-3.612206 -6.832016 1.663227,-3.305513 -8.190865 1.192543,-2.595681 -6.299701 1.034241,-3.015766 -6.989013 1.843453,-2.960498 -7.96669 1.406394,-2.827632 -8.093678 1.026135,-2.063297 -6.566083 1.401038,-2.422974 -7.074262 1.939704,-2.53051 -7.79231 1.751012,-2.475505 -7.867435 1.615464,-8.912641 -8.413481 -0.2005858,-8.265589 -8.039242 0.05606449,-7.733625 -7.270427 0.3056335,-7.367397 -6.604076 0.5819663,-7.014223 -6.208817 0.8762736,-8.31153 -5.449304 0.06420925,-8.18829 -4.237262 0.2718305,-8.167221 -3.507451 0.4554421,-8.153481 -2.853551 0.5786563,-8.723564 -5.32592 0.1412508,-8.700006 -4.030313 0.295454,-8.729174 -3.225784 0.5141516,-8.765409 -2.53485 0.7079779,-9.115067 -5.485867 0.2445049,-9.124341 -4.261274 0.4069233,-9.159882 -3.467336 0.612482,-9.183206 -2.779352 0.7696809,-9.508341 -5.875793 0.3697513,-9.651341 -4.935489 0.5143463,-9.732994 -4.326384 0.6538285,-9.779282 -3.73537 0.7786047,4.410,28  0
-2.510931 -8.532694 -0.7751579,-3.194122 -8.569931 -0.3784966,-3.828998 -7.949156 0.1658445,-4.19035 -7.365745 0.6474428,-4.611337 -7.028295 1.109966,-3.740414 -6.480454 0.4446818,-4.175631 -6.12029 1.379774,-4.548943 -5.810688 1.825182,-4.891927 -5.543373 2.103031,-3.207994 -6.181104 0.6607218,-3.643002 -6.84401 1.698491,-3.643002 -6.84401 1.698491,-3.419033 -8.340559 1.308911,-2.651545 -6.288317 0.9776537,-3.034728 -6.971265 1.887851,-3.03077 -7.994743 1.529213,-2.937529 -8.230776 1.163486,-2.117178 -6.588949 1.333295,-2.429443 -7.039812 1.96859,-2.582117 -7.765947 1.824405,-2.576132 -7.918946 1.691245,-8.92478 -8.414824 -0.231232,-8.277451 -8.029572 -0.01341221,-7.750387 -7.269712 0.218861,-7.387496 -6.605476 0.4789581,-7.031084 -6.232194 0.7582032,-8.333393 -5.456439 0.002807736,-8.211175 -4.242578 0.1794391,-8.186578 -3.511754 0.338653,-8.166474 -2.86363 0.4469362,-8.748413 -5.331386 0.07265517,-8.727617 -4.031843 0.1910932,-8.76061 -3.233593 0.3795435,-8.796364 -2.560927 0.5562606,-9.139857 -5.480936 0.1603605,-9.152925 -4.261753 0.2836348,-9.191705 -3.474216 0.4589609,-9.215796 -2.797085 0.5948781,-9.528111 -5.855433 0.2678474,-9.671146 -4.923412 0.3772799,-9.752137 -4.316736 0.4970712,-9.797075 -3.732042 0.6080393,4.510,28  0
-2.515352 -8.505884 -0.934178,-3.186918 -8.511221 -0.5514782,-3.838757 -7.92114 -0.001467109,-4.198762 -7.348069 0.4935427,-4.603563 -7.003452 0.958024,-3.753961 -6.522981 0.3259168,-4.19991 -6.097238 1.288258,-4.5828 -5.728296 1.737747,-4.922323 -5.428903 2.008042,-3.224371 -6.2429 0.5484805,-3.660382 -6.785432 1.590262,-3.660382 -6.785432 1.590262,-3.400599 -8.214674 1.155574,-2.667095 -6.34084 0.8698878,-3.042385 -6.895848 1.764059,-3.026567 -7.929756 1.350965,-2.92673 -8.130236 0.9810754,-2.131056 -6.616235 1.232194,-2.442854 -7.023462 1.825112,-2.573783 -7.751544 1.654912,-2.545018 -7.861045 1.524227,-8.953111 -8.40797 -0.2159991,-8.310703 -8.028542 0.03640741,-7.78898 -7.264617 0.2844183,-7.427216 -6.608837 0.5596189,-7.064547 -6.252682 0.857885,-8.366904 -5.433717 0.03556097,-8.252954 -4.233552 0.2280592,-8.227216 -3.501831 0.4014557,-8.205355 -2.855951 0.5200714,-8.784596 -5.320611 0.0968785,-8.770092 -4.026323 0.2289478,-8.799372 -3.227641 0.4252982,-8.831687 -2.548416 0.602535,-9.175148 -5.477544 0.1792786,-9.195878 -4.262682 0.32087,-9.236087 -3.485821 0.5002686,-9.259862 -2.809033 0.6307203,-9.560122 -5.857143 0.2849528,-9.701445 -4.924844 0.4100877,-9.78218 -4.314184 0.5276077,-9.824021 -3.720889 0.6307652,4.610,28  0
-2.645243 -8.44968 -1.316197,-3.293024 -8.407249 -0.8600036,-3.929005 -7.794498 -0.2720819,-4.293507 -7.234945 0.2172846,-4.711901 -6.937286 0.6836432,-3.814428 -6.600995 0.1724521,-4.26499 -6.090568 1.104428,-4.658092 -5.745027 1.458411,-4.999022 -5.477911 1.660924,-3.262782 -6.442287 0.3609556,-3.700359 -6.689592 1.337787,-3.700359 -6.689592 1.337787,-3.43125 -8.102148 0.7144166,-2.693772 -6.589637 0.657994,-3.079399 -6.825381 1.568379,-3.07715 -7.790779 1.110618,-2.9733 -8.051954 0.7266358,-2.15419 -6.883606 0.998401,-2.453464 -6.961168 1.658224,-2.581783 -7.595127 1.507846,-2.542245 -7.729546 1.405613,-8.984114 -8.400763 -0.2424098,-8.343572 -8.01404 0.01512384,-7.826064 -7.251255 0.2628475,-7.462864 -6.596256 0.5310804,-7.098234 -6.242124 0.8236912,-8.404883 -5.435674 0.03056467,-8.292111 -4.226602 0.2247599,-8.273221 -3.497338 0.39676,-8.265114 -2.849689 0.5104894,-8.821766 -5.322567 0.08862266,-8.804877 -4.021829 0.2240765,-8.832809 -3.219235 0.4242634,-8.865375 -2.536645 0.6021122,-9.209732 -5.481426 0.167117,-9.234832 -4.250088 0.3140401,-9.275988 -3.471323 0.5103522,-9.301867 -2.792568 0.6536314,-9.59079 -5.863802 0.2654782,-9.734471 -4.921191 0.3998586,-9.818034 -4.308107 0.528461,-9.865638 -3.710845 0.6366984,4.710,28  0
-2.702929 -8.400158 -1.917986,-3.33667 -8.313606 -1.400344,-3.976507 -7.701192 -0.8012167,-4.325483 -7.125146 -0.2900903,-4.722351 -6.772501 0.1861821,-3.892185 -6.759456 -0.3921474,-4.274105 -6.120654 0.5955411,-4.64617 -5.673545 1.030229,-4.988964 -5.395275 1.291919,-3.354417 -6.669158 -0.2125419,-3.678963 -6.554651 0.8719472,-3.678963 -6.554651 0.8719472,-3.438972 -7.908697 0.4127766,-2.773796 -6.814947 0.07256901,-3.044476 -6.680277 1.106785,-3.048182 -7.52322 0.7421368,-2.99493 -7.795333 0.3935529,-2.21947 -7.064544 0.3977956,-2.42611 -6.859935 1.137265,-2.568413 -7.358318 1.024706,-2.586858 -7.457284 0.9403967,-9.009713 -8.404736 -0.2273996,-8.364896 -8.016661 0.02414435,-7.838964 -7.251817 0.2708995,-7.475041 -6.594068 0.5447205,-7.118237 -6.227841 0.8427392,-8.425006 -5.430769 0.02232817,-8.316488 -4.218758 0.2055533,-8.295691 -3.492421 0.3733886,-8.275133 -2.845144 0.4857862,-8.837192 -5.321123 0.08807242,-8.81701 -4.022126 0.2153263,-8.843877 -3.224078 0.408935,-8.870927 -2.547453 0.5839247,-9.225177 -5.482418 0.1767355,-9.238872 -4.253056 0.3154849,-9.279302 -3.469024 0.5061076,-9.304034 -2.78627 0.6509364,-9.608292 -5.870344 0.2866035,-9.749949 -4.923306 0.4190425,-9.836443 -4.314276 0.5498329,-9.888823 -3.723953 0.6651667,4.810,28  0
-2.763245 -8.349884 -2.33476,-3.382961 -8.250156 -1.813949,-3.998407 -7.621959 -1.214542,-4.317791 -7.02867 -0.7163769,-4.687551 -6.654317 -0.2499118,-3.89924 -6.842942 -0.8054042,-4.277803 -6.119668 0.1410477,-4.664684 -5.653778 0.5627632,-5.002113 -5.392775 0.8185127,-3.359335 -6.774412 -0.6298484,-3.678614 -6.485067 0.4263504,-3.678614 -6.485067 0.4263504,-3.491686 -7.924573 -0.04005766,-2.777409 -6.897342 -0.3556626,-3.064921 -6.551277 0.6601694,-3.105412 -7.343128 0.3320277,-3.059542 -7.694906 -0.001895428,-2.220779 -7.103625 -0.03426695,-2.448426 -6.747965 0.6808684,-2.612077 -7.247671 0.5541649,-2.639526 -7.4081 0.4516165,-9.038433 -8.402605 -0.1913893,-8.392442 -8.023048 0.06483018,-7.861631 -7.248952 0.3036613,-7.494403 -6.586151 0.5711518,-7.135161 -6.223871 0.8594443,-8.444607 -5.423227 0.0245067,-8.342267 -4.226186 0.1968818,-8.328028 -3.508893 0.3637529,-8.320646 -2.871168 0.4752983,-8.858824 -5.305125 0.08264184,-8.846544 -4.012644 0.1942266,-8.878703 -3.223413 0.3855043,-8.914737 -2.558753 0.5538638,-9.244948 -5.456718 0.1659733,-9.266742 -4.233099 0.3016633,-9.31122 -3.450805 0.4952657,-9.341797 -2.773943 0.6353427,-9.626156 -5.834825 0.2713093,-9.770842 -4.900009 0.3976012,-9.857102 -4.296815 0.5218683,-9.90989 -3.712654 0.6264207,4.910,28  0
-2.695387 -8.172689 -3.186414,-3.361724 -8.135769 -2.624877,-4.00211 -7.554134 -2.03068,-4.338125 -6.876066 -1.583609,-4.674282 -6.412435 -1.196617,-3.805318 -7.129817 -1.559367,-4.173616 -6.188028 -0.7079639,-4.571054 -5.651201 -0.3921642,-4.897791 -5.388271 -0.1684189,-3.271894 -7.066111 -1.431584,-3.585836 -6.441951 -0.495239,-3.585836 -6.441951 -0.495239,-3.506402 -7.608108 -1.067909,-2.712299 -7.104548 -1.225047,-3.034582 -6.613791 -0.3412066,-3.094831 -7.292257 -0.8348444,-3.058185 -7.556924 -1.206201,-2.184071 -7.187667 -0.945112,-2.433572 -6.852781 -0.2371974,-2.593528 -7.30936 -0.4093158,-2.617297 -7.411032 -0.5070794,-9.030017 -8.398415 -0.2018099,-8.390124 -8.013325 0.06978098,-7.866524 -7.245983 0.3187562,-7.502591 -6.584805 0.5934272,-7.14648 -6.220763 0.8888156,-8.455321 -5.425232 0.04415832,-8.355809 -4.225562 0.2298225,-8.342271 -3.508586 0.4063683,-8.334052 -2.867637 0.5233453,-8.867931 -5.305442 0.09899238,-8.864786 -4.004476 0.2282848,-8.900966 -3.215673 0.4292071,-8.939797 -2.547611 0.6056865,-9.25084 -5.45712 0.1806716,-9.276277 -4.225814 0.3269638,-9.323364 -3.444232 0.5279497,-9.357488 -2.767035 0.6751332,-9.628712 -5.836514 0.2847771,-9.774611 -4.903365 0.4182106,-9.863637 -4.302125 0.5462639,-9.922277 -3.721709 0.6543356,5.010,28  0
-2.843066 -7.929384 -3.738672,-3.486382 -7.945089 -3.122837,-4.023598 -7.395879 -2.541816,-4.29198 -6.806546 -2.125663,-4.649102 -6.351059 -1.765843,-3.860496 -7.188135 -2.008152,-4.176111 -6.171138 -1.30414,-4.565105 -5.552222 -0.9427862,-4.90926 -5.26169 -0.6014497,-3.325502 -7.165996 -1.959074,-3.440369 -6.222896 -1.178906,-3.440369 -6.222896 -1.178906,-3.444566 -7.072593 -1.490003,-2.771929 -7.204059 -1.836487,-2.93764 -6.409292 -1.049381,-3.017176 -7.011504 -1.520753,-3.032394 -7.495466 -1.857887,-2.258474 -7.301511 -1.651281,-2.412441 -6.751215 -1.027344,-2.536299 -7.168169 -1.244575,-2.5658 -7.463283 -1.372928,-9.050361 -8.398878 -0.2443967,-8.403828 -8.015274 0.03821537,-7.873279 -7.250614 0.2919189,-7.507545 -6.590377 0.5645496,-7.151909 -6.223567 0.8545749,-8.462142 -5.441422 0.04879814,-8.362511 -4.224191 0.2493763,-8.35106 -3.505043 0.4304315,-8.346889 -2.861838 0.5455803,-8.879441 -5.322896 0.09731075,-8.874262 -4.017622 0.2371563,-8.91256 -3.225299 0.441309,-8.954455 -2.552955 0.6228715,-9.266105 -5.474126 0.1695045,-9.291081 -4.241844 0.3248626,-9.341413 -3.459471 0.5301906,-9.378118 -2.782918 0.6808481,-9.647496 -5.846902 0.2627224,-9.791389 -4.91033 0.3997731,-9.881664 -4.306146 0.5282624,-9.940653 -3.721581 0.6382168,5.110,28  0
-2.777784 -7.887692 -3.127732,-3.483685 -8.165428 -2.456234,-3.990391 -7.632543 -1.875422,-4.284768 -6.944228 -1.473057,-4.5922 -6.334945 -1.101458,-3.755236 -6.659833 -1.526891,-4.015633 -6.081107 -0.7400075,-4.331497 -5.614093 -0.2697407,-4.611823 -5.254274 0.08378208,-3.214012 -6.522379 -1.498733,-3.357797 -6.819219 -0.5886832,-3.357797 -6.819219 -0.5886832,-3.396534 -7.667999 -0.7710673,-2.688097 -6.688683 -1.399678,-2.895555 -6.954006 -0.5144793,-3.024597 -7.484838 -0.6839403,-3.058263 -7.610435 -0.9046735,-2.218888 -7.034222 -1.239416,-2.346302 -7.290514 -0.4568702,-2.480406 -7.726625 -0.432707,-2.528973 -7.827995 -0.4357289,-9.057253 -8.404211 -0.2299665,-8.413179 -8.018978 0.03691536,-7.882603 -7.245096 0.2824101,-7.511838 -6.587939 0.559779,-7.15187 -6.220767 0.8552614,-8.472609 -5.431907 -0.00106816,-8.370222 -4.22126 0.1883767,-8.35404 -3.505133 0.3679801,-8.339435 -2.860514 0.4846555,-8.881265 -5.319858 0.06844288,-8.875928 -4.019359 0.2028665,-8.911966 -3.231614 0.4122856,-8.948898 -2.560551 0.5922569,-9.262456 -5.479339 0.1687824,-9.284851 -4.247076 0.3240467,-9.333868 -3.461797 0.5394754,-9.367599 -2.778358 0.6962554,-9.642267 -5.864278 0.2904602,-9.788395 -4.925706 0.436262,-9.88121 -4.324139 0.5789819,-9.942932 -3.742618 0.6956733,5.210,28  0
-3.134717 -7.870676 -3.687906,-3.742432 -8.040737 -2.895633,-4.091358 -7.494755 -2.2836,-4.282961 -6.886764 -1.851775,-4.529225 -6.393756 -1.405684,-3.97219 -6.857997 -1.922821,-4.167031 -6.099334 -1.214149,-4.470716 -5.663669 -0.7210319,-4.768394 -5.288669 -0.2938488,-3.462486 -6.805974 -2.014891,-3.263792 -6.093311 -1.271486,-3.263792 -6.093311 -1.271486,-3.322451 -6.051122 -0.9631131,-2.967713 -6.927673 -2.033105,-2.761547 -6.494953 -1.234517,-2.803982 -6.762216 -1.160006,-2.862534 -6.890306 -1.183831,-2.550824 -7.201582 -2.03183,-2.356368 -7.135478 -1.324252,-2.406311 -7.456436 -1.225793,-2.483428 -7.611812 -1.16867,-9.063797 -8.396294 -0.2222497,-8.418694 -8.010921 0.03294864,-7.887305 -7.238233 0.2724699,-7.520689 -6.574943 0.5451563,-7.161471 -6.208711 0.8377159,-8.47414 -5.423679 0.001518622,-8.374485 -4.211092 0.1765197,-8.360902 -3.489218 0.3419583,-8.351273 -2.84761 0.4509665,-8.886583 -5.308692 0.06467402,-8.875782 -4.009386 0.182515,-8.90992 -3.214591 0.3751028,-8.945039 -2.545187 0.5478575,-9.270565 -5.462978 0.1539463,-9.288551 -4.23632 0.2928981,-9.336323 -3.458401 0.4860157,-9.367955 -2.785516 0.6270617,-9.651277 -5.839977 0.2669432,-9.793686 -4.894809 0.4002922,-9.883081 -4.290695 0.5242799,-9.940976 -3.710712 0.6278316,5.310,28  0
-3.297728 -7.955653 -4.115466,-3.846488 -7.885011 -3.315593,-4.114737 -7.308062 -2.68927,-4.281294 -6.691213 -2.253786,-4.516323 -6.256328 -1.802299,-4.04415 -6.952745 -2.379969,-4.186946 -6.203938 -1.751466,-4.431641 -5.716821 -1.392426,-4.618395 -5.331686 -1.049268,-3.574547 -6.98208 -2.521755,-3.287603 -6.153915 -1.866027,-3.287603 -6.153915 -1.866027,-3.047629 -5.75431 -1.569685,-3.122971 -7.082641 -2.595633,-2.890775 -6.40757 -1.98991,-2.84575 -6.233978 -1.931352,-2.808053 -6.123539 -1.875034,-2.747101 -7.254138 -2.642157,-2.552741 -6.872039 -2.113091,-2.559315 -6.721448 -2.009151,-2.585295 -6.581251 -1.864644,-9.052178 -8.406109 -0.2078458,-8.41147 -8.018032 0.08389351,-7.881783 -7.242617 0.3453802,-7.515351 -6.584924 0.6336055,-7.156102 -6.213291 0.9390562,-8.478549 -5.430995 0.06310838,-8.378339 -4.22228 0.2664148,-8.363177 -3.503725 0.4545873,-8.351058 -2.860219 0.5773036,-8.887939 -5.317869 0.1210926,-8.885275 -4.016715 0.2737792,-8.922505 -3.233465 0.486416,-8.962161 -2.565696 0.6700158,-9.268126 -5.471712 0.2106557,-9.291665 -4.240077 0.3789712,-9.339199 -3.457007 0.5894204,-9.372455 -2.776574 0.7417544,-9.647956 -5.851385 0.3221454,-9.792457 -4.910409 0.4688845,-9.881836 -4.306863 0.5995561,-9.941366 -3.722067 0.7093918,5.410,28  0
-3.412935 -8.006433 -3.621186,-3.784185 -7.726503 -2.936754,-3.9272 -7.211103 -2.337471,-3.887149 -6.670242 -1.889236,-3.824169 -6.10843 -1.488876,-3.829698 -6.494693 -2.083124,-4.022474 -6.015699 -1.329991,-4.211427 -5.706623 -0.8747759,-4.385221 -5.408355 -0.5703075,-3.525007 -6.622549 -2.141256,-3.359793 -6.685274 -1.402731,-3.359793 -6.685274 -1.402731,-3.134878 -6.942203 -1.302663,-3.232431 -6.948582 -2.176205,-3.161904 -7.573884 -1.642198,-3.232135 -8.058199 -1.97812,-3.295231 -8.156013 -2.219414,-3.005439 -7.33181 -2.112174,-2.966591 -7.666658 -1.693352,-2.961204 -7.916483 -1.693362,-2.931887 -7.950012 -1.661213,-9.05524 -8.417286 -0.1982275,-8.416686 -8.028025 0.07890972,-7.882915 -7.255796 0.3327855,-7.51209 -6.600843 0.6148031,-7.156622 -6.233589 0.9150788,-8.471985 -5.444322 0.05946404,-8.372735 -4.234231 0.2541023,-8.360202 -3.518701 0.4350226,-8.349259 -2.876607 0.5527062,-8.882278 -5.325698 0.1207846,-8.874283 -4.026475 0.2617263,-8.910886 -3.239692 0.4683712,-8.94949 -2.569907 0.6500362,-9.265375 -5.478057 0.211023,-9.281527 -4.246675 0.369177,-9.329906 -3.460409 0.5744289,-9.364502 -2.778358 0.7276832,-9.648146 -5.858938 0.3240942,-9.789863 -4.913831 0.4617525,-9.880183 -4.312294 0.5879653,-9.940617 -3.7311 0.697724,5.510,28  0
-2.636062 -8.454659 -1.949496,-3.371099 -7.775937 -1.403049,-3.980272 -6.911722 -0.6747469,-4.274401 -6.089677 -0.08014739,-4.396119 -5.592067 0.4638916,-3.741228 -7.253829 0.1688222,-3.952936 -6.473995 1.086598,-4.041622 -6.495281 1.29861,-4.050816 -6.663269 1.408759,-3.16824 -7.374151 0.2488378,-3.475559 -6.847007 0.7488149,-3.475559 -6.847007 0.7488149,-3.475773 -8.179302 0.2527367,-2.48481 -6.186627 -0.1527767,-2.931145 -7.041111 0.7488884,-3.02261 -7.935804 0.2556747,-2.962467 -8.0527 -0.1305081,-1.992941 -6.702472 0.1231712,-2.378237 -7.229747 0.7551657,-2.584241 -7.852476 0.5460213,-2.594799 -7.914054 0.4089645,-9.052294 -8.411404 -0.1908197,-8.41467 -8.030245 0.08780834,-7.879785 -7.259605 0.3350073,-7.512312 -6.598051 0.6100015,-7.159687 -6.236389 0.9048042,-8.470749 -5.432291 0.0532763,-8.37107 -4.225668 0.241102,-8.36046 -3.506909 0.4225444,-8.352244 -2.865529 0.5441747,-8.8829 -5.315685 0.1101596,-8.874743 -4.01724 0.2395138,-8.913176 -3.228385 0.4436129,-8.953006 -2.559833 0.6256952,-9.266324 -5.470806 0.1964633,-9.28149 -4.243738 0.3445663,-9.330433 -3.457509 0.544742,-9.365053 -2.777181 0.6953897,-9.64776 -5.854122 0.3070784,-9.78919 -4.917293 0.4381826,-9.881021 -4.316652 0.5615941,-9.942876 -3.735734 0.6702195,5.610,28  0
-2.614648 -8.391296 -2.198091,-3.36856 -8.262705 -1.458703,-3.873095 -7.493005 -0.8612975,-4.110404 -6.798049 -0.3537968,-4.318758 -6.200651 0.1626322,-3.638235 -6.47565 -0.8346367,-3.883146 -5.893379 0.2176094,-4.165873 -5.537828 0.8876541,-4.409135 -5.370787 1.259532,-3.089674 -6.49223 -0.7490317,-3.292042 -6.286297 0.4932077,-3.292042 -6.286297 0.4932077,-3.586124 -7.593511 0.933521,-2.546184 -6.730989 -0.5782667,-2.76182 -6.50555 0.6006048,-3.015146 -7.08757 0.749917,-3.150511 -7.465881 0.6560457,-2.059064 -7.081997 -0.3579046,-2.269702 -6.870151 0.5391312,-2.547876 -7.322896 0.7294145,-2.705864 -7.585176 0.7853663,-9.055043 -8.431276 -0.1968928,-8.414548 -8.040209 0.1078663,-7.878004 -7.26575 0.3721033,-7.509082 -6.606893 0.6628772,-7.152046 -6.225816 0.9720713,-8.470842 -5.46927 0.0981777,-8.361605 -4.259553 0.3165577,-8.344245 -3.545813 0.5129699,-8.333537 -2.900008 0.6409655,-8.878576 -5.343608 0.1597238,-8.867903 -4.043306 0.3211821,-8.902675 -3.261705 0.5416834,-8.940873 -2.58753 0.7310904,-9.257723 -5.484529 0.2527608,-9.275354 -4.255554 0.4306971,-9.321588 -3.475279 0.6525419,-9.354995 -2.794337 0.8155946,-9.636621 -5.852972 0.3705305,-9.779784 -4.915792 0.5272292,-9.872209 -4.311527 0.6654106,-9.937388 -3.723425 0.7825518,5.710,28  0
-2.702922 -8.026033 -3.024781,-3.32999 -7.83106 -2.243695,-3.820633 -7.219291 -1.404116,-3.97016 -6.618341 -0.6520081,-3.990068 -6.119514 0.05477667,-3.713428 -6.827999 -1.263749,-4.014877 -6.594814 -0.1278541,-4.022943 -7.285747 0.1883454,-3.939795 -7.936711 0.1929944,-3.186083 -6.992216 -1.144672,-3.344464 -6.22249 -0.01662731,-3.344464 -6.22249 -0.01662731,-3.761003 -6.575032 0.358397,-2.624523 -7.169409 -0.9534996,-2.75232 -6.395785 0.06470323,-3.013062 -6.745769 -0.134937,-3.179986 -7.056505 -0.3598967,-2.096722 -7.388631 -0.6852994,-2.215411 -6.717768 -0.006318569,-2.482657 -6.939023 -0.05828524,-2.664304 -7.114099 -0.1201031,-9.059522 -8.43401 -0.2013302,-8.414673 -8.049505 0.0648621,-7.873761 -7.269466 0.3062334,-7.50382 -6.601626 0.5785523,-7.152691 -6.232963 0.8678653,-8.465555 -5.466761 0.05566642,-8.359112 -4.245384 0.2586905,-8.344821 -3.519481 0.444497,-8.334488 -2.872081 0.5632144,-8.876765 -5.344345 0.1223913,-8.863457 -4.038789 0.2654022,-8.896465 -3.246159 0.4719352,-8.931032 -2.574068 0.6537551,-9.259005 -5.489219 0.2166261,-9.275257 -4.252452 0.3732908,-9.3222 -3.47049 0.5748397,-9.354808 -2.794923 0.7265872,-9.638381 -5.860833 0.33276,-9.787376 -4.916448 0.474087,-9.885197 -4.311439 0.603843,-9.952403 -3.72286 0.7167777,5.810,28  0
-2.79064 -7.371051 -3.556187,-3.318508 -7.405239 -2.884955,-3.659629 -7.196584 -2.17015,-3.837245 -7.042194 -1.605313,-3.995706 -6.911054 -1.033172,-3.766966 -6.645836 -1.724247,-3.738008 -6.81896 -0.9021175,-3.706521 -7.354728 -0.5768256,-3.649002 -7.862854 -0.4187422,-3.29512 -6.613301 -1.721975,-3.047338 -6.919895 -1.113155,-3.047338 -6.919895 -1.113155,-3.088635 -7.959271 -1.34009,-2.786573 -6.704696 -1.66862,-2.565196 -7.053008 -0.9986,-2.661915 -7.747148 -1.355787,-2.802609 -8.131035 -1.615112,-2.308297 -6.900299 -1.546952,-2.169065 -7.076037 -1.008175,-2.25034 -7.507271 -1.157393,-2.404179 -7.741889 -1.278233,-9.046741 -8.438831 -0.2215388,-8.407421 -8.041586 0.08228999,-7.872882 -7.273353 0.3505577,-7.503019 -6.621282 0.645032,-7.150574 -6.241075 0.9532013,-8.473359 -5.477634 0.0660457,-8.368782 -4.263858 0.2911826,-8.351237 -3.54716 0.4945223,-8.338525 -2.905411 0.6260843,-8.882526 -5.356651 0.1270223,-8.87499 -4.04622 0.2937682,-8.907915 -3.258706 0.5194998,-8.944938 -2.581605 0.7128055,-9.261915 -5.501551 0.2184536,-9.280186 -4.26074 0.3949181,-9.323921 -3.477764 0.6097152,-9.355137 -2.795667 0.7675803,-9.640565 -5.872139 0.3349135,-9.781531 -4.925696 0.4850143,-9.868506 -4.319135 0.6161498,-9.928317 -3.726688 0.7282968,5.910,28  0
-2.707192 -8.149475 -2.780943,-3.310233 -7.716768 -2.036066,-3.777846 -6.917028 -1.210486,-3.975293 -6.225977 -0.4888041,-4.095634 -5.596551 0.237004,-3.788873 -7.207613 -0.8018017,-4.164209 -6.992664 0.3805065,-4.268258 -7.471008 0.6857018,-4.259252 -8.075542 0.6651216,-3.277591 -7.475554 -0.6907163,-3.350219 -6.34408 0.2716036,-3.350219 -6.34408 0.2716036,-3.387416 -6.830389 0.02564573,-2.693148 -7.643896 -0.5201061,-2.771828 -6.351901 0.3493197,-2.918417 -6.429471 -0.05232549,-3.023769 -6.75472 -0.3671031,-2.153227 -7.769359 -0.2574747,-2.181052 -6.711421 0.2754772,-2.372008 -6.651413 0.1168396,-2.52557 -6.756017 0.01511884,-9.050276 -8.457975 -0.2045284,-8.409246 -8.063547 0.1020615,-7.875959 -7.291403 0.3724105,-7.506256 -6.637955 0.6679954,-7.145019 -6.266337 0.9760273,-8.465265 -5.489314 0.1149375,-8.358238 -4.268775 0.3532583,-8.33939 -3.551469 0.5564328,-8.328457 -2.907991 0.6861077,-8.877135 -5.375574 0.1793268,-8.8705 -4.05138 0.3658141,-8.900918 -3.257038 0.6003011,-8.936855 -2.575801 0.7958459,-9.259277 -5.529825 0.2738355,-9.283985 -4.282322 0.4712878,-9.329867 -3.49271 0.6990036,-9.36219 -2.80303 0.864015,-9.639457 -5.910135 0.3902946,-9.786498 -4.963373 0.5576853,-9.877843 -4.355047 0.6966954,-9.938766 -3.760479 0.8131136,6.010,28  0
-2.781341 -8.150196 -3.338454,-3.397041 -7.848302 -2.508272,-3.887473 -7.198269 -1.696398,-4.05773 -6.626527 -1.023199,-4.096758 -6.097386 -0.4118268,-3.809577 -6.961692 -1.617095,-4.113461 -6.394149 -0.5410888,-4.307339 -6.555434 -0.08550286,-4.373835 -6.875428 0.07308888,-3.249641 -7.13672 -1.548296,-3.32998 -6.320566 -0.5133898,-3.32998 -6.320566 -0.5133898,-3.47257 -7.115711 -0.5875106,-2.67028 -7.310037 -1.384351,-2.799165 -6.44535 -0.4093866,-3.048292 -6.815093 -0.8184192,-3.185949 -7.148006 -1.208072,-2.14718 -7.500466 -1.122793,-2.25436 -6.686704 -0.5287192,-2.48818 -6.870279 -0.7856832,-2.643773 -7.029302 -0.9878743,-9.046367 -8.457535 -0.1963306,-8.407008 -8.055458 0.117873,-7.872576 -7.28998 0.3949143,-7.505378 -6.644237 0.6974109,-7.14636 -6.274259 1.013653,-8.462668 -5.490144 0.1387871,-8.356379 -4.271539 0.3841694,-8.341359 -3.553373 0.5927758,-8.333003 -2.910798 0.7286722,-8.877215 -5.3747 0.204461,-8.874041 -4.066484 0.3959531,-8.912529 -3.275354 0.6299044,-8.956338 -2.597494 0.8286626,-9.26086 -5.522985 0.2995638,-9.283929 -4.291833 0.4975078,-9.332936 -3.509077 0.7176061,-9.366398 -2.82415 0.8776067,-9.643374 -5.893405 0.4198464,-9.788318 -4.957126 0.5821121,-9.880225 -4.354031 0.7144092,-9.940114 -3.758557 0.8296944,6.110,28  0
-2.842492 -7.901423 -3.779918,-3.405758 -7.793422 -3.010513,-3.805314 -7.249258 -2.280348,-4.003023 -6.695201 -1.696424,-4.092607 -6.206783 -1.123444,-3.864828 -7.055269 -2.059089,-4.121042 -6.65463 -1.029227,-4.17116 -6.987245 -0.5842376,-4.112391 -7.410038 -0.4552047,-3.375929 -7.114559 -2.038915,-3.283674 -6.15228 -1.213695,-3.283674 -6.15228 -1.213695,-3.443332 -6.272567 -1.053399,-2.8324 -7.183194 -1.954957,-2.774449 -6.435081 -1.195084,-2.934473 -6.799724 -1.400047,-3.079398 -7.157059 -1.585816,-2.333951 -7.298563 -1.798186,-2.249811 -6.650066 -1.30278,-2.386673 -6.917276 -1.426313,-2.549031 -7.147693 -1.499224,-9.054163 -8.445755 -0.1814282,-8.411184 -8.051689 0.08780909,-7.871214 -7.277411 0.3267272,-7.501993 -6.618558 0.6019174,-7.15593 -6.245986 0.8906318,-8.464732 -5.467725 0.05288644,-8.356468 -4.252962 0.2536261,-8.343166 -3.528139 0.4421689,-8.334115 -2.880106 0.5661157,-8.87723 -5.347563 0.1177263,-8.86348 -4.045486 0.2550592,-8.899716 -3.256987 0.463289,-8.938094 -2.589921 0.643764,-9.260048 -5.496421 0.2109184,-9.276199 -4.2731 0.3658354,-9.324045 -3.495601 0.5650869,-9.356801 -2.823699 0.7107663,-9.63915 -5.871357 0.3292879,-9.786374 -4.938324 0.4648441,-9.879319 -4.339249 0.5912225,-9.940904 -3.754634 0.6970586,6.210,28  0
-2.519369 -8.693836 -0.7447662,-3.318182 -8.410862 -0.1556799,-3.876928 -7.703702 0.4930189,-4.087586 -7.191938 1.124042,-4.174305 -6.944658 1.763645,-3.62603 -6.339269 0.4318562,-3.993782 -5.805784 1.425463,-4.342585 -5.534709 1.971083,-4.630288 -5.403252 2.235266,-3.055832 -6.24109 0.6053145,-3.442176 -6.427343 1.95791,-3.442176 -6.427343 1.95791,-3.710885 -8.020609 2.225394,-2.514025 -6.47643 0.8686469,-2.893079 -6.650499 2.046,-3.133945 -7.477829 2.009451,-3.200939 -7.894006 1.743612,-2.033233 -6.838514 1.164513,-2.388485 -6.859714 2.032793,-2.668792 -7.438697 2.137295,-2.771561 -7.739362 2.072049,-9.044776 -8.451624 -0.1898502,-8.406581 -8.049992 0.1131434,-7.873324 -7.28343 0.3755283,-7.502308 -6.630157 0.6675107,-7.147713 -6.25782 0.9767215,-8.46243 -5.482389 0.08383912,-8.35542 -4.270563 0.2996798,-8.337958 -3.551547 0.4967371,-8.326285 -2.90701 0.6234013,-8.871752 -5.358721 0.1399581,-8.858186 -4.053375 0.2962144,-8.891489 -3.267559 0.5092582,-8.927001 -2.592784 0.6909571,-9.25197 -5.498401 0.22833,-9.266836 -4.264946 0.3899873,-9.312719 -3.49231 0.5900703,-9.344453 -2.816127 0.7367711,-9.629848 -5.865004 0.3444785,-9.771961 -4.92591 0.4860218,-9.863556 -4.323262 0.6111003,-9.926899 -3.733669 0.7176235,6.310,28  0
-2.766213 -8.170086 -2.620941,-3.402946 -7.876407 -1.759639,-3.894326 -7.198238 -0.918383,-4.060673 -6.602639 -0.1748101,-4.081709 -6.130395 0.4947256,-3.750697 -6.686738 -0.8532423,-4.032449 -6.445999 0.3243834,-4.08157 -7.13219 0.6699339,-4.040581 -7.74455 0.6851455,-3.198865 -6.869702 -0.7555417,-3.332911 -6.351387 0.4161726,-3.332911 -6.351387 0.4161726,-3.604725 -7.110836 0.5585829,-2.642212 -7.072095 -0.5769972,-2.737488 -6.474251 0.5284246,-3.023653 -6.885051 0.3472894,-3.222843 -7.159309 0.1009148,-2.126908 -7.313385 -0.305142,-2.210518 -6.741693 0.4186987,-2.478532 -7.026313 0.4039496,-2.680399 -7.176954 0.3795582,-9.036966 -8.453653 -0.1909908,-8.400583 -8.048044 0.1131107,-7.867488 -7.276919 0.3818578,-7.497442 -6.630069 0.685668,-7.136212 -6.257735 1.00717,-8.453065 -5.47769 0.09371322,-8.348351 -4.267485 0.321861,-8.333545 -3.551033 0.5284744,-8.324308 -2.904008 0.6636373,-8.863804 -5.364181 0.1665476,-8.85455 -4.053686 0.3433425,-8.890966 -3.260505 0.5750567,-8.930383 -2.580868 0.769285,-9.245147 -5.51506 0.2723346,-9.261219 -4.277915 0.4622316,-9.307206 -3.489709 0.6849337,-9.338659 -2.79968 0.8463533,-9.624975 -5.893875 0.4039936,-9.767559 -4.95099 0.5690659,-9.856085 -4.346228 0.7059394,-9.914457 -3.751074 0.8218362,6.410,28  0
-2.945105 -7.79458 -3.840564,-3.425602 -7.648608 -3.074216,-3.705084 -7.208837 -2.330604,-3.737743 -6.83905 -1.736174,-3.74722 -6.60908 -1.119246,-3.738544 -7.030048 -2.003895,-3.76922 -6.618391 -1.263438,-3.750462 -6.975082 -1.00709,-3.671114 -7.464546 -0.886196,-3.276725 -7.132122 -2.019058,-3.105556 -6.423278 -1.438634,-3.105556 -6.423278 -1.438634,-3.159814 -6.985838 -1.626207,-2.786154 -7.189626 -1.987731,-2.664231 -6.443456 -1.357668,-2.809321 -6.78335 -1.664254,-2.922949 -7.14583 -1.875078,-2.338295 -7.272721 -1.89899,-2.253302 -6.656998 -1.39137,-2.406857 -6.804826 -1.557309,-2.559277 -6.992507 -1.663888,-9.046349 -8.443127 -0.173463,-8.403237 -8.049051 0.1226882,-7.863275 -7.276624 0.3823957,-7.489208 -6.62037 0.6717605,-7.130543 -6.252519 0.9813246,-8.448874 -5.472476 0.1014712,-8.345817 -4.259631 0.3124716,-8.33357 -3.540424 0.5063706,-8.328055 -2.897915 0.6327213,-8.861217 -5.346559 0.1593945,-8.846947 -4.048244 0.3113885,-8.879249 -3.259625 0.5257224,-8.916155 -2.587134 0.7103508,-9.243841 -5.484945 0.2458856,-9.259066 -4.260364 0.4129764,-9.304289 -3.482107 0.6179814,-9.335305 -2.804712 0.7701595,-9.624202 -5.849762 0.3586264,-9.76691 -4.912923 0.5057456,-9.858004 -4.30792 0.6319721,-9.919963 -3.715794 0.7428495,6.510,28  0
-2.587955 -8.386583 -1.881984,-3.252659 -8.062449 -1.171805,-3.826744 -7.489582 -0.385772,-4.071384 -6.944482 0.3037949,-4.200472 -6.441209 0.9138637,-3.80799 -6.699781 -0.2396679,-4.186121 -6.475169 0.8582897,-4.431431 -6.868185 1.236017,-4.566132 -7.184516 1.361925,-3.263535 -6.728682 -0.1000725,-3.421943 -6.367218 1.030305,-3.421943 -6.367218 1.030305,-3.417159 -7.659091 0.9217818,-2.68515 -6.896203 0.1196327,-2.873983 -6.455984 1.173446,-2.998251 -7.191044 0.8050859,-3.025241 -7.513711 0.404319,-2.158656 -7.136764 0.3919718,-2.324814 -6.718238 1.04371,-2.50913 -7.171146 0.8447533,-2.568532 -7.374159 0.6418312,-9.046209 -8.451443 -0.2187223,-8.405891 -8.05652 0.08252624,-7.86629 -7.284341 0.3431773,-7.492118 -6.629208 0.6370556,-7.137339 -6.247419 0.9508476,-8.455446 -5.490413 0.05713901,-8.350494 -4.275413 0.2819323,-8.333963 -3.552648 0.4834633,-8.322538 -2.903216 0.6120191,-8.865549 -5.368663 0.1234701,-8.846367 -4.064813 0.2898622,-8.875875 -3.270999 0.5126833,-8.907754 -2.589126 0.6979805,-9.247107 -5.508619 0.2212301,-9.25827 -4.276652 0.3979903,-9.300387 -3.491698 0.6115737,-9.32518 -2.80743 0.7657194,-9.626215 -5.875606 0.3443839,-9.768641 -4.933491 0.5013202,-9.859464 -4.326305 0.6341301,-9.917453 -3.733465 0.7465681,6.610,28  0
-2.704705 -7.512125 -3.977267,-3.270775 -7.561988 -3.29256,-3.664873 -7.339365 -2.614738,-3.845617 -7.080892 -2.054743,-3.94471 -6.83324 -1.530305,-3.642931 -6.724284 -2.356733,-3.759285 -6.735313 -1.477097,-3.719645 -7.385955 -1.180923,-3.632733 -7.975723 -1.133383,-3.161818 -6.697573 -2.291336,-3.108281 -6.726123 -1.501215,-3.108281 -6.726123 -1.501215,-3.246895 -7.990741 -1.506967,-2.673531 -6.743667 -2.171573,-2.635357 -6.747011 -1.342554,-2.782848 -7.512009 -1.48304,-2.913825 -7.986156 -1.66712,-2.219999 -6.887596 -1.990887,-2.213887 -6.753808 -1.373161,-2.357692 -7.211207 -1.40173,-2.495464 -7.502229 -1.461904,-9.033228 -8.45528 -0.1934396,-8.394608 -8.057577 0.1147649,-7.863227 -7.291639 0.3885129,-7.497148 -6.640838 0.6899157,-7.13786 -6.259438 1.009033,-8.448369 -5.486246 0.1090454,-8.342276 -4.274935 0.342749,-8.325029 -3.558315 0.5447005,-8.314758 -2.913578 0.6727048,-8.861571 -5.367586 0.1737415,-8.852937 -4.060253 0.3492277,-8.88806 -3.271277 0.5747377,-8.92709 -2.593267 0.7643201,-9.24551 -5.517854 0.2707606,-9.265618 -4.283848 0.4555985,-9.313322 -3.499705 0.6754095,-9.34569 -2.81487 0.8360345,-9.627749 -5.895914 0.3921863,-9.77115 -4.956924 0.551097,-9.860266 -4.354966 0.6913212,-9.917447 -3.767563 0.8094029,6.710,28  0
-2.574594 -8.523348 -0.9417768,-3.395304 -8.064022 -0.393024,-3.983301 -7.123728 0.2606204,-4.263189 -6.282917 0.894076,-4.503725 -5.500112 1.453976,-3.52108 -6.194532 0.3967177,-3.84903 -6.097536 1.532412,-4.061061 -6.353109 1.908551,-4.152487 -6.532804 1.93817,-2.989724 -6.203904 0.560226,-3.398869 -6.678005 1.852029,-3.398869 -6.678005 1.852029,-3.617316 -8.009365 1.637996,-2.494277 -6.469892 0.8128649,-2.895709 -6.917455 1.90643,-3.063715 -7.691719 1.553198,-3.056061 -7.908969 1.113477,-2.066113 -6.853948 1.110595,-2.403262 -7.047249 1.852763,-2.632132 -7.58567 1.757487,-2.674343 -7.732 1.621117,-9.029984 -8.464504 -0.2165586,-8.388048 -8.070448 0.06360415,-7.851424 -7.310903 0.3175982,-7.48418 -6.650007 0.6042747,-7.1353 -6.264614 0.9051893,-8.445809 -5.500719 0.03743568,-8.341653 -4.285274 0.2435383,-8.322841 -3.55688 0.4313816,-8.304461 -2.90725 0.5499715,-8.85657 -5.377221 0.09287065,-8.838534 -4.06738 0.2326645,-8.868381 -3.269032 0.4365493,-8.897063 -2.586282 0.6159922,-9.240062 -5.521755 0.1763169,-9.251111 -4.285858 0.32393,-9.294613 -3.49718 0.5145559,-9.319655 -2.807382 0.6535513,-9.620762 -5.893649 0.2840233,-9.762781 -4.943884 0.4114996,-9.85083 -4.337733 0.5279325,-9.90473 -3.749382 0.6253736,6.810,28  0
-2.646511 -8.383188 -2.357868,-3.264462 -8.178022 -1.629298,-3.755651 -7.601789 -0.8819014,-3.897246 -6.993463 -0.2135161,-3.910748 -6.477007 0.4027694,-3.680132 -6.698631 -0.798264,-4.021343 -6.46182 0.2164887,-4.111479 -7.262397 0.3549906,-4.067823 -7.861475 0.2669333,-3.166449 -6.744613 -0.697506,-3.351398 -6.184352 0.321004,-3.351398 -6.184352 0.321004,-3.605642 -7.12762 0.09701359,-2.633234 -6.931579 -0.53356,-2.811941 -6.475524 0.4319717,-3.063332 -7.230069 -0.01979244,-3.177258 -7.581537 -0.453076,-2.128605 -7.198894 -0.2760397,-2.292279 -6.701629 0.4221388,-2.550774 -7.093296 0.2630786,-2.681882 -7.293397 0.08138597,-9.024334 -8.472244 -0.2037424,-8.378035 -8.075306 0.07217163,-7.844517 -7.314083 0.3248273,-7.475425 -6.650894 0.6086148,-7.120595 -6.279977 0.9128571,-8.429061 -5.510293 0.08158654,-8.318585 -4.295185 0.2997785,-8.294996 -3.567758 0.4928153,-8.27299 -2.915403 0.614773,-8.843584 -5.385747 0.1439281,-8.824001 -4.075649 0.3018335,-8.851104 -3.275394 0.5090491,-8.877651 -2.591285 0.6914762,-9.228907 -5.523042 0.231454,-9.238052 -4.289686 0.3940088,-9.277949 -3.507795 0.5832884,-9.299967 -2.827154 0.7233028,-9.609647 -5.884157 0.3419088,-9.745192 -4.933982 0.4781008,-9.832456 -4.322965 0.59096,-9.887992 -3.729631 0.690175,6.910,28  0
-2.775493 -8.363369 -3.212363,-3.318975 -8.193039 -2.468407,-3.675535 -7.585029 -1.751345,-3.710209 -6.95576 -1.150231,-3.752975 -6.376915 -0.5244685,-3.800395 -6.940557 -1.668315,-3.946378 -6.673009 -0.7673234,-3.961681 -7.321687 -0.5031537,-3.890483 -7.965239 -0.4601063,-3.303984 -7.0025 -1.639637,-3.257279 -6.313924 -0.9083823,-3.257279 -6.313924 -0.9083823,-3.288542 -7.197773 -1.039036,-2.775162 -7.116514 -1.544586,-2.760483 -6.389812 -0.7748619,-2.905687 -6.973434 -1.055952,-2.99088 -7.397212 -1.29609,-2.278563 -7.274555 -1.36822,-2.295816 -6.52881 -0.78923,-2.474305 -6.748405 -0.8603309,-2.60179 -6.940057 -0.9103893,-9.016682 -8.47015 -0.190716,-8.375373 -8.080362 0.1011317,-7.840964 -7.308631 0.3621827,-7.471099 -6.652004 0.6572422,-7.113008 -6.274284 0.9708412,-8.421827 -5.500511 0.09303209,-8.31435 -4.288326 0.3181583,-8.291988 -3.565014 0.516894,-8.272237 -2.91711 0.640923,-8.83643 -5.380121 0.1590988,-8.821125 -4.074888 0.3307639,-8.848855 -3.278003 0.5503401,-8.878404 -2.594226 0.7360704,-9.221694 -5.523559 0.254723,-9.237168 -4.295837 0.4339606,-9.278833 -3.515169 0.6373199,-9.305203 -2.835574 0.7828393,-9.60432 -5.89232 0.3740524,-9.743545 -4.950309 0.5265932,-9.830564 -4.342235 0.6499856,-9.886996 -3.749626 0.7536598,7.010,28  0
-2.604665 -8.294836 -1.608126,-3.429928 -7.835364 -0.9587085,-4.030527 -6.833501 -0.3003399,-4.317263 -5.908138 0.3212676,-4.581637 -5.048255 0.8312141,-3.465053 -6.147178 -0.1073718,-3.773729 -6.503572 0.953771,-3.817536 -7.27921 1.201593,-3.762524 -7.730472 1.12731,-2.930821 -6.275539 0.003208518,-3.325825 -6.781618 1.168869,-3.325825 -6.781618 1.168869,-3.523088 -7.90147 0.9897424,-2.466422 -6.527062 0.194373,-2.860829 -6.964463 1.217543,-3.047614 -7.615921 0.9244844,-3.083395 -7.855175 0.5689493,-2.062461 -6.880312 0.4579903,-2.39427 -7.040952 1.159997,-2.640603 -7.461914 1.128935,-2.723083 -7.614952 1.085397,-9.012549 -8.475649 -0.2316268,-8.373714 -8.084661 0.0708257,-7.840961 -7.313627 0.3392128,-7.472625 -6.664207 0.637394,-7.112392 -6.283365 0.9537332,-8.429261 -5.516209 0.06272486,-8.318257 -4.302577 0.2982699,-8.296047 -3.585514 0.5051351,-8.279633 -2.939588 0.6368731,-8.841586 -5.398971 0.1361536,-8.826852 -4.089506 0.3185502,-8.857319 -3.295784 0.5551934,-8.893048 -2.61017 0.7531201,-9.226553 -5.549574 0.2418525,-9.241446 -4.313903 0.4295567,-9.285513 -3.528262 0.6553882,-9.314384 -2.839808 0.8219923,-9.611463 -5.926073 0.3702817,-9.752188 -4.982843 0.5338556,-9.839478 -4.379275 0.6725355,-9.895719 -3.789193 0.7927645,7.110,28  0
-2.723864 -8.311331 -2.507634,-3.31925 -8.210342 -1.745961,-3.794006 -7.641727 -1.060153,-3.977702 -7.064415 -0.4987462,-4.121633 -6.416299 0.02682352,-3.828722 -6.490835 -1.239307,-4.166492 -6.117761 -0.2326765,-4.350677 -6.442304 0.2401774,-4.432195 -6.68817 0.4392037,-3.291252 -6.46262 -1.177256,-3.383351 -6.489303 -0.186974,-3.383351 -6.489303 -0.186974,-3.407263 -8.054731 -0.3336453,-2.75111 -6.660409 -1.014659,-2.860965 -6.533585 -0.02187395,-3.026256 -7.464498 -0.3321517,-3.120117 -7.814388 -0.7068158,-2.251318 -6.977055 -0.7512352,-2.334493 -6.705011 -0.07748175,-2.538601 -7.248235 -0.2400763,-2.665368 -7.46247 -0.4233348,-9.017444 -8.47768 -0.1710096,-8.371559 -8.093859 0.1390258,-7.838076 -7.329813 0.4087216,-7.467952 -6.675039 0.7067989,-7.107459 -6.297277 1.025211,-8.422146 -5.496576 0.1014966,-8.316467 -4.288492 0.3121031,-8.296215 -3.569158 0.5075753,-8.277674 -2.927255 0.6354614,-8.837895 -5.37969 0.158243,-8.826229 -4.081178 0.3151344,-8.856073 -3.293777 0.5314684,-8.887255 -2.621055 0.7179479,-9.222631 -5.527605 0.2475239,-9.240364 -4.303559 0.4179547,-9.283694 -3.524296 0.6248289,-9.310017 -2.846221 0.773126,-9.604751 -5.902099 0.3632537,-9.745184 -4.963928 0.5110029,-9.832617 -4.360715 0.6350077,-9.888797 -3.77351 0.7376001,7.210,28  0
-2.668903 -8.032581 -2.499045,-3.30242 -7.870601 -1.806754,-3.853657 -7.21952 -1.155425,-4.115143 -6.545137 -0.5973166,-4.335676 -5.816263 -0.172044,-3.700603 -6.271616 -1.116297,-3.996836 -6.528194 -0.04045153,-4.00161 -7.300039 0.2270584,-3.95888 -7.79743 0.2070572,-3.185797 -6.27412 -1.028741,-3.425539 -6.994445 -0.0710187,-3.425539 -6.994445 -0.0710187,-3.422398 -8.08716 -0.4128346,-2.665411 -6.470306 -0.8377291,-2.94386 -6.941644 0.02085781,-3.041613 -7.607576 -0.4479971,-3.071973 -7.665908 -0.8577334,-2.193869 -6.793893 -0.5464082,-2.388554 -7.026103 0.01386237,-2.582553 -7.489151 -0.2548001,-2.665401 -7.491123 -0.4484985,-9.000855 -8.48015 -0.1868935,-8.361538 -8.094793 0.1238809,-7.833756 -7.319942 0.3948609,-7.465983 -6.66822 0.696613,-7.104444 -6.2913 1.017815,-8.42199 -5.496118 0.08913589,-8.318735 -4.289135 0.3093516,-8.2967 -3.568141 0.509888,-8.277715 -2.920614 0.6418484,-8.834421 -5.387439 0.1555811,-8.823959 -4.086174 0.3272945,-8.850468 -3.293722 0.5506426,-8.879577 -2.612515 0.7369367,-9.216724 -5.543859 0.2559278,-9.236972 -4.314224 0.4427565,-9.278156 -3.528181 0.6603626,-9.303048 -2.840879 0.8115512,-9.596073 -5.928725 0.381894,-9.744356 -4.99154 0.5459815,-9.833446 -4.388437 0.6803799,-9.890157 -3.798357 0.7874988,7.310,28  0
-2.566648 -8.127611 -3.07009,-3.107151 -8.23299 -2.559029,-3.583726 -7.76332 -1.97413,-3.774893 -7.1203 -1.474129,-3.906357 -6.420188 -1.029576,-3.60149 -6.807514 -1.658919,-3.818693 -6.872443 -1.130657,-3.714609 -7.55126 -1.369326,-3.564433 -7.910888 -1.580204,-3.119902 -6.669626 -1.537557,-3.328239 -7.036237 -0.795119,-3.328239 -7.036237 -0.795119,-3.103401 -7.947034 -1.352674,-2.64311 -6.681229 -1.371606,-2.902112 -6.954757 -0.705744,-2.87586 -7.693057 -1.226388,-2.805982 -7.820797 -1.570935,-2.220972 -6.804431 -1.142697,-2.488869 -6.818965 -0.6222284,-2.532691 -7.343193 -0.8240891,-2.498711 -7.479751 -0.9358549,-9.011725 -8.474382 -0.1817726,-8.365807 -8.088318 0.1367161,-7.835493 -7.32257 0.4065406,-7.463695 -6.667978 0.706857,-7.097704 -6.287867 1.029287,-8.419322 -5.496133 0.09220743,-8.315207 -4.28779 0.3034603,-8.294379 -3.563352 0.500603,-8.276542 -2.914989 0.631195,-8.833154 -5.379707 0.1498797,-8.817299 -4.084015 0.3106098,-8.845788 -3.291467 0.5294893,-8.875252 -2.612476 0.7158549,-9.215553 -5.528007 0.240102,-9.232095 -4.3051 0.4148028,-9.273155 -3.526484 0.6239225,-9.29587 -2.844942 0.7680805,-9.593296 -5.904886 0.3584772,-9.737662 -4.968677 0.5169452,-9.825613 -4.366306 0.6472769,-9.881203 -3.779745 0.7476118,7.410,28  0
-2.654278 -8.506969 -0.5474429,-3.339217 -8.284933 -0.1076976,-3.919217 -7.544019 0.4516416,-4.193815 -6.857592 0.9843582,-4.405752 -6.29054 1.394912,-3.782435 -6.182226 0.6225369,-4.080714 -6.003979 1.601332,-4.14131 -6.783117 1.836809,-4.153721 -7.19303 1.821612,-3.256186 -5.988885 0.7750274,-3.50527 -6.503019 1.871391,-3.50527 -6.503019 1.871391,-3.398813 -7.774752 1.689676,-2.741126 -6.113225 0.9922507,-2.966522 -6.583373 1.936675,-3.051418 -7.598218 1.643589,-3.029652 -7.702287 1.284112,-2.27592 -6.392374 1.246596,-2.480917 -6.766521 1.757903,-2.639379 -7.494235 1.577869,-2.655074 -7.568887 1.378125,-8.99798 -8.475607 -0.1711848,-8.35982 -8.086424 0.1264468,-7.833813 -7.323253 0.3928719,-7.469325 -6.66653 0.6952664,-7.106788 -6.281564 1.019391,-8.415804 -5.491443 0.1028166,-8.305517 -4.287695 0.3156353,-8.282928 -3.560722 0.5042672,-8.263418 -2.908646 0.6303849,-8.829129 -5.379087 0.1766172,-8.810352 -4.079399 0.3402973,-8.840384 -3.278797 0.55642,-8.870725 -2.594751 0.7395938,-9.213258 -5.532449 0.2808872,-9.226183 -4.306825 0.4552324,-9.268231 -3.523889 0.6597883,-9.290294 -2.838062 0.8017792,-9.593212 -5.916204 0.413025,-9.737543 -4.966859 0.5635942,-9.825011 -4.361665 0.6960302,-9.879961 -3.774674 0.8021632,7.510,28  0
-2.711634 -8.312523 -1.795586,-3.36097 -8.125601 -1.274216,-3.940739 -7.429648 -0.7010276,-4.216276 -6.675172 -0.1869063,-4.412344 -5.964962 0.2049022,-3.85025 -6.357474 -0.5793281,-4.175963 -5.89967 0.3521791,-4.259344 -6.561471 0.5517631,-4.272043 -6.975791 0.5501564,-3.337816 -6.252201 -0.4286422,-3.551027 -6.42951 0.7043302,-3.551027 -6.42951 0.7043302,-3.487196 -7.685997 0.6850007,-2.826541 -6.369969 -0.2411423,-3.022865 -6.531259 0.7405021,-3.104177 -7.498292 0.4432373,-3.102508 -7.67685 0.09264827,-2.356249 -6.612224 0.01053739,-2.507167 -6.690219 0.5794895,-2.649318 -7.375965 0.4028974,-2.689996 -7.520544 0.2084966,-9.011237 -8.477394 -0.2071625,-8.361115 -8.093302 0.07867938,-7.82284 -7.340261 0.3327555,-7.451653 -6.678118 0.6226521,-7.103555 -6.287838 0.9251477,-8.413119 -5.509575 0.03215845,-8.301821 -4.303178 0.2317035,-8.277837 -3.571452 0.4153896,-8.256174 -2.92117 0.5362369,-8.822287 -5.387324 0.09219128,-8.800713 -4.08843 0.2276582,-8.829522 -3.282698 0.433356,-8.859164 -2.5901 0.6166058,-9.204855 -5.530953 0.1818767,-9.218207 -4.309175 0.322757,-9.259787 -3.527437 0.5024831,-9.281838 -2.840428 0.6325581,-9.585936 -5.901428 0.2988093,-9.730944 -4.950312 0.4334276,-9.820083 -4.339328 0.5496115,-9.874631 -3.749581 0.6444074,7.610,28  0
-2.925219 -8.251057 -1.859336,-3.494711 -8.161053 -1.284655,-4.03655 -7.442302 -0.7031403,-4.266717 -6.763498 -0.1759413,-4.407385 -6.228259 0.2784501,-3.952976 -6.182275 -0.8332349,-4.255455 -5.620891 0.1067684,-4.487073 -5.512998 0.534278,-4.674896 -5.422225 0.7237192,-3.444614 -6.068517 -0.6843903,-3.680984 -6.465011 0.481975,-3.680984 -6.465011 0.481975,-3.619532 -7.950639 0.4277269,-2.945716 -6.220447 -0.4284486,-3.13426 -6.465477 0.6132797,-3.23885 -7.512493 0.4153363,-3.252432 -7.831666 0.1275928,-2.472223 -6.500904 -0.1169455,-2.629566 -6.506996 0.5966119,-2.835634 -7.213329 0.5638109,-2.920709 -7.439361 0.4737359,-9.007236 -8.472712 -0.1791223,-8.359513 -8.100147 0.1102781,-7.822519 -7.334051 0.3650801,-7.45445 -6.672405 0.6500454,-7.100864 -6.287607 0.9542148,-8.403738 -5.498552 0.06093498,-8.300309 -4.294314 0.2536362,-8.282697 -3.570626 0.4343446,-8.267374 -2.924946 0.5543973,-8.81724 -5.374961 0.12336,-8.800863 -4.083295 0.2629183,-8.828876 -3.288949 0.4717597,-8.860606 -2.607427 0.6556388,-9.203016 -5.519144 0.2164588,-9.216575 -4.299515 0.3703302,-9.254869 -3.52157 0.5675914,-9.278017 -2.841914 0.7121986,-9.585681 -5.892639 0.3356108,-9.730686 -4.949709 0.4794303,-9.816417 -4.347894 0.6029156,-9.869925 -3.766462 0.7060882,7.710,28  0
