TiagoOliveira98/Thesis-Project/Difficulty_1/Motor_Task/Unity_Project/DataLogging/JointData/Logs(1647320458)_tttt_Motor.csv
WRIST,THUMB_CMC,THUMB_MCP,THUMB_IP,THUMB_TIP,INDEX_FINGER_MCP,INDEX_FINGER_PIP,INDEX_FINGER_DIP,INDEX_FINGER_TIP,MIDDLE_FINGER_MCP,MIDDLE_FINGER_PIP,MIDDLE_FINGER_DIP,MIDDLE_FINGER_TIP,RING_FINGER_MCP,RING_FINGER_PIP,RING_FINGER_DIP,RING_FINGER_TIP,PINKY_MCP,PINKY_PIP,PINKY_DIP,PINKY_TIP,WRIST2,THUMB_CMC2,THUMB_MCP2,THUMB_IP2,THUMB_TIP2,INDEX_FINGER_MCP2,INDEX_FINGER_PIP2,INDEX_FINGER_DIP2,INDEX_FINGER_TIP2,MIDDLE_FINGER_MCP2,MIDDLE_FINGER_PIP2,MIDDLE_FINGER_DIP2,MIDDLE_FINGER_TIP2,RING_FINGER_MCP2,RING_FINGER_PIP2,RING_FINGER_DIP2,RING_FINGER_TIP2,PINKY_MCP2,PINKY_PIP2,PINKY_DIP2,PINKY_TIP2,Timestamp,Event
-2.240111 -9.114422 0.0004262077,-2.893044 -8.567026 0.006725759,-3.369296 -7.694459 -0.04696494,-3.70498 -6.835239 0.009830934,-4.024673 -6.325475 0.1316156,-3.024378 -6.157289 -0.437006,-3.278082 -5.078543 -0.3877673,-3.38789 -4.402421 -0.3557786,-3.463768 -3.77145 -0.3075344,-2.704135 -5.959638 -0.2642627,-2.85661 -4.681692 -0.2644398,-2.85661 -4.681692 -0.2644398,-2.994878 -3.157539 -0.02194813,-2.373079 -5.986571 -0.01446627,-2.428473 -4.737844 0.03029583,-2.503063 -3.976111 0.1877547,-2.585263 -3.32213 0.3266986,-2.007829 -6.23731 0.2735944,-1.927175 -5.302534 0.3639611,-1.920266 -4.686358 0.5373086,-1.932803 -4.110403 0.6899187,-8.365348 -8.863503 0.0004436994,-7.720099 -8.428154 0.1929125,-7.244441 -7.55685 0.3466874,-6.949166 -6.704897 0.5659156,-6.613455 -6.172416 0.8044198,-7.643579 -5.933523 -0.01090623,-7.487529 -4.759126 0.127106,-7.402728 -4.027657 0.3144119,-7.349298 -3.394208 0.4597969,-8.004091 -5.77831 0.08880541,-7.886653 -4.423818 0.1694633,-7.803988 -3.546023 0.4020877,-7.75082 -2.799617 0.5855537,-8.357393 -5.881082 0.2348487,-8.31393 -4.617919 0.3550876,-8.252458 -3.808149 0.5523993,-8.189033 -3.132324 0.7053547,-8.722894 -6.191623 0.4102544,-8.797541 -5.23792 0.5888489,-8.820213 -4.630466 0.7534154,-8.807404 -4.04039 0.8617456,0.010,5  0
-2.233164 -9.109688 -0.02297878,-2.889458 -8.571045 0.01187265,-3.379793 -7.707044 -0.01241335,-3.706557 -6.851982 0.06989754,-4.02429 -6.32329 0.2167624,-3.034077 -6.156582 -0.418684,-3.276432 -5.074415 -0.3516652,-3.387565 -4.401553 -0.3050405,-3.464308 -3.747771 -0.2427359,-2.705575 -5.959526 -0.2439469,-2.846932 -4.687183 -0.2242346,-2.846932 -4.687183 -0.2242346,-2.980811 -3.159465 0.04447289,-2.369143 -6.00051 0.007230127,-2.41467 -4.763753 0.0812966,-2.486826 -4.002325 0.2584747,-2.569801 -3.342165 0.4153625,-2.002439 -6.266674 0.3004376,-1.922259 -5.328075 0.4138421,-1.917882 -4.717172 0.604824,-1.935639 -4.137727 0.7730577,-8.378804 -8.879387 0.04779808,-7.73173 -8.445095 0.2433382,-7.253873 -7.554821 0.3926954,-6.956038 -6.704242 0.6077086,-6.608833 -6.184877 0.8326586,-7.643584 -5.94104 0.03686502,-7.489641 -4.764011 0.1816559,-7.408102 -4.028562 0.375394,-7.358143 -3.388931 0.5166667,-8.001598 -5.782443 0.1346594,-7.879402 -4.435481 0.2164269,-7.79663 -3.557174 0.444247,-7.74412 -2.806124 0.6251009,-8.352419 -5.881609 0.2825797,-8.311864 -4.617864 0.403274,-8.257395 -3.804651 0.6000178,-8.203466 -3.12168 0.7487726,-8.717693 -6.188622 0.4596839,-8.795603 -5.223409 0.6302021,-8.823146 -4.599557 0.7899899,-8.819959 -3.997838 0.8914742,0.110,5  0
-2.207161 -9.091635 -0.0520528,-2.886753 -8.571398 -0.06158127,-3.380775 -7.72207 -0.1229433,-3.71833 -6.87638 -0.07738335,-4.032743 -6.372453 0.01611248,-3.020943 -6.164135 -0.5157333,-3.27118 -5.118011 -0.4802877,-3.38423 -4.469066 -0.4622032,-3.467798 -3.851446 -0.4360587,-2.703372 -5.958708 -0.3363797,-2.852404 -4.711162 -0.32862,-2.852404 -4.711162 -0.32862,-2.981875 -3.191301 -0.09727034,-2.372633 -5.981189 -0.07986507,-2.429332 -4.756414 -0.03155331,-2.497883 -4.003572 0.122127,-2.569509 -3.346305 0.2490245,-2.005184 -6.224798 0.2141894,-1.923534 -5.291112 0.2951535,-1.903671 -4.68036 0.4507529,-1.895994 -4.10481 0.5904515,-8.382273 -8.890997 0.08443748,-7.736606 -8.444008 0.2588489,-7.252909 -7.564773 0.407689,-6.944996 -6.725627 0.6284907,-6.591584 -6.203027 0.8610992,-7.651822 -5.937042 0.07767707,-7.499249 -4.759086 0.2181786,-7.419022 -4.020575 0.4058125,-7.370137 -3.378644 0.5472341,-8.01052 -5.78338 0.1886196,-7.888997 -4.439281 0.2676299,-7.811264 -3.562075 0.4919028,-7.763054 -2.819369 0.6732786,-8.361415 -5.895734 0.3454769,-8.313128 -4.632307 0.4644869,-8.250765 -3.814728 0.6622682,-8.187593 -3.134866 0.8164787,-8.727575 -6.220019 0.5270114,-8.80371 -5.258724 0.7011153,-8.822926 -4.634378 0.8666147,-8.806361 -4.0391 0.9781235,0.210,5  0
-2.221351 -9.059893 -0.1727227,-2.892861 -8.533508 -0.1567103,-3.376627 -7.723213 -0.1899316,-3.699611 -6.885706 -0.1238113,-3.99959 -6.344707 -0.003167793,-3.033175 -6.162645 -0.5985271,-3.276479 -5.097623 -0.5560355,-3.392819 -4.439599 -0.5200189,-3.473886 -3.81356 -0.4737523,-2.708047 -5.958385 -0.4329258,-2.852361 -4.714057 -0.4456019,-2.852361 -4.714057 -0.4456019,-2.979671 -3.210957 -0.2314522,-2.370615 -5.994987 -0.1904054,-2.412897 -4.781835 -0.1555538,-2.476734 -4.033447 -0.003429934,-2.54626 -3.379964 0.1319636,-2.004711 -6.254236 0.0929108,-1.918127 -5.327213 0.1664563,-1.906765 -4.720855 0.3244525,-1.91126 -4.151548 0.4700354,-8.36372 -8.907299 0.08829159,-7.715046 -8.458582 0.3011602,-7.234012 -7.566481 0.4611178,-6.930104 -6.719137 0.6824181,-6.57794 -6.190782 0.9100666,-7.648201 -5.956678 0.1303637,-7.485625 -4.778665 0.2854469,-7.398874 -4.045864 0.4707033,-7.345745 -3.400478 0.6084993,-8.009633 -5.797994 0.2295965,-7.885218 -4.449237 0.3261772,-7.805825 -3.576067 0.5582888,-7.753666 -2.822978 0.748318,-8.35925 -5.907665 0.3750337,-8.310648 -4.641801 0.5108031,-8.248541 -3.828841 0.7138007,-8.185863 -3.136865 0.8729413,-8.721394 -6.23504 0.547438,-8.802057 -5.284818 0.7359175,-8.829396 -4.6648 0.9066105,-8.824285 -4.067888 1.022077,0.310,5  0
-2.23104 -9.061741 -0.1863952,-2.904145 -8.544073 -0.1914103,-3.375744 -7.722808 -0.237498,-3.691002 -6.883159 -0.1806892,-3.999418 -6.360464 -0.06878629,-3.036469 -6.168794 -0.6303665,-3.282074 -5.106332 -0.5864012,-3.400356 -4.447946 -0.5551351,-3.485069 -3.818607 -0.5111741,-2.712113 -5.963851 -0.4525402,-2.858199 -4.721324 -0.452691,-2.858199 -4.721324 -0.452691,-3.003999 -3.230274 -0.2459652,-2.37612 -5.995105 -0.1955548,-2.423364 -4.77173 -0.1522979,-2.49549 -4.016537 -0.008878514,-2.569003 -3.365869 0.1226497,-2.007766 -6.247442 0.09901813,-1.92293 -5.308207 0.1747308,-1.913039 -4.680947 0.3350492,-1.914946 -4.090466 0.4871436,-8.367621 -8.89484 0.08272716,-7.723871 -8.446207 0.2892553,-7.244974 -7.573061 0.4530983,-6.944954 -6.730932 0.6810365,-6.597451 -6.20567 0.9170994,-7.646717 -5.943256 0.1087808,-7.490032 -4.767505 0.2567922,-7.410917 -4.023571 0.4460885,-7.3637 -3.373991 0.5879055,-8.008219 -5.787096 0.209124,-7.883691 -4.445854 0.2997,-7.804331 -3.571241 0.5290975,-7.753563 -2.823431 0.715912,-8.361501 -5.89429 0.3563732,-8.309615 -4.630533 0.4789733,-8.24539 -3.82113 0.6805655,-8.184068 -3.13799 0.8326889,-8.729832 -6.214904 0.5302101,-8.808765 -5.267745 0.7058495,-8.8342 -4.652357 0.8696841,-8.829037 -4.051086 0.9752578,0.410,5  0
-2.246655 -9.03513 -0.3077148,-2.912837 -8.532568 -0.2482091,-3.381102 -7.742116 -0.2544329,-3.680483 -6.913864 -0.1755219,-3.979309 -6.364925 -0.05259135,-3.026338 -6.167488 -0.6353197,-3.268272 -5.101887 -0.5791608,-3.38575 -4.46503 -0.5265388,-3.47401 -3.851006 -0.4706637,-2.696906 -5.961587 -0.4887909,-2.83476 -4.704093 -0.4695898,-2.83476 -4.704093 -0.4695898,-2.981231 -3.21007 -0.2294681,-2.362741 -6.005228 -0.2694803,-2.398391 -4.776215 -0.2136095,-2.463155 -4.020752 -0.057172,-2.529681 -3.357555 0.090175,-2.00671 -6.278491 -0.01094288,-1.930524 -5.346361 0.07033521,-1.924047 -4.735953 0.2336637,-1.932635 -4.157478 0.3886397,-8.38588 -8.916424 0.077366,-7.728192 -8.461075 0.2504792,-7.235791 -7.598356 0.3932355,-6.917759 -6.751712 0.6041903,-6.57879 -6.203781 0.8174509,-7.649994 -5.969661 0.08087679,-7.491746 -4.793083 0.2172034,-7.410686 -4.058206 0.3939883,-7.356759 -3.414764 0.5246565,-8.009897 -5.81174 0.1911488,-7.883717 -4.46288 0.2641602,-7.803617 -3.586409 0.4951826,-7.747133 -2.84186 0.6802496,-8.363421 -5.923612 0.3431162,-8.304724 -4.655624 0.4567293,-8.241574 -3.841107 0.6589254,-8.174504 -3.161932 0.8137965,-8.73092 -6.251832 0.51642,-8.804737 -5.301189 0.6915615,-8.825846 -4.676198 0.8590785,-8.812496 -4.084541 0.9654248,0.510,5  0
-2.249462 -9.022219 -0.3534471,-2.904347 -8.509657 -0.3006054,-3.380421 -7.73604 -0.3029107,-3.6838 -6.906789 -0.2217695,-3.978172 -6.368683 -0.1037671,-3.023992 -6.172581 -0.6593602,-3.265395 -5.100553 -0.6014107,-3.381084 -4.454971 -0.5527989,-3.466276 -3.827088 -0.4990964,-2.694285 -5.959997 -0.5143358,-2.834115 -4.705606 -0.4836622,-2.834115 -4.705606 -0.4836622,-2.974673 -3.210323 -0.2426898,-2.358374 -5.992923 -0.3015876,-2.395112 -4.763122 -0.2298281,-2.457632 -4.005051 -0.06734976,-2.525926 -3.349716 0.08353722,-1.999558 -6.249729 -0.05192134,-1.920359 -5.304714 0.04203755,-1.912282 -4.697165 0.2135831,-1.924092 -4.124728 0.3711747,-8.386242 -8.900946 0.05039293,-7.722506 -8.445852 0.2357595,-7.228054 -7.588754 0.3807678,-6.916306 -6.744529 0.5940751,-6.598763 -6.17685 0.8107942,-7.640988 -5.965606 0.01114884,-7.488475 -4.797773 0.1367585,-7.413564 -4.064792 0.3117027,-7.363437 -3.427143 0.4377025,-8.000017 -5.803804 0.1131015,-7.88217 -4.460474 0.1713358,-7.806682 -3.580118 0.3916953,-7.751709 -2.837516 0.5710261,-8.353234 -5.905796 0.2611803,-8.307398 -4.645905 0.3622541,-8.253685 -3.826766 0.5560579,-8.194201 -3.143974 0.7043445,-8.719864 -6.226005 0.4346718,-8.808893 -5.283422 0.5945444,-8.836947 -4.663471 0.7473013,-8.827598 -4.07023 0.8420863,0.610,5  0
-2.254293 -9.026129 -0.4147289,-2.91209 -8.525215 -0.3881067,-3.377884 -7.732301 -0.4048075,-3.683755 -6.897731 -0.3388377,-3.989552 -6.347004 -0.2292524,-3.017984 -6.19462 -0.7465492,-3.259743 -5.121414 -0.693036,-3.38147 -4.474159 -0.6518226,-3.467291 -3.847244 -0.601207,-2.693002 -5.981132 -0.5835719,-2.834851 -4.734722 -0.552084,-2.834851 -4.734722 -0.552084,-2.978721 -3.22679 -0.3034418,-2.360709 -6.014188 -0.3518479,-2.400213 -4.777248 -0.2829396,-2.469766 -4.007599 -0.1187006,-2.53633 -3.337369 0.03606826,-2.004457 -6.276645 -0.08726311,-1.928777 -5.325063 0.009264201,-1.924634 -4.69181 0.183825,-1.931856 -4.092565 0.349412,-8.402512 -8.898769 0.0448283,-7.741416 -8.455046 0.2581303,-7.242167 -7.59162 0.4132202,-6.92651 -6.749822 0.6319872,-6.604228 -6.192735 0.8529146,-7.661007 -5.962543 0.03789362,-7.498944 -4.78445 0.1687529,-7.418157 -4.044382 0.3447812,-7.362491 -3.394211 0.4723523,-8.022558 -5.802791 0.1208488,-7.899738 -4.456602 0.1864019,-7.823927 -3.579398 0.4072716,-7.766615 -2.837041 0.5842205,-8.373983 -5.902933 0.2504782,-8.317851 -4.639419 0.3459829,-8.259498 -3.82373 0.5288338,-8.195389 -3.148708 0.6673331,-8.737856 -6.216543 0.4049168,-8.814356 -5.266597 0.5567162,-8.838026 -4.646312 0.7071876,-8.826017 -4.065077 0.7961028,0.710,5  0
-2.288856 -9.006165 -0.4234925,-2.937321 -8.504818 -0.3617497,-3.394305 -7.729889 -0.3538554,-3.685121 -6.911438 -0.266019,-3.984848 -6.349441 -0.1328639,-3.024942 -6.165758 -0.7256672,-3.264256 -5.099519 -0.6593508,-3.387144 -4.458667 -0.6034635,-3.476448 -3.841297 -0.542658,-2.697941 -5.958898 -0.5795442,-2.830301 -4.708433 -0.5461809,-2.830301 -4.708433 -0.5461809,-2.982809 -3.206108 -0.3001044,-2.369079 -5.999303 -0.3650197,-2.400545 -4.7816 -0.3007103,-2.468986 -4.020717 -0.1449879,-2.539971 -3.353134 0.002552897,-2.021138 -6.264539 -0.1119705,-1.941372 -5.334789 -0.02190086,-1.93197 -4.711233 0.1435882,-1.93642 -4.12393 0.3033137,-8.410169 -8.920919 0.05642929,-7.746881 -8.474693 0.2667648,-7.254418 -7.601471 0.418853,-6.943892 -6.744119 0.6349502,-6.615749 -6.191155 0.8581499,-7.67502 -5.979295 0.04524355,-7.519521 -4.796449 0.1683086,-7.441681 -4.0566 0.3413734,-7.386869 -3.40857 0.4668295,-8.035804 -5.820716 0.1241302,-7.917657 -4.465404 0.1788758,-7.842067 -3.590854 0.3887326,-7.784063 -2.851984 0.5582919,-8.388389 -5.923065 0.2508557,-8.329819 -4.649978 0.3408488,-8.267706 -3.835852 0.5176205,-8.20065 -3.16127 0.653217,-8.754266 -6.241453 0.4008213,-8.831177 -5.287628 0.5514758,-8.857602 -4.667591 0.7030584,-8.849529 -4.085294 0.7950292,0.810,5  0
-2.270869 -9.01903 -0.4039061,-2.919361 -8.555967 -0.3511893,-3.382032 -7.778961 -0.3520478,-3.672107 -6.952737 -0.2723902,-3.977976 -6.413913 -0.1388034,-3.049082 -6.19223 -0.7468663,-3.286283 -5.119075 -0.6940256,-3.40307 -4.469661 -0.6414763,-3.483347 -3.852745 -0.5756978,-2.722555 -5.974748 -0.6040173,-2.864674 -4.719109 -0.5827824,-2.864674 -4.719109 -0.5827824,-3.007376 -3.221381 -0.3396972,-2.389675 -6.010383 -0.3919035,-2.442761 -4.789306 -0.3437648,-2.521425 -4.039951 -0.1995342,-2.597879 -3.387307 -0.06140754,-2.033652 -6.277481 -0.1439355,-1.957487 -5.350194 -0.06793523,-1.951838 -4.728398 0.09182993,-1.957138 -4.147433 0.2354428,-8.418056 -8.942158 0.09972783,-7.754905 -8.48769 0.2751231,-7.266137 -7.599866 0.408033,-6.960787 -6.750114 0.6097581,-6.631426 -6.202508 0.8186104,-7.682546 -5.990061 0.07266429,-7.526168 -4.813188 0.1932229,-7.447375 -4.079349 0.3654191,-7.392145 -3.431386 0.4926826,-8.039304 -5.83023 0.1758757,-7.925752 -4.482458 0.2314572,-7.85076 -3.602251 0.444775,-7.792958 -2.855325 0.6183527,-8.390211 -5.929902 0.325298,-8.33949 -4.665342 0.4252363,-8.279619 -3.847844 0.6150671,-8.214711 -3.174543 0.7603922,-8.755816 -6.242342 0.4953397,-8.843684 -5.290876 0.6585596,-8.876903 -4.671731 0.8167872,-8.874548 -4.089881 0.9128401,0.910,5  0
-2.313993 -9.033783 -0.4502027,-2.97355 -8.5765 -0.4068154,-3.433709 -7.820718 -0.40436,-3.717957 -7.022754 -0.3228098,-4.008409 -6.492097 -0.1981612,-3.084549 -6.208477 -0.7834353,-3.327082 -5.147833 -0.7230204,-3.455042 -4.507778 -0.6641836,-3.55085 -3.902038 -0.5994098,-2.761027 -6.001124 -0.6325328,-2.904344 -4.755146 -0.6038404,-2.904344 -4.755146 -0.6038404,-3.067469 -3.250036 -0.3455063,-2.431186 -6.051867 -0.4178463,-2.484517 -4.8399 -0.3550293,-2.567353 -4.081937 -0.1916906,-2.651702 -3.430954 -0.03857699,-2.078815 -6.336347 -0.1654751,-2.010937 -5.428674 -0.07429156,-2.01302 -4.806269 0.1009942,-2.029099 -4.224634 0.2592146,-8.427119 -8.985106 0.1178905,-7.769807 -8.514086 0.3171545,-7.281389 -7.631946 0.4688478,-6.971031 -6.777788 0.6891347,-6.636468 -6.215334 0.9146631,-7.707052 -6.026708 0.1159012,-7.552034 -4.840936 0.253058,-7.468989 -4.103769 0.4340681,-7.413551 -3.453046 0.569551,-8.069856 -5.865933 0.2142298,-7.94706 -4.513293 0.2943818,-7.864527 -3.632877 0.5247694,-7.802868 -2.886268 0.7104481,-8.423433 -5.966732 0.358919,-8.362823 -4.681487 0.4771887,-8.296043 -3.855386 0.6784923,-8.224501 -3.167845 0.8306674,-8.79157 -6.28182 0.5252798,-8.868507 -5.314891 0.6948136,-8.886458 -4.696407 0.8543706,-8.867113 -4.109704 0.9534496,1.010,5  0
-2.346916 -9.065599 -0.5059745,-3.010496 -8.623901 -0.4527092,-3.494429 -7.867242 -0.441827,-3.790823 -7.063686 -0.3531402,-4.090791 -6.536614 -0.2225325,-3.135307 -6.262842 -0.7869153,-3.383687 -5.197659 -0.7080231,-3.521235 -4.559223 -0.6475313,-3.624264 -3.947822 -0.5815876,-2.804984 -6.047685 -0.6294789,-2.957639 -4.808901 -0.5640383,-2.957639 -4.808901 -0.5640383,-3.128772 -3.295646 -0.2939496,-2.467214 -6.085298 -0.4072779,-2.529925 -4.881076 -0.3022362,-2.60895 -4.113334 -0.1257699,-2.693281 -3.465657 0.02996075,-2.104726 -6.34714 -0.1466973,-2.033746 -5.427479 -0.03091851,-2.032218 -4.803667 0.1554341,-2.048813 -4.236833 0.3140765,-8.469304 -9.018011 0.1449765,-7.821797 -8.557415 0.3503953,-7.332561 -7.662642 0.5053681,-7.019713 -6.79374 0.7251522,-6.674 -6.239519 0.953952,-7.747269 -6.049945 0.1701233,-7.597139 -4.871078 0.3035545,-7.529787 -4.140087 0.481781,-7.488019 -3.501663 0.6121507,-8.108408 -5.892153 0.2607784,-7.990283 -4.531507 0.3316925,-7.923275 -3.653201 0.5556843,-7.877137 -2.905607 0.7409973,-8.464499 -6.002084 0.3949814,-8.40121 -4.718412 0.4992789,-8.341995 -3.898788 0.6972581,-8.282308 -3.216195 0.8472846,-8.839434 -6.331069 0.5509132,-8.904144 -5.362534 0.7180765,-8.924788 -4.740392 0.8805061,-8.914193 -4.1443 0.9885864,1.110,5  0
-2.358607 -9.039499 -0.5920914,-3.036224 -8.613407 -0.5050607,-3.525469 -7.866796 -0.4771554,-3.822521 -7.062286 -0.3753722,-4.13093 -6.536907 -0.2287738,-3.165888 -6.25716 -0.8617983,-3.416714 -5.186784 -0.7801462,-3.548641 -4.548261 -0.7125596,-3.644842 -3.936602 -0.6468225,-2.830774 -6.048868 -0.7192369,-2.987875 -4.807416 -0.6576551,-2.987875 -4.807416 -0.6576551,-3.158416 -3.303243 -0.3778329,-2.488646 -6.086317 -0.5063587,-2.554245 -4.881136 -0.4122701,-2.640327 -4.113217 -0.2437434,-2.732209 -3.466119 -0.0848164,-2.118694 -6.343536 -0.2522263,-2.048467 -5.425977 -0.1481946,-2.050388 -4.813901 0.03340298,-2.075545 -4.255295 0.1961495,-8.485049 -9.056309 0.2004563,-7.846014 -8.590256 0.4088513,-7.358109 -7.687583 0.5616077,-7.046323 -6.815928 0.7815187,-6.702268 -6.274427 1.013885,-7.773422 -6.075892 0.2246322,-7.631979 -4.898778 0.3599248,-7.566057 -4.170978 0.5384437,-7.523188 -3.535647 0.6671681,-8.133801 -5.913244 0.3116698,-8.017269 -4.555919 0.382998,-7.948359 -3.676505 0.6091398,-7.900995 -2.926256 0.7932752,-8.487733 -6.019465 0.4410094,-8.432789 -4.74052 0.5474678,-8.375039 -3.921245 0.7402672,-8.31531 -3.236495 0.8841199,-8.861824 -6.345956 0.5933536,-8.938925 -5.375418 0.7616577,-8.964027 -4.757692 0.9179734,-8.958817 -4.160675 1.016613,1.210,5  0
-2.41462 -9.047491 -0.6926132,-3.107041 -8.62113 -0.5813298,-3.615873 -7.922393 -0.5375205,-3.916868 -7.127433 -0.4278563,-4.233904 -6.6194 -0.2815011,-3.251272 -6.295526 -0.8884638,-3.522318 -5.238885 -0.765586,-3.665599 -4.614382 -0.6828998,-3.768869 -4.011013 -0.6136042,-2.91243 -6.088193 -0.7597041,-3.098776 -4.907344 -0.6669151,-3.098776 -4.907344 -0.6669151,-3.276489 -3.479988 -0.4041497,-2.571085 -6.115196 -0.5653847,-2.668168 -4.965158 -0.4516071,-2.766995 -4.242225 -0.283984,-2.859321 -3.620822 -0.1330285,-2.20003 -6.351835 -0.3305072,-2.162147 -5.466124 -0.2109787,-2.190547 -4.870908 -0.02302194,-2.234887 -4.312784 0.1343203,-8.536944 -9.145281 0.2406963,-7.889772 -8.651667 0.4285508,-7.406147 -7.742773 0.5658895,-7.097461 -6.86993 0.7724653,-6.749675 -6.347292 0.988345,-7.814927 -6.141526 0.2304177,-7.690879 -4.963647 0.3479967,-7.632241 -4.245536 0.5208305,-7.595617 -3.620381 0.6456091,-8.184831 -5.989563 0.3116018,-8.080606 -4.635137 0.3681999,-8.020079 -3.75781 0.5911067,-7.984969 -3.009951 0.781496,-8.54591 -6.103971 0.4316939,-8.500763 -4.824096 0.5101798,-8.448805 -4.010012 0.680326,-8.397269 -3.33012 0.8163817,-8.924417 -6.433163 0.5750188,-9.008319 -5.45841 0.7148073,-9.027835 -4.834213 0.8611956,-9.018906 -4.229314 0.9554167,1.310,5  0
-2.466142 -9.013401 -0.796634,-3.148083 -8.608978 -0.6207153,-3.654969 -7.947839 -0.5395581,-3.952412 -7.167215 -0.4037078,-4.267006 -6.624019 -0.2364953,-3.305923 -6.286672 -0.9347407,-3.563013 -5.209657 -0.8063314,-3.715324 -4.552375 -0.7083237,-3.831832 -3.916971 -0.6223302,-2.962374 -6.083467 -0.8348584,-3.135839 -4.878242 -0.7322772,-3.135839 -4.878242 -0.7322772,-3.32745 -3.460495 -0.4923894,-2.615502 -6.113449 -0.6631225,-2.701773 -4.942132 -0.5340449,-2.798597 -4.19683 -0.3635017,-2.89562 -3.569215 -0.2212056,-2.238572 -6.349195 -0.4444295,-2.208745 -5.431154 -0.3128654,-2.235634 -4.810777 -0.1202615,-2.277169 -4.242202 0.03835154,-8.559763 -9.183878 0.2346458,-7.900973 -8.700077 0.4469661,-7.417231 -7.785477 0.5985827,-7.11519 -6.905873 0.8137463,-6.779624 -6.354841 1.045965,-7.845705 -6.183696 0.2487471,-7.726529 -4.992443 0.3735225,-7.671969 -4.269062 0.546555,-7.638985 -3.64333 0.6726575,-8.218152 -6.029298 0.3253327,-8.124934 -4.669508 0.3780079,-8.065714 -3.788664 0.6044662,-8.027122 -3.042464 0.7912084,-8.580186 -6.142833 0.4418795,-8.542833 -4.86934 0.5249349,-8.489367 -4.051691 0.70079,-8.433539 -3.378922 0.8423399,-8.958436 -6.47253 0.5832665,-9.056166 -5.509655 0.729673,-9.079245 -4.8845 0.8778799,-9.067726 -4.298594 0.9724303,1.410,5  0
-2.558112 -8.964628 -0.7317986,-3.23724 -8.631443 -0.4914563,-3.767838 -7.94758 -0.3823844,-4.069826 -7.158271 -0.2276827,-4.402317 -6.613976 -0.04078442,-3.436588 -6.228076 -0.7829162,-3.686546 -5.151025 -0.6367002,-3.833944 -4.489635 -0.5280367,-3.947654 -3.852132 -0.4350734,-3.083302 -6.020753 -0.7110937,-3.268978 -4.806225 -0.5853374,-3.268978 -4.806225 -0.5853374,-3.470577 -3.408567 -0.3217696,-2.733491 -6.049118 -0.5644907,-2.837312 -4.872765 -0.4207264,-2.944282 -4.147235 -0.241868,-3.04286 -3.525788 -0.09038037,-2.351514 -6.292257 -0.366118,-2.350219 -5.386833 -0.2152322,-2.394291 -4.785161 -0.007381201,-2.447156 -4.226078 0.1609572,-8.616547 -9.227993 0.1458938,-7.949483 -8.737442 0.3282937,-7.467043 -7.830123 0.4725252,-7.169201 -6.962089 0.6843197,-6.844188 -6.402128 0.907482,-7.909746 -6.251336 0.1523313,-7.7907 -5.039935 0.2824807,-7.740601 -4.321794 0.4570567,-7.710906 -3.702383 0.5808645,-8.282346 -6.098213 0.2410301,-8.189853 -4.712419 0.2972534,-8.133377 -3.828257 0.51992,-8.097051 -3.084952 0.7056412,-8.645134 -6.214041 0.3655011,-8.600795 -4.904674 0.4480904,-8.552585 -4.079809 0.6295695,-8.500731 -3.396978 0.7781654,-9.025916 -6.546348 0.5075752,-9.106683 -5.566892 0.6549028,-9.119115 -4.934473 0.8056096,-9.097348 -4.342712 0.9053026,1.510,5  0
-2.680039 -8.969324 -0.5506274,-3.36323 -8.675112 -0.3326316,-3.904544 -7.950491 -0.2467156,-4.196958 -7.154639 -0.1066345,-4.527268 -6.628491 0.06137657,-3.56216 -6.185556 -0.6147643,-3.820234 -5.111852 -0.468555,-3.978428 -4.444671 -0.366008,-4.099335 -3.806076 -0.2738059,-3.205305 -5.972844 -0.5351866,-3.391735 -4.768186 -0.4010937,-3.391735 -4.768186 -0.4010937,-3.605275 -3.364279 -0.1262218,-2.850691 -6.005299 -0.3780896,-2.958304 -4.846776 -0.2204715,-3.071188 -4.121199 -0.0245589,-3.170334 -3.502272 0.1388415,-2.464932 -6.259727 -0.1755684,-2.478633 -5.351102 -0.007293284,-2.539406 -4.756366 0.2162509,-2.607861 -4.201999 0.393729,-8.701209 -9.299158 0.1793468,-8.035589 -8.804838 0.3936542,-7.549435 -7.89524 0.5543425,-7.25631 -7.026523 0.7764301,-6.923429 -6.469404 1.005636,-7.985472 -6.315134 0.2665598,-7.86825 -5.106843 0.4233519,-7.82282 -4.38421 0.6099641,-7.799265 -3.746701 0.7394834,-8.364239 -6.163057 0.3463861,-8.270742 -4.786123 0.4285434,-8.215381 -3.905723 0.664008,-8.181952 -3.160395 0.8542344,-8.729066 -6.283226 0.4635962,-8.68663 -4.980419 0.5679736,-8.646052 -4.167057 0.7499039,-8.601997 -3.491373 0.891519,-9.111125 -6.618537 0.598799,-9.178665 -5.637016 0.7679637,-9.187058 -5.003309 0.9251562,-9.163871 -4.408748 1.020855,1.610,5  0
-2.710905 -8.957207 -0.5117593,-3.401509 -8.672106 -0.2597997,-3.961484 -7.953205 -0.1426764,-4.26917 -7.170808 0.02279323,-4.616629 -6.626319 0.2226707,-3.635278 -6.170303 -0.5060005,-3.895216 -5.095486 -0.3400489,-4.058964 -4.424133 -0.2203465,-4.184368 -3.770234 -0.1131767,-3.269575 -5.956493 -0.4316685,-3.467594 -4.764927 -0.2817754,-3.467594 -4.764927 -0.2817754,-3.694157 -3.372787 0.004838228,-2.905672 -5.990657 -0.2798911,-3.018654 -4.850786 -0.1055033,-3.133139 -4.133047 0.09972727,-3.237278 -3.511372 0.2751799,-2.515336 -6.244951 -0.07893661,-2.537161 -5.353588 0.1104032,-2.604093 -4.764894 0.3396156,-2.681508 -4.215539 0.5252399,-8.728214 -9.319237 0.1481549,-8.066247 -8.820955 0.3794081,-7.581766 -7.92259 0.5394299,-7.293375 -7.058687 0.7576615,-6.977718 -6.482549 0.9713774,-8.030152 -6.342666 0.2625321,-7.912722 -5.132928 0.4285758,-7.868087 -4.417358 0.6157999,-7.845503 -3.785654 0.749677,-8.412203 -6.190938 0.3335376,-8.316933 -4.815456 0.4251167,-8.265561 -3.944191 0.6697581,-8.23594 -3.201482 0.871691,-8.78126 -6.314641 0.4401011,-8.734901 -5.013409 0.5467924,-8.695634 -4.204492 0.7310433,-8.653977 -3.526151 0.8817054,-9.167834 -6.65275 0.5639842,-9.229229 -5.679451 0.7246877,-9.231899 -5.049356 0.8824388,-9.202058 -4.456989 0.9846173,1.710,5  0
-2.810847 -8.918985 -0.3892517,-3.525577 -8.694395 -0.05864581,-4.102924 -7.945444 0.08073473,-4.414161 -7.155895 0.2561078,-4.762773 -6.599162 0.4603821,-3.775169 -6.118562 -0.3117102,-4.055717 -5.048892 -0.1315571,-4.22319 -4.380182 -0.006377071,-4.354665 -3.714269 0.1100747,-3.397406 -5.888921 -0.2769008,-3.610699 -4.720438 -0.1155004,-3.610699 -4.720438 -0.1155004,-3.844398 -3.357501 0.1723787,-3.022722 -5.915837 -0.1533862,-3.14716 -4.808347 0.03652513,-3.270925 -4.120202 0.2601044,-3.376338 -3.515554 0.4356784,-2.624808 -6.164262 0.01655245,-2.663149 -5.288006 0.2238711,-2.74329 -4.725084 0.4631693,-2.826817 -4.183922 0.6458788,-8.802619 -9.390806 0.2370402,-8.150544 -8.894592 0.4617396,-7.661613 -7.96828 0.6299655,-7.375642 -7.099229 0.8578008,-7.056954 -6.504865 1.088805,-8.11095 -6.377857 0.3757978,-8.009884 -5.163127 0.5490072,-7.969655 -4.436368 0.7380266,-7.94746 -3.789845 0.8755727,-8.494706 -6.238924 0.4647518,-8.412803 -4.863983 0.5621091,-8.366109 -3.985466 0.8101394,-8.338245 -3.237514 1.020527,-8.864139 -6.376581 0.5924555,-8.827724 -5.078414 0.7124032,-8.794183 -4.260115 0.9199772,-8.755436 -3.574071 1.088256,-9.253755 -6.731713 0.7327675,-9.318238 -5.742119 0.9135565,-9.330716 -5.102092 1.084391,-9.310917 -4.491407 1.197032,1.810,5  0
-2.863941 -8.905788 -0.3297079,-3.594395 -8.705412 0.01897112,-4.176542 -7.954534 0.1701208,-4.490723 -7.165282 0.3576196,-4.845952 -6.583858 0.5755308,-3.855065 -6.094506 -0.2749132,-4.140192 -5.031843 -0.09809612,-4.320662 -4.366423 0.03852418,-4.468833 -3.706208 0.1679844,-3.472893 -5.861887 -0.2450618,-3.689318 -4.705959 -0.09551553,-3.689318 -4.705959 -0.09551553,-3.94467 -3.341779 0.2136968,-3.09272 -5.885247 -0.1189335,-3.222277 -4.790411 0.05241841,-3.359854 -4.100461 0.2791314,-3.479358 -3.498722 0.4640598,-2.689863 -6.131786 0.05447146,-2.733231 -5.25831 0.2467841,-2.817709 -4.692873 0.4811353,-2.906901 -4.152719 0.6651199,-8.845337 -9.421745 0.2495487,-8.185882 -8.919371 0.4637654,-7.703879 -8.002277 0.6227303,-7.42359 -7.131531 0.8403091,-7.113728 -6.553384 1.056133,-8.166391 -6.400466 0.3619332,-8.057479 -5.178423 0.5244292,-8.011824 -4.453613 0.7083076,-7.981588 -3.808301 0.8350069,-8.547066 -6.263538 0.4509051,-8.46884 -4.870367 0.5434555,-8.418961 -4.000934 0.7790477,-8.386466 -3.263816 0.9723243,-8.913387 -6.400865 0.579688,-8.876832 -5.085945 0.6925482,-8.835418 -4.277206 0.8933532,-8.790394 -3.599386 1.045694,-9.296715 -6.753587 0.7207407,-9.357544 -5.760162 0.9035738,-9.370754 -5.122823 1.07668,-9.354305 -4.510669 1.181856,1.910,5  0
-2.972433 -8.880661 -0.2540185,-3.712096 -8.717424 0.138236,-4.308157 -7.963558 0.311361,-4.63588 -7.17711 0.5159887,-5.001743 -6.582319 0.7582115,-3.992518 -6.063713 -0.1898613,-4.282405 -5.005199 -0.0004009604,-4.474669 -4.338064 0.169068,-4.633533 -3.665506 0.3249946,-3.603792 -5.819196 -0.1719035,-3.825975 -4.669496 -0.01299436,-3.825975 -4.669496 -0.01299436,-4.106838 -3.313648 0.3376073,-3.211186 -5.837797 -0.04978767,-3.331404 -4.750608 0.1238771,-3.475233 -4.07081 0.3728527,-3.598421 -3.48156 0.5718759,-2.795239 -6.078892 0.1259334,-2.841462 -5.213256 0.3242195,-2.941233 -4.65312 0.5628971,-3.045208 -4.123546 0.74963,-8.939366 -9.498768 0.308496,-8.276461 -9.000731 0.5434562,-7.782701 -8.091982 0.7112997,-7.495901 -7.216236 0.9413073,-7.19956 -6.613524 1.166783,-8.239858 -6.469663 0.4365411,-8.129255 -5.236263 0.5936862,-8.088717 -4.506057 0.7690171,-8.066022 -3.855866 0.8859999,-8.62501 -6.325955 0.5214803,-8.547207 -4.914766 0.6149694,-8.500208 -4.026784 0.8537099,-8.467713 -3.284017 1.041549,-8.9944 -6.458365 0.647239,-8.96244 -5.14034 0.7728652,-8.921275 -4.304458 0.9943542,-8.871065 -3.621828 1.164314,-9.374897 -6.809632 0.7871012,-9.453039 -5.816316 0.9859461,-9.477949 -5.171167 1.180195,-9.466566 -4.564728 1.299861,2.010,5  0
-3.021177 -8.864208 -0.2685396,-3.763212 -8.710823 0.1262066,-4.364625 -7.965406 0.3032779,-4.69249 -7.171453 0.5118274,-5.072279 -6.573457 0.7589602,-4.058813 -6.049865 -0.1998653,-4.343512 -4.992715 0.006325841,-4.537305 -4.324575 0.1869754,-4.705236 -3.645532 0.3542404,-3.663298 -5.809442 -0.1786839,-3.876307 -4.674161 0.007449538,-3.876307 -4.674161 0.007449538,-4.163962 -3.351951 0.4044476,-3.264828 -5.828361 -0.05203983,-3.379456 -4.750175 0.1423072,-3.525126 -4.079154 0.4086205,-3.655441 -3.503751 0.622716,-2.843304 -6.064877 0.12578,-2.880476 -5.202136 0.3327664,-2.979014 -4.644756 0.5769488,-3.082142 -4.121734 0.7704294,-8.968097 -9.525642 0.3387107,-8.30524 -9.041393 0.5966804,-7.815733 -8.112144 0.7789913,-7.532512 -7.214679 1.016105,-7.231014 -6.595502 1.245485,-8.278446 -6.489583 0.5036928,-8.163214 -5.260778 0.6754813,-8.118085 -4.533571 0.8540698,-8.090964 -3.884653 0.9798053,-8.661825 -6.345911 0.5864235,-8.587488 -4.924846 0.6901503,-8.543477 -4.031963 0.932851,-8.51053 -3.276398 1.129231,-9.027452 -6.482973 0.7105761,-9.002935 -5.150098 0.8503143,-8.977948 -4.301464 1.078526,-8.937197 -3.593181 1.261387,-9.405585 -6.84555 0.8511841,-9.483972 -5.845759 1.057003,-9.514093 -5.200553 1.251793,-9.506876 -4.596038 1.38128,2.110,5  0
-1.041589 -8.678837 -0.7242051,-2.587409 -8.592001 -0.0337849,-2.916179 -7.551081 0.1859418,-3.142069 -6.649658 0.5377655,-3.565168 -6.016586 0.9322532,-2.396105 -5.682506 -0.5754885,-2.984241 -4.748802 -0.09646711,-2.874092 -3.946036 0.2671818,-2.966219 -3.151355 0.5399304,-1.90339 -5.389957 -0.5102652,-2.081147 -4.494321 -0.1364106,-2.081147 -4.494321 -0.1364106,-2.078349 -3.097673 0.4477057,-1.335311 -5.670644 -0.5129494,-1.465239 -4.57383 -0.04403418,-1.461861 -3.892696 0.3376655,-1.516383 -3.31445 0.648177,-0.8050017 -5.985654 -0.3322819,-0.9395776 -5.080265 0.1450311,-0.7807617 -4.435205 0.4313378,-0.8866482 -3.874117 0.7045195,-9.041347 -9.608284 0.4532838,-7.659588 -9.120653 0.6804233,-6.996461 -8.128265 0.9476246,-6.098005 -7.37438 1.207111,-4.638416 -6.680322 1.292291,-6.302952 -6.354766 0.4388899,-5.794371 -5.40739 0.7396721,-5.796371 -4.444982 0.9719837,-5.892097 -3.68473 1.092404,-6.792193 -6.212545 0.562946,-6.279493 -4.971297 0.8051282,-6.959917 -3.612833 0.9131518,-7.514393 -2.686868 1.259584,-7.218794 -6.416508 0.7609898,-7.276912 -5.087764 1.003869,-7.308622 -4.12523 1.177057,-7.849292 -3.270719 1.376927,-7.75034 -6.945936 1.055851,-7.861418 -5.845644 1.227958,-8.675095 -5.128186 1.386762,-8.210884 -4.431598 1.531575,2.210,5  0
-3.132415 -8.755854 -0.242961,-3.865325 -8.681793 0.1784367,-4.474428 -7.917119 0.3634013,-4.815323 -7.120628 0.579491,-5.217344 -6.514823 0.8423294,-4.21137 -5.947884 -0.2516443,-4.495985 -4.877952 -0.1106228,-4.6801 -4.22899 0.05455768,-4.848091 -3.543274 0.2468158,-3.782279 -5.693878 -0.225017,-3.960865 -4.647413 -0.04475172,-3.960865 -4.647413 -0.04475172,-4.173775 -3.710522 0.435706,-3.358181 -5.701557 -0.1032442,-3.456043 -4.702169 0.07876596,-3.579769 -4.176721 0.4187822,-3.695072 -3.86325 0.6646097,-2.91638 -5.906518 0.08344805,-2.969998 -5.052079 0.2633498,-3.067986 -4.572437 0.5195003,-3.173624 -4.200161 0.7144702,-9.083035 -9.649656 0.4719829,-8.418044 -9.158838 0.6986218,-7.937649 -8.193933 0.850158,-7.660364 -7.267195 1.058369,-7.354418 -6.66436 1.248857,-8.38529 -6.574275 0.5881004,-8.271166 -5.32347 0.7340448,-8.236855 -4.582104 0.8895404,-8.22282 -3.926171 0.9943327,-8.776176 -6.428033 0.6677788,-8.704184 -4.980878 0.7586163,-8.667672 -4.074094 0.9871352,-8.645397 -3.304487 1.169512,-9.145976 -6.567841 0.7806437,-9.122699 -5.201551 0.9072237,-9.098607 -4.339482 1.11582,-9.063747 -3.627841 1.274419,-9.518291 -6.939123 0.9093022,-9.599832 -5.932309 1.094568,-9.632486 -5.284434 1.279298,-9.627616 -4.673158 1.393996,2.310,5  0
-3.122805 -8.706985 -0.1553355,-3.849251 -8.657143 0.3111965,-4.484152 -7.86395 0.5161266,-4.839472 -7.042415 0.7528365,-5.250451 -6.441909 1.017986,-4.218111 -5.890533 -0.2053025,-4.509563 -4.794647 -0.1275351,-4.692962 -4.114595 -0.01559475,-4.852997 -3.433897 0.141411,-3.791213 -5.623439 -0.1864036,-3.979599 -4.55973 -0.03360575,-3.979599 -4.55973 -0.03360575,-4.154114 -3.770711 0.4516427,-3.362337 -5.633239 -0.06040123,-3.480316 -4.606895 0.1147957,-3.570786 -4.10211 0.5016423,-3.656145 -3.918859 0.7788631,-2.901559 -5.845143 0.1294777,-2.943792 -4.960174 0.3055677,-3.022632 -4.514942 0.584066,-3.105742 -4.257221 0.8016388,-9.118979 -9.694477 0.5832766,-8.445262 -9.201271 0.8394225,-7.953094 -8.228619 0.9941656,-7.674958 -7.286636 1.195316,-7.360598 -6.691779 1.371321,-8.41393 -6.593189 0.7200562,-8.299954 -5.348719 0.8741623,-8.263417 -4.605142 1.0281,-8.244389 -3.948428 1.135626,-8.81006 -6.440891 0.7764364,-8.73098 -5.000432 0.8759786,-8.691622 -4.089273 1.110461,-8.669915 -3.315829 1.304397,-9.182524 -6.579298 0.8670426,-9.143798 -5.215393 1.002214,-9.118194 -4.358411 1.204311,-9.080637 -3.647658 1.361281,-9.557665 -6.953151 0.97738,-9.635801 -5.968082 1.166471,-9.665655 -5.328651 1.349481,-9.655384 -4.720903 1.465855,2.410,5  0
-3.117836 -8.599804 -0.2298498,-3.859476 -8.614281 0.3613784,-4.477574 -7.879138 0.6663572,-4.823372 -7.078508 0.947477,-5.220308 -6.503217 1.268547,-4.254814 -5.824056 -0.08354452,-4.562108 -4.748902 0.1635378,-4.756334 -4.008394 0.4757929,-4.909475 -3.342923 0.7512617,-3.813183 -5.547018 -0.09239945,-3.994834 -4.271588 0.4346341,-3.994834 -4.271588 0.4346341,-3.927071 -4.349468 1.296144,-3.373682 -5.544555 0.01036987,-3.477482 -4.30661 0.493196,-3.516144 -4.205762 1.087535,-3.488192 -4.648378 1.411882,-2.894717 -5.750669 0.1710999,-2.893137 -4.742412 0.5332865,-2.981054 -4.52416 0.964518,-3.021713 -4.785236 1.254976,-9.134078 -9.738543 0.5577314,-8.457174 -9.222239 0.786931,-7.971327 -8.251314 0.9391575,-7.695334 -7.309684 1.14384,-7.380488 -6.708457 1.328274,-8.433269 -6.642557 0.6859466,-8.316633 -5.391489 0.8521782,-8.27641 -4.647703 1.016406,-8.257925 -3.984985 1.129707,-8.831417 -6.492849 0.7700324,-8.752081 -5.043008 0.8743028,-8.707571 -4.131582 1.110837,-8.683542 -3.355691 1.304774,-9.210341 -6.631652 0.8866787,-9.173488 -5.251387 1.025261,-9.140705 -4.392385 1.229694,-9.09687 -3.673132 1.38764,-9.593338 -7.004973 1.021213,-9.674697 -6.002248 1.213807,-9.703259 -5.356227 1.392976,-9.691524 -4.742019 1.507551,2.510,5  0
-3.123721 -8.619881 -0.1514838,-3.859648 -8.652292 0.4758882,-4.473683 -7.904394 0.804653,-4.822144 -7.0983 1.104128,-5.223288 -6.512342 1.430992,-4.269006 -5.827671 0.0522958,-4.578568 -4.7329 0.3265212,-4.781462 -3.971406 0.6467541,-4.939741 -3.274039 0.9363166,-3.819283 -5.54677 0.03532058,-3.99837 -4.203825 0.6175158,-3.99837 -4.203825 0.6175158,-3.929606 -4.537509 1.416327,-3.371919 -5.540687 0.1274133,-3.471277 -4.263229 0.6486685,-3.516495 -4.29021 1.201551,-3.496022 -4.815848 1.464068,-2.885719 -5.755542 0.2850955,-2.89231 -4.71043 0.6707209,-2.992506 -4.585014 1.07546,-3.037364 -4.93873 1.320197,-9.132718 -9.755781 0.581198,-8.457705 -9.237093 0.807955,-7.968411 -8.281191 0.9664863,-7.692124 -7.338171 1.174855,-7.385672 -6.728172 1.361853,-8.438905 -6.653313 0.7351619,-8.327579 -5.40011 0.9055169,-8.287643 -4.661232 1.073455,-8.262477 -4.005296 1.190776,-8.839402 -6.504079 0.8166246,-8.765559 -5.043195 0.9322393,-8.723735 -4.130282 1.177028,-8.699018 -3.352479 1.375154,-9.217293 -6.647984 0.9263455,-9.181442 -5.26111 1.068865,-9.151107 -4.397777 1.275664,-9.108059 -3.675802 1.437367,-9.596173 -7.028168 1.054426,-9.675473 -6.022697 1.249103,-9.702153 -5.370883 1.436874,-9.687271 -4.751663 1.55936,2.610,5  0
-3.027363 -8.747385 0.151938,-3.764673 -8.766739 0.8521695,-4.407365 -8.017889 1.245287,-4.783768 -7.159153 1.596734,-5.213747 -6.58662 1.982048,-4.245067 -5.876783 0.4657318,-4.550506 -4.735999 0.7512559,-4.736206 -3.973807 1.107412,-4.881428 -3.245321 1.43736,-3.780899 -5.603696 0.4108805,-3.941514 -4.218657 1.029313,-3.941514 -4.218657 1.029313,-3.852168 -4.542642 1.901541,-3.317211 -5.602939 0.4724817,-3.371344 -4.290084 1.017371,-3.395479 -4.555514 1.558959,-3.377956 -5.159286 1.781816,-2.814091 -5.823793 0.5996562,-2.773205 -4.780351 1.031717,-2.837868 -4.872341 1.419124,-2.864958 -5.319181 1.644818,-9.162117 -9.797651 0.6472207,-8.48432 -9.291765 0.9040663,-7.990861 -8.318792 1.078188,-7.714696 -7.360338 1.297546,-7.405135 -6.726747 1.486251,-8.459249 -6.686864 0.8273407,-8.345893 -5.438713 1.005857,-8.308946 -4.690893 1.173601,-8.288211 -4.022531 1.289955,-8.858921 -6.529134 0.8997716,-8.779996 -5.074726 1.028899,-8.741689 -4.164386 1.275688,-8.720009 -3.380412 1.48055,-9.238842 -6.66833 1.006939,-9.201227 -5.279918 1.157343,-9.180533 -4.416534 1.368356,-9.1486 -3.68654 1.536714,-9.624344 -7.056807 1.129799,-9.699835 -6.046016 1.324866,-9.72953 -5.398941 1.5133,-9.722417 -4.785612 1.64257,2.710,5  0
-2.980505 -8.917595 0.430918,-3.724939 -8.893976 1.204988,-4.375113 -8.087744 1.616702,-4.722349 -7.209181 1.972808,-5.147232 -6.610683 2.374427,-4.175371 -5.963912 0.9319203,-4.481722 -4.78512 1.263482,-4.651852 -4.003673 1.641304,-4.780821 -3.241816 1.991734,-3.690451 -5.698642 0.8501517,-3.847684 -4.368803 1.505941,-3.847684 -4.368803 1.505941,-3.743965 -4.426078 2.460358,-3.21546 -5.72116 0.8913672,-3.264528 -4.447099 1.504341,-3.271455 -4.665952 2.134299,-3.237019 -5.226392 2.444673,-2.705719 -5.963697 0.9999026,-2.67197 -4.969549 1.511428,-2.727599 -5.077426 1.992573,-2.744065 -5.507366 2.310585,-9.171535 -9.859137 0.6696618,-8.498203 -9.336203 0.8878889,-8.007292 -8.354523 1.046974,-7.732323 -7.394499 1.258319,-7.417085 -6.754445 1.452148,-8.480865 -6.732337 0.8217337,-8.366717 -5.473136 0.9981917,-8.327145 -4.726409 1.169122,-8.301761 -4.06233 1.285149,-8.879477 -6.582327 0.911217,-8.807637 -5.113472 1.029549,-8.768974 -4.19148 1.273226,-8.746212 -3.404831 1.474109,-9.25651 -6.7272 1.031273,-9.224173 -5.330637 1.172814,-9.20063 -4.464363 1.382515,-9.164422 -3.738455 1.550721,-9.637106 -7.110412 1.165806,-9.723249 -6.084547 1.358113,-9.756455 -5.429876 1.539054,-9.75035 -4.811452 1.657502,2.810,5  0
-2.961428 -8.97333 0.3390872,-3.700975 -8.951984 1.147937,-4.358183 -8.12952 1.573006,-4.704987 -7.260446 1.941526,-5.123816 -6.659599 2.352179,-4.130298 -6.026189 0.9665332,-4.439315 -4.815687 1.341174,-4.614559 -4.025291 1.730704,-4.747595 -3.236052 2.093943,-3.631239 -5.79067 0.8777308,-3.785307 -4.486203 1.559046,-3.785307 -4.486203 1.559046,-3.674295 -4.253965 2.527106,-3.155056 -5.83242 0.9148602,-3.203146 -4.584536 1.562038,-3.20697 -4.688726 2.21555,-3.170992 -5.127815 2.5619,-2.650701 -6.072982 1.016692,-2.622287 -5.080214 1.550764,-2.662476 -5.157688 2.037119,-2.66731 -5.537097 2.380017,-9.193167 -9.885252 0.7028127,-8.520161 -9.365408 0.9594023,-8.028902 -8.368893 1.135682,-7.753104 -7.396407 1.362361,-7.433452 -6.758859 1.569935,-8.49503 -6.751859 0.8932971,-8.376666 -5.494741 1.085728,-8.336198 -4.740207 1.263213,-8.313445 -4.06566 1.38334,-8.899399 -6.601507 0.975832,-8.826671 -5.134824 1.104509,-8.788433 -4.211936 1.352635,-8.769463 -3.417348 1.553117,-9.279648 -6.74839 1.091556,-9.247212 -5.352818 1.246831,-9.220812 -4.484867 1.458821,-9.183693 -3.749806 1.620336,-9.663496 -7.134151 1.225596,-9.746328 -6.104589 1.434435,-9.778084 -5.447653 1.620419,-9.770498 -4.817071 1.737426,2.910,5  0
-2.896638 -9.076658 0.3729562,-3.660694 -9.075115 1.251623,-4.324119 -8.250639 1.719705,-4.669935 -7.361832 2.124471,-5.099299 -6.727108 2.581013,-4.092949 -6.138299 1.11115,-4.399834 -4.903429 1.540732,-4.564812 -4.089401 1.976173,-4.690306 -3.270706 2.372394,-3.585587 -5.904855 1.002899,-3.705997 -4.578027 1.772432,-3.705997 -4.578027 1.772432,-3.571768 -4.465394 2.830169,-3.09494 -5.945297 1.021507,-3.119462 -4.697627 1.752534,-3.120092 -4.982442 2.411788,-3.098024 -5.487338 2.745646,-2.582678 -6.189585 1.103942,-2.543514 -5.220936 1.703685,-2.584049 -5.41461 2.186903,-2.598282 -5.846956 2.52131,-9.223761 -9.891201 0.6596807,-8.53852 -9.374527 0.8933325,-8.046273 -8.391134 1.065556,-7.773317 -7.422973 1.283364,-7.457288 -6.779444 1.488737,-8.521286 -6.772436 0.8565534,-8.404474 -5.501698 1.042173,-8.367596 -4.74583 1.219898,-8.347845 -4.073431 1.344247,-8.929991 -6.620821 0.9440414,-8.850752 -5.134674 1.080667,-8.814446 -4.208854 1.327341,-8.799829 -3.427812 1.530353,-9.314266 -6.763889 1.060076,-9.266236 -5.34245 1.210114,-9.233525 -4.468961 1.418093,-9.195562 -3.744446 1.588031,-9.701979 -7.150989 1.190259,-9.772215 -6.108406 1.389017,-9.79776 -5.439485 1.577794,-9.787149 -4.804428 1.706606,3.010,5  0
-2.905963 -9.142441 0.4470457,-3.668003 -9.142733 1.333964,-4.331573 -8.277185 1.827447,-4.680233 -7.365757 2.26437,-5.11609 -6.769149 2.750805,-4.080772 -6.169488 1.203353,-4.382483 -4.934675 1.637014,-4.554311 -4.101112 2.072392,-4.685068 -3.282058 2.472358,-3.557414 -5.947396 1.109835,-3.660524 -4.584321 1.916621,-3.660524 -4.584321 1.916621,-3.561319 -4.748548 2.977946,-3.058598 -5.978933 1.136974,-3.075129 -4.70488 1.867848,-3.108176 -5.02745 2.507358,-3.11125 -5.558166 2.813739,-2.541366 -6.213267 1.23494,-2.509008 -5.220718 1.826751,-2.566689 -5.457722 2.285078,-2.592935 -5.917494 2.581786,-9.232265 -9.917213 0.6884915,-8.552816 -9.391462 0.9332852,-8.056199 -8.403061 1.109388,-7.775575 -7.433259 1.334715,-7.459283 -6.778404 1.551201,-8.53341 -6.781195 0.8550704,-8.420605 -5.511863 1.030363,-8.382392 -4.75362 1.209792,-8.359865 -4.080727 1.340802,-8.940261 -6.635433 0.936563,-8.863154 -5.164657 1.054808,-8.82525 -4.235225 1.307575,-8.808353 -3.44472 1.519812,-9.323098 -6.780752 1.050427,-9.27632 -5.378347 1.187326,-9.242529 -4.505323 1.396031,-9.20253 -3.782989 1.570675,-9.712322 -7.163661 1.184038,-9.784918 -6.129635 1.373868,-9.810961 -5.461307 1.562426,-9.800898 -4.824474 1.692745,3.110,5  0
-2.838443 -9.214302 0.5748522,-3.613897 -9.219206 1.483302,-4.295483 -8.383791 1.994825,-4.657831 -7.48389 2.445972,-5.100543 -6.87395 2.956728,-4.056196 -6.228024 1.340325,-4.360085 -5.00444 1.801798,-4.528215 -4.18563 2.268906,-4.663407 -3.372144 2.69121,-3.528524 -5.991182 1.246764,-3.626265 -4.634937 2.101459,-3.626265 -4.634937 2.101459,-3.521885 -4.809963 3.197527,-3.021833 -6.030156 1.272109,-3.024303 -4.772661 2.075638,-3.050224 -5.196819 2.723981,-3.050653 -5.751875 3.015195,-2.495486 -6.2921 1.366535,-2.467906 -5.350029 2.023076,-2.530397 -5.675306 2.493851,-2.56011 -6.160232 2.784205,-9.251025 -9.928703 0.7110023,-8.565434 -9.400414 0.9358613,-8.070587 -8.415379 1.103233,-7.793479 -7.456739 1.32007,-7.475766 -6.822159 1.52951,-8.560944 -6.782651 0.8702379,-8.457463 -5.500644 1.033072,-8.421143 -4.743202 1.20353,-8.397233 -4.071655 1.327777,-8.966105 -6.640171 0.9635499,-8.89937 -5.162117 1.069206,-8.859121 -4.237342 1.306709,-8.838032 -3.455249 1.506553,-9.345962 -6.791215 1.088798,-9.305611 -5.380601 1.218386,-9.267025 -4.506221 1.42845,-9.221046 -3.780874 1.599763,-9.733194 -7.179487 1.231289,-9.80283 -6.145408 1.425955,-9.826693 -5.478582 1.618035,-9.816375 -4.845972 1.745999,3.210,5  0
-2.839501 -9.286293 0.6906211,-3.618593 -9.26985 1.617347,-4.292717 -8.408955 2.125221,-4.668379 -7.48265 2.574807,-5.135115 -6.8637 3.092935,-4.047631 -6.25868 1.461313,-4.356228 -5.05088 1.94359,-4.522686 -4.242907 2.424915,-4.660007 -3.435829 2.856286,-3.519167 -6.027462 1.367172,-3.630885 -4.68593 2.256095,-3.630885 -4.68593 2.256095,-3.519247 -4.875736 3.37279,-3.00466 -6.068864 1.393492,-3.010704 -4.846694 2.239568,-3.032253 -5.336547 2.889234,-3.034723 -5.908653 3.17051,-2.47017 -6.331969 1.489711,-2.438877 -5.405775 2.177386,-2.499901 -5.749611 2.654227,-2.528711 -6.227495 2.948997,-9.256574 -9.963377 0.7842349,-8.575186 -9.440281 1.031791,-8.078667 -8.447296 1.196321,-7.794702 -7.476652 1.407605,-7.47132 -6.836921 1.605434,-8.558137 -6.804546 0.9526836,-8.4457 -5.537092 1.125718,-8.410744 -4.782758 1.306026,-8.388509 -4.114162 1.440221,-8.964258 -6.654163 1.033121,-8.890164 -5.199237 1.144318,-8.851046 -4.273025 1.393892,-8.829548 -3.488827 1.610354,-9.346359 -6.803508 1.148082,-9.299518 -5.411027 1.27927,-9.264385 -4.545511 1.48829,-9.221935 -3.830844 1.663612,-9.736735 -7.193614 1.281962,-9.804003 -6.169494 1.472704,-9.827681 -5.511758 1.655802,-9.818095 -4.886432 1.780303,3.310,5  0
-2.853747 -9.408058 0.8140969,-3.664082 -9.331453 1.655399,-4.33984 -8.440619 2.167563,-4.719 -7.495121 2.623558,-5.193624 -6.832242 3.15837,-4.089119 -6.367277 1.622504,-4.409626 -5.211049 2.162247,-4.583143 -4.429447 2.666017,-4.734669 -3.632403 3.114957,-3.550182 -6.137056 1.586252,-3.636427 -4.802248 2.525927,-3.636427 -4.802248 2.525927,-3.588972 -5.217306 3.630265,-3.025442 -6.180727 1.654716,-3.011792 -4.961624 2.496855,-3.078685 -5.485879 3.082507,-3.116209 -6.078332 3.332425,-2.480218 -6.465595 1.785007,-2.433294 -5.50871 2.466716,-2.53978 -5.866111 2.900456,-2.615209 -6.407263 3.163644,-9.251152 -9.983032 0.7704353,-8.568695 -9.457146 0.9916573,-8.073154 -8.474632 1.170719,-7.790391 -7.512869 1.403849,-7.466078 -6.866158 1.638172,-8.561609 -6.825223 0.9421667,-8.45116 -5.549476 1.122302,-8.411356 -4.794078 1.30762,-8.38665 -4.125965 1.438356,-8.970415 -6.678947 1.046579,-8.89609 -5.208446 1.165288,-8.85432 -4.282434 1.4072,-8.833491 -3.501527 1.611002,-9.356251 -6.82946 1.184403,-9.305266 -5.420818 1.323129,-9.267292 -4.542296 1.530077,-9.223327 -3.814529 1.69989,-9.75276 -7.219718 1.341789,-9.819715 -6.169105 1.53527,-9.842151 -5.495285 1.717037,-9.832853 -4.857782 1.845111,3.410,5  0
-2.925485 -9.432589 0.6523334,-3.758066 -9.267769 1.395344,-4.427029 -8.370262 1.89448,-4.839816 -7.427612 2.366407,-5.331022 -6.723278 2.887006,-4.166636 -6.369054 1.293444,-4.494354 -5.283185 1.8663,-4.700214 -4.537132 2.40053,-4.890511 -3.821476 2.826272,-3.640211 -6.19074 1.319393,-3.746668 -4.874607 2.378984,-3.746668 -4.874607 2.378984,-3.723835 -5.86878 3.431137,-3.122766 -6.247815 1.434909,-3.116014 -5.065508 2.346309,-3.189959 -5.798713 2.79846,-3.225 -6.488701 2.899901,-2.582713 -6.540504 1.61573,-2.543 -5.541671 2.296107,-2.663658 -5.975383 2.643885,-2.73907 -6.57168 2.80403,-9.21565 -9.96603 0.7354406,-8.533825 -9.457249 0.9790626,-8.047811 -8.4674 1.164723,-7.778685 -7.511707 1.401028,-7.462168 -6.870702 1.635308,-8.546589 -6.807908 0.9410775,-8.443205 -5.522666 1.13211,-8.403545 -4.769056 1.313595,-8.375443 -4.106488 1.441051,-8.958611 -6.672115 1.035425,-8.888579 -5.185112 1.170743,-8.846665 -4.258037 1.403157,-8.821722 -3.486629 1.595292,-9.342524 -6.831909 1.163303,-9.303648 -5.405376 1.324585,-9.263981 -4.527647 1.533715,-9.213024 -3.805384 1.698585,-9.72818 -7.230241 1.312709,-9.813128 -6.185613 1.519093,-9.842056 -5.512725 1.705514,-9.829926 -4.874485 1.831704,3.510,5  0
-2.945881 -9.434637 0.7167236,-3.778297 -9.313755 1.41194,-4.468849 -8.342371 1.848243,-4.931192 -7.371342 2.259549,-5.458833 -6.685888 2.693157,-4.217436 -6.374936 1.214508,-4.510164 -5.315547 1.755424,-4.706764 -4.595651 2.231635,-4.894778 -3.874853 2.591913,-3.697138 -6.154424 1.231943,-3.776064 -4.858868 2.241043,-3.776064 -4.858868 2.241043,-3.78415 -5.967298 3.167089,-3.182955 -6.184574 1.344483,-3.159967 -5.033967 2.204978,-3.270193 -5.917043 2.592881,-3.308359 -6.64925 2.642482,-2.648402 -6.454843 1.524541,-2.624513 -5.553588 2.153316,-2.766045 -6.06566 2.442384,-2.835459 -6.638421 2.540397,-9.206336 -9.981052 0.7515736,-8.528005 -9.460667 1.010248,-8.045291 -8.46596 1.194947,-7.778283 -7.496458 1.427846,-7.456508 -6.868164 1.659805,-8.537473 -6.820692 0.9449142,-8.428141 -5.538675 1.131197,-8.39071 -4.780183 1.311628,-8.36319 -4.11225 1.439634,-8.945164 -6.680601 1.025669,-8.866974 -5.196306 1.162344,-8.827762 -4.272102 1.396752,-8.800016 -3.504087 1.583134,-9.326764 -6.827084 1.143542,-9.281888 -5.413354 1.313065,-9.248486 -4.534315 1.523826,-9.200002 -3.819054 1.680769,-9.709636 -7.210025 1.282366,-9.794578 -6.17506 1.498534,-9.831959 -5.501812 1.68923,-9.826662 -4.861199 1.809638,3.610,5  0
-2.98814 -9.476389 0.9272646,-3.805661 -9.350849 1.636364,-4.459398 -8.360044 2.073699,-4.849446 -7.320505 2.467198,-5.309065 -6.552063 2.871558,-4.244471 -6.372146 1.453861,-4.525989 -5.354764 2.055918,-4.733549 -4.677284 2.587018,-4.932746 -3.996707 2.977136,-3.723301 -6.135286 1.474647,-3.820124 -4.866164 2.550943,-3.820124 -4.866164 2.550943,-3.852528 -6.122522 3.493912,-3.205297 -6.170879 1.591113,-3.200872 -5.038156 2.515969,-3.328621 -5.963043 2.898088,-3.362617 -6.717826 2.931296,-2.66285 -6.444395 1.779036,-2.658453 -5.547472 2.458141,-2.822926 -6.104507 2.758605,-2.893931 -6.716627 2.854294,-9.198239 -9.98382 0.7471877,-8.524272 -9.443045 1.011254,-8.035771 -8.445675 1.203911,-7.769125 -7.479214 1.445987,-7.453877 -6.837032 1.687112,-8.527282 -6.81875 0.9636748,-8.419497 -5.532987 1.169535,-8.379945 -4.769235 1.358863,-8.354177 -4.097509 1.489316,-8.931784 -6.687725 1.051588,-8.855234 -5.204813 1.206245,-8.816368 -4.271982 1.453716,-8.794401 -3.489999 1.651003,-9.311301 -6.842857 1.177037,-9.266859 -5.437206 1.361905,-9.232803 -4.556976 1.579988,-9.187346 -3.830492 1.743306,-9.697308 -7.232004 1.323627,-9.775694 -6.194376 1.554464,-9.809727 -5.52511 1.749223,-9.803679 -4.886665 1.874124,3.710,5  0
-2.95778 -9.444933 0.648851,-3.749544 -9.304319 1.383523,-4.392501 -8.406586 1.879087,-4.744038 -7.410068 2.331692,-5.089723 -6.553174 2.793397,-4.230988 -6.448791 1.246319,-4.54966 -5.396175 1.861042,-4.785349 -4.696187 2.428034,-5.003509 -4.03071 2.857687,-3.718613 -6.208408 1.28463,-3.847234 -4.873458 2.3883,-3.847234 -4.873458 2.3883,-3.886351 -6.260849 3.334968,-3.21466 -6.237529 1.412522,-3.232014 -5.019153 2.381818,-3.352758 -5.95226 2.790247,-3.379456 -6.767334 2.84392,-2.687241 -6.485778 1.616513,-2.681531 -5.516613 2.321459,-2.839312 -6.083669 2.646413,-2.905595 -6.757318 2.773788,-9.175493 -9.974615 0.7837304,-8.506763 -9.421719 1.063102,-8.023391 -8.423409 1.263528,-7.764974 -7.459423 1.51277,-7.463825 -6.80846 1.754426,-8.511788 -6.79219 1.003525,-8.412472 -5.517246 1.201489,-8.371185 -4.756937 1.386869,-8.34403 -4.09123 1.518031,-8.915988 -6.667181 1.085302,-8.84688 -5.195045 1.224854,-8.807465 -4.264022 1.466265,-8.786963 -3.484263 1.662688,-9.29615 -6.827873 1.206322,-9.261145 -5.43013 1.37395,-9.225584 -4.553873 1.587904,-9.180971 -3.830852 1.750437,-9.682981 -7.219255 1.350791,-9.767632 -6.185415 1.568532,-9.801546 -5.515125 1.756409,-9.796554 -4.876434 1.877374,3.810,5  0
-2.99025 -9.408886 0.4522407,-3.748614 -9.31529 1.198087,-4.412673 -8.510021 1.732513,-4.776451 -7.555141 2.207441,-4.895926 -6.605506 2.66455,-4.253864 -6.508779 1.085181,-4.566114 -5.43786 1.671332,-4.822675 -4.712861 2.20899,-5.060379 -4.080083 2.590159,-3.745657 -6.235601 1.11577,-3.870706 -4.87961 2.177864,-3.870706 -4.87961 2.177864,-3.944211 -6.307978 3.067886,-3.240322 -6.257602 1.237127,-3.259896 -5.034959 2.18911,-3.384661 -5.901643 2.598048,-3.422153 -6.752214 2.656478,-2.711512 -6.494489 1.435271,-2.68984 -5.498427 2.130201,-2.830362 -5.989719 2.464287,-2.905435 -6.681379 2.613057,-9.18864 -9.949034 0.6787644,-8.515538 -9.41814 0.9590335,-8.026174 -8.444197 1.150164,-7.756986 -7.476686 1.384336,-7.444564 -6.832609 1.60139,-8.488231 -6.830152 0.9276268,-8.365713 -5.554801 1.145247,-8.322578 -4.796007 1.338657,-8.303413 -4.128911 1.475852,-8.893217 -6.678039 1.012911,-8.80702 -5.186717 1.175666,-8.769736 -4.254817 1.440072,-8.758619 -3.471059 1.648714,-9.274612 -6.820896 1.129467,-9.231372 -5.413761 1.324397,-9.201351 -4.535766 1.562897,-9.164924 -3.806679 1.74053,-9.662543 -7.202646 1.2703,-9.740223 -6.17349 1.512353,-9.76773 -5.512077 1.725668,-9.75532 -4.88047 1.861625,3.910,5  0
-3.029087 -9.379261 0.4816224,-3.756494 -9.315069 1.198668,-4.440789 -8.495199 1.735333,-4.824068 -7.530597 2.217556,-4.806597 -6.583369 2.636288,-4.271581 -6.482898 1.050533,-4.566391 -5.423297 1.62867,-4.802326 -4.694317 2.132205,-5.035765 -3.980958 2.455523,-3.780321 -6.184652 1.08747,-3.902267 -4.828597 2.136363,-3.902267 -4.828597 2.136363,-3.944279 -6.362754 2.842482,-3.279602 -6.175723 1.213764,-3.296299 -4.927462 2.12533,-3.430686 -5.879084 2.433019,-3.455441 -6.708744 2.399848,-2.755561 -6.396892 1.431004,-2.755537 -5.388853 2.045936,-2.90891 -5.965083 2.285817,-2.97341 -6.680978 2.337881,-9.168151 -9.95311 0.6942902,-8.494073 -9.418676 0.9738106,-8.006796 -8.44334 1.179002,-7.739791 -7.478591 1.427744,-7.432168 -6.818723 1.670811,-8.482388 -6.819103 0.9368956,-8.370928 -5.555709 1.147395,-8.329744 -4.811342 1.340486,-8.306998 -4.154914 1.471424,-8.885902 -6.675663 1.020534,-8.821503 -5.196247 1.162982,-8.779159 -4.281526 1.415006,-8.757723 -3.50044 1.619028,-9.266638 -6.824459 1.135657,-9.240188 -5.42276 1.306128,-9.205176 -4.564853 1.528979,-9.158518 -3.84036 1.701362,-9.649939 -7.211231 1.273228,-9.739087 -6.185842 1.492921,-9.768086 -5.527414 1.685232,-9.753563 -4.90089 1.816098,4.010,5  0
-3.002955 -9.343065 0.4096025,-3.739009 -9.288338 1.071867,-4.433312 -8.469164 1.57808,-4.816162 -7.507432 2.03775,-4.746872 -6.626402 2.412325,-4.271765 -6.473293 0.9091154,-4.587626 -5.380902 1.444703,-4.81773 -4.631706 1.902546,-5.043875 -3.890227 2.18849,-3.781173 -6.169262 0.9761089,-3.910702 -4.785683 1.986984,-3.910702 -4.785683 1.986984,-3.93727 -6.368121 2.626483,-3.279236 -6.163349 1.128234,-3.303132 -4.897007 2.024082,-3.430889 -5.869382 2.33115,-3.44878 -6.685397 2.287862,-2.757139 -6.395591 1.366105,-2.77224 -5.402793 1.960793,-2.91933 -5.986304 2.191399,-2.969629 -6.658216 2.241062,-9.174692 -9.964428 0.6736084,-8.498184 -9.42137 0.9396853,-8.010015 -8.437357 1.13006,-7.741446 -7.47217 1.363515,-7.427511 -6.810712 1.586614,-8.483347 -6.832326 0.9054178,-8.371579 -5.54821 1.108617,-8.330432 -4.790178 1.296987,-8.312667 -4.120792 1.42827,-8.885198 -6.693067 0.9946199,-8.819546 -5.213748 1.135067,-8.776622 -4.288581 1.385957,-8.756608 -3.504076 1.590345,-9.264238 -6.841399 1.115787,-9.238066 -5.443038 1.292995,-9.201366 -4.578027 1.523268,-9.155851 -3.858249 1.695769,-9.647116 -7.220989 1.25731,-9.739872 -6.189298 1.488266,-9.767513 -5.525956 1.688909,-9.753018 -4.895735 1.818945,4.110,5  0
-3.047094 -9.327494 0.5189197,-3.794689 -9.229702 1.156665,-4.461435 -8.410856 1.654238,-4.820757 -7.475852 2.12695,-4.741579 -6.635141 2.524166,-4.306431 -6.387694 0.9462873,-4.605729 -5.308136 1.44379,-4.815547 -4.581942 1.874593,-5.023004 -3.863117 2.140471,-3.808668 -6.106105 1.018909,-3.920886 -4.706656 2.004502,-3.920886 -4.706656 2.004502,-3.976774 -6.250736 2.675224,-3.304298 -6.104342 1.174739,-3.319798 -4.826379 2.02625,-3.453666 -5.780214 2.346834,-3.486141 -6.598661 2.313373,-2.777885 -6.340762 1.414742,-2.781804 -5.327484 1.962944,-2.931266 -5.894901 2.194909,-2.997995 -6.562261 2.245436,-9.158741 -9.964132 0.6812062,-8.492922 -9.429251 0.9573197,-8.007403 -8.447392 1.155322,-7.74073 -7.485305 1.399834,-7.419013 -6.845092 1.636139,-8.473684 -6.830036 0.9255617,-8.372945 -5.556209 1.128869,-8.32967 -4.803008 1.312366,-8.302315 -4.146566 1.437964,-8.87294 -6.691768 1.017391,-8.804355 -5.211964 1.162754,-8.755466 -4.293868 1.406459,-8.725544 -3.516481 1.601712,-9.249656 -6.842908 1.140454,-9.218409 -5.435307 1.322527,-9.179024 -4.564834 1.553907,-9.127687 -3.836162 1.724806,-9.630411 -7.229393 1.285667,-9.723213 -6.202528 1.514325,-9.754692 -5.547569 1.711673,-9.742495 -4.927953 1.842069,4.210,5  0
-3.046242 -9.342653 0.5080854,-3.792261 -9.223986 1.136236,-4.464771 -8.399012 1.631808,-4.828114 -7.451335 2.100138,-4.73744 -6.607263 2.492745,-4.297794 -6.41263 0.9077168,-4.60484 -5.309085 1.387188,-4.816972 -4.556864 1.810949,-5.022895 -3.830357 2.073336,-3.807844 -6.120897 0.9847125,-3.926151 -4.690805 1.936651,-3.926151 -4.690805 1.936651,-3.956947 -6.311668 2.56752,-3.311853 -6.10811 1.142222,-3.332183 -4.785501 1.980231,-3.452291 -5.741697 2.316146,-3.473316 -6.615659 2.289163,-2.792725 -6.338114 1.388629,-2.791001 -5.297554 1.929109,-2.931939 -5.837954 2.175262,-2.994693 -6.538869 2.235417,-9.147839 -9.956886 0.7345853,-8.481516 -9.412384 1.000339,-7.995133 -8.430677 1.196767,-7.73023 -7.471658 1.442351,-7.416735 -6.822576 1.680626,-8.468314 -6.806436 0.9524688,-8.361942 -5.546253 1.154658,-8.319769 -4.799827 1.335992,-8.295627 -4.142163 1.453927,-8.8689 -6.666547 1.050482,-8.805272 -5.188381 1.186208,-8.761766 -4.274524 1.422493,-8.737312 -3.505558 1.607602,-9.248595 -6.820949 1.18173,-9.223994 -5.410949 1.357279,-9.190366 -4.540788 1.586105,-9.141639 -3.806829 1.756711,-9.632892 -7.212093 1.335804,-9.728981 -6.181299 1.560785,-9.758768 -5.521614 1.759543,-9.743602 -4.893091 1.892297,4.310,5  0
-3.021887 -9.271658 0.5856901,-3.785791 -9.171982 1.225295,-4.468767 -8.366783 1.729852,-4.826418 -7.411575 2.205684,-4.735968 -6.559177 2.607581,-4.313172 -6.331975 1.051895,-4.615334 -5.235537 1.548289,-4.82233 -4.49117 1.982302,-5.027062 -3.761775 2.251097,-3.814171 -6.044564 1.127527,-3.93107 -4.643934 2.106001,-3.93107 -4.643934 2.106001,-3.970063 -6.211214 2.77538,-3.308668 -6.030374 1.282451,-3.329504 -4.77926 2.127087,-3.448441 -5.743712 2.438294,-3.46832 -6.559154 2.409495,-2.779243 -6.252729 1.523766,-2.779213 -5.24468 2.07009,-2.919919 -5.816228 2.287363,-2.98177 -6.492187 2.33339,-9.165479 -9.94961 0.697103,-8.490859 -9.418251 0.9554658,-7.999856 -8.446873 1.142316,-7.720726 -7.479087 1.375707,-7.403523 -6.826173 1.601238,-8.468946 -6.813797 0.8911554,-8.357766 -5.547957 1.087985,-8.31561 -4.798283 1.27749,-8.2932 -4.141382 1.408243,-8.868085 -6.668376 0.9767114,-8.795692 -5.192203 1.105844,-8.750104 -4.279799 1.357253,-8.72528 -3.502243 1.559814,-9.245762 -6.814798 1.091867,-9.220491 -5.415763 1.254774,-9.187654 -4.558437 1.475482,-9.141789 -3.836949 1.644023,-9.626289 -7.196586 1.229512,-9.719753 -6.170495 1.447613,-9.747061 -5.511478 1.640958,-9.729646 -4.883956 1.769012,4.410,5  0
-3.013079 -9.235712 0.6120105,-3.783556 -9.106203 1.246563,-4.442553 -8.29599 1.71633,-4.807396 -7.359874 2.15885,-4.781456 -6.511589 2.523299,-4.287586 -6.271631 1.049507,-4.585918 -5.210042 1.555879,-4.791929 -4.480524 2.000567,-5.000879 -3.734334 2.282666,-3.788603 -5.991301 1.120349,-3.897469 -4.600948 2.102929,-3.897469 -4.600948 2.102929,-3.959522 -6.140166 2.762059,-3.285009 -5.992637 1.273672,-3.290485 -4.735492 2.121709,-3.423632 -5.70951 2.40721,-3.462144 -6.496721 2.353063,-2.761993 -6.231557 1.510296,-2.748323 -5.243072 2.054809,-2.900325 -5.820419 2.265578,-2.976954 -6.464694 2.298576,-9.169965 -9.944359 0.6599178,-8.492557 -9.411064 0.9049429,-7.996834 -8.439192 1.083529,-7.718371 -7.482671 1.313303,-7.402239 -6.832787 1.53614,-8.465565 -6.817234 0.8429521,-8.35582 -5.554145 1.02876,-8.313753 -4.811874 1.210057,-8.289613 -4.164594 1.333135,-8.863065 -6.674121 0.9326248,-8.796021 -5.205122 1.044514,-8.751646 -4.294187 1.284643,-8.725398 -3.520398 1.481376,-9.241098 -6.818465 1.053135,-9.217482 -5.42906 1.196787,-9.186616 -4.573173 1.410987,-9.142378 -3.854904 1.580163,-9.622518 -7.193994 1.195476,-9.717695 -6.170591 1.39676,-9.744872 -5.518398 1.583019,-9.727834 -4.90315 1.708125,4.510,5  0
-3.057144 -9.237188 0.6935033,-3.800804 -9.112999 1.328085,-4.489799 -8.267014 1.833437,-4.856777 -7.314774 2.311027,-4.739134 -6.485851 2.710897,-4.286184 -6.25819 1.168736,-4.597149 -5.189627 1.67544,-4.810859 -4.462936 2.113118,-5.015485 -3.767936 2.379506,-3.79422 -5.967054 1.247251,-3.922228 -4.572453 2.218234,-3.922228 -4.572453 2.218234,-3.956964 -6.244131 2.880344,-3.2913 -5.967643 1.405891,-3.321965 -4.696954 2.265916,-3.446915 -5.663598 2.594446,-3.466974 -6.53066 2.577794,-2.767632 -6.212842 1.647757,-2.765855 -5.21924 2.209774,-2.91599 -5.773958 2.463804,-2.984068 -6.469915 2.534014,-9.157278 -9.951935 0.6789892,-8.486283 -9.420067 0.9436898,-7.990484 -8.456116 1.135988,-7.715495 -7.501516 1.374704,-7.399325 -6.847481 1.601105,-8.462109 -6.82645 0.9106966,-8.348688 -5.565567 1.11083,-8.309625 -4.825058 1.294688,-8.286997 -4.174359 1.419968,-8.861991 -6.678819 0.9928977,-8.791178 -5.214477 1.120802,-8.750309 -4.306054 1.365445,-8.726532 -3.534195 1.564745,-9.241255 -6.819998 1.106922,-9.213359 -5.435825 1.265831,-9.182995 -4.583484 1.482611,-9.137374 -3.871626 1.653119,-9.623871 -7.193546 1.242124,-9.714256 -6.17839 1.44989,-9.743321 -5.529062 1.636635,-9.727178 -4.914207 1.764136,4.610,5  0
-3.04117 -9.224857 0.6729857,-3.786396 -9.123981 1.311238,-4.466057 -8.295322 1.817274,-4.831964 -7.349578 2.287971,-4.758801 -6.523982 2.689287,-4.313974 -6.262851 1.149758,-4.614766 -5.239954 1.679686,-4.819379 -4.531708 2.12858,-5.025318 -3.793298 2.393317,-3.823244 -5.970396 1.221314,-3.946468 -4.621701 2.210392,-3.946468 -4.621701 2.210392,-3.923149 -6.396268 2.774121,-3.3154 -5.964551 1.377076,-3.335953 -4.709033 2.232693,-3.439281 -5.762768 2.483589,-3.449577 -6.537014 2.41191,-2.789781 -6.203435 1.612677,-2.788581 -5.236539 2.139246,-2.930001 -5.860713 2.319741,-2.983437 -6.483221 2.335456,-9.164991 -9.946352 0.6765679,-8.500677 -9.416666 0.94036,-8.004307 -8.449432 1.132169,-7.724081 -7.490514 1.369582,-7.402149 -6.84431 1.599959,-8.473385 -6.821963 0.8944291,-8.362695 -5.561397 1.086508,-8.322721 -4.811993 1.266089,-8.302715 -4.15373 1.387232,-8.872388 -6.67258 0.978503,-8.801652 -5.211717 1.096942,-8.757752 -4.297637 1.333163,-8.734734 -3.525358 1.524585,-9.253029 -6.815994 1.093046,-9.223215 -5.432631 1.242333,-9.187605 -4.578647 1.453356,-9.140056 -3.863232 1.61952,-9.639965 -7.192044 1.229228,-9.729692 -6.174091 1.433261,-9.754502 -5.52462 1.620028,-9.735826 -4.911995 1.745681,4.710,5  0
-3.051359 -9.209244 0.6721227,-3.791418 -9.105694 1.310815,-4.475121 -8.272718 1.80503,-4.833548 -7.347042 2.268389,-4.763589 -6.5467 2.660408,-4.321888 -6.237768 1.145806,-4.600256 -5.237424 1.677473,-4.805751 -4.55902 2.129625,-5.01355 -3.857629 2.394021,-3.827168 -5.95156 1.208517,-3.940117 -4.63712 2.19856,-3.940117 -4.63712 2.19856,-3.925851 -6.448902 2.730274,-3.316571 -5.955049 1.354323,-3.33173 -4.753759 2.199278,-3.442474 -5.842653 2.408775,-3.445427 -6.603769 2.315971,-2.786573 -6.194829 1.580249,-2.785876 -5.229646 2.096048,-2.931101 -5.876083 2.25271,-2.979479 -6.507368 2.257056,-9.162325 -9.952002 0.6269342,-8.499859 -9.415869 0.9030335,-8.016939 -8.426224 1.104773,-7.747483 -7.478361 1.348974,-7.426021 -6.85201 1.584649,-8.485703 -6.830617 0.8941358,-8.374614 -5.553757 1.119153,-8.334524 -4.792795 1.317778,-8.317657 -4.116779 1.455444,-8.887543 -6.696965 0.9876909,-8.822281 -5.205144 1.162926,-8.781072 -4.271256 1.422185,-8.766926 -3.472763 1.627766,-9.264991 -6.854143 1.112721,-9.24388 -5.426929 1.312315,-9.208961 -4.540962 1.549079,-9.167789 -3.791583 1.725161,-9.64646 -7.246597 1.258373,-9.739735 -6.201929 1.501053,-9.769292 -5.534732 1.706127,-9.759742 -4.895841 1.843535,4.810,5  0
-2.996191 -9.145891 0.5454303,-3.755774 -9.055834 1.209577,-4.435896 -8.262432 1.699027,-4.820198 -7.373279 2.154828,-4.795023 -6.580545 2.548795,-4.306409 -6.252549 1.086693,-4.605007 -5.24712 1.662582,-4.819708 -4.570581 2.14552,-5.039088 -3.873841 2.431373,-3.80933 -5.946677 1.146988,-3.931721 -4.639251 2.176871,-3.931721 -4.639251 2.176871,-3.94421 -6.486528 2.721612,-3.298691 -5.943202 1.289688,-3.319799 -4.755863 2.18988,-3.44557 -5.856737 2.41461,-3.469252 -6.650444 2.320593,-2.77887 -6.186464 1.511992,-2.765497 -5.228738 2.070875,-2.917258 -5.874181 2.2502,-2.9842 -6.53325 2.263514,-9.182176 -9.959911 0.642904,-8.507735 -9.423103 0.9102577,-8.01677 -8.444077 1.097193,-7.740307 -7.480809 1.329716,-7.420835 -6.843992 1.558254,-8.484465 -6.843207 0.8551603,-8.374465 -5.569669 1.047685,-8.331508 -4.814788 1.228109,-8.306033 -4.151199 1.351258,-8.88947 -6.695508 0.9412683,-8.819061 -5.218681 1.07461,-8.771023 -4.300876 1.312311,-8.7415 -3.523666 1.501077,-9.27282 -6.835698 1.060408,-9.240362 -5.426404 1.230706,-9.1985 -4.557876 1.449897,-9.142556 -3.833095 1.610751,-9.65948 -7.206927 1.201831,-9.754648 -6.178203 1.426343,-9.785075 -5.512982 1.62346,-9.770205 -4.874778 1.750864,4.910,5  0
-2.993553 -9.096367 0.615006,-3.745268 -9.052027 1.310126,-4.435053 -8.279139 1.844633,-4.810778 -7.375916 2.327374,-4.762192 -6.558325 2.738478,-4.294412 -6.190043 1.255559,-4.590721 -5.239412 1.879005,-4.797062 -4.580728 2.38595,-5.009509 -3.874397 2.686869,-3.790005 -5.890956 1.310055,-3.916453 -4.663491 2.387024,-3.916453 -4.663491 2.387024,-3.891735 -6.479813 2.955208,-3.265785 -5.899349 1.447575,-3.289307 -4.805732 2.379061,-3.399109 -5.946657 2.583148,-3.405339 -6.656332 2.484669,-2.730875 -6.156734 1.663656,-2.738283 -5.275884 2.233233,-2.88866 -5.991865 2.367477,-2.937485 -6.583314 2.357759,-9.174795 -9.960686 0.644772,-8.512795 -9.427176 0.9191571,-8.02062 -8.461264 1.123923,-7.743752 -7.509798 1.372446,-7.430669 -6.860258 1.614815,-8.493634 -6.841837 0.8953769,-8.382637 -5.562858 1.102633,-8.342296 -4.810668 1.293705,-8.318966 -4.145242 1.425353,-8.895406 -6.698402 0.9821667,-8.829263 -5.218124 1.1246,-8.789943 -4.298368 1.371763,-8.768943 -3.512476 1.57142,-9.274552 -6.845214 1.099583,-9.245545 -5.446857 1.266973,-9.21247 -4.584329 1.483178,-9.166883 -3.857016 1.651161,-9.655482 -7.226362 1.237613,-9.74617 -6.19224 1.454355,-9.776949 -5.530532 1.643179,-9.763407 -4.901876 1.767447,5.010,5  0
-3.014381 -9.102922 0.6513664,-3.769473 -9.055286 1.368857,-4.474789 -8.245411 1.910632,-4.82321 -7.303592 2.391103,-4.711678 -6.534828 2.775568,-4.271574 -6.179904 1.333551,-4.561945 -5.248956 2.038826,-4.764462 -4.579889 2.564227,-4.975288 -3.856551 2.851851,-3.769621 -5.882412 1.372922,-3.891691 -4.675237 2.509172,-3.891691 -4.675237 2.509172,-3.838192 -6.457104 2.995016,-3.245996 -5.895114 1.50661,-3.26336 -4.786698 2.486891,-3.359591 -5.937394 2.661403,-3.365936 -6.631456 2.524059,-2.709833 -6.157869 1.719611,-2.711447 -5.270943 2.319782,-2.859158 -6.003129 2.440114,-2.911193 -6.594451 2.40104,-9.161739 -9.959696 0.6746842,-8.502737 -9.422314 0.9431341,-8.02113 -8.440247 1.150432,-7.752478 -7.479938 1.403789,-7.430704 -6.828474 1.654104,-8.498167 -6.823179 0.9247457,-8.387845 -5.551071 1.140386,-8.34508 -4.793733 1.333881,-8.324296 -4.12433 1.465236,-8.898233 -6.688415 1.02126,-8.833996 -5.211367 1.17391,-8.790838 -4.288156 1.422258,-8.770741 -3.507658 1.621086,-9.276958 -6.846263 1.148897,-9.255671 -5.440338 1.327972,-9.221466 -4.568891 1.556677,-9.175628 -3.835851 1.729437,-9.660748 -7.234827 1.296842,-9.75298 -6.196052 1.525584,-9.78044 -5.528526 1.723198,-9.76521 -4.888963 1.855602,5.110,5  0
-3.002971 -9.076328 0.7516978,-3.754181 -9.037081 1.507495,-4.460026 -8.232338 2.073505,-4.814334 -7.31549 2.585753,-4.715292 -6.52803 3.014306,-4.261988 -6.113202 1.466224,-4.548418 -5.205005 2.213178,-4.7498 -4.561559 2.760529,-4.960133 -3.858211 3.06158,-3.754887 -5.832282 1.505789,-3.873973 -4.657959 2.689693,-3.873973 -4.657959 2.689693,-3.839745 -6.47437 3.225426,-3.223501 -5.860341 1.646202,-3.231113 -4.779455 2.666003,-3.339636 -5.964874 2.858148,-3.358217 -6.665889 2.725543,-2.679974 -6.138519 1.866367,-2.67754 -5.264715 2.493229,-2.837298 -6.04655 2.614594,-2.901915 -6.655339 2.565411,-9.185052 -9.961098 0.7090632,-8.513816 -9.431246 0.9730341,-8.020759 -8.442644 1.165233,-7.745745 -7.485823 1.40114,-7.422583 -6.850067 1.634528,-8.495277 -6.829029 0.9515096,-8.380798 -5.554713 1.153804,-8.337792 -4.802002 1.338222,-8.312332 -4.135026 1.46671,-8.900637 -6.680369 1.043096,-8.827464 -5.210777 1.190564,-8.783702 -4.292491 1.435704,-8.75778 -3.517697 1.634243,-9.284266 -6.827561 1.165336,-9.247287 -5.428976 1.342284,-9.208142 -4.561004 1.567046,-9.155321 -3.842644 1.737331,-9.670305 -7.20829 1.307875,-9.761113 -6.183079 1.53282,-9.790206 -5.521755 1.729611,-9.774857 -4.891882 1.859793,5.210,5  0
-3.012892 -8.985596 0.6489198,-3.768774 -8.980871 1.436497,-4.489645 -8.173891 2.005648,-4.848948 -7.250074 2.509765,-4.721917 -6.500869 2.924575,-4.255724 -6.067173 1.407851,-4.534966 -5.160985 2.203864,-4.738092 -4.503303 2.76308,-4.960588 -3.775942 3.054146,-3.740419 -5.771747 1.423661,-3.84524 -4.650224 2.625086,-3.84524 -4.650224 2.625086,-3.77623 -6.429645 3.076564,-3.206942 -5.789737 1.548449,-3.200289 -4.789867 2.579801,-3.287102 -5.964321 2.718828,-3.309347 -6.603588 2.545021,-2.66833 -6.051186 1.748268,-2.655776 -5.219668 2.37415,-2.788734 -6.006999 2.451825,-2.845948 -6.586202 2.355602,-9.173947 -9.955194 0.6614041,-8.507512 -9.418274 0.9269246,-8.019276 -8.445028 1.124572,-7.744543 -7.489748 1.366084,-7.42875 -6.837708 1.604075,-8.496095 -6.828564 0.912289,-8.387861 -5.543083 1.126045,-8.343912 -4.789106 1.316406,-8.318046 -4.125923 1.448709,-8.897876 -6.688653 1.006771,-8.831711 -5.198904 1.163188,-8.786407 -4.277757 1.416355,-8.759533 -3.494821 1.61984,-9.277109 -6.844879 1.130875,-9.252302 -5.435361 1.31684,-9.216902 -4.56071 1.550516,-9.166883 -3.826719 1.729627,-9.656713 -7.234461 1.274402,-9.756086 -6.200641 1.509882,-9.787161 -5.533788 1.714288,-9.770827 -4.900579 1.850565,5.310,5  0
-3.045073 -8.967093 0.5328656,-3.780062 -8.970085 1.373342,-4.47524 -8.168686 1.936456,-4.808965 -7.249341 2.429227,-4.72554 -6.476745 2.84592,-4.257593 -6.064589 1.316503,-4.531836 -5.145231 2.141806,-4.726619 -4.485797 2.721879,-4.93965 -3.761474 3.039911,-3.74139 -5.781869 1.310033,-3.832583 -4.63837 2.532093,-3.832583 -4.63837 2.532093,-3.771599 -6.446558 2.988935,-3.209686 -5.807533 1.425016,-3.186214 -4.749469 2.482032,-3.27355 -5.938469 2.643597,-3.307783 -6.611021 2.474108,-2.670899 -6.072391 1.615769,-2.638759 -5.234283 2.268065,-2.776229 -6.027399 2.378975,-2.848621 -6.62515 2.295682,-9.180381 -9.951469 0.6827364,-8.513222 -9.401985 0.9581319,-8.021454 -8.431501 1.170083,-7.745853 -7.480002 1.426414,-7.422095 -6.828243 1.677171,-8.491172 -6.81685 0.9546798,-8.377723 -5.54012 1.173992,-8.336076 -4.782424 1.368687,-8.316918 -4.114556 1.501157,-8.896689 -6.681766 1.049546,-8.823315 -5.20153 1.213435,-8.777939 -4.273475 1.46683,-8.757288 -3.492688 1.66886,-9.280461 -6.839833 1.175011,-9.249721 -5.42502 1.362674,-9.21053 -4.547897 1.592977,-9.161324 -3.815455 1.76589,-9.668864 -7.228536 1.321375,-9.758207 -6.194171 1.553444,-9.784489 -5.531168 1.753401,-9.76828 -4.898308 1.88857,5.410,5  0
-3.08152 -8.888136 0.5616501,-3.802729 -8.934824 1.438962,-4.518597 -8.117218 2.019601,-4.838705 -7.225067 2.52477,-4.737844 -6.482457 2.956973,-4.272258 -6.017019 1.473073,-4.530222 -5.10967 2.355528,-4.732761 -4.416296 2.983199,-4.955351 -3.700199 3.34337,-3.74359 -5.718557 1.459137,-3.838525 -4.608591 2.716406,-3.838525 -4.608591 2.716406,-3.787407 -6.443315 3.233732,-3.194981 -5.751686 1.571274,-3.190497 -4.726335 2.690016,-3.278828 -5.904296 2.883131,-3.307076 -6.63132 2.742934,-2.639237 -6.029764 1.755673,-2.629365 -5.24016 2.478982,-2.77919 -6.020622 2.631083,-2.853267 -6.654224 2.577011,-9.181858 -9.935871 0.6123766,-8.524841 -9.407936 0.875991,-8.042318 -8.431425 1.078585,-7.769923 -7.471263 1.326483,-7.44549 -6.831338 1.571269,-8.511744 -6.814579 0.849821,-8.406388 -5.516378 1.050516,-8.368713 -4.741967 1.237794,-8.350098 -4.060646 1.366971,-8.912091 -6.681415 0.9431262,-8.842954 -5.189853 1.086279,-8.797508 -4.258615 1.32793,-8.776366 -3.470939 1.523924,-9.290619 -6.836685 1.068065,-9.263767 -5.420808 1.238405,-9.225715 -4.546089 1.461295,-9.179257 -3.81405 1.628409,-9.674017 -7.220336 1.21126,-9.767334 -6.172351 1.43454,-9.79573 -5.508482 1.627621,-9.783682 -4.872986 1.755324,5.510,5  0
-3.053766 -8.839567 0.456665,-3.785567 -8.865721 1.32344,-4.521309 -8.102409 1.899979,-4.875528 -7.191925 2.409029,-4.739573 -6.374438 2.815002,-4.259151 -5.983281 1.248226,-4.547041 -5.083074 2.165648,-4.735607 -4.396541 2.803117,-4.946018 -3.654527 3.130545,-3.732412 -5.672132 1.228613,-3.844454 -4.627944 2.5164,-3.844454 -4.627944 2.5164,-3.75183 -6.471671 2.914494,-3.189373 -5.686977 1.350506,-3.208241 -4.714536 2.488426,-3.270006 -5.952207 2.636169,-3.294032 -6.630701 2.427004,-2.637994 -5.944007 1.535232,-2.660255 -5.156888 2.233754,-2.792108 -5.966257 2.336024,-2.848043 -6.59333 2.227753,-9.188121 -9.95499 0.6834887,-8.523964 -9.419449 0.9509511,-8.037697 -8.439533 1.152296,-7.764461 -7.484121 1.401645,-7.437075 -6.842805 1.64684,-8.519586 -6.818586 0.9376664,-8.41766 -5.529466 1.144399,-8.376725 -4.760161 1.329541,-8.350346 -4.082721 1.456666,-8.919939 -6.681861 1.032847,-8.850643 -5.204463 1.190439,-8.808316 -4.272766 1.440223,-8.785107 -3.486214 1.641379,-9.297004 -6.836055 1.159155,-9.264069 -5.434194 1.34172,-9.225091 -4.557947 1.567096,-9.172428 -3.830255 1.735812,-9.678357 -7.223344 1.304409,-9.765985 -6.192094 1.536745,-9.792114 -5.528178 1.734028,-9.774782 -4.901393 1.861053,5.610,5  0
-3.054823 -8.778006 0.4273878,-3.774372 -8.850731 1.311923,-4.52379 -8.105429 1.919045,-4.890931 -7.203165 2.453043,-4.757189 -6.391697 2.88694,-4.26993 -5.945622 1.271208,-4.567293 -5.075616 2.261103,-4.751055 -4.434612 2.941628,-4.957929 -3.733362 3.300214,-3.738464 -5.637586 1.266484,-3.862774 -4.623771 2.61922,-3.862774 -4.623771 2.61922,-3.781927 -6.442506 3.042739,-3.191879 -5.658981 1.410092,-3.214597 -4.722906 2.581474,-3.27459 -5.982288 2.703336,-3.308796 -6.597301 2.481613,-2.633166 -5.933216 1.615995,-2.662804 -5.238073 2.352506,-2.792698 -6.093343 2.43028,-2.850797 -6.6641 2.30845,-9.176762 -9.966932 0.7607234,-8.519662 -9.437643 1.031393,-8.041156 -8.444744 1.234545,-7.78316 -7.492202 1.485914,-7.457161 -6.863719 1.734348,-8.522537 -6.806446 1.019516,-8.428866 -5.500965 1.232925,-8.390953 -4.716444 1.423784,-8.369198 -4.028139 1.562248,-8.922338 -6.671598 1.120698,-8.86068 -5.19082 1.289032,-8.820954 -4.255361 1.555284,-8.802169 -3.464977 1.77423,-9.300014 -6.826334 1.254789,-9.271199 -5.434453 1.444562,-9.233274 -4.56083 1.680463,-9.186963 -3.833934 1.864191,-9.685578 -7.215032 1.408812,-9.77286 -6.179916 1.647335,-9.800829 -5.523304 1.849296,-9.789225 -4.901972 1.986214,5.710,5  0
-3.086857 -8.787739 0.4032686,-3.797916 -8.863314 1.309553,-4.521627 -8.077711 1.910271,-4.858124 -7.170545 2.420392,-4.759457 -6.39252 2.853075,-4.27322 -5.983842 1.334887,-4.559433 -5.084313 2.323751,-4.752454 -4.421854 3.023845,-4.955339 -3.719936 3.426298,-3.737049 -5.66921 1.319893,-3.845987 -4.583835 2.655958,-3.845987 -4.583835 2.655958,-3.776989 -6.434656 3.130271,-3.188473 -5.693467 1.44663,-3.198341 -4.65678 2.618999,-3.275707 -5.907565 2.783622,-3.308807 -6.597301 2.610026,-2.637149 -5.982387 1.641415,-2.647747 -5.270743 2.416913,-2.782217 -6.119861 2.552825,-2.839884 -6.71005 2.481957,-9.194363 -9.95657 0.6769753,-8.534094 -9.418337 0.9333512,-8.051635 -8.435045 1.130188,-7.781002 -7.478426 1.374209,-7.454525 -6.853218 1.617456,-8.53168 -6.817381 0.9215418,-8.423531 -5.504657 1.122525,-8.380137 -4.721096 1.305742,-8.356718 -4.030755 1.436527,-8.930779 -6.684537 1.022604,-8.855448 -5.188018 1.177483,-8.808445 -4.248611 1.421362,-8.784103 -3.460657 1.617885,-9.309879 -6.84152 1.154495,-9.271589 -5.420608 1.340176,-9.23245 -4.529653 1.570469,-9.183586 -3.789449 1.744776,-9.693435 -7.230658 1.306872,-9.780101 -6.187843 1.545997,-9.809971 -5.519542 1.753617,-9.798962 -4.882484 1.890276,5.810,5  0
-3.088112 -8.821688 0.5179991,-3.804668 -8.885574 1.450088,-4.544312 -8.087622 2.060108,-4.877488 -7.172427 2.562537,-4.738464 -6.417638 2.991684,-4.27441 -6.018358 1.597273,-4.553011 -5.116869 2.583525,-4.73796 -4.454839 3.286408,-4.926748 -3.788144 3.69814,-3.725718 -5.706514 1.564881,-3.813955 -4.640245 2.881569,-3.813955 -4.640245 2.881569,-3.737109 -6.454418 3.418821,-3.166731 -5.734302 1.664056,-3.15797 -4.716288 2.826245,-3.239054 -5.911079 3.026078,-3.282167 -6.652022 2.907804,-2.609548 -6.025621 1.83275,-2.58858 -5.299784 2.616531,-2.730584 -6.081935 2.791331,-2.809379 -6.717618 2.774425,-9.212729 -9.959469 0.6925105,-8.54644 -9.420095 0.9402768,-8.065565 -8.437813 1.133648,-7.792599 -7.478418 1.374949,-7.465343 -6.844018 1.619576,-8.544354 -6.810422 0.9118879,-8.440001 -5.50763 1.111421,-8.395891 -4.733829 1.298218,-8.36744 -4.05182 1.423194,-8.944855 -6.680983 1.015406,-8.882633 -5.19004 1.167937,-8.837452 -4.264431 1.405947,-8.811021 -3.486097 1.590245,-9.322519 -6.842669 1.149969,-9.299331 -5.426391 1.331876,-9.263438 -4.553731 1.55631,-9.213007 -3.822928 1.717636,-9.702746 -7.235452 1.301763,-9.798027 -6.205997 1.537907,-9.830471 -5.538143 1.738483,-9.819941 -4.892086 1.864119,5.910,5  0
-3.0495 -8.801929 0.464457,-3.763998 -8.896601 1.373678,-4.519558 -8.150297 1.985712,-4.88464 -7.245563 2.503387,-4.728041 -6.423595 2.913898,-4.254892 -6.007558 1.478953,-4.553894 -5.136814 2.466867,-4.736853 -4.476282 3.16608,-4.936382 -3.778204 3.55789,-3.709339 -5.69004 1.45691,-3.821468 -4.679418 2.788789,-3.821468 -4.679418 2.788789,-3.736963 -6.522106 3.317666,-3.152764 -5.713775 1.573526,-3.157451 -4.763867 2.746713,-3.220942 -5.976566 2.937613,-3.26083 -6.678993 2.804421,-2.592423 -5.992738 1.748918,-2.588995 -5.31847 2.504973,-2.723727 -6.120195 2.655805,-2.803307 -6.752479 2.62071,-9.214343 -9.976942 0.7291375,-8.547394 -9.448668 0.9841717,-8.062849 -8.461277 1.178912,-7.792194 -7.498022 1.422517,-7.471189 -6.852365 1.666389,-8.547741 -6.816824 0.9445879,-8.446313 -5.519029 1.141901,-8.406767 -4.749252 1.329225,-8.377777 -4.073385 1.460972,-8.947785 -6.686952 1.043048,-8.886412 -5.210174 1.190383,-8.845685 -4.282302 1.433721,-8.820581 -3.50111 1.627251,-9.323113 -6.848791 1.175781,-9.295152 -5.448797 1.352034,-9.25899 -4.578418 1.575776,-9.208644 -3.861061 1.741542,-9.700677 -7.240531 1.327459,-9.793011 -6.209214 1.553987,-9.825674 -5.5473 1.748183,-9.816586 -4.916975 1.869188,6.010,5  0
-2.995123 -9.295095 1.158847,-3.827585 -9.179358 1.887074,-4.585157 -8.289743 2.438898,-4.888134 -7.281763 2.91581,-4.688063 -6.47962 3.396132,-4.189675 -6.3885 2.349835,-4.398739 -5.498948 3.158647,-4.664172 -4.63571 3.707026,-4.890228 -3.778078 4.075821,-3.656348 -6.04191 2.361154,-3.74943 -4.989038 3.336248,-3.74943 -4.989038 3.336248,-3.784394 -6.817873 3.847617,-3.075935 -6.091329 2.474246,-3.053047 -5.066484 3.402923,-3.176035 -5.999628 3.698877,-3.219588 -6.803482 3.72854,-2.490062 -6.439173 2.626753,-2.453499 -5.702089 3.429599,-2.592642 -6.293043 3.687296,-2.687728 -6.957206 3.765507,-9.223825 -9.959763 0.7071052,-8.556137 -9.430725 0.9760342,-8.064751 -8.452042 1.174749,-7.792164 -7.505689 1.421865,-7.47005 -6.868907 1.665813,-8.547342 -6.815804 0.9582124,-8.449101 -5.518383 1.157286,-8.408443 -4.751724 1.33894,-8.381229 -4.077203 1.465911,-8.949711 -6.67984 1.051779,-8.88815 -5.207713 1.201264,-8.846745 -4.284014 1.449488,-8.819259 -3.505586 1.651487,-9.326935 -6.833066 1.177829,-9.299573 -5.442082 1.358561,-9.261736 -4.577807 1.585311,-9.2083 -3.860504 1.756563,-9.707938 -7.216215 1.323241,-9.800982 -6.194267 1.550676,-9.830509 -5.546154 1.743922,-9.816854 -4.929966 1.867053,6.110,5 5 0
-3.012642 -9.06744 0.966451,-3.803528 -9.036905 1.829823,-4.561354 -8.217194 2.451925,-4.908456 -7.247049 2.980827,-4.758991 -6.447767 3.428755,-4.231619 -6.14054 1.980871,-4.500051 -5.241757 2.953151,-4.685887 -4.56183 3.578418,-4.890799 -3.810951 3.894562,-3.655517 -5.8076 1.986942,-3.75037 -4.764646 3.379028,-3.75037 -4.764646 3.379028,-3.669243 -6.659805 3.874593,-3.074842 -5.834047 2.105996,-3.052755 -4.913628 3.321084,-3.124286 -6.110553 3.508367,-3.15947 -6.800251 3.337195,-2.508116 -6.130239 2.276221,-2.462434 -5.372526 3.066827,-2.576719 -6.154621 3.207154,-2.634317 -6.771841 3.114004,-9.216267 -9.950785 0.6894717,-8.552618 -9.425343 0.9571175,-8.066525 -8.441725 1.156947,-7.794321 -7.496137 1.404429,-7.472075 -6.860645 1.64896,-8.547544 -6.809875 0.9456193,-8.446482 -5.515546 1.150207,-8.405264 -4.752016 1.333131,-8.378461 -4.077593 1.456579,-8.948647 -6.676349 1.043057,-8.89083 -5.198919 1.192704,-8.847618 -4.280368 1.435675,-8.819148 -3.506097 1.629443,-9.325246 -6.834774 1.172857,-9.304699 -5.435581 1.352766,-9.267385 -4.573505 1.581979,-9.214079 -3.850864 1.755266,-9.704323 -7.225594 1.32014,-9.802167 -6.196218 1.549804,-9.831058 -5.545616 1.748104,-9.816928 -4.926003 1.875407,6.210,5 5 0
-2.989941 -8.977098 0.916948,-3.766251 -9.015163 1.863431,-4.538826 -8.197504 2.505793,-4.870515 -7.274637 3.042054,-4.701008 -6.530981 3.498881,-4.222399 -6.111284 2.084355,-4.50646 -5.26744 3.148488,-4.678238 -4.633275 3.884146,-4.850834 -3.960187 4.293157,-3.640922 -5.77357 2.055939,-3.754515 -4.821044 3.445999,-3.754515 -4.821044 3.445999,-3.648397 -6.748813 3.958932,-3.04451 -5.777313 2.174461,-3.066172 -4.915059 3.376222,-3.133915 -6.19189 3.540125,-3.150536 -6.878373 3.428963,-2.453561 -6.056159 2.360533,-2.444817 -5.361095 3.142112,-2.584258 -6.206683 3.297242,-2.655673 -6.843057 3.297017,-9.216599 -9.961473 0.7086618,-8.560495 -9.45475 0.9756466,-8.080626 -8.450148 1.182377,-7.809925 -7.494697 1.433122,-7.47701 -6.860258 1.688131,-8.560902 -6.812247 0.9756913,-8.463161 -5.512757 1.18676,-8.423424 -4.75002 1.376303,-8.400066 -4.075093 1.505798,-8.963288 -6.681885 1.076308,-8.908266 -5.198032 1.239098,-8.866742 -4.267164 1.487586,-8.84298 -3.482035 1.686396,-9.339178 -6.851052 1.210061,-9.322947 -5.440256 1.399378,-9.287848 -4.565177 1.634916,-9.238863 -3.833055 1.814684,-9.718278 -7.255096 1.360635,-9.814639 -6.215222 1.600459,-9.845156 -5.553783 1.806252,-9.833597 -4.921543 1.941855,6.310,5 5 0
-2.982489 -9.036711 1.282507,-3.772655 -9.07198 2.233475,-4.540225 -8.267561 2.902712,-4.877896 -7.309001 3.473904,-4.691692 -6.541679 3.966883,-4.231126 -6.071479 2.405654,-4.504665 -5.25638 3.483341,-4.654871 -4.684907 4.21047,-4.808887 -4.037673 4.605893,-3.642521 -5.713047 2.393719,-3.742785 -4.844188 3.803496,-3.742785 -4.844188 3.803496,-3.639912 -6.765337 4.344415,-3.039433 -5.711841 2.525797,-3.048779 -4.960862 3.722857,-3.120361 -6.284347 3.848468,-3.140569 -6.895181 3.722887,-2.440969 -5.986043 2.732486,-2.419586 -5.336021 3.503899,-2.554544 -6.221409 3.617193,-2.620919 -6.824962 3.585267,-9.240237 -9.983456 0.710656,-8.570148 -9.462111 0.9837371,-8.083405 -8.470913 1.186029,-7.808226 -7.508085 1.434863,-7.478935 -6.859401 1.681834,-8.563248 -6.839382 0.9487545,-8.471695 -5.547446 1.149712,-8.431146 -4.778434 1.33641,-8.403613 -4.107753 1.468211,-8.963628 -6.701681 1.045669,-8.909591 -5.231887 1.195694,-8.868834 -4.299695 1.44303,-8.842697 -3.513929 1.643654,-9.339293 -6.855276 1.177537,-9.317286 -5.458386 1.363137,-9.277702 -4.589113 1.589174,-9.22273 -3.870001 1.758901,-9.719596 -7.242355 1.330792,-9.821316 -6.21393 1.56581,-9.85294 -5.556022 1.76507,-9.840252 -4.930078 1.894135,6.410,5 5 0
-2.965736 -9.025667 0.9952936,-3.76931 -9.035887 1.927057,-4.550325 -8.239069 2.568094,-4.89129 -7.283426 3.104061,-4.697294 -6.527717 3.55372,-4.208641 -6.136629 2.090889,-4.502607 -5.267526 3.131158,-4.667308 -4.6485 3.844865,-4.832943 -3.960038 4.234379,-3.623615 -5.779271 2.0754,-3.731435 -4.816923 3.48113,-3.731435 -4.816923 3.48113,-3.607841 -6.764714 4.014638,-3.02634 -5.759754 2.19417,-3.043257 -4.8988 3.383009,-3.106173 -6.210199 3.518503,-3.119315 -6.876899 3.393455,-2.432926 -6.005865 2.390101,-2.413789 -5.260525 3.138945,-2.544945 -6.126106 3.257903,-2.607651 -6.772098 3.229675,-9.239535 -9.944666 0.6587219,-8.575929 -9.43339 0.9432761,-8.089165 -8.45825 1.153071,-7.810486 -7.506162 1.404098,-7.483958 -6.856861 1.654164,-8.571802 -6.813745 0.9192715,-8.478058 -5.525133 1.126494,-8.43818 -4.764207 1.318376,-8.414194 -4.100549 1.45027,-8.969395 -6.678664 1.006548,-8.917542 -5.203241 1.158498,-8.873864 -4.285903 1.399089,-8.844945 -3.514793 1.59166,-9.345423 -6.839513 1.127791,-9.328191 -5.43333 1.314272,-9.290029 -4.571361 1.545767,-9.237056 -3.85104 1.716447,-9.725178 -7.235078 1.269667,-9.828301 -6.210499 1.499991,-9.861551 -5.555028 1.697824,-9.851498 -4.923384 1.829422,6.510,5 5 0
-2.882553 -9.086378 1.088329,-3.652184 -9.062342 2.007254,-4.414513 -8.246244 2.618617,-4.770411 -7.30466 3.128445,-4.641993 -6.560529 3.573295,-4.106867 -6.11267 2.097046,-4.398212 -5.189544 3.076421,-4.545356 -4.575572 3.764987,-4.699236 -3.881567 4.142794,-3.546021 -5.784222 2.078237,-3.629688 -4.720767 3.417161,-3.629688 -4.720767 3.417161,-3.521204 -6.630881 3.963779,-2.970511 -5.783566 2.182394,-2.96835 -4.820526 3.326129,-3.030008 -6.100097 3.49676,-3.066961 -6.7698 3.356178,-2.398143 -6.03828 2.368897,-2.373445 -5.255684 3.096377,-2.503324 -6.11235 3.210821,-2.585821 -6.737109 3.153839,-9.230942 -9.977192 0.694171,-8.576704 -9.450495 0.9839292,-8.09744 -8.475958 1.209619,-7.828966 -7.53036 1.478311,-7.508021 -6.881965 1.749789,-8.584299 -6.82759 0.9595106,-8.484486 -5.534566 1.175998,-8.44575 -4.770456 1.375184,-8.422503 -4.103942 1.513762,-8.988012 -6.699613 1.049435,-8.931972 -5.234941 1.21596,-8.889006 -4.311777 1.474859,-8.86431 -3.528801 1.679917,-9.365773 -6.868827 1.173138,-9.345738 -5.486068 1.358995,-9.303329 -4.622701 1.593066,-9.248429 -3.900962 1.76797,-9.747439 -7.269166 1.318931,-9.844914 -6.246232 1.551213,-9.870484 -5.587945 1.752379,-9.852356 -4.955621 1.883286,6.610,5 5 0
-2.845428 -9.138054 0.8045244,-3.589729 -9.106441 1.715896,-4.307709 -8.211861 2.303292,-4.622232 -7.238744 2.786551,-4.498632 -6.558736 3.192865,-3.997095 -6.196699 1.788239,-4.263456 -5.273668 2.702631,-4.402029 -4.634368 3.329123,-4.557209 -3.914451 3.669693,-3.453989 -5.896658 1.744954,-3.507765 -4.809667 3.002154,-3.507765 -4.809667 3.002154,-3.450265 -6.528417 3.478827,-2.911098 -5.911064 1.824381,-2.865455 -4.935251 2.879198,-2.940256 -6.10186 3.018785,-2.998973 -6.705548 2.859586,-2.373126 -6.183118 1.983366,-2.319854 -5.407762 2.64126,-2.445694 -6.197334 2.721865,-2.535373 -6.760005 2.637131,-9.255395 -10.02418 0.6894699,-8.596393 -9.502085 0.9701179,-8.106578 -8.514894 1.186634,-7.826262 -7.56244 1.45132,-7.500866 -6.911987 1.716487,-8.591055 -6.886446 0.9551479,-8.492825 -5.58536 1.164137,-8.45277 -4.815882 1.356367,-8.428505 -4.15334 1.48704,-8.995432 -6.74995 1.050492,-8.935684 -5.275608 1.210592,-8.896457 -4.337238 1.457562,-8.869843 -3.553766 1.65527,-9.375984 -6.906156 1.18061,-9.349833 -5.512458 1.371073,-9.312515 -4.628459 1.595471,-9.258262 -3.901214 1.764362,-9.759956 -7.292747 1.333593,-9.859201 -6.255574 1.568104,-9.894138 -5.585105 1.765116,-9.885265 -4.950149 1.893227,6.710,5 5 0
-2.775087 -9.311979 0.1523918,-3.519747 -9.29031 0.8880873,-4.211588 -8.501724 1.393541,-4.513209 -7.558422 1.834714,-4.466818 -6.736888 2.239614,-3.889105 -6.679981 1.273116,-4.163511 -5.65801 1.997372,-4.353558 -4.810342 2.477786,-4.498753 -3.95431 2.824023,-3.381804 -6.330958 1.277075,-3.46055 -5.094372 2.206259,-3.46055 -5.094372 2.206259,-3.514896 -6.083245 2.70984,-2.848207 -6.359951 1.365271,-2.800287 -5.239448 2.270259,-2.927053 -5.942024 2.576179,-2.998654 -6.618692 2.598528,-2.317089 -6.662072 1.498235,-2.255178 -5.851017 2.263312,-2.361486 -6.262725 2.531879,-2.447947 -6.773033 2.603009,-9.227833 -10.02723 0.7104291,-8.572015 -9.494045 0.9822514,-8.092093 -8.510376 1.194956,-7.822383 -7.565527 1.456539,-7.494511 -6.918809 1.721403,-8.576312 -6.87532 0.983567,-8.478572 -5.58525 1.199934,-8.430534 -4.830281 1.393735,-8.398194 -4.1755 1.523383,-8.979008 -6.748391 1.091972,-8.92134 -5.283153 1.26034,-8.876245 -4.362817 1.511108,-8.844051 -3.591946 1.708264,-9.35936 -6.914653 1.235461,-9.338042 -5.525244 1.438009,-9.302187 -4.653858 1.673223,-9.246303 -3.931988 1.849233,-9.744889 -7.31142 1.400677,-9.852669 -6.280308 1.645485,-9.889935 -5.607744 1.849156,-9.879648 -4.969997 1.984466,6.810,5 5 0
-2.686049 -9.346371 0.02313639,-3.403806 -9.318533 0.8963441,-4.05809 -8.463709 1.446481,-4.366205 -7.495789 1.917129,-4.336771 -6.752247 2.309928,-3.812637 -6.551054 0.6932247,-4.057134 -5.551412 1.366377,-4.188379 -4.857503 1.904563,-4.331727 -4.148616 2.248811,-3.306301 -6.268972 0.6749385,-3.374578 -5.046112 1.778949,-3.374578 -5.046112 1.778949,-3.324509 -6.553634 2.498055,-2.810349 -6.269569 0.7639751,-2.773499 -5.114007 1.718859,-2.831768 -6.057186 2.080937,-2.869696 -6.763046 2.068901,-2.307638 -6.50472 0.9427341,-2.252109 -5.618192 1.588191,-2.352068 -6.217494 1.801554,-2.420739 -6.804836 1.823292,-9.183603 -10.02926 0.6860346,-8.5291 -9.492161 0.9775662,-8.041533 -8.5093 1.193984,-7.763043 -7.571433 1.454877,-7.442617 -6.933253 1.71519,-8.543721 -6.878904 0.9686586,-8.450361 -5.585133 1.190586,-8.406378 -4.824361 1.390296,-8.37844 -4.151859 1.528907,-8.944936 -6.756641 1.067059,-8.883432 -5.278211 1.24374,-8.842276 -4.353179 1.508474,-8.815533 -3.566802 1.714166,-9.323009 -6.924766 1.199958,-9.292337 -5.521455 1.404436,-9.258944 -4.642478 1.649221,-9.209661 -3.905734 1.832002,-9.704496 -7.328468 1.358887,-9.802433 -6.294399 1.599837,-9.838841 -5.624431 1.805607,-9.831469 -4.984747 1.945854,6.910,5 5 0
-2.672973 -9.535866 -0.08366843,-3.383985 -9.426558 0.6960564,-4.011511 -8.513699 1.208849,-4.326069 -7.547933 1.656131,-4.29215 -6.811951 2.01844,-3.737236 -6.722974 0.509488,-3.970959 -5.672528 1.070187,-4.122311 -4.933911 1.536102,-4.265986 -4.187139 1.861603,-3.240863 -6.469126 0.5141475,-3.291489 -5.187921 1.481531,-3.291489 -5.187921 1.481531,-3.306536 -6.587275 2.144386,-2.755468 -6.466871 0.6105489,-2.710494 -5.215007 1.425362,-2.82271 -5.979248 1.768024,-2.875234 -6.681395 1.77635,-2.264756 -6.682308 0.8006187,-2.192963 -5.688745 1.326272,-2.318961 -6.115971 1.538186,-2.392295 -6.686874 1.577891,-9.170476 -10.00753 0.5621074,-8.501473 -9.466007 0.8280106,-8.011599 -8.508022 1.028504,-7.743265 -7.570643 1.276189,-7.430123 -6.935222 1.523598,-8.498397 -6.898345 0.8105428,-8.39187 -5.587682 1.027219,-8.347061 -4.82084 1.221422,-8.319877 -4.149842 1.353737,-8.905914 -6.769058 0.9111347,-8.840816 -5.262197 1.07124,-8.80331 -4.324077 1.32246,-8.783908 -3.542438 1.52319,-9.285864 -6.930257 1.044206,-9.25492 -5.515501 1.245476,-9.22282 -4.629379 1.481745,-9.173956 -3.89193 1.661945,-9.66636 -7.318353 1.203052,-9.770755 -6.290891 1.443164,-9.813341 -5.625614 1.652982,-9.809395 -4.984188 1.792462,7.010,5 5 0
-2.560099 -9.68899 -0.4680706,-3.282838 -9.529547 0.2072791,-3.91234 -8.647551 0.6894277,-4.216475 -7.647377 1.122192,-4.095312 -6.869686 1.454811,-3.620098 -6.927509 -0.02109218,-3.838888 -5.841527 0.4495542,-3.972157 -5.103363 0.8356183,-4.085159 -4.338769 1.122281,-3.137131 -6.716956 0.0151045,-3.18548 -5.450582 0.9019362,-3.18548 -5.450582 0.9019362,-3.180535 -6.286458 1.608607,-2.659307 -6.727371 0.132094,-2.626989 -5.534511 0.8927512,-2.713242 -6.143908 1.261847,-2.750006 -6.723189 1.298531,-2.181076 -6.93782 0.3346962,-2.120862 -5.969924 0.8337656,-2.213619 -6.311828 1.057256,-2.260357 -6.790195 1.116625,-9.142638 -9.996384 0.6377339,-8.467949 -9.473438 0.9035835,-7.974579 -8.488747 1.07779,-7.692704 -7.525171 1.298126,-7.353232 -6.902284 1.513673,-8.442784 -6.878333 0.8719428,-8.335734 -5.585639 1.071328,-8.295992 -4.841073 1.251669,-8.279305 -4.186271 1.370966,-8.840576 -6.736119 0.9551413,-8.760784 -5.248552 1.095822,-8.715638 -4.34403 1.338515,-8.688874 -3.578887 1.53057,-9.21801 -6.888024 1.068115,-9.188486 -5.468383 1.247723,-9.163523 -4.596733 1.484688,-9.125511 -3.862479 1.664009,-9.597387 -7.274354 1.202903,-9.689964 -6.254354 1.431616,-9.723148 -5.598297 1.637046,-9.71077 -4.978437 1.776908,7.110,5 5 0
-2.460907 -9.926561 -0.6052709,-3.171909 -9.73233 0.01764953,-3.793284 -8.919954 0.4884903,-4.103111 -7.977695 0.917294,-4.023825 -7.149034 1.265919,-3.538799 -7.250786 -0.07543087,-3.776966 -6.169076 0.3792745,-3.899368 -5.440012 0.7491828,-4.004425 -4.720964 1.017126,-3.066206 -7.015163 -0.04143798,-3.143606 -5.780875 0.8123324,-3.143606 -5.780875 0.8123324,-3.134975 -6.333614 1.573625,-2.60034 -7.018618 0.0562681,-2.593441 -5.850028 0.8324585,-2.640385 -6.362676 1.249258,-2.666564 -6.950099 1.346335,-2.138845 -7.228065 0.2195283,-2.078461 -6.268372 0.7393944,-2.119478 -6.427331 1.020496,-2.146122 -6.805337 1.155432,-9.123336 -10.00975 0.6968325,-8.422655 -9.47076 0.9240355,-7.920007 -8.489153 1.072173,-7.635302 -7.531427 1.272139,-7.307486 -6.900545 1.460428,-8.411465 -6.869871 0.8558468,-8.31566 -5.569417 1.03701,-8.27999 -4.817203 1.214873,-8.263992 -4.143285 1.328702,-8.80729 -6.72809 0.948701,-8.737216 -5.25262 1.067255,-8.69098 -4.351463 1.297531,-8.665255 -3.579967 1.481808,-9.184519 -6.875642 1.073849,-9.158455 -5.472137 1.225211,-9.130175 -4.612946 1.447272,-9.090127 -3.887002 1.613647,-9.565729 -7.25761 1.218474,-9.656994 -6.243669 1.424279,-9.684428 -5.580332 1.61436,-9.670088 -4.954229 1.739833,7.210,5 5 0
-2.415706 -10.05605 -0.8282543,-3.131756 -9.885212 -0.2062078,-3.748968 -9.077322 0.2562079,-4.044855 -8.106972 0.6655006,-3.936195 -7.312597 0.9844561,-3.48299 -7.425142 -0.2991481,-3.728744 -6.338296 0.120486,-3.854486 -5.630035 0.4457082,-3.964039 -4.906454 0.670933,-3.014952 -7.205398 -0.2865106,-3.095209 -5.988239 0.5271391,-3.095209 -5.988239 0.5271391,-3.08547 -6.575401 1.203503,-2.554412 -7.198713 -0.2108796,-2.556043 -6.055637 0.5081547,-2.593681 -6.583362 0.8575295,-2.614219 -7.133182 0.9085653,-2.098817 -7.387565 -0.06403798,-2.058712 -6.451364 0.4025675,-2.098316 -6.642089 0.619173,-2.120681 -7.003902 0.7053524,-9.104647 -9.992983 0.6628774,-8.416422 -9.466396 0.9072137,-7.91743 -8.502047 1.07631,-7.636352 -7.553798 1.293167,-7.322253 -6.921299 1.498813,-8.398022 -6.864267 0.8515241,-8.291576 -5.564285 1.038464,-8.251326 -4.811851 1.219958,-8.230105 -4.136216 1.339749,-8.794752 -6.72234 0.9373416,-8.724181 -5.235572 1.057942,-8.679504 -4.322574 1.293535,-8.654497 -3.546365 1.482955,-9.169162 -6.864872 1.054438,-9.140487 -5.461746 1.207975,-9.104883 -4.600099 1.423985,-9.059395 -3.879915 1.589228,-9.545844 -7.240051 1.193039,-9.632438 -6.221633 1.399547,-9.661051 -5.561162 1.589548,-9.649284 -4.932289 1.712561,7.310,5 5 0
-2.268239 -10.40161 -0.9864593,-2.986039 -10.26303 -0.3032848,-3.584875 -9.457693 0.1736606,-3.861271 -8.505518 0.5876586,-3.838491 -7.673389 0.9522097,-3.342542 -7.861488 -0.2077674,-3.594316 -6.780114 0.2305909,-3.735473 -6.093057 0.6348634,-3.844254 -5.410839 0.970615,-2.874958 -7.658994 -0.1973931,-2.997165 -6.470758 0.5929995,-2.997165 -6.470758 0.5929995,-3.002883 -6.627878 1.458948,-2.411005 -7.682077 -0.1335532,-2.434593 -6.573545 0.5595767,-2.491336 -6.589028 1.0686,-2.529112 -6.796577 1.343975,-1.948399 -7.883197 -0.00119108,-1.923203 -6.968561 0.5185336,-1.956001 -6.879216 0.8557996,-1.975565 -6.977527 1.109665,-9.073714 -10.01196 0.6723776,-8.406738 -9.48625 0.9370883,-7.91861 -8.513622 1.124223,-7.6414 -7.557992 1.360346,-7.320326 -6.911772 1.585591,-8.39295 -6.879888 0.8939297,-8.293519 -5.587789 1.087056,-8.259863 -4.829857 1.263124,-8.246749 -4.155521 1.378313,-8.786647 -6.738739 0.9721812,-8.720573 -5.257185 1.098829,-8.679333 -4.33931 1.334227,-8.658521 -3.562753 1.520627,-9.15934 -6.887057 1.08237,-9.138281 -5.491302 1.238927,-9.107927 -4.624753 1.457374,-9.065254 -3.899942 1.622248,-9.535004 -7.270818 1.213664,-9.628154 -6.248785 1.427627,-9.659232 -5.589254 1.623278,-9.647109 -4.965824 1.748116,7.410,5 5 0
-2.17354 -10.60169 -1.432103,-2.911656 -10.48549 -0.7484273,-3.515092 -9.723061 -0.3023299,-3.799376 -8.794437 0.06682444,-3.84799 -7.923261 0.3816198,-3.231826 -8.228331 -0.5207157,-3.49954 -7.13693 -0.08207762,-3.663635 -6.434894 0.3298749,-3.78018 -5.708718 0.6783873,-2.772601 -8.03215 -0.5240752,-2.911262 -6.884642 0.1947442,-2.911262 -6.884642 0.1947442,-2.930714 -6.679714 1.078721,-2.319252 -8.046642 -0.4861031,-2.343566 -6.982237 0.1343488,-2.393574 -6.709684 0.6413697,-2.428495 -6.630311 0.9888154,-1.871634 -8.209949 -0.395098,-1.838598 -7.315411 0.07989979,-1.845899 -7.05594 0.4041705,-1.84917 -6.946497 0.6963886,-9.087172 -10.02324 0.6558638,-8.414639 -9.496162 0.931545,-7.918832 -8.51721 1.121779,-7.641597 -7.557777 1.358542,-7.323963 -6.908069 1.582617,-8.402277 -6.891997 0.8737369,-8.300946 -5.587537 1.061036,-8.262396 -4.824075 1.231062,-8.243956 -4.147856 1.344003,-8.801182 -6.753837 0.9462509,-8.734572 -5.272723 1.06811,-8.691911 -4.355093 1.300412,-8.668282 -3.579617 1.485657,-9.175525 -6.9015 1.050166,-9.149909 -5.506214 1.206976,-9.115592 -4.642086 1.420489,-9.067132 -3.920877 1.581613,-9.552082 -7.278 1.176758,-9.646257 -6.257185 1.389425,-9.679339 -5.607212 1.582999,-9.667467 -4.985258 1.708148,7.510,5 5 0
-2.098604 -10.94556 -1.552434,-2.822392 -10.86901 -0.9207501,-3.410241 -10.12318 -0.4227479,-3.677607 -9.217539 -0.0231787,-3.664221 -8.399286 0.3383662,-3.122961 -8.764948 -0.2589828,-3.383856 -7.667938 0.374904,-3.542158 -6.960096 0.8284062,-3.66766 -6.278703 1.164093,-2.632037 -8.591106 -0.2228609,-2.766556 -7.490545 0.5681788,-2.766556 -7.490545 0.5681788,-2.828586 -6.781917 1.447921,-2.142282 -8.680464 -0.1538322,-2.169611 -7.675899 0.5860816,-2.219775 -7.184747 1.101634,-2.266773 -6.864069 1.506466,-1.673651 -8.939373 -0.06283009,-1.628835 -8.0958 0.5220128,-1.610314 -7.667848 0.9245511,-1.608499 -7.312721 1.320773,-9.114532 -10.06679 0.6868368,-8.443765 -9.51808 0.9697868,-7.954653 -8.543692 1.169996,-7.67709 -7.586902 1.415882,-7.352393 -6.93275 1.651604,-8.434438 -6.926082 0.9205579,-8.329273 -5.642846 1.122461,-8.28909 -4.882881 1.307981,-8.274556 -4.207117 1.432026,-8.831266 -6.790472 1.00151,-8.760717 -5.323385 1.132694,-8.713882 -4.408163 1.372191,-8.68995 -3.631796 1.560315,-9.207542 -6.938922 1.115165,-9.185677 -5.547401 1.281025,-9.151257 -4.680583 1.508555,-9.104596 -3.950027 1.676801,-9.588826 -7.319552 1.251992,-9.685764 -6.286441 1.477582,-9.71666 -5.616815 1.682818,-9.703374 -4.977417 1.815416,7.610,5 5 0
-1.954438 -11.27021 -1.674549,-2.630264 -11.27379 -0.944206,-3.229317 -10.62309 -0.3863018,-3.532494 -9.789644 0.07570505,-3.452429 -9.006573 0.5067866,-2.982036 -9.193979 -0.3650736,-3.26866 -8.23708 0.3363287,-3.372332 -7.539794 0.8401773,-3.423519 -6.937284 1.210134,-2.486055 -8.934879 -0.3828738,-2.601373 -7.840774 0.5038013,-2.601373 -7.840774 0.5038013,-2.573287 -7.772956 1.308132,-1.982865 -8.945337 -0.3335716,-2.007011 -7.888036 0.480037,-2.042337 -7.911657 0.8844023,-2.067553 -8.152376 1.118942,-1.482321 -9.140236 -0.2336355,-1.444849 -8.276751 0.3989286,-1.462378 -8.227188 0.7446182,-1.474773 -8.338053 0.9997346,-9.136263 -10.07355 0.6883222,-8.465821 -9.546988 0.9562351,-7.966786 -8.593094 1.159268,-7.680727 -7.647029 1.409127,-7.355557 -6.990633 1.648415,-8.437483 -6.936027 0.9008526,-8.341503 -5.663828 1.091726,-8.308358 -4.920226 1.274771,-8.294787 -4.271533 1.396901,-8.832478 -6.797437 0.9903633,-8.769065 -5.333223 1.108027,-8.732099 -4.426763 1.346703,-8.712503 -3.65274 1.540699,-9.20865 -6.957033 1.112055,-9.19232 -5.564493 1.269756,-9.166364 -4.697784 1.501486,-9.126719 -3.965934 1.681547,-9.586873 -7.35667 1.25818,-9.695992 -6.341321 1.46528,-9.732603 -5.684001 1.667155,-9.723135 -5.054922 1.807612,7.710,5 5 0
0.2539816 -11.5062 -1.523666,-1.262694 -11.44785 -0.5310869,-1.600993 -10.59855 -0.141618,-2.032672 -9.819702 0.3459445,-2.141454 -8.991081 0.8128958,-1.129151 -8.961298 -0.1590408,-1.606269 -8.244522 0.6149892,-1.862741 -7.497394 1.138088,-1.826712 -6.747864 1.6186,-0.5551977 -8.686924 -0.09430714,-0.6399984 -7.711092 0.8749947,-0.6399984 -7.711092 0.8749947,-0.8202949 -8.212986 1.875376,0.09489346 -8.891121 -0.1621704,0.1053391 -7.771183 0.9153791,0.05567741 -7.882709 1.397251,0.1294041 -8.258587 1.679046,0.6736474 -9.239588 -0.03444511,0.7687206 -8.134399 0.8592655,0.8190088 -8.16872 1.339134,0.7972569 -8.400114 1.662885,-9.137125 -10.08483 0.7313758,-7.746885 -9.553814 0.9917961,-7.116188 -8.490917 1.302356,-6.174969 -7.74868 1.597321,-4.686181 -6.989967 1.723551,-6.400612 -6.759357 0.8080621,-5.8922 -5.769912 1.131981,-5.901672 -4.808601 1.370476,-6.004962 -4.059137 1.491326,-6.893333 -6.609249 0.9301186,-6.372808 -5.347841 1.193506,-7.064709 -3.995332 1.296917,-7.622042 -3.065188 1.645124,-7.328766 -6.822435 1.136243,-7.378435 -5.45538 1.404256,-7.429634 -4.488883 1.589875,-7.974304 -3.601947 1.810703,-7.867818 -7.397184 1.439804,-7.996361 -6.287295 1.626039,-8.854865 -5.563951 1.792664,-8.355631 -4.856125 1.963742,7.810,5 5 0
-1.781713 -11.56991 -1.188112,-2.474732 -11.51785 -0.4663493,-3.105255 -10.81823 0.09029949,-3.398346 -9.982655 0.5438492,-3.266692 -9.249994 0.9514285,-2.830002 -9.379164 0.1392699,-3.084557 -8.502523 0.850583,-3.19431 -7.794883 1.330414,-3.259867 -7.176557 1.703764,-2.354939 -9.100637 0.1364127,-2.456199 -8.076479 1.07295,-2.456199 -8.076479 1.07295,-2.391246 -8.611616 1.826127,-1.867096 -9.088633 0.1881151,-1.874971 -8.135801 1.073183,-1.895894 -8.500669 1.418479,-1.909827 -9.030527 1.570177,-1.382006 -9.271471 0.2978126,-1.334908 -8.458738 0.9897429,-1.375501 -8.619658 1.314809,-1.401922 -8.978401 1.525327,-9.130804 -10.08392 0.6963237,-8.460394 -9.553444 0.9829019,-7.961381 -8.590292 1.189461,-7.683127 -7.637058 1.441466,-7.362398 -6.979425 1.680874,-8.441607 -6.947347 0.9195748,-8.343341 -5.674682 1.111713,-8.308852 -4.924088 1.295278,-8.292406 -4.263466 1.419434,-8.838451 -6.804454 0.998377,-8.769451 -5.33935 1.120759,-8.732368 -4.432672 1.365582,-8.712997 -3.65966 1.562104,-9.216098 -6.952096 1.110714,-9.193316 -5.557413 1.269504,-9.16898 -4.686646 1.497594,-9.132474 -3.949734 1.671748,-9.6003 -7.340475 1.247509,-9.700143 -6.323961 1.45512,-9.736289 -5.667045 1.6502,-9.728748 -5.040033 1.785595,7.910,5 5 0
