TiagoOliveira98/Thesis-Project/Difficulty_1/Motor_Task/Unity_Project/DataLogging/JointData/Logs(1647315166)_hbhhhh_Motor.csv
WRIST,THUMB_CMC,THUMB_MCP,THUMB_IP,THUMB_TIP,INDEX_FINGER_MCP,INDEX_FINGER_PIP,INDEX_FINGER_DIP,INDEX_FINGER_TIP,MIDDLE_FINGER_MCP,MIDDLE_FINGER_PIP,MIDDLE_FINGER_DIP,MIDDLE_FINGER_TIP,RING_FINGER_MCP,RING_FINGER_PIP,RING_FINGER_DIP,RING_FINGER_TIP,PINKY_MCP,PINKY_PIP,PINKY_DIP,PINKY_TIP,WRIST2,THUMB_CMC2,THUMB_MCP2,THUMB_IP2,THUMB_TIP2,INDEX_FINGER_MCP2,INDEX_FINGER_PIP2,INDEX_FINGER_DIP2,INDEX_FINGER_TIP2,MIDDLE_FINGER_MCP2,MIDDLE_FINGER_PIP2,MIDDLE_FINGER_DIP2,MIDDLE_FINGER_TIP2,RING_FINGER_MCP2,RING_FINGER_PIP2,RING_FINGER_DIP2,RING_FINGER_TIP2,PINKY_MCP2,PINKY_PIP2,PINKY_DIP2,PINKY_TIP2,Timestamp,Event
-1.882316 -7.414814 0.0002216166,-2.518391 -7.115955 0.2282879,-3.075489 -6.466506 0.3739427,-3.454866 -5.868111 0.5430701,-3.769142 -5.48918 0.7411025,-2.67239 -4.708627 0.08995085,-2.877511 -3.630788 0.2753283,-3.019063 -2.993549 0.4066162,-3.138489 -2.409711 0.5170922,-2.321345 -4.49753 0.1895068,-2.467913 -3.260092 0.3277142,-2.467913 -3.260092 0.3277142,-2.648185 -1.788677 0.6451702,-1.962682 -4.532755 0.3539391,-2.026288 -3.335742 0.5188858,-2.081408 -2.546699 0.6917223,-2.158648 -1.873987 0.8572637,-1.590951 -4.81999 0.5533347,-1.443497 -3.929858 0.7331555,-1.365446 -3.319024 0.8875118,-1.318727 -2.757092 1.02976,-8.199504 -7.039379 0.000876972,-7.628698 -6.718713 0.277382,-7.163882 -6.064485 0.5238556,-6.83443 -5.472286 0.8073625,-6.493145 -5.145437 1.112256,-7.546489 -4.458887 0.3351358,-7.441386 -3.357744 0.5357776,-7.402789 -2.695715 0.7216024,-7.374724 -2.104072 0.8469034,-7.886683 -4.321673 0.428517,-7.82925 -3.062109 0.6291215,-7.787684 -2.254848 0.8680509,-7.755885 -1.558064 1.042919,-8.216194 -4.416962 0.5476189,-8.189249 -3.225305 0.7658214,-8.151096 -2.459896 0.97677,-8.101412 -1.803123 1.118008,-8.551432 -4.717937 0.6875862,-8.631598 -3.789506 0.9247429,-8.656006 -3.170154 1.093182,-8.657918 -2.577136 1.194042,0.010,31  0
-1.883136 -7.389114 -0.1297065,-2.51668 -7.100206 0.09258069,-3.070819 -6.467117 0.2431479,-3.445076 -5.8728 0.4141202,-3.767696 -5.499065 0.6115496,-2.66954 -4.72686 -0.00213255,-2.877639 -3.637732 0.1827383,-3.016931 -3.000293 0.3047734,-3.132007 -2.413913 0.4096938,-2.320796 -4.512059 0.09853521,-2.467432 -3.246444 0.253314,-2.467432 -3.246444 0.253314,-2.643466 -1.7744 0.5699743,-1.965066 -4.550953 0.2638139,-2.022985 -3.343919 0.4483533,-2.080023 -2.555127 0.62884,-2.154875 -1.886579 0.8015238,-1.600269 -4.843366 0.457166,-1.456473 -3.971143 0.6517544,-1.390409 -3.38364 0.8085694,-1.354627 -2.853972 0.9495873,-8.200768 -7.049793 0.001694703,-7.63778 -6.730903 0.2828208,-7.17203 -6.078434 0.5337211,-6.844006 -5.477945 0.8193394,-6.509329 -5.121537 1.116714,-7.566278 -4.469066 0.3472031,-7.460007 -3.364593 0.5358654,-7.422201 -2.701705 0.7107269,-7.395477 -2.115545 0.8303885,-7.905813 -4.330894 0.4358727,-7.847566 -3.063377 0.6346133,-7.80919 -2.255558 0.8680496,-7.77873 -1.564209 1.042201,-8.231266 -4.428266 0.5496299,-8.205893 -3.233291 0.7612408,-8.167665 -2.463569 0.9687239,-8.117001 -1.809926 1.110374,-8.560445 -4.732536 0.6831913,-8.648416 -3.804677 0.9114652,-8.67697 -3.198711 1.078598,-8.682803 -2.623223 1.180088,0.110,31  0
-1.871252 -7.431695 -0.1030574,-2.491549 -7.097221 0.1419811,-3.0364 -6.46824 0.2983534,-3.412905 -5.879829 0.4690138,-3.721699 -5.531791 0.679156,-2.604126 -4.743553 0.03468268,-2.827423 -3.652025 0.2288091,-2.974107 -3.006608 0.3653404,-3.096331 -2.421705 0.4863812,-2.260261 -4.539983 0.1260639,-2.421596 -3.274475 0.2737879,-2.421596 -3.274475 0.2737879,-2.622766 -1.759603 0.6033446,-1.907969 -4.581077 0.2725497,-1.965902 -3.360978 0.4391331,-2.023264 -2.571012 0.6107277,-2.106285 -1.898666 0.7770849,-1.548901 -4.864355 0.4587346,-1.403211 -3.954058 0.6352426,-1.33127 -3.348833 0.7841243,-1.297109 -2.795293 0.9202335,-8.239139 -7.053297 -0.02365794,-7.686533 -6.739229 0.2634525,-7.227777 -6.097509 0.5195122,-6.903769 -5.494146 0.8033787,-6.570758 -5.160413 1.100541,-7.60676 -4.49487 0.3082694,-7.504394 -3.406887 0.4841617,-7.467162 -2.753082 0.6510885,-7.437305 -2.190517 0.7718555,-7.946692 -4.337774 0.3866251,-7.882586 -3.069554 0.5763127,-7.833914 -2.266483 0.7984177,-7.791005 -1.578023 0.9744725,-8.273945 -4.410065 0.4902895,-8.232861 -3.214772 0.679244,-8.182968 -2.456465 0.8580341,-8.121639 -1.818705 0.9845954,-8.607834 -4.684076 0.6192054,-8.696186 -3.755455 0.8192496,-8.729476 -3.147562 0.9617066,-8.742041 -2.583181 1.054637,0.210,31  0
-1.814415 -7.421896 -0.09598294,-2.436425 -7.101198 0.1270631,-2.972016 -6.430168 0.2544619,-3.343315 -5.824861 0.396087,-3.656164 -5.473346 0.5688398,-2.525708 -4.723135 -0.004850201,-2.747875 -3.608841 0.1519402,-2.893031 -2.956317 0.2669777,-3.01103 -2.365937 0.3799405,-2.179729 -4.520864 0.07066141,-2.330029 -3.2442 0.1968552,-2.330029 -3.2442 0.1968552,-2.512746 -1.715152 0.522135,-1.832602 -4.56273 0.2044646,-1.880442 -3.341579 0.3509939,-1.939879 -2.549148 0.5155358,-2.021571 -1.868689 0.6748296,-1.480437 -4.846746 0.3716064,-1.331224 -3.947597 0.527359,-1.255317 -3.349446 0.6692591,-1.216988 -2.798706 0.8027716,-8.254951 -7.050457 0.02614092,-7.700247 -6.728729 0.3110464,-7.245097 -6.074855 0.5689053,-6.924723 -5.472037 0.8580434,-6.598571 -5.124547 1.157008,-7.641665 -4.459853 0.3452761,-7.544371 -3.371431 0.5180817,-7.50844 -2.723873 0.6905066,-7.479726 -2.163751 0.8172707,-7.979841 -4.317846 0.4310614,-7.920979 -3.056039 0.6162403,-7.876687 -2.261803 0.8414088,-7.836782 -1.580936 1.020508,-8.303746 -4.407217 0.5427563,-8.270334 -3.218346 0.7336341,-8.222565 -2.456728 0.9237943,-8.159631 -1.808583 1.058393,-8.633011 -4.701076 0.6789182,-8.723681 -3.780229 0.8788012,-8.755867 -3.182386 1.025171,-8.765803 -2.621992 1.118718,0.310,31  0
-1.804676 -7.420209 -0.09768548,-2.432905 -7.105876 0.1104672,-2.967855 -6.439069 0.2289258,-3.333111 -5.813024 0.3702869,-3.651389 -5.439352 0.5555577,-2.519676 -4.723481 -0.06322064,-2.74582 -3.647384 0.08472161,-2.880553 -3.000788 0.1842365,-2.981925 -2.399229 0.2777298,-2.172064 -4.517748 0.02404592,-2.307108 -3.236061 0.1368087,-2.307108 -3.236061 0.1368087,-2.452437 -1.733883 0.4284199,-1.826116 -4.559663 0.1786708,-1.857971 -3.337051 0.3017897,-1.900583 -2.549968 0.4756504,-1.96311 -1.871771 0.6417153,-1.477281 -4.846315 0.3664233,-1.337573 -3.949525 0.5015681,-1.269393 -3.344787 0.6459436,-1.233704 -2.784384 0.7823452,-8.287502 -7.08797 0.02136265,-7.720658 -6.771558 0.2774358,-7.270186 -6.116769 0.5141524,-6.958108 -5.498096 0.7889172,-6.633923 -5.150611 1.078841,-7.669915 -4.499269 0.2987497,-7.57583 -3.411863 0.4558589,-7.546152 -2.755614 0.6216942,-7.525859 -2.179471 0.7367931,-8.004647 -4.351136 0.3804452,-7.956695 -3.089813 0.5434015,-7.919365 -2.286615 0.7523714,-7.884629 -1.614876 0.908496,-8.325449 -4.4388 0.4877689,-8.307564 -3.247372 0.6628059,-8.270962 -2.484063 0.847385,-8.218864 -1.850167 0.971308,-8.650367 -4.732696 0.6174747,-8.747298 -3.800739 0.8226799,-8.780422 -3.182533 0.9787791,-8.789549 -2.610033 1.070672,0.410,31  0
-1.810932 -7.417974 -0.01884759,-2.430374 -7.097581 0.2286339,-2.966992 -6.436162 0.3816581,-3.336691 -5.820922 0.5532615,-3.655713 -5.439367 0.7657646,-2.529638 -4.691661 0.0991521,-2.758091 -3.586536 0.2911566,-2.89699 -2.925943 0.435348,-2.999037 -2.320705 0.5563809,-2.18462 -4.49798 0.183747,-2.336258 -3.209688 0.3230376,-2.336258 -3.209688 0.3230376,-2.497646 -1.662665 0.6495144,-1.83487 -4.550316 0.3300901,-1.886561 -3.321641 0.4768058,-1.940885 -2.526427 0.6418164,-2.011914 -1.840372 0.8057887,-1.476069 -4.844173 0.513541,-1.334538 -3.938851 0.6743321,-1.264147 -3.335525 0.8150942,-1.22204 -2.776227 0.9412476,-8.296926 -7.095413 -0.01666,-7.739189 -6.767904 0.2407067,-7.296014 -6.125553 0.4848704,-6.990737 -5.519304 0.7691159,-6.67493 -5.16036 1.06595,-7.689874 -4.513159 0.2607917,-7.600142 -3.410102 0.4293716,-7.566419 -2.754234 0.60496,-7.538428 -2.177915 0.7269228,-8.026167 -4.37034 0.3572004,-7.980496 -3.097118 0.5343883,-7.938489 -2.296827 0.7542492,-7.899673 -1.615329 0.9165989,-8.347092 -4.460994 0.4808079,-8.327713 -3.255537 0.6651879,-8.284098 -2.49093 0.860258,-8.223572 -1.840256 0.9966409,-8.672748 -4.757347 0.6264781,-8.767893 -3.829231 0.8401909,-8.7944 -3.214994 1.000483,-8.792183 -2.634634 1.096967,0.510,31  0
-1.034734 -7.438388 -0.03008124,-1.886243 -7.180696 0.08635993,-2.441986 -6.400899 0.2456219,-2.861777 -5.689746 0.388598,-3.29844 -5.234386 0.5086961,-2.036015 -4.683168 -0.07799982,-2.269624 -3.633247 0.09059039,-2.33516 -2.862706 0.1946204,-2.428845 -2.169518 0.3834153,-1.587569 -4.45113 0.008599654,-1.708055 -3.223131 0.1695081,-1.708055 -3.223131 0.1695081,-1.740949 -1.442647 0.4950365,-1.163126 -4.631984 0.2015531,-1.15462 -3.322822 0.3976395,-1.131864 -2.392217 0.6136422,-1.168636 -1.614126 0.8079967,-0.741467 -4.992739 0.4381629,-0.5346737 -4.02021 0.6116282,-0.4243879 -3.340384 0.822378,-0.3946333 -2.693466 0.9833499,-8.309816 -7.11001 0.001820334,-7.365269 -6.805297 0.257148,-6.849964 -6.0921 0.554445,-5.927456 -5.573245 0.8783336,-5.489136 -5.062322 1.288587,-6.510524 -4.496509 0.4198185,-6.326994 -3.423574 0.4621751,-6.27738 -2.667953 0.7127478,-6.229015 -1.989805 0.9005823,-6.95896 -4.302308 0.4425571,-6.809757 -3.111396 0.6170307,-7.027695 -2.212972 0.9114785,-7.003466 -1.436975 1.128231,-7.398851 -4.534706 0.4551135,-7.50702 -3.287183 0.6631358,-7.508767 -2.431417 0.8968785,-7.446164 -1.701668 1.106094,-7.877107 -4.877363 0.5394052,-8.155407 -3.914579 0.8469799,-8.176016 -3.202093 1.023591,-8.157331 -2.520232 1.129614,0.610,31  0
-1.037935 -7.434172 -0.04803628,-1.885464 -7.178267 0.03317966,-2.435063 -6.388677 0.1734312,-2.848265 -5.688669 0.3070806,-3.273613 -5.245519 0.4073575,-2.017856 -4.669923 -0.1306408,-2.244238 -3.610385 0.03522675,-2.31566 -2.842659 0.1416197,-2.419338 -2.156671 0.3309663,-1.572277 -4.449872 -0.0251501,-1.679653 -3.216585 0.1540707,-1.679653 -3.216585 0.1540707,-1.713938 -1.426921 0.5007489,-1.15322 -4.628545 0.1846684,-1.137159 -3.327976 0.3789574,-1.111248 -2.402303 0.5836995,-1.150269 -1.61988 0.7681324,-0.7361555 -4.97966 0.4381889,-0.5254331 -4.015666 0.5971765,-0.4081225 -3.335497 0.7945122,-0.3681107 -2.687773 0.9465299,-8.319547 -7.113565 0.01518689,-7.370264 -6.821062 0.2445581,-6.859174 -6.091512 0.5212353,-5.945415 -5.571558 0.8340935,-5.515665 -5.067642 1.22876,-6.522791 -4.490741 0.3752288,-6.341905 -3.426881 0.3997079,-6.293666 -2.677973 0.6431503,-6.249729 -2.006899 0.8249068,-6.967793 -4.294747 0.4034301,-6.827351 -3.110041 0.5502051,-7.048668 -2.211816 0.8310161,-7.025183 -1.44349 1.032661,-7.404379 -4.530847 0.421505,-7.522125 -3.287258 0.6116509,-7.52589 -2.430957 0.8407398,-7.464897 -1.70751 1.04401,-7.879574 -4.878112 0.5094566,-8.160247 -3.911545 0.8039837,-8.178539 -3.198036 0.9744986,-8.15555 -2.525749 1.067229,0.710,31  0
-0.9767094 -7.466549 0.05734297,-1.837672 -7.242504 0.2140213,-2.374568 -6.436805 0.3678639,-2.774727 -5.706031 0.5050782,-3.220088 -5.26955 0.5973859,-1.996906 -4.688402 0.0437759,-2.221328 -3.642493 0.2179607,-2.290112 -2.878153 0.3252183,-2.388247 -2.19141 0.5150923,-1.545056 -4.455869 0.1133983,-1.658844 -3.237765 0.284324,-1.658844 -3.237765 0.284324,-1.69695 -1.473135 0.6218426,-1.121957 -4.640996 0.2834447,-1.107622 -3.355572 0.4847844,-1.091928 -2.436273 0.7061105,-1.132459 -1.658027 0.9092935,-0.7010155 -5.007812 0.5050284,-0.5062666 -4.053327 0.688069,-0.4091768 -3.387106 0.9044041,-0.3907328 -2.756222 1.070706,-8.376122 -7.1285 0.01994323,-7.428827 -6.834033 0.2440338,-6.907797 -6.102952 0.5098374,-5.987823 -5.583152 0.8120654,-5.56439 -5.07226 1.191785,-6.559455 -4.508682 0.3617955,-6.372821 -3.453289 0.3790362,-6.325192 -2.712201 0.6093118,-6.283607 -2.048513 0.7823192,-7.007868 -4.307549 0.3890285,-6.861187 -3.14098 0.5372585,-7.100506 -2.252951 0.8290176,-7.082862 -1.485675 1.040875,-7.447867 -4.539648 0.4086815,-7.569346 -3.322063 0.6008194,-7.584767 -2.476714 0.8384874,-7.526857 -1.76247 1.053793,-7.92559 -4.882156 0.4956711,-8.206889 -3.939446 0.7898411,-8.235844 -3.244665 0.9626215,-8.221894 -2.580389 1.063864,0.810,31  0
-1.745098 -7.498531 0.176475,-2.361347 -7.177066 0.4116207,-2.872808 -6.472079 0.5439683,-3.200148 -5.817276 0.7023292,-3.534255 -5.442594 0.9068779,-2.467558 -4.707075 0.2358011,-2.702669 -3.618636 0.3998611,-2.841548 -2.964868 0.5099008,-2.940018 -2.364966 0.6049832,-2.115387 -4.518339 0.3183858,-2.276485 -3.2352 0.4494174,-2.276485 -3.2352 0.4494174,-2.443388 -1.720456 0.7653965,-1.765416 -4.583663 0.469431,-1.82088 -3.358162 0.621599,-1.884809 -2.576327 0.8093598,-1.961221 -1.896103 0.9836277,-1.407429 -4.895231 0.6575948,-1.30058 -3.993174 0.8291543,-1.263074 -3.405263 0.9928064,-1.255965 -2.861735 1.138341,-8.3965 -7.155756 0.04109752,-7.829296 -6.817714 0.3333125,-7.380512 -6.155576 0.584255,-7.084484 -5.54034 0.8672159,-6.773036 -5.16315 1.152395,-7.771735 -4.55723 0.319285,-7.678512 -3.483055 0.5014198,-7.648647 -2.845376 0.6838413,-7.626443 -2.279803 0.8101941,-8.116261 -4.410589 0.3819288,-8.075194 -3.201196 0.5609131,-8.057687 -2.452305 0.7881626,-8.042122 -1.806403 0.9562858,-8.438864 -4.48528 0.4801593,-8.431606 -3.346712 0.6652328,-8.4119 -2.631809 0.8471266,-8.377953 -2.023616 0.9669516,-8.769034 -4.754167 0.6009886,-8.849534 -3.853293 0.7950842,-8.878016 -3.258029 0.934791,-8.88448 -2.691539 1.015678,0.910,31  0
-1.709517 -7.587894 0.2421048,-2.316948 -7.239994 0.4552032,-2.813712 -6.508304 0.5711352,-3.126763 -5.814632 0.7214059,-3.448833 -5.362661 0.9183781,-2.407043 -4.770777 0.2271771,-2.640541 -3.698754 0.3582882,-2.776021 -3.058286 0.4422752,-2.869574 -2.467838 0.518803,-2.064585 -4.58447 0.3136293,-2.201788 -3.304424 0.4166482,-2.201788 -3.304424 0.4166482,-2.350368 -1.81561 0.6934135,-1.721403 -4.644533 0.4732476,-1.757681 -3.410644 0.5944455,-1.816125 -2.640238 0.779059,-1.884737 -1.968708 0.9489645,-1.368864 -4.942461 0.6694119,-1.270171 -4.018913 0.8169006,-1.243459 -3.425369 0.9838175,-1.248005 -2.883197 1.135539,-8.428041 -7.173828 0.01995376,-7.861216 -6.832857 0.318467,-7.419541 -6.161491 0.5688605,-7.138407 -5.547077 0.8473107,-6.847161 -5.166776 1.122482,-7.813052 -4.573937 0.3198863,-7.724542 -3.512047 0.5172668,-7.696517 -2.883054 0.7036074,-7.674716 -2.318191 0.8320077,-8.158598 -4.436132 0.3797478,-8.126273 -3.255022 0.5610893,-8.10792 -2.526246 0.7844676,-8.088728 -1.883106 0.9462547,-8.483317 -4.521837 0.4770804,-8.481394 -3.397887 0.6634595,-8.465382 -2.699366 0.8487056,-8.437725 -2.096736 0.9700432,-8.813137 -4.798625 0.5935573,-8.893397 -3.916394 0.7872378,-8.921074 -3.327936 0.9296157,-8.928728 -2.76546 1.014902,1.010,31  0
-1.66493 -7.613632 0.1324374,-2.285167 -7.262243 0.3007629,-2.781559 -6.524938 0.4038631,-3.099396 -5.841304 0.5523553,-3.433619 -5.388113 0.751017,-2.381551 -4.823046 0.1086773,-2.605668 -3.730733 0.2559155,-2.738508 -3.074434 0.3537176,-2.828876 -2.469607 0.4332519,-2.042696 -4.645307 0.2291486,-2.197362 -3.342851 0.3565473,-2.197362 -3.342851 0.3565473,-2.369273 -1.854695 0.6466884,-1.698551 -4.705126 0.4254696,-1.748333 -3.441316 0.5736324,-1.817587 -2.656518 0.770898,-1.888372 -1.970236 0.9556817,-1.34136 -5.003978 0.6493765,-1.259796 -4.058955 0.8178814,-1.251659 -3.447317 0.9983488,-1.265408 -2.879556 1.16754,-8.480536 -7.22145 -0.01681709,-7.935086 -6.86794 0.29209,-7.490569 -6.197885 0.5426033,-7.209448 -5.591177 0.8167521,-6.915714 -5.204214 1.096878,-7.910335 -4.610097 0.2486787,-7.803486 -3.569494 0.4298001,-7.766491 -2.955298 0.6033567,-7.743827 -2.390991 0.7256957,-8.256701 -4.484611 0.296946,-8.225859 -3.374679 0.4424702,-8.219569 -2.708197 0.63899,-8.212888 -2.131911 0.7819377,-8.575375 -4.569511 0.3925368,-8.583031 -3.502347 0.5501311,-8.587791 -2.847497 0.7369704,-8.576223 -2.281841 0.8686054,-8.897821 -4.841182 0.5113302,-8.974398 -4.000905 0.6757588,-9.006316 -3.434949 0.8076437,-9.011992 -2.897452 0.8994765,1.110,31  0
-1.663525 -7.620264 0.1544174,-2.270223 -7.264226 0.3704219,-2.758604 -6.552343 0.4968452,-3.063028 -5.867069 0.6687891,-3.387975 -5.394636 0.8953586,-2.367327 -4.820627 0.1947341,-2.601135 -3.747942 0.347284,-2.740011 -3.098749 0.438358,-2.840884 -2.49706 0.5085547,-2.023792 -4.644887 0.2879417,-2.181918 -3.346543 0.4144741,-2.181918 -3.346543 0.4144741,-2.357851 -1.880968 0.6908342,-1.683137 -4.703983 0.4560625,-1.734099 -3.456087 0.6033038,-1.800679 -2.679492 0.8009615,-1.87497 -2.002926 0.9814923,-1.336227 -4.99555 0.6564898,-1.256709 -4.062322 0.8211678,-1.249737 -3.456377 0.9969071,-1.267242 -2.899381 1.155969,-8.528556 -7.27028 -0.07938306,-7.973199 -6.903139 0.2331542,-7.52806 -6.228097 0.4644827,-7.240896 -5.60303 0.7101006,-6.943222 -5.18016 0.9562407,-7.952078 -4.67265 0.1653745,-7.834714 -3.648143 0.3399112,-7.794942 -3.046766 0.5083835,-7.769865 -2.498059 0.6227879,-8.313962 -4.547243 0.2021585,-8.299202 -3.49579 0.3418972,-8.316645 -2.904001 0.5349377,-8.330902 -2.437148 0.6710142,-8.637855 -4.640717 0.2939536,-8.66813 -3.638435 0.4294666,-8.682142 -3.050892 0.6111194,-8.674864 -2.562631 0.7397699,-8.951982 -4.920881 0.4090125,-9.031597 -4.137928 0.5718392,-9.061291 -3.611445 0.7177133,-9.056059 -3.116229 0.8272808,1.210,31  0
-1.642301 -7.656774 0.1300357,-2.261999 -7.298905 0.3326316,-2.755959 -6.58875 0.4522583,-3.055831 -5.899271 0.6199551,-3.374792 -5.415845 0.8411728,-2.364866 -4.869535 0.1268664,-2.593121 -3.790893 0.2665937,-2.721916 -3.143186 0.3505507,-2.812433 -2.533845 0.4153234,-2.018318 -4.68889 0.2247771,-2.178234 -3.39867 0.3386856,-2.178234 -3.39867 0.3386856,-2.348206 -1.9402 0.6037918,-1.674441 -4.742639 0.4025774,-1.720903 -3.50377 0.5391378,-1.782254 -2.725081 0.7379917,-1.847698 -2.042222 0.9202355,-1.32113 -5.032741 0.6109833,-1.248248 -4.098909 0.7711589,-1.247998 -3.501744 0.947193,-1.268678 -2.955136 1.108282,-8.582885 -7.209793 -0.3325649,-8.038042 -6.909574 0.01870644,-7.600909 -6.243591 0.2605515,-7.311265 -5.634933 0.50372,-7.021968 -5.140445 0.7533888,-8.007144 -4.666927 -0.1368769,-7.881807 -3.711756 0.01330677,-7.858334 -3.136582 0.1927683,-7.841575 -2.623118 0.3095229,-8.376584 -4.553007 -0.1144633,-8.387665 -3.627449 0.05855376,-8.436632 -3.19559 0.312803,-8.455648 -2.96646 0.491097,-8.704013 -4.659343 -0.02388757,-8.760324 -3.815769 0.1239337,-8.778456 -3.381272 0.3748567,-8.755316 -3.112192 0.5520396,-9.013544 -4.935755 0.1014356,-9.086707 -4.257616 0.2851943,-9.111754 -3.843767 0.501711,-9.074661 -3.506197 0.674374,1.310,31  0
-1.644322 -7.701145 0.1258348,-2.256326 -7.350608 0.3757457,-2.743878 -6.636152 0.5160626,-3.033704 -5.928206 0.6959926,-3.340752 -5.396005 0.928344,-2.352573 -4.913611 0.1871777,-2.580008 -3.823546 0.3455269,-2.714778 -3.156265 0.4408005,-2.806036 -2.53271 0.5157413,-2.005798 -4.73419 0.2597473,-2.168836 -3.432322 0.3889807,-2.168836 -3.432322 0.3889807,-2.343576 -1.955887 0.6583931,-1.662446 -4.787866 0.4123276,-1.714326 -3.547047 0.5523084,-1.778865 -2.763431 0.7506215,-1.844748 -2.079957 0.9393378,-1.31057 -5.073255 0.5956168,-1.240711 -4.115726 0.7606061,-1.239167 -3.501316 0.9477512,-1.258296 -2.942683 1.11184,-8.604908 -7.203559 -0.4592698,-8.055187 -6.958035 -0.06813252,-7.647013 -6.286844 0.1558656,-7.415381 -5.65214 0.3748429,-7.178869 -5.128934 0.5855135,-8.050251 -4.688398 -0.2957773,-7.928535 -3.786778 -0.1819488,-7.915274 -3.20328 0.01113987,-7.918653 -2.717533 0.1784068,-8.414598 -4.577545 -0.3036553,-8.425053 -3.669593 -0.1409368,-8.480292 -3.274123 0.1681185,-8.530985 -3.164325 0.4095296,-8.741235 -4.699169 -0.2442789,-8.803008 -3.871963 -0.09808815,-8.818625 -3.469993 0.2170492,-8.810854 -3.304151 0.4608689,-9.055947 -5.004727 -0.1480144,-9.140723 -4.327915 0.05591434,-9.162563 -3.971577 0.3169863,-9.127563 -3.769476 0.5272743,1.410,31  0
-0.8559694 -7.712882 0.1524704,-1.705582 -7.434416 0.3209815,-2.204565 -6.613749 0.5007747,-2.515722 -5.781588 0.6591878,-2.874485 -5.07392 0.7964943,-1.854392 -4.895717 0.09469765,-2.082681 -3.860477 0.2358969,-2.141661 -3.107913 0.3165811,-2.221644 -2.42979 0.4660464,-1.401459 -4.670787 0.1457658,-1.517281 -3.442729 0.2796871,-1.517281 -3.442729 0.2796871,-1.541236 -1.726835 0.5650764,-0.9776711 -4.857841 0.3022668,-0.9770703 -3.546197 0.4670959,-0.9711146 -2.625597 0.6918672,-1.010854 -1.853649 0.916033,-0.549499 -5.198041 0.5143313,-0.4187179 -4.194153 0.6691637,-0.3577394 -3.513023 0.9024468,-0.3791184 -2.8834 1.098186,-8.617098 -7.210392 -0.5422947,-7.683409 -7.011692 -0.1952969,-7.225195 -6.273633 0.05647454,-6.395193 -5.719723 0.2982169,-6.056883 -5.022168 0.6061497,-6.872512 -4.774477 -0.3671396,-6.679896 -3.809545 -0.3284948,-6.621909 -3.124797 -0.05620311,-6.591974 -2.567358 0.1945263,-7.326397 -4.60534 -0.4077894,-7.278566 -3.628904 -0.2588966,-7.550014 -3.183757 0.136461,-7.594198 -3.063062 0.4879242,-7.797899 -4.792896 -0.4317541,-7.992548 -3.862419 -0.2936747,-8.049952 -3.384272 0.05810585,-8.012661 -3.198902 0.393616,-8.259171 -5.149058 -0.3822646,-8.541111 -4.409184 -0.1365178,-8.547089 -3.967441 0.1367147,-8.483595 -3.706932 0.3917466,1.510,31  0
-0.8603067 -7.889419 0.1959682,-1.687721 -7.543157 0.3922927,-2.140231 -6.700847 0.5883787,-2.326407 -5.791794 0.7609769,-2.453419 -4.988443 0.8632929,-1.825655 -5.003217 0.1091596,-2.054703 -4.085669 0.322452,-2.148146 -3.442043 0.4530716,-2.241175 -2.899745 0.6065643,-1.342371 -4.816144 0.185654,-1.486477 -3.685249 0.3180714,-1.486477 -3.685249 0.3180714,-1.514781 -2.000251 0.6699018,-0.9244962 -5.032399 0.3158393,-0.9568496 -3.845311 0.4871646,-0.9655151 -3.016725 0.7465951,-1.010248 -2.286757 0.9883007,-0.4922919 -5.403207 0.4772936,-0.4035125 -4.444923 0.6798491,-0.3684711 -3.802191 0.9323338,-0.4134688 -3.17145 1.138527,-8.643648 -7.197137 -0.5623901,-7.711786 -7.006126 -0.2234645,-7.251065 -6.276327 0.01414091,-6.429557 -5.732117 0.2474196,-6.102348 -5.03477 0.5412932,-6.886723 -4.775681 -0.4094068,-6.689417 -3.810621 -0.389555,-6.618849 -3.144839 -0.1433081,-6.573881 -2.60156 0.08824664,-7.343875 -4.613346 -0.4583441,-7.303706 -3.638544 -0.3732461,-7.579344 -3.1485 -0.02817218,-7.637036 -2.969291 0.3019112,-7.817881 -4.784101 -0.4883891,-8.003881 -3.885419 -0.3959212,-8.077257 -3.391357 -0.07178278,-8.0567 -3.211549 0.2654568,-8.288033 -5.146276 -0.4453358,-8.566481 -4.412727 -0.2315826,-8.577657 -3.971903 0.02615818,-8.528147 -3.717649 0.2818493,1.610,31  0
-0.8604469 -7.949254 0.01238359,-1.568971 -7.558387 0.3400658,-2.131138 -6.764385 0.5191382,-2.262521 -5.862693 0.701315,-2.369649 -4.994318 0.9145792,-1.761127 -5.303028 -0.1664921,-1.976871 -4.35449 -0.05679478,-2.035493 -3.750909 0.1523229,-2.09256 -3.315753 0.3877108,-1.27291 -5.091877 -0.08568299,-1.343055 -4.102005 0.08601627,-1.343055 -4.102005 0.08601627,-1.324159 -3.576566 0.8231655,-0.8351693 -5.24603 0.04893113,-0.8394299 -4.264361 0.2532246,-0.7796302 -3.681961 0.7001633,-0.8093343 -3.626073 1.130042,-0.4092183 -5.622413 0.2364208,-0.3128986 -4.799534 0.4842191,-0.321701 -4.357307 0.8786001,-0.4338169 -4.205968 1.282071,-8.646502 -7.134299 -0.6023483,-7.716644 -6.972462 -0.2723528,-7.248446 -6.25638 -0.04275047,-6.425109 -5.709235 0.1855367,-6.101904 -5.015266 0.4859558,-6.885329 -4.725395 -0.5012032,-6.691278 -3.758186 -0.5128275,-6.620752 -3.098226 -0.2903142,-6.579559 -2.559792 -0.08475696,-7.336102 -4.558546 -0.5527058,-7.28573 -3.578693 -0.5244154,-7.547814 -3.037842 -0.2289213,-7.587779 -2.791878 0.04958878,-7.810288 -4.735822 -0.5863223,-7.978029 -3.803284 -0.5248234,-8.046125 -3.309394 -0.2283888,-8.014826 -3.127751 0.08334227,-8.281023 -5.09918 -0.5408477,-8.567026 -4.358819 -0.3566857,-8.580934 -3.923191 -0.1287176,-8.531283 -3.686529 0.09013334,1.710,31  0
-1.451089 -7.971262 -0.613211,-2.090366 -7.585264 -0.3913276,-2.496879 -6.900499 -0.2183121,-2.631458 -6.078595 -0.0470956,-2.705548 -5.332891 0.1008961,-2.237984 -5.415365 -0.5036389,-2.489999 -4.461568 -0.4442565,-2.588537 -3.952217 -0.406963,-2.638053 -3.550861 -0.3870671,-1.839804 -5.218931 -0.5354151,-1.943175 -4.186174 -0.4801989,-1.943175 -4.186174 -0.4801989,-1.954466 -4.031456 -0.332992,-1.477563 -5.30454 -0.5293308,-1.497492 -4.373031 -0.4768417,-1.509988 -4.076803 -0.3021042,-1.51686 -4.077515 -0.1417629,-1.1195 -5.604219 -0.5038375,-1.060767 -4.88997 -0.4040915,-1.088684 -4.617973 -0.2464678,-1.146299 -4.575283 -0.09949911,-8.647692 -7.180433 -0.5198814,-8.100337 -6.95283 -0.1484651,-7.703444 -6.299678 0.05812585,-7.494445 -5.66982 0.2664792,-7.287689 -5.108407 0.4666197,-8.088346 -4.699354 -0.4471003,-7.955802 -3.804356 -0.3744658,-7.913542 -3.235414 -0.2139326,-7.885513 -2.769155 -0.07785296,-8.445295 -4.568563 -0.4698809,-8.453465 -3.664819 -0.4125757,-8.48826 -3.181509 -0.1694221,-8.518503 -2.962373 0.03569084,-8.769768 -4.682948 -0.426499,-8.825823 -3.849065 -0.3536133,-8.847439 -3.441567 -0.09954318,-8.842116 -3.282075 0.1140378,-9.088333 -4.981286 -0.3416472,-9.185442 -4.29063 -0.2163333,-9.207924 -3.949955 -0.01442569,-9.174253 -3.793115 0.1548534,1.810,31  0
-1.436598 -8.162476 -1.691102,-2.062184 -7.646846 -1.401152,-2.433016 -6.898094 -1.155404,-2.530993 -6.06068 -0.9416705,-2.630954 -5.283487 -0.7207581,-2.178325 -5.868927 -1.043506,-2.382956 -4.867183 -0.7244223,-2.518901 -4.296899 -0.5104649,-2.629522 -3.744328 -0.3265241,-1.787812 -5.804681 -1.033371,-1.860358 -4.857147 -0.6359847,-1.860358 -4.857147 -0.6359847,-1.898235 -4.314004 -0.1808583,-1.419538 -5.928989 -1.004377,-1.39767 -5.088726 -0.6446085,-1.408361 -4.709782 -0.3593907,-1.417361 -4.499113 -0.1048717,-1.07336 -6.192444 -0.9672326,-1.028176 -5.49266 -0.6710036,-1.038001 -5.131247 -0.4429365,-1.053967 -4.868229 -0.213822,-8.654509 -7.18955 -0.4820021,-8.102192 -6.97175 -0.1318288,-7.700545 -6.304453 0.05505675,-7.489504 -5.670105 0.2433466,-7.294503 -5.11547 0.4250124,-8.095419 -4.684979 -0.4298197,-7.969507 -3.776586 -0.3653569,-7.932595 -3.20289 -0.2016298,-7.907249 -2.748456 -0.06271598,-8.455762 -4.566311 -0.4487969,-8.461314 -3.638299 -0.4035139,-8.492808 -3.164194 -0.1663812,-8.523402 -2.971768 0.02754086,-8.784641 -4.697599 -0.4041693,-8.839432 -3.837674 -0.3414545,-8.854122 -3.423959 -0.09879178,-8.84194 -3.265569 0.1068364,-9.107628 -5.014364 -0.3200681,-9.208763 -4.310969 -0.2028826,-9.235292 -3.960503 -0.0128116,-9.205347 -3.792337 0.1418,1.910,31  0
-1.427381 -8.167292 -2.98416,-2.054615 -7.627695 -2.791892,-2.407732 -6.932695 -2.518132,-2.511105 -6.153993 -2.32976,-2.586142 -5.471979 -2.169813,-2.106862 -6.466908 -1.853082,-2.295897 -5.344572 -1.476386,-2.42394 -4.629955 -1.314048,-2.539926 -4.052832 -1.176201,-1.706422 -6.417756 -1.850268,-1.779349 -5.145011 -1.452506,-1.779349 -5.145011 -1.452506,-1.849071 -5.052154 -1.543312,-1.32326 -6.481931 -1.867088,-1.315278 -5.308494 -1.503379,-1.383113 -5.230236 -1.516554,-1.447041 -5.400191 -1.561096,-0.9788957 -6.631553 -1.901167,-0.9102325 -5.715299 -1.588197,-0.9652052 -5.367467 -1.514473,-1.037813 -5.220541 -1.469507,-8.679152 -7.211726 -0.4360671,-8.122066 -6.99077 -0.08999205,-7.714741 -6.334287 0.09013993,-7.497624 -5.689726 0.269455,-7.307365 -5.122596 0.435794,-8.112239 -4.702575 -0.4151771,-7.981437 -3.788284 -0.3616454,-7.943151 -3.208724 -0.2130055,-7.920075 -2.740209 -0.08856112,-8.465886 -4.57623 -0.4437459,-8.462371 -3.645598 -0.4244565,-8.492107 -3.173156 -0.2187328,-8.523448 -2.956682 -0.04285675,-8.788996 -4.700094 -0.4045848,-8.837643 -3.844634 -0.3594914,-8.853035 -3.438227 -0.1361611,-8.845804 -3.262165 0.05816352,-9.107271 -5.011913 -0.3250686,-9.206 -4.329259 -0.2242119,-9.234582 -3.988222 -0.04539269,-9.212138 -3.812439 0.1030222,2.010,31  0
-1.37178 -7.919279 -3.177094,-1.911416 -7.628781 -2.662611,-2.290803 -6.940117 -2.296638,-2.422542 -6.21437 -2.015302,-2.580169 -5.543507 -1.764812,-2.063471 -6.312253 -2.068846,-2.191107 -5.559238 -1.411057,-2.306063 -4.965702 -1.036038,-2.434947 -4.401781 -0.7889503,-1.678087 -6.193864 -2.116581,-1.728613 -5.407068 -1.337118,-1.728613 -5.407068 -1.337118,-1.731531 -6.426666 -1.302601,-1.302037 -6.21712 -2.12213,-1.313142 -5.498849 -1.416077,-1.386336 -6.219324 -1.556282,-1.416624 -6.634319 -1.780218,-0.9430814 -6.35247 -2.092944,-0.9234524 -5.698688 -1.631332,-1.043985 -6.140122 -1.678783,-1.103731 -6.517392 -1.80717,-8.674309 -7.213461 -0.4474504,-8.12639 -6.97648 -0.09577248,-7.724679 -6.335075 0.1032342,-7.510294 -5.699461 0.300831,-7.314011 -5.131065 0.4834656,-8.120853 -4.696378 -0.3639263,-7.990681 -3.777528 -0.2845958,-7.955544 -3.198747 -0.1161073,-7.93629 -2.739404 0.01887453,-8.476979 -4.580739 -0.3845276,-8.480525 -3.639577 -0.3227783,-8.518069 -3.183385 -0.08840048,-8.560903 -3.001384 0.1114442,-8.804005 -4.716207 -0.339773,-8.864868 -3.861316 -0.2639658,-8.889446 -3.473171 -0.02216265,-8.894571 -3.324148 0.1849421,-9.12436 -5.038965 -0.259324,-9.234871 -4.350957 -0.1355426,-9.267233 -4.013562 0.05739754,-9.247256 -3.839913 0.2170336,2.110,31  0
-1.361531 -7.809185 -3.255961,-1.904342 -7.672025 -2.614123,-2.273545 -7.048061 -2.110054,-2.392519 -6.335702 -1.784095,-2.538939 -5.682188 -1.514963,-2.034799 -6.923551 -1.386789,-2.159624 -6.050905 -0.5969301,-2.329854 -5.306695 -0.1497308,-2.473199 -4.639453 0.1842684,-1.625833 -6.821434 -1.507079,-1.720694 -5.80227 -0.7568427,-1.720694 -5.80227 -0.7568427,-1.821834 -5.904159 -0.7607821,-1.227478 -6.756424 -1.614562,-1.293904 -5.779678 -0.9261929,-1.382916 -5.954591 -1.040889,-1.434104 -6.145273 -1.159201,-0.8587065 -6.695336 -1.68828,-0.862977 -5.947063 -1.227949,-0.9826479 -5.943951 -1.191028,-1.040738 -6.024503 -1.160601,-8.674183 -7.229183 -0.3844434,-8.131491 -6.992576 -0.04563746,-7.732895 -6.335874 0.1476617,-7.521314 -5.699294 0.3424624,-7.326636 -5.135475 0.5279391,-8.134021 -4.69266 -0.2943488,-8.004194 -3.772866 -0.204645,-7.969877 -3.19223 -0.02793118,-7.948975 -2.732034 0.1164828,-8.486758 -4.578183 -0.3035735,-8.488928 -3.644596 -0.2349786,-8.520167 -3.185737 0.01122743,-8.555166 -2.994359 0.2173721,-8.811054 -4.712249 -0.2519726,-8.870347 -3.859538 -0.1707175,-8.892593 -3.462928 0.07566309,-8.896102 -3.301071 0.2852758,-9.128325 -5.033716 -0.1656999,-9.240746 -4.346332 -0.04183459,-9.273355 -4.007593 0.1502642,-9.253378 -3.83283 0.3084828,2.210,31  0
-1.303295 -8.193672 -2.371109,-1.943176 -7.885963 -2.116025,-2.440619 -7.411066 -1.66411,-2.691502 -6.769648 -1.218737,-2.739738 -6.126396 -0.8309882,-2.190074 -6.662763 -1.15367,-2.302487 -5.545744 -0.4431294,-2.376379 -5.149265 -0.2108995,-2.465202 -5.004795 -0.1342596,-1.707104 -6.363972 -1.074451,-1.693983 -6.015874 -0.3805057,-1.693983 -6.015874 -0.3805057,-1.828675 -6.69421 -0.6750003,-1.261291 -6.306947 -0.9825414,-1.239035 -6.029344 -0.433676,-1.381532 -6.576702 -0.7312186,-1.484545 -6.597276 -0.967876,-0.8909254 -6.332325 -0.8504421,-0.901155 -6.031307 -0.6644148,-1.088097 -6.494558 -0.8065978,-1.212078 -6.568325 -0.9039936,-8.695581 -7.241165 -0.3893403,-8.149806 -7.000488 -0.04422054,-7.74799 -6.340652 0.1357453,-7.531643 -5.698079 0.3174425,-7.337356 -5.136526 0.4835582,-8.142788 -4.706222 -0.3369366,-8.006358 -3.784666 -0.2658499,-7.968842 -3.203306 -0.1089275,-7.947663 -2.731742 0.01648036,-8.495155 -4.591346 -0.3671393,-8.491821 -3.65449 -0.335306,-8.528717 -3.192799 -0.1214221,-8.569391 -2.975994 0.05895498,-8.817535 -4.724472 -0.3298863,-8.871724 -3.873015 -0.2783088,-8.896143 -3.472493 -0.05823347,-8.903051 -3.28653 0.1332635,-9.132792 -5.042686 -0.2559142,-9.241351 -4.369085 -0.1620734,-9.277603 -4.026315 0.01199147,-9.265186 -3.82966 0.1544141,2.310,31  0
-1.244217 -8.14625 -2.654728,-1.823915 -7.732834 -2.148346,-2.198452 -7.1954 -1.63987,-2.35801 -6.507902 -1.21093,-2.478635 -5.852211 -0.8589371,-1.994039 -6.594587 -1.249162,-2.035173 -5.97895 -0.4300953,-2.166328 -5.581758 -0.1300627,-2.33341 -5.16739 0.01636183,-1.58174 -6.463066 -1.282605,-1.578655 -6.039266 -0.4704868,-1.578655 -6.039266 -0.4704868,-1.745347 -6.646799 -0.6445812,-1.183785 -6.521869 -1.286347,-1.162222 -6.14001 -0.5472604,-1.304423 -6.639352 -0.9352453,-1.399746 -6.588857 -1.30651,-0.8355722 -6.699804 -1.259633,-0.7847862 -6.308879 -0.7809129,-0.9434114 -6.586343 -0.9366267,-1.031464 -6.549422 -1.109452,-8.703022 -7.251081 -0.4455402,-8.15172 -7.022129 -0.09349573,-7.753368 -6.355886 0.09939599,-7.541903 -5.703908 0.2901232,-7.346352 -5.13835 0.4705241,-8.162989 -4.731256 -0.3606881,-8.036568 -3.799303 -0.2625842,-8.002759 -3.213384 -0.0672636,-7.984788 -2.749483 0.09069884,-8.514917 -4.617141 -0.3816785,-8.524606 -3.666538 -0.2934335,-8.568545 -3.209397 -0.02655467,-8.613585 -3.03137 0.1968365,-8.835022 -4.740521 -0.3373726,-8.906604 -3.878207 -0.2515293,-8.939759 -3.488836 -0.0004098415,-8.953071 -3.337486 0.2118297,-9.145133 -5.045131 -0.2576329,-9.261089 -4.349545 -0.1334827,-9.298357 -4.02236 0.06015611,-9.284862 -3.861337 0.2209569,2.410,31  0
-1.194695 -7.850963 -3.254848,-1.758719 -7.743913 -2.646376,-2.154251 -7.34098 -2.0632,-2.34287 -6.780491 -1.626456,-2.552292 -6.253779 -1.248755,-1.927744 -7.363925 -1.281369,-2.025928 -6.623484 -0.3634739,-2.234101 -5.932363 0.07259989,-2.428062 -5.234937 0.3723004,-1.504841 -7.283018 -1.334684,-1.582164 -6.359837 -0.4006367,-1.582164 -6.359837 -0.4006367,-1.939805 -5.488184 -0.1048968,-1.107256 -7.174528 -1.402367,-1.116949 -6.253362 -0.6054981,-1.309234 -5.938533 -0.642858,-1.478013 -5.688034 -0.7451508,-0.7545948 -7.070665 -1.461764,-0.7260456 -6.339865 -0.9716856,-0.875226 -6.010126 -0.9306729,-0.9984579 -5.715209 -0.9248924,-8.696259 -7.267392 -0.3795219,-8.141977 -7.030595 -0.02618787,-7.750268 -6.363395 0.169273,-7.546478 -5.718351 0.3664679,-7.35498 -5.1422 0.5547425,-8.159167 -4.730501 -0.2912341,-8.030893 -3.806131 -0.19638,-7.99482 -3.226182 -0.005803853,-7.973276 -2.769205 0.1489279,-8.510068 -4.614596 -0.3089347,-8.522258 -3.678747 -0.2319371,-8.571017 -3.210516 0.03139171,-8.620961 -3.023668 0.257815,-8.83072 -4.744897 -0.2613067,-8.902557 -3.890293 -0.1801617,-8.944604 -3.50331 0.06915009,-8.96889 -3.363402 0.2843255,-9.141994 -5.060056 -0.1779913,-9.257648 -4.35363 -0.05941561,-9.29658 -4.020666 0.1331105,-9.287135 -3.857855 0.2963803,2.510,31  0
-0.4449382 -7.773365 -3.352115,-1.124428 -7.282328 -2.55584,-1.561562 -6.84321 -1.773715,-1.803361 -6.117946 -1.184758,-1.884477 -5.379325 -0.6202424,-1.077967 -7.184934 -0.9147702,-1.108293 -6.509108 0.1866608,-1.178975 -5.626787 0.853381,-1.375061 -4.52754 1.105101,-0.3357306 -7.430497 -1.082778,-0.2014446 -6.514362 -0.02673953,-0.2014446 -6.514362 -0.02673953,-0.6095295 -4.943394 0.3569068,0.3137012 -7.319059 -1.152266,0.5112634 -6.558057 -0.1591021,0.2839441 -5.85308 -0.1090893,-0.0198288 -5.201341 -0.1194123,1.006314 -7.409021 -1.291782,1.170482 -6.755725 -0.5666121,1.020017 -6.147462 -0.2241596,0.836206 -5.462306 -0.05919136,-8.698068 -7.265264 -0.4181453,-7.379314 -7.097814 -0.1229117,-6.862235 -6.306301 0.1395931,-5.422028 -5.839671 0.408479,-4.997668 -4.975945 0.8175315,-5.769109 -4.801069 -0.2230869,-5.499866 -3.797908 -0.2862588,-5.397419 -3.046735 0.005423678,-5.332141 -2.418987 0.2811495,-6.304857 -4.605712 -0.314923,-6.176308 -3.558877 -0.2522089,-6.729294 -3.011229 0.1020065,-6.788946 -2.677909 0.4614207,-6.916965 -4.875711 -0.432555,-7.216698 -3.851058 -0.3583751,-7.361636 -3.283542 -0.04049389,-7.35395 -3.056028 0.3589611,-7.534434 -5.29277 -0.4422193,-8.016668 -4.497449 -0.1967337,-8.032486 -3.961201 0.02993937,-7.995499 -3.60986 0.2761313,2.610,31  0
-0.8540478 -7.900981 -1.602381,-1.547055 -7.658238 -1.06519,-2.160663 -7.334323 -0.3781988,-2.491063 -6.727991 0.2085183,-2.357853 -6.078432 0.6690446,-1.644343 -6.406509 0.3192752,-1.615479 -5.854587 1.320164,-1.654859 -5.544081 1.619926,-1.758585 -5.237019 1.564843,-0.979188 -5.999946 0.2688455,-0.8410425 -6.339687 1.331556,-0.8410425 -6.339687 1.331556,-1.169661 -6.71738 0.709342,-0.326745 -5.955323 0.3201169,-0.281425 -6.343397 1.166661,-0.5216556 -6.863507 0.6767714,-0.7490864 -6.583479 0.2072815,0.1794634 -6.088851 0.3960554,0.2174873 -6.279645 0.7207674,-0.09429121 -6.717926 0.5099821,-0.35783 -6.566444 0.3001184,-8.704411 -7.257381 -0.43651,-7.771599 -7.072502 -0.1137005,-7.309654 -6.344466 0.1146386,-6.487988 -5.798259 0.3428534,-6.17836 -5.084632 0.6389109,-6.959949 -4.784072 -0.2952316,-6.759379 -3.813093 -0.2693282,-6.689768 -3.150918 -0.02668396,-6.64879 -2.621056 0.1838682,-7.409034 -4.610878 -0.3505567,-7.358623 -3.623316 -0.2836912,-7.654995 -3.099802 0.03161249,-7.723999 -2.864246 0.3364798,-7.88166 -4.815087 -0.3891118,-8.069139 -3.867466 -0.3118176,-8.16542 -3.395935 -0.02915597,-8.180503 -3.226907 0.2804324,-8.350177 -5.194047 -0.3548063,-8.64539 -4.435678 -0.1755335,-8.677312 -4.002906 0.04144925,-8.663784 -3.753993 0.2553356,2.710,31  0
-0.7639313 -8.052975 -2.884891,-1.403066 -7.644222 -2.202582,-1.886298 -7.310301 -1.500446,-2.196161 -6.766872 -0.8758228,-2.258233 -6.106095 -0.3718404,-1.484963 -6.687288 -1.058468,-1.444465 -6.05904 -0.04242251,-1.513329 -5.624205 0.3429863,-1.606091 -5.20087 0.4383599,-0.8460054 -6.70013 -1.160373,-0.7301931 -6.200016 -0.002352614,-0.7301931 -6.200016 -0.002352614,-1.119748 -6.524753 -0.2078522,-0.2850423 -6.725812 -1.175233,-0.1951141 -6.273628 -0.1309227,-0.4259944 -6.624013 -0.5707684,-0.6748447 -6.358751 -1.061718,0.1942992 -6.927537 -1.13311,0.361186 -6.401432 -0.4641706,0.08197355 -6.464891 -0.5665163,-0.140914 -6.189817 -0.7558907,-8.702353 -7.285872 -0.4127567,-7.774796 -7.092574 -0.06935916,-7.320499 -6.351089 0.1731368,-6.497486 -5.807534 0.4041436,-6.183298 -5.104742 0.702208,-6.976882 -4.789197 -0.2468598,-6.786539 -3.817269 -0.2137074,-6.725572 -3.151141 0.04441655,-6.700632 -2.615043 0.2756321,-7.425053 -4.633527 -0.3058345,-7.372122 -3.648361 -0.215198,-7.668221 -3.152517 0.1287687,-7.739626 -2.927698 0.4421334,-7.896955 -4.845144 -0.3488598,-8.078791 -3.906822 -0.2523011,-8.174445 -3.420344 0.04755221,-8.186027 -3.213659 0.36419,-8.363519 -5.220352 -0.3184976,-8.661211 -4.487493 -0.1216566,-8.70343 -4.043284 0.1049672,-8.695571 -3.754298 0.3216461,2.810,31  0
-1.054523 -8.161566 -3.516991,-1.633487 -7.79006 -2.941412,-2.007911 -7.281586 -2.392205,-2.172631 -6.626014 -1.9631,-2.290709 -6.065032 -1.597341,-1.774158 -7.314157 -1.757092,-1.835853 -6.531011 -0.9408275,-1.935057 -5.956645 -0.6177794,-2.045472 -5.452661 -0.4228413,-1.346884 -7.280875 -1.800425,-1.304193 -6.40724 -0.9501519,-1.304193 -6.40724 -0.9501519,-1.612354 -5.830013 -0.8271078,-0.9514551 -7.236796 -1.837397,-0.84937 -6.413585 -1.06875,-1.030972 -6.088752 -1.079631,-1.22035 -5.819526 -1.15703,-0.6159506 -7.22318 -1.854877,-0.4733357 -6.48813 -1.285837,-0.5891867 -6.167432 -1.135424,-0.7271395 -5.908353 -1.048867,-8.721181 -7.3138 -0.4256921,-8.171959 -7.072473 -0.05636975,-7.777625 -6.406518 0.1499472,-7.566353 -5.765037 0.3497961,-7.366773 -5.200813 0.5352533,-8.188759 -4.778327 -0.3070164,-8.069459 -3.842229 -0.2054288,-8.041083 -3.254739 -0.01742324,-8.027762 -2.784601 0.1273834,-8.548729 -4.673856 -0.3365102,-8.563019 -3.727958 -0.2396904,-8.603926 -3.270638 0.02003849,-8.645351 -3.081942 0.2283573,-8.87447 -4.806329 -0.3023714,-8.9498 -3.945236 -0.2101204,-8.981104 -3.539148 0.03367969,-8.991513 -3.355162 0.2325354,-9.190413 -5.121355 -0.2314286,-9.307544 -4.439546 -0.1154157,-9.349916 -4.090567 0.06797308,-9.341287 -3.880267 0.2194333,2.910,31  0
-1.405964 -5.979154 -1.876273,-2.061221 -6.089125 -1.337939,-2.608111 -6.219391 -0.6601439,-3.008928 -5.934974 -0.08783221,-3.15316 -5.512352 0.424865,-2.008469 -6.935386 0.4227312,-1.824487 -6.927384 1.072704,-1.888679 -6.273464 1.099919,-1.94238 -5.855094 1.05548,-1.400268 -6.921121 0.3529325,-1.182037 -7.149063 0.9804935,-1.182037 -7.149063 0.9804935,-1.567188 -6.113277 0.3912003,-0.9235225 -6.800734 0.2690268,-0.70436 -7.063832 0.7552476,-1.005044 -6.584948 0.2503843,-1.24857 -6.157411 -0.0713253,-0.5876083 -6.56306 0.2152836,-0.3372183 -6.673338 0.6787543,-0.614368 -6.39417 0.7174349,-0.9018621 -6.080656 0.6845803,-8.719409 -7.29904 -0.4290516,-8.169207 -7.083135 -0.05272686,-7.780611 -6.430843 0.1615452,-7.575872 -5.787944 0.3702618,-7.378957 -5.22414 0.5745393,-8.187592 -4.773322 -0.2896422,-8.06895 -3.846059 -0.1677377,-8.044831 -3.271461 0.04873362,-8.040649 -2.827225 0.2252921,-8.545895 -4.661074 -0.3151188,-8.558678 -3.715999 -0.2023633,-8.609122 -3.248907 0.08606803,-8.665812 -3.072341 0.3294813,-8.872228 -4.796285 -0.2757826,-8.949406 -3.936723 -0.1708614,-8.992106 -3.541836 0.09850729,-9.018364 -3.390121 0.3243709,-9.187748 -5.121439 -0.201494,-9.306741 -4.424901 -0.0594112,-9.350801 -4.085419 0.1502833,-9.346421 -3.908316 0.3211048,3.010,31  0
-1.411171 -5.69944 -1.831554,-2.095412 -6.097805 -1.192779,-2.643462 -6.427391 -0.4754196,-3.039207 -6.374134 0.1096536,-3.11097 -6.074444 0.6208944,-1.998822 -6.422069 0.6018775,-1.826529 -6.833221 1.256402,-1.90011 -6.384706 1.292237,-1.937928 -6.022665 1.259024,-1.353147 -6.316312 0.5210128,-1.202749 -7.176739 1.218001,-1.202749 -7.176739 1.218001,-1.54421 -6.391168 0.7234085,-0.8646145 -6.277757 0.4424832,-0.711894 -7.16978 0.9697199,-1.023301 -6.917352 0.5038836,-1.20925 -6.473567 0.2381461,-0.5152321 -6.201028 0.4054718,-0.3132644 -6.691869 0.8782482,-0.6134758 -6.566768 0.9415579,-0.8635721 -6.305917 0.9567206,-8.722612 -7.342397 -0.4143005,-8.174763 -7.107501 -0.06415293,-7.780746 -6.427074 0.1235263,-7.572937 -5.771989 0.3052666,-7.373126 -5.219924 0.4749274,-8.194016 -4.813593 -0.3267147,-8.073861 -3.873763 -0.2312575,-8.047459 -3.278458 -0.05054533,-8.040285 -2.80184 0.09184295,-8.555241 -4.697994 -0.3562597,-8.563765 -3.740694 -0.2750614,-8.609699 -3.276984 -0.02216545,-8.662607 -3.092589 0.1837112,-8.880599 -4.821229 -0.3218649,-8.947513 -3.94667 -0.2529513,-8.983789 -3.541418 -0.02685797,-9.006833 -3.367352 0.163103,-9.196117 -5.135029 -0.2520195,-9.312033 -4.442444 -0.1586763,-9.361755 -4.093547 0.005434901,-9.370555 -3.887717 0.1402853,3.110,31  0
-1.354303 -5.856358 -2.008673,-2.027166 -6.325181 -1.342951,-2.563577 -6.624962 -0.627717,-2.923919 -6.610844 -0.05974102,-2.952126 -6.397615 0.4413215,-1.931606 -6.348474 0.4618279,-1.745453 -6.84375 1.165062,-1.825282 -6.477975 1.241081,-1.879033 -6.084989 1.213509,-1.291373 -6.171861 0.3517088,-1.123428 -7.148069 1.111205,-1.123428 -7.148069 1.111205,-1.478792 -6.511234 0.6134905,-0.7988653 -6.140028 0.2392784,-0.6374416 -7.135787 0.7728812,-0.9708567 -6.976429 0.3140606,-1.158232 -6.526927 0.05421627,-0.4437399 -6.093465 0.1670774,-0.2558818 -6.68745 0.5432075,-0.577879 -6.664957 0.5570558,-0.8263273 -6.444551 0.5503343,-8.715294 -7.321474 -0.4269132,-8.169288 -7.094694 -0.05736464,-7.784506 -6.430236 0.1505239,-7.577426 -5.787691 0.3516985,-7.386619 -5.24127 0.5442172,-8.200573 -4.783773 -0.2961524,-8.086341 -3.844168 -0.1836649,-8.064658 -3.261745 0.02070782,-8.060308 -2.808077 0.1800172,-8.563056 -4.681184 -0.3230471,-8.581314 -3.729325 -0.2152701,-8.632549 -3.267632 0.059854,-8.686003 -3.095889 0.2812078,-8.888971 -4.817197 -0.2863276,-8.972983 -3.96066 -0.1855679,-9.011602 -3.562457 0.07139263,-9.028651 -3.403941 0.2774023,-9.200567 -5.140149 -0.2135896,-9.326255 -4.45865 -0.07737625,-9.372656 -4.115018 0.1194819,-9.366441 -3.921604 0.2754191,3.210,31  0
-1.328238 -5.749708 -1.360296,-2.009751 -6.165371 -0.5858602,-2.578274 -6.479524 0.1851974,-2.957492 -6.383813 0.7924204,-3.012211 -6.047925 1.330622,-1.906227 -6.554471 1.265809,-1.728175 -7.022008 2.008024,-1.82783 -6.525638 2.084328,-1.889427 -6.080072 2.056286,-1.242636 -6.44615 1.10947,-1.086253 -7.345075 1.886253,-1.086253 -7.345075 1.886253,-1.461247 -6.372812 1.368141,-0.7405434 -6.391622 0.9584699,-0.5935297 -7.274656 1.556106,-0.9144077 -6.962078 1.079384,-1.106866 -6.441533 0.798152,-0.3872919 -6.270069 0.8530424,-0.1990757 -6.726089 1.36528,-0.4961758 -6.59144 1.417273,-0.7377167 -6.305762 1.410947,-8.726954 -7.325587 -0.4428483,-8.178134 -7.100205 -0.1046659,-7.790704 -6.436224 0.08178836,-7.590524 -5.790189 0.2632846,-7.393385 -5.246903 0.4330592,-8.202039 -4.808765 -0.3379924,-8.081058 -3.857307 -0.2200826,-8.052773 -3.274028 -0.02196079,-8.040851 -2.831291 0.1301427,-8.566309 -4.689761 -0.3552222,-8.587218 -3.713653 -0.2515454,-8.637804 -3.255597 0.0164803,-8.693465 -3.10441 0.2354159,-8.891834 -4.820729 -0.3089933,-8.975265 -3.938317 -0.2202481,-9.016641 -3.544597 0.01130414,-9.043457 -3.398627 0.2089064,-9.203029 -5.148069 -0.2291754,-9.326969 -4.445376 -0.1111298,-9.37254 -4.100148 0.06591672,-9.376507 -3.912274 0.2080274,3.310,31  0
-1.365554 -5.791923 -0.5904814,-2.098988 -5.950069 0.3271661,-2.709417 -6.042745 1.203301,-3.114233 -5.726263 1.85004,-3.251834 -5.30587 2.440473,-1.872341 -6.762975 2.186181,-1.655106 -7.197925 2.96284,-1.766796 -6.712954 3.19688,-1.843558 -6.167835 3.316145,-1.200881 -6.841061 1.986477,-0.9842548 -7.460806 2.859836,-0.9842548 -7.460806 2.859836,-1.354973 -6.304289 2.812617,-0.702836 -6.776109 1.751515,-0.5143671 -7.390112 2.477149,-0.8174839 -6.883148 2.170989,-1.061769 -6.238264 2.04064,-0.3786459 -6.566223 1.534888,-0.185132 -6.795253 2.129562,-0.4039826 -6.531166 2.162356,-0.6230526 -6.143422 2.148984,-8.733359 -7.342044 -0.4101167,-8.190068 -7.101457 -0.06595197,-7.804546 -6.441675 0.1247337,-7.598852 -5.804685 0.3075843,-7.399739 -5.279218 0.4726728,-8.213728 -4.804485 -0.2938214,-8.098728 -3.857454 -0.1865902,-8.075337 -3.272685 0.002335221,-8.070389 -2.827503 0.1468921,-8.573879 -4.696896 -0.3193133,-8.595098 -3.724904 -0.2100719,-8.651457 -3.284457 0.05690518,-8.716211 -3.154359 0.2734711,-8.895311 -4.828128 -0.2818477,-8.97986 -3.966114 -0.1928385,-9.020959 -3.572805 0.03303638,-9.048386 -3.42641 0.2211819,-9.201757 -5.149009 -0.2110297,-9.330382 -4.463549 -0.09823772,-9.377748 -4.121737 0.06886375,-9.383336 -3.929401 0.2008673,3.410,31  0
-1.344254 -5.349325 0.1312599,-2.051874 -5.766737 1.033865,-2.655802 -6.120611 1.877162,-3.080294 -6.002188 2.492409,-3.169292 -5.690666 3.042184,-1.868012 -6.71803 3.003296,-1.595907 -7.332469 3.665104,-1.745715 -6.840393 3.689603,-1.891047 -6.290563 3.674727,-1.206705 -6.763532 2.766176,-0.8528814 -7.441036 3.447904,-0.8528814 -7.441036 3.447904,-1.392919 -6.277877 2.933134,-0.7170038 -6.671963 2.504231,-0.394783 -7.363842 3.063437,-0.7392392 -6.868225 2.532937,-1.042763 -6.210525 2.297501,-0.3923516 -6.467536 2.296623,-0.09686565 -6.835859 2.876802,-0.3261766 -6.546007 2.939991,-0.5736775 -6.118003 2.970074,-8.754964 -7.353099 -0.3672682,-8.207917 -7.125093 -0.01135913,-7.817152 -6.461943 0.1842961,-7.612166 -5.817594 0.3702097,-7.411985 -5.285923 0.5447384,-8.226606 -4.820174 -0.2465615,-8.110726 -3.870395 -0.1321968,-8.093502 -3.280304 0.06639251,-8.096988 -2.835541 0.2232229,-8.587577 -4.696197 -0.2750707,-8.61065 -3.717366 -0.1528273,-8.672871 -3.273588 0.1318437,-8.747118 -3.157526 0.3637377,-8.909505 -4.816608 -0.2396093,-8.99587 -3.943077 -0.1358881,-9.044243 -3.56361 0.1071554,-9.080646 -3.455186 0.3087468,-9.215198 -5.133764 -0.1706915,-9.342823 -4.425561 -0.03993648,-9.387689 -4.102952 0.1422007,-9.39248 -3.958713 0.2860065,3.510,31  0
-0.9881868 -5.176637 1.077389,-1.753201 -5.370973 2.155097,-2.31415 -5.857381 2.937012,-2.819957 -5.728651 3.60943,-3.015469 -5.5407 4.269177,-1.499959 -7.042963 4.13472,-1.093278 -7.430748 4.981932,-1.177001 -6.717176 5.217439,-1.311852 -5.970214 5.295088,-0.7316217 -7.357542 3.727761,-0.259347 -7.689649 4.690706,-0.259347 -7.689649 4.690706,-0.8252382 -6.141806 4.023804,-0.1048813 -7.238149 3.31364,0.2081509 -7.554263 4.1664,-0.1812601 -6.846511 3.531915,-0.3929157 -5.892078 3.346244,0.4368649 -6.811601 3.225767,0.7206783 -6.928163 4.020731,0.08989096 -6.516496 4.063814,0.05092955 -5.847333 4.09313,-8.739687 -7.370293 -0.3501934,-7.824821 -7.162197 -0.02876431,-7.371775 -6.425496 0.2026749,-6.550948 -5.877436 0.4270925,-6.242725 -5.186153 0.7092211,-7.030688 -4.850437 -0.198091,-6.838919 -3.871479 -0.1906056,-6.783688 -3.196826 0.04309405,-6.764055 -2.664295 0.2432275,-7.481331 -4.692535 -0.264506,-7.425206 -3.677332 -0.177074,-7.730331 -3.177878 0.138443,-7.8233 -2.993429 0.4255273,-7.950392 -4.897443 -0.3110546,-8.140144 -3.937937 -0.2254904,-8.229002 -3.45086 0.03147279,-8.25102 -3.277692 0.3152079,-8.415652 -5.277883 -0.2845004,-8.713917 -4.508512 -0.1124928,-8.74307 -4.06666 0.0707305,-8.739049 -3.803045 0.2431044,3.610,31  0
-0.8699641 -5.038642 -0.3950548,-1.719519 -5.59514 0.4477929,-2.296729 -6.119543 1.197761,-2.714467 -6.191869 1.893944,-2.765072 -5.996925 2.580506,-1.481348 -6.250146 2.546058,-1.300151 -7.189411 3.378784,-1.294125 -6.614816 3.445343,-1.349579 -5.983874 3.43212,-0.6423101 -6.216299 2.291345,-0.364336 -7.482554 3.314006,-0.364336 -7.482554 3.314006,-0.9043803 -6.420005 2.467944,0.03070641 -6.239564 2.050469,0.2197709 -7.509658 2.81406,-0.2860909 -7.231159 2.00855,-0.4293718 -6.510019 1.712715,0.5997396 -6.153064 2.000236,0.8701429 -6.877905 2.615064,0.2701674 -6.674139 2.743186,-0.03792763 -6.219644 2.821999,-8.740511 -7.37043 -0.3397352,-7.816046 -7.178087 -0.006331647,-7.36527 -6.43453 0.2270978,-6.544392 -5.890278 0.4586845,-6.233837 -5.190624 0.7543133,-7.035423 -4.845701 -0.1823845,-6.842877 -3.868564 -0.1505733,-6.792219 -3.190872 0.1250654,-6.780327 -2.66623 0.3707144,-7.479313 -4.69037 -0.2359228,-7.426834 -3.663528 -0.1035617,-7.748676 -3.180726 0.2650009,-7.862159 -3.033362 0.6031922,-7.941845 -4.893919 -0.2633269,-8.148001 -3.925653 -0.1417239,-8.252495 -3.466832 0.1714779,-8.301047 -3.348745 0.4914097,-8.407766 -5.285825 -0.2274817,-8.71121 -4.490304 -0.008403603,-8.749823 -4.061269 0.2229332,-8.755832 -3.851071 0.4518573,3.710,31  0
-0.7728152 -5.589622 -1.492179,-1.572946 -6.064033 -0.6271356,-2.140352 -6.410818 0.1234405,-2.555559 -6.514413 0.7671093,-2.648335 -6.432252 1.425329,-1.396182 -6.245843 1.313111,-1.016295 -6.772554 2.289352,-1.083609 -6.396437 2.426086,-1.201554 -6.004534 2.392399,-0.6147203 -6.305297 1.046631,-0.206964 -7.096868 2.254927,-0.206964 -7.096868 2.254927,-0.7873659 -6.620133 1.666575,0.07140827 -6.306477 0.7812504,0.3140688 -7.19861 1.756101,-0.2257252 -7.179874 1.05591,-0.3978615 -6.645708 0.7736838,0.6421814 -6.288984 0.7262491,0.9104118 -6.646369 1.356003,0.3319097 -6.629558 1.427571,-0.01417208 -6.415282 1.372035,-8.758768 -7.37276 -0.4265054,-7.82854 -7.165208 -0.1144923,-7.368374 -6.445991 0.1187158,-6.541703 -5.899489 0.3440244,-6.221521 -5.209825 0.6285698,-7.027892 -4.875978 -0.2390433,-6.835348 -3.892129 -0.2182537,-6.783377 -3.216569 0.02465912,-6.761871 -2.672105 0.2241798,-7.479084 -4.718452 -0.2980489,-7.422209 -3.698728 -0.1876331,-7.733719 -3.200347 0.131972,-7.826354 -3.009345 0.4228114,-7.944603 -4.915296 -0.3386394,-8.144728 -3.957252 -0.2377802,-8.235682 -3.483716 0.02756604,-8.263998 -3.327929 0.3139516,-8.411643 -5.291641 -0.3149461,-8.710904 -4.522205 -0.1258397,-8.742662 -4.089128 0.06719519,-8.741732 -3.835367 0.2442648,3.810,31  0
-0.9481435 -5.065799 0.3016808,-1.765777 -5.614618 1.408361,-2.325418 -6.152833 2.273896,-2.623857 -6.47689 2.996816,-2.587628 -6.513122 3.701816,-1.486647 -5.879653 3.647458,-1.238502 -7.161895 4.397554,-1.349439 -6.88784 4.50722,-1.410695 -6.398949 4.544751,-0.6413717 -5.907287 3.279293,-0.4213862 -7.538623 4.281152,-0.4213862 -7.538623 4.281152,-0.8191423 -6.709263 3.825446,0.05137253 -6.01962 2.93722,0.2656617 -7.583081 3.799521,-0.3187208 -7.383001 3.142571,-0.4522901 -6.643159 2.974866,0.6229839 -6.138863 2.810926,0.8339019 -6.949631 3.496561,0.2907915 -6.86877 3.570957,0.006762505 -6.500366 3.599428,-8.740912 -7.374616 -0.4072659,-7.817989 -7.178377 -0.07023267,-7.358624 -6.446711 0.1711479,-6.532619 -5.909731 0.4056436,-6.226509 -5.198568 0.7057443,-7.030531 -4.869558 -0.2347029,-6.829277 -3.889978 -0.2171889,-6.773445 -3.213416 0.03243232,-6.754034 -2.689956 0.2537863,-7.478157 -4.713052 -0.3036789,-7.418869 -3.689944 -0.196834,-7.730709 -3.180409 0.1390125,-7.827186 -2.999746 0.4520488,-7.942909 -4.915494 -0.3456824,-8.143647 -3.947952 -0.2524256,-8.236184 -3.466791 0.03469116,-8.266526 -3.322777 0.343892,-8.412354 -5.307437 -0.3211663,-8.714854 -4.53574 -0.1274884,-8.758261 -4.090263 0.08799736,-8.761768 -3.835479 0.2960073,3.910,31 3 0
-1.41924 -4.823826 0.7714732,-2.224824 -5.417285 1.815208,-2.793507 -5.922079 2.79582,-3.044277 -5.957914 3.489172,-3.021461 -5.776943 4.113896,-1.793814 -6.00798 3.955999,-1.444928 -7.396286 4.678855,-1.569492 -7.193288 4.804486,-1.632378 -6.697126 4.852307,-1.075768 -6.030265 3.689634,-0.8737779 -7.803983 4.328492,-0.8737779 -7.803983 4.328492,-1.294147 -6.769641 3.718007,-0.5834255 -6.113665 3.411541,-0.4851093 -7.759311 3.734302,-0.834363 -7.340034 3.122548,-0.9957848 -6.552203 2.948831,-0.2508497 -6.107049 3.232553,-0.149147 -7.200166 3.58527,-0.4101396 -7.039479 3.505649,-0.5490761 -6.642477 3.522272,-8.741612 -7.389793 -0.3935012,-8.198405 -7.134621 -0.06002989,-7.811787 -6.474508 0.1277912,-7.607254 -5.828491 0.311966,-7.401959 -5.292711 0.478012,-8.215222 -4.861786 -0.2934185,-8.096043 -3.914833 -0.19146,-8.069248 -3.332841 -0.01367727,-8.059355 -2.875293 0.1231467,-8.576023 -4.739995 -0.3102382,-8.598088 -3.763043 -0.2097453,-8.655385 -3.317565 0.05123872,-8.722906 -3.169823 0.2629411,-8.898305 -4.86378 -0.2644631,-8.982843 -3.982177 -0.1752086,-9.02575 -3.59966 0.04719138,-9.05917 -3.464034 0.2297761,-9.206236 -5.181266 -0.1880172,-9.331521 -4.474973 -0.0799478,-9.376727 -4.139759 0.0804686,-9.385123 -3.957678 0.2063627,4.010,31 3 0
-1.400224 -5.072635 1.726737,-2.20734 -5.236707 2.855343,-2.740454 -5.605674 3.868868,-2.973794 -5.472346 4.567011,-2.923464 -5.222316 5.151371,-1.814098 -6.627771 4.98702,-1.503694 -7.391423 5.866188,-1.583173 -6.990211 6.23006,-1.653345 -6.445518 6.484713,-1.133586 -6.809803 4.694715,-0.7963777 -7.604728 5.47024,-0.7963777 -7.604728 5.47024,-1.224534 -6.356943 5.123031,-0.6499963 -6.822501 4.386909,-0.3552151 -7.591187 5.000355,-0.6676388 -7.02975 4.567908,-0.88904 -6.364016 4.434249,-0.3449907 -6.65502 4.160917,-0.05673313 -7.105134 4.800323,-0.2629333 -6.852033 4.82439,-0.4548764 -6.51897 4.849107,-8.743845 -7.38873 -0.3959652,-8.203274 -7.164556 -0.03985,-7.816289 -6.49461 0.1596332,-7.608366 -5.849713 0.3512301,-7.398131 -5.320408 0.5349995,-8.221865 -4.854322 -0.2583618,-8.103365 -3.897331 -0.1407425,-8.080182 -3.303535 0.0598821,-8.078709 -2.849648 0.2147441,-8.585707 -4.740436 -0.2797282,-8.606865 -3.758132 -0.1493382,-8.666639 -3.318552 0.1361985,-8.740694 -3.200573 0.3636709,-8.909175 -4.867284 -0.2372461,-8.994373 -3.988283 -0.1252065,-9.038666 -3.601656 0.1222854,-9.073327 -3.479091 0.3253076,-9.216331 -5.190082 -0.1630766,-9.343573 -4.483663 -0.02730939,-9.390619 -4.147978 0.1567528,-9.399432 -3.982668 0.3025782,4.110,31 3 0
-1.565999 -4.37627 2.670978,-2.328614 -4.539039 3.758757,-2.711372 -5.055746 4.736493,-2.837051 -5.307236 5.39327,-2.625281 -5.44848 5.972788,-1.900864 -6.305704 5.963437,-1.576527 -7.205963 6.918374,-1.584302 -7.103963 7.426731,-1.611463 -6.806724 7.771016,-1.276402 -6.533787 5.686628,-0.8324709 -7.463047 6.627484,-0.8324709 -7.463047 6.627484,-1.070158 -6.710002 6.916793,-0.8017802 -6.551023 5.342607,-0.3646197 -7.437053 6.079646,-0.5669212 -7.104302 5.985425,-0.7997775 -6.59608 5.98984,-0.5209761 -6.351989 5.066527,-0.1022472 -6.886225 5.763918,-0.2231669 -6.756942 5.923451,-0.4130125 -6.50317 5.981702,-8.741334 -7.392118 -0.3879529,-8.200936 -7.149362 -0.03278956,-7.810669 -6.487194 0.1667021,-7.602108 -5.849819 0.3648086,-7.407498 -5.306392 0.5504283,-8.220298 -4.857496 -0.2740617,-8.102182 -3.916431 -0.1514068,-8.073432 -3.333185 0.05806229,-8.064023 -2.893621 0.2215332,-8.579557 -4.740875 -0.2931946,-8.60196 -3.767141 -0.163385,-8.664709 -3.323083 0.1269001,-8.740294 -3.205738 0.3592553,-8.902174 -4.872116 -0.2454029,-8.992439 -3.994627 -0.134341,-9.041295 -3.60921 0.1186323,-9.080615 -3.496183 0.3250429,-9.210976 -5.201738 -0.1645155,-9.338376 -4.489803 -0.02250648,-9.38524 -4.148151 0.1712735,-9.392118 -3.983099 0.3250804,4.210,31 3 0
-1.503752 -4.653023 2.244081,-2.323241 -4.949578 3.253317,-2.827461 -5.474342 4.285959,-3.082709 -5.492877 5.007654,-3.065903 -5.30919 5.621782,-1.83615 -6.38093 5.578758,-1.443095 -7.460608 6.436378,-1.530586 -7.170101 6.78222,-1.595069 -6.731692 7.015897,-1.147442 -6.489803 5.316531,-0.7559609 -7.619744 5.943722,-0.7559609 -7.619744 5.943722,-1.239341 -6.58412 5.403582,-0.6791925 -6.495482 5.043927,-0.3719482 -7.640887 5.433784,-0.6917629 -7.191517 4.819948,-0.9323144 -6.492195 4.649018,-0.3840885 -6.374338 4.85604,-0.1092176 -7.13558 5.339611,-0.2988744 -6.929834 5.256601,-0.4702473 -6.518253 5.255842,-8.731295 -7.390338 -0.3929113,-8.196269 -7.154785 -0.03660595,-7.808268 -6.501871 0.1683453,-7.601549 -5.859701 0.3666344,-7.398862 -5.318186 0.5525349,-8.213651 -4.863552 -0.2576301,-8.095546 -3.917715 -0.133425,-8.067275 -3.325089 0.07028601,-8.060739 -2.877229 0.2299842,-8.575831 -4.740816 -0.2803914,-8.59866 -3.756374 -0.1524934,-8.657427 -3.318134 0.1242152,-8.735415 -3.208385 0.3440571,-8.900309 -4.866426 -0.2379128,-8.98784 -3.978813 -0.1307303,-9.03425 -3.595073 0.1044862,-9.07627 -3.482414 0.2981158,-9.211907 -5.193328 -0.1625793,-9.339803 -4.477411 -0.03433877,-9.388268 -4.137675 0.1389897,-9.400955 -3.977079 0.275582,4.310,31 3 0
-1.489846 -4.178606 3.395791,-2.30182 -4.486989 4.427435,-2.860438 -5.203933 5.564849,-3.100527 -5.337116 6.378252,-3.021984 -5.30046 7.079485,-1.854591 -6.284475 6.819977,-1.480632 -7.727704 7.667032,-1.588908 -7.415239 8.052755,-1.658094 -6.899405 8.338718,-1.169113 -6.433794 6.593836,-0.8372426 -7.990529 7.232951,-0.8372426 -7.990529 7.232951,-1.318464 -6.505231 6.72155,-0.6945848 -6.444848 6.355519,-0.4366531 -7.8947 6.694282,-0.7484918 -7.198224 5.98221,-0.9533434 -6.305877 5.778374,-0.3650556 -6.283372 6.205776,-0.1402593 -7.262262 6.701213,-0.3685646 -6.913173 6.563787,-0.5507641 -6.379642 6.56186,-8.736479 -7.398449 -0.428765,-8.19751 -7.160499 -0.09689167,-7.813726 -6.50986 0.09435791,-7.607201 -5.874059 0.2802641,-7.409626 -5.341161 0.4513881,-8.21572 -4.875156 -0.3060659,-8.100192 -3.916025 -0.1934674,-8.074536 -3.329142 -0.01152074,-8.067391 -2.875401 0.1244723,-8.578674 -4.759095 -0.3227995,-8.607307 -3.770152 -0.2117901,-8.66687 -3.32737 0.04222852,-8.738729 -3.196622 0.2447041,-8.902196 -4.891727 -0.2794463,-8.993158 -4.002824 -0.1828404,-9.037346 -3.617577 0.03305081,-9.073141 -3.49265 0.2113073,-9.208057 -5.223831 -0.2061663,-9.338158 -4.508127 -0.09176865,-9.385291 -4.165515 0.06615514,-9.396472 -3.989447 0.1858144,4.410,31 3 0
-1.596254 -4.412046 1.662549,-2.368745 -4.797635 2.606321,-2.87543 -5.427326 3.603667,-3.09302 -5.516579 4.35209,-3.076494 -5.335985 5.050724,-1.865252 -6.056453 4.762247,-1.500562 -7.69517 5.437667,-1.580302 -7.557748 5.626231,-1.614734 -7.162193 5.816772,-1.154917 -6.163484 4.579601,-0.9447203 -7.90842 5.097385,-0.9447203 -7.90842 5.097385,-1.376174 -6.687397 4.468297,-0.6855164 -6.206296 4.403714,-0.5687475 -7.760202 4.641803,-0.8623857 -7.2359 3.967029,-1.036358 -6.440014 3.744645,-0.3717575 -6.113429 4.308133,-0.261251 -7.163637 4.766609,-0.5101738 -6.937112 4.664283,-0.6813593 -6.500734 4.661915,-8.743863 -7.399885 -0.3995665,-8.211319 -7.169915 -0.05759335,-7.829982 -6.511634 0.1351799,-7.623456 -5.874494 0.3206908,-7.423506 -5.33785 0.4938122,-8.237309 -4.873821 -0.2725325,-8.11494 -3.918247 -0.1416754,-8.091808 -3.326606 0.0625543,-8.092327 -2.884784 0.2215157,-8.59589 -4.7518 -0.2881625,-8.616896 -3.760607 -0.1485477,-8.682915 -3.321605 0.1351449,-8.76722 -3.220769 0.364823,-8.920941 -4.885757 -0.2399786,-9.006346 -3.988889 -0.123137,-9.059622 -3.61893 0.1188481,-9.109365 -3.533624 0.3213537,-9.233418 -5.225971 -0.1616315,-9.362171 -4.501995 -0.02128598,-9.407745 -4.163684 0.1649292,-9.415753 -4.014194 0.3142467,4.510,31 3 0
-1.407169 -5.16794 0.7442284,-2.188875 -5.313894 1.601836,-2.719937 -5.693866 2.529975,-3.000751 -5.706729 3.243919,-2.947056 -5.608186 3.889544,-1.874622 -6.550387 3.64221,-1.645097 -7.051546 4.473023,-1.714509 -6.518137 4.852757,-1.716522 -6.146408 5.118418,-1.211418 -6.786745 3.461231,-0.9653459 -7.208845 4.197261,-0.9653459 -7.208845 4.197261,-1.329331 -6.105081 3.980022,-0.7213292 -6.771337 3.242342,-0.476326 -7.290906 3.782419,-0.7301712 -6.750041 3.407191,-0.9349613 -6.228696 3.233368,-0.394845 -6.575078 3.084215,-0.1407013 -6.767904 3.647711,-0.3687835 -6.46054 3.701747,-0.6075778 -6.14114 3.74377,-8.749259 -7.421469 -0.3792908,-8.212375 -7.177463 -0.04444936,-7.83102 -6.515281 0.1436651,-7.628284 -5.879848 0.3252478,-7.43501 -5.344751 0.4870854,-8.235439 -4.884279 -0.2619971,-8.123143 -3.930418 -0.1511731,-8.102044 -3.338177 0.031201,-8.09582 -2.870574 0.1658668,-8.601871 -4.76696 -0.2832506,-8.634553 -3.788574 -0.1705707,-8.693063 -3.355089 0.09247577,-8.758126 -3.2243 0.2992443,-8.925467 -4.894561 -0.2446431,-9.016854 -4.020514 -0.1487305,-9.05911 -3.631076 0.07428578,-9.087771 -3.493408 0.2570915,-9.231864 -5.218338 -0.1756587,-9.357965 -4.508394 -0.06182334,-9.399989 -4.171884 0.09413153,-9.403478 -3.999039 0.2159898,4.610,31 3 0
-0.9228692 -6.256159 -1.366724,-1.894641 -6.038056 -0.7345102,-2.72774 -5.740055 0.09654172,-3.227713 -5.186409 0.8978503,-3.321714 -4.529254 1.715864,-1.643206 -5.358915 1.236222,-1.327596 -6.529151 2.067893,-1.592746 -6.252792 2.024161,-1.478149 -5.619258 1.978435,-0.7429504 -5.481245 1.185447,-0.8677831 -7.433504 1.940484,-0.8677831 -7.433504 1.940484,-1.182066 -6.277497 1.122271,-0.01903534 -5.765393 1.033059,-0.2436314 -7.584362 1.691641,-0.6810431 -7.307989 0.8852648,-0.7289557 -6.394761 0.7180945,0.461472 -6.046072 1.154495,0.4257445 -7.193017 1.612032,-0.08843803 -7.215799 1.574874,-0.2311106 -6.719206 1.538727,-8.762117 -7.422399 -0.4121064,-7.834735 -7.222031 -0.100735,-7.379221 -6.489162 0.1218595,-6.558443 -5.942905 0.3407811,-6.257887 -5.246658 0.6202801,-7.053127 -4.917018 -0.2707309,-6.85722 -3.936445 -0.2608027,-6.798333 -3.258008 -0.02135064,-6.77158 -2.726785 0.1865841,-7.505446 -4.760988 -0.3324798,-7.448254 -3.745571 -0.2425358,-7.751452 -3.23829 0.07442281,-7.839826 -3.058536 0.3737407,-7.973766 -4.967176 -0.3733124,-8.168724 -4.008649 -0.2862689,-8.258325 -3.529057 -0.02308422,-8.280836 -3.382149 0.2729072,-8.440768 -5.351848 -0.3440931,-8.74297 -4.588447 -0.1629772,-8.775164 -4.150432 0.02570495,-8.767813 -3.906287 0.2153657,4.710,31 3 0
-0.812993 -8.436687 -0.4325633,-1.721237 -7.697789 0.0919259,-2.634047 -6.75947 0.7584502,-3.331963 -5.86203 1.435556,-3.67259 -5.15327 2.178357,-1.705092 -6.194608 1.47299,-1.622943 -5.073376 2.339932,-1.66366 -5.493497 2.494554,-1.695277 -5.791351 2.252604,-1.050819 -6.44924 1.473602,-0.9160819 -5.511331 2.449588,-0.9160819 -5.511331 2.449588,-1.196095 -6.309685 2.096488,-0.3680263 -6.666368 1.438736,-0.3390388 -5.856806 2.181151,-0.5848789 -6.503694 1.692869,-0.6928825 -6.749149 1.415317,0.2420635 -6.984305 1.666543,0.3920994 -6.131668 1.914923,0.07846737 -6.591086 1.721166,-0.02812862 -6.908323 1.518257,-8.759146 -7.420661 -0.4132625,-7.837805 -7.206277 -0.08767464,-7.389507 -6.467355 0.1548611,-6.56757 -5.921849 0.3920423,-6.250647 -5.232065 0.701999,-7.053925 -4.913695 -0.2178093,-6.862862 -3.928759 -0.1720357,-6.8083 -3.253707 0.1036985,-6.790592 -2.723561 0.3366673,-7.501781 -4.761899 -0.2655927,-7.442114 -3.729836 -0.1171478,-7.7547 -3.230033 0.244079,-7.854876 -3.057733 0.5715293,-7.963743 -4.968889 -0.2910087,-8.171645 -3.993659 -0.1611055,-8.264435 -3.527671 0.1552418,-8.296309 -3.38976 0.4765131,-8.429201 -5.362031 -0.2549274,-8.734529 -4.587301 -0.03397441,-8.770376 -4.149568 0.2022527,-8.769842 -3.912967 0.4277648,4.810,31 3 0
-1.259509 -8.669075 -1.883286,-1.995338 -7.841238 -1.563732,-2.391289 -7.033926 -1.219791,-2.614752 -6.295721 -0.8990384,-2.745071 -5.66901 -0.5626704,-2.040173 -6.383265 -1.159395,-2.112378 -5.396177 -0.6782864,-2.123705 -4.870794 -0.3825014,-2.128326 -4.389014 -0.2222501,-1.631472 -6.412822 -1.097427,-1.60209 -5.424575 -0.3874775,-1.60209 -5.424575 -0.3874775,-1.783956 -5.330358 0.3229334,-1.22239 -6.524364 -1.053682,-1.171018 -5.666774 -0.4837735,-1.269597 -5.785726 -0.2778161,-1.356361 -5.877656 -0.2312083,-0.8263421 -6.737543 -0.9874985,-0.7317691 -6.039291 -0.6060226,-0.810163 -5.976591 -0.4940689,-0.890748 -5.958147 -0.4571551,-8.76442 -7.424308 -0.35551,-8.221563 -7.175023 -0.01586026,-7.829482 -6.49911 0.1712332,-7.624802 -5.857065 0.3587961,-7.441754 -5.300617 0.5326859,-8.249349 -4.878998 -0.2760847,-8.134421 -3.92514 -0.1701917,-8.101994 -3.332976 0.02348667,-8.085918 -2.885326 0.1760092,-8.610792 -4.762325 -0.2929354,-8.635733 -3.778639 -0.1827882,-8.68718 -3.317712 0.08885106,-8.749529 -3.185256 0.3057424,-8.932796 -4.891611 -0.2442622,-9.021944 -4.002831 -0.1521309,-9.057504 -3.60224 0.0786041,-9.080458 -3.473973 0.2729884,-9.239905 -5.222021 -0.1622753,-9.37077 -4.506546 -0.04036996,-9.413669 -4.162387 0.1301303,-9.41533 -3.990859 0.2655163,4.910,31 3 0
-1.259379 -8.122309 -3.206162,-1.838243 -7.452219 -2.880803,-2.215915 -6.585905 -2.61745,-2.409071 -5.762681 -2.397688,-2.606355 -4.988956 -2.157676,-2.000459 -6.34692 -2.274463,-2.113718 -5.44094 -1.722379,-2.158615 -4.760478 -1.332416,-2.150882 -4.020784 -1.066837,-1.618299 -6.352369 -2.257467,-1.655212 -5.58927 -1.652365,-1.655212 -5.58927 -1.652365,-1.592617 -4.439479 -0.9666038,-1.219747 -6.446307 -2.224197,-1.200742 -5.748996 -1.698977,-1.218945 -5.259323 -1.295067,-1.214987 -4.761833 -1.014931,-0.8395777 -6.620963 -2.219469,-0.8036523 -5.972242 -1.808213,-0.8040676 -5.544755 -1.535196,-0.7895517 -5.101881 -1.300666,-8.751345 -7.431335 -0.3549777,-8.211713 -7.169387 -0.02328441,-7.825099 -6.490587 0.1678202,-7.622104 -5.834671 0.3602294,-7.439284 -5.267257 0.5393917,-8.245866 -4.881094 -0.2794684,-8.137127 -3.931256 -0.1758497,-8.110097 -3.339662 0.02010632,-8.100107 -2.89355 0.1726183,-8.604559 -4.768791 -0.2942548,-8.63131 -3.788547 -0.1862869,-8.682229 -3.335281 0.07817069,-8.742268 -3.206604 0.2882959,-8.925737 -4.901803 -0.2454571,-9.015445 -4.021322 -0.1505306,-9.05583 -3.625636 0.07514369,-9.080887 -3.49688 0.2617626,-9.231881 -5.229619 -0.1632946,-9.357776 -4.512758 -0.04550582,-9.399122 -4.169597 0.1219395,-9.39764 -3.99973 0.2539581,5.010,31 3 0
-1.299369 -7.964887 -3.597954,-1.876055 -7.417505 -3.265507,-2.261794 -6.564064 -3.005094,-2.432045 -5.748355 -2.787137,-2.609196 -5.026058 -2.555912,-2.003622 -6.306331 -2.766919,-2.155677 -5.503862 -2.273153,-2.209841 -4.891633 -1.920727,-2.207597 -4.209701 -1.678133,-1.621484 -6.260161 -2.756787,-1.691436 -5.473146 -2.242322,-1.691436 -5.473146 -2.242322,-1.640951 -4.213317 -1.578521,-1.23101 -6.300695 -2.732997,-1.221468 -5.556707 -2.292356,-1.243203 -5.039071 -1.899316,-1.245757 -4.525836 -1.599776,-0.8559861 -6.430702 -2.72354,-0.8347497 -5.750619 -2.395165,-0.8245974 -5.341827 -2.151625,-0.8098397 -4.927828 -1.92404,-8.758037 -7.431253 -0.3590851,-8.212831 -7.171061 -0.02599853,-7.8252 -6.498266 0.157825,-7.620267 -5.843979 0.3452092,-7.432066 -5.285173 0.5177416,-8.251276 -4.879121 -0.2895024,-8.136277 -3.927744 -0.192791,-8.109005 -3.336102 0.001707345,-8.097201 -2.88057 0.159044,-8.60795 -4.769901 -0.3051087,-8.633044 -3.789838 -0.2037199,-8.687284 -3.338398 0.07092664,-8.747074 -3.19722 0.297626,-8.926565 -4.903408 -0.2556092,-9.017828 -4.028123 -0.1651906,-9.06012 -3.63302 0.07166088,-9.085652 -3.495845 0.2722757,-9.230907 -5.228005 -0.1744104,-9.356928 -4.517641 -0.05226237,-9.398958 -4.184403 0.1269641,-9.396908 -4.019886 0.2723159,5.110,31 3 0
-1.159328 -8.36808 0.6591182,-1.895329 -7.531053 0.5776958,-2.298404 -6.586197 0.7685406,-2.467357 -5.4985 0.9972094,-2.422772 -4.546426 1.216321,-2.144258 -5.425575 0.6890813,-2.215051 -4.010927 0.6248866,-2.113082 -4.014576 0.6043019,-2.030492 -4.413038 0.5778944,-1.72918 -5.279137 0.8019052,-1.710809 -3.831485 0.6463756,-1.710809 -3.831485 0.6463756,-1.640102 -4.767625 0.6085335,-1.31065 -5.31414 0.9093434,-1.263687 -4.086422 0.661674,-1.274982 -4.514072 0.5626677,-1.312718 -5.043329 0.6187738,-0.9000263 -5.506727 1.001932,-0.8811693 -4.555433 0.8219055,-0.928865 -4.85132 0.7275845,-0.9947309 -5.313175 0.7347422,-8.759517 -7.415032 -0.3833542,-8.214119 -7.157147 -0.03910282,-7.82751 -6.489189 0.1609817,-7.626802 -5.830503 0.3603105,-7.440064 -5.253313 0.5436035,-8.247515 -4.870556 -0.2794349,-8.129405 -3.921211 -0.1752775,-8.103576 -3.334621 0.01127422,-8.096041 -2.871224 0.1513739,-8.604774 -4.761628 -0.3015087,-8.626148 -3.789659 -0.2044133,-8.679972 -3.336364 0.04445323,-8.742532 -3.172001 0.2478842,-8.925718 -4.892379 -0.2584698,-9.010364 -4.023954 -0.1758144,-9.052583 -3.618839 0.04364818,-9.08064 -3.452606 0.233083,-9.234413 -5.211557 -0.1829627,-9.356992 -4.503957 -0.07667771,-9.398254 -4.16467 0.08480713,-9.397517 -3.979879 0.2171053,5.210,31 3 0
-1.26573 -8.091616 0.3519809,-1.911277 -7.471111 0.5307978,-2.286889 -6.539526 0.7538459,-2.437158 -5.563489 1.053015,-2.447563 -4.677946 1.371866,-2.007239 -5.157611 -0.02643588,-2.137478 -4.086183 0.1274692,-2.127474 -3.758998 0.4447608,-2.063615 -3.924691 0.6919276,-1.649284 -5.073029 0.06279567,-1.673834 -3.812572 0.2654492,-1.673834 -3.812572 0.2654492,-1.691359 -4.313327 0.9413826,-1.296586 -5.165688 0.2124028,-1.253653 -4.033927 0.3436578,-1.322604 -4.069793 0.6921844,-1.376098 -4.479034 0.9067007,-0.9338398 -5.44338 0.397884,-0.8765602 -4.519783 0.5672565,-0.9659686 -4.501165 0.8139662,-1.058077 -4.840782 0.9991021,-8.763594 -7.387172 -0.4617412,-8.209988 -7.141674 -0.08743706,-7.819685 -6.472387 0.1263142,-7.619741 -5.815743 0.3354923,-7.437621 -5.226048 0.5337241,-8.24295 -4.851684 -0.3530766,-8.123814 -3.92229 -0.2500214,-8.104783 -3.35228 -0.06502074,-8.101023 -2.885072 0.07812834,-8.599783 -4.752206 -0.386357,-8.619594 -3.802799 -0.3111354,-8.677299 -3.331502 -0.07784438,-8.734846 -3.103867 0.1169552,-8.923341 -4.896371 -0.3600338,-8.999746 -4.036943 -0.2786385,-9.047855 -3.638429 -0.06312734,-9.077763 -3.45663 0.1208476,-9.233585 -5.219417 -0.2893653,-9.350039 -4.525569 -0.1894373,-9.399229 -4.188532 -0.03105167,-9.404061 -3.985561 0.09724605,5.310,31 3 0
-1.341877 -7.99561 0.3126352,-1.973641 -7.415468 0.5121394,-2.341963 -6.46026 0.6885893,-2.475319 -5.491688 0.9476759,-2.507292 -4.59968 1.221191,-2.014697 -5.099168 -0.1901568,-2.151727 -4.134513 0.02576771,-2.160348 -3.761871 0.4476542,-2.102083 -3.892721 0.7610582,-1.664243 -4.992686 -0.07757431,-1.680113 -3.797437 0.2053559,-1.680113 -3.797437 0.2053559,-1.754583 -4.097951 1.020576,-1.314334 -5.073108 0.1090786,-1.270192 -3.947058 0.3457887,-1.350827 -3.859046 0.7813764,-1.398318 -4.262495 1.043029,-0.9399562 -5.34649 0.3394612,-0.8758974 -4.417451 0.6128677,-0.993093 -4.296504 0.9198843,-1.106597 -4.597184 1.153067,-8.757426 -7.381402 -0.4506154,-8.200709 -7.141231 -0.05522043,-7.814465 -6.463385 0.1586059,-7.622071 -5.801902 0.3664312,-7.431441 -5.208519 0.5683473,-8.237862 -4.844684 -0.3465005,-8.119268 -3.919789 -0.2384862,-8.100245 -3.34695 -0.03794071,-8.100993 -2.87033 0.1251119,-8.593088 -4.747459 -0.3809814,-8.603631 -3.817241 -0.2846216,-8.659265 -3.353469 -0.006250173,-8.717932 -3.115989 0.2245234,-8.914571 -4.883522 -0.348329,-8.98132 -4.03305 -0.2461244,-9.02502 -3.641599 0.01924521,-9.054445 -3.451171 0.241694,-9.227612 -5.197444 -0.2767822,-9.348328 -4.514205 -0.1524586,-9.399945 -4.187952 0.04047331,-9.407567 -3.991333 0.1994161,5.410,31 3 0
-1.319246 -8.027037 0.1459458,-1.947123 -7.4155 0.3606661,-2.340158 -6.510808 0.5060831,-2.479227 -5.613161 0.7103863,-2.565608 -4.732982 0.9250067,-1.977721 -5.217775 -0.3123177,-2.135612 -4.293155 -0.1303163,-2.158848 -3.840164 0.2541837,-2.097306 -3.752216 0.5352669,-1.630081 -5.069452 -0.2310208,-1.699249 -4.027727 -0.08024748,-1.699249 -4.027727 -0.08024748,-1.692528 -3.789999 0.724061,-1.286379 -5.12092 -0.07132947,-1.287679 -4.102415 0.06322733,-1.312542 -3.747551 0.4813518,-1.324405 -3.878503 0.8033543,-0.9188714 -5.374835 0.136761,-0.8581443 -4.505933 0.3240089,-0.9384813 -4.189722 0.6137418,-1.039823 -4.261327 0.873436,-8.738328 -7.368478 -0.5566457,-8.180933 -7.100879 -0.1781333,-7.799932 -6.433519 0.04229319,-7.612395 -5.76904 0.2538475,-7.424495 -5.1858 0.4554054,-8.226208 -4.846641 -0.4368184,-8.11936 -3.90002 -0.3244272,-8.107389 -3.301966 -0.1454068,-8.116859 -2.783479 -0.0002673864,-8.579396 -4.765052 -0.4707832,-8.580983 -3.825966 -0.3887451,-8.626807 -3.333798 -0.151693,-8.677189 -3.013546 0.04206771,-8.900847 -4.897508 -0.4422594,-8.954779 -4.040791 -0.361882,-8.993575 -3.620367 -0.1429347,-9.021467 -3.353603 0.04285222,-9.215508 -5.192178 -0.3751366,-9.326023 -4.529494 -0.2912638,-9.376733 -4.180805 -0.144605,-9.387246 -3.926302 -0.02137303,5.510,31 3 0
-1.104641 -7.913559 0.1993693,-1.757075 -7.220861 0.3212103,-2.222418 -6.324316 0.3829287,-2.436872 -5.387257 0.6235372,-2.585723 -4.496182 0.9222752,-1.675401 -5.15558 -0.4436299,-1.710596 -4.18329 -0.3200789,-1.75564 -3.611248 -0.05261364,-1.833884 -3.281948 0.2026878,-1.125813 -5.094889 -0.3396536,-1.171947 -3.992802 -0.3186185,-1.171947 -3.992802 -0.3186185,-1.274531 -3.354306 0.4339877,-0.6178193 -5.224049 -0.1307398,-0.6525507 -4.16572 -0.1012087,-0.6974068 -3.663604 0.2732693,-0.8197041 -3.685366 0.6162698,-0.07164955 -5.492446 0.0709399,-0.04032183 -4.568502 0.2256644,-0.1735106 -4.144801 0.485988,-0.3743567 -4.204162 0.7725266,-8.741131 -7.363555 -0.524729,-7.802276 -7.138277 -0.1838515,-7.351336 -6.420621 0.08044574,-6.55281 -5.845787 0.3375905,-6.247011 -5.104845 0.6505778,-7.024894 -4.861431 -0.3545191,-6.847076 -3.88208 -0.3345344,-6.804437 -3.198705 -0.1177267,-6.794584 -2.591524 0.0641415,-7.472342 -4.749979 -0.4206088,-7.410594 -3.762678 -0.358757,-7.704296 -3.220419 -0.08089575,-7.75256 -2.807744 0.1519572,-7.948388 -4.968206 -0.477673,-8.098614 -4.011736 -0.3975213,-8.196846 -3.502426 -0.1528649,-8.206637 -3.165068 0.111831,-8.414994 -5.324457 -0.4506069,-8.696764 -4.585907 -0.3017612,-8.735066 -4.125555 -0.1409499,-8.735478 -3.757035 0.004569836,5.610,31 3 0
-1.13239 -7.90059 -0.2489035,-1.804758 -7.266003 -0.1562551,-2.258872 -6.373939 -0.1234008,-2.47846 -5.430079 0.05977988,-2.716427 -4.632697 0.2989331,-1.705138 -5.209197 -0.659108,-1.737326 -4.239307 -0.5160326,-1.804763 -3.632546 -0.3330969,-1.914903 -3.064542 -0.1906639,-1.167836 -5.127739 -0.5784946,-1.243869 -4.090871 -0.5724505,-1.243869 -4.090871 -0.5724505,-1.402245 -2.906341 -0.1468844,-0.6577244 -5.273225 -0.3962039,-0.7087345 -4.236806 -0.3987372,-0.7774253 -3.584533 -0.1906822,-0.8599319 -3.068679 0.05565486,-0.1167097 -5.599495 -0.2245642,-0.09604359 -4.735574 -0.1208701,-0.1681504 -4.141116 0.06843743,-0.3046665 -3.626291 0.2874221,-8.740398 -7.38101 -0.5086499,-7.79738 -7.147221 -0.1560775,-7.348217 -6.402296 0.1058577,-6.555733 -5.802173 0.3641098,-6.235958 -5.068176 0.679134,-7.017937 -4.871488 -0.3200727,-6.84195 -3.891271 -0.2955324,-6.804002 -3.206554 -0.07613453,-6.801506 -2.594087 0.107528,-7.467031 -4.763136 -0.3825593,-7.407817 -3.77654 -0.3105613,-7.703556 -3.218735 -0.02684392,-7.753344 -2.78929 0.205185,-7.942375 -4.980213 -0.4329313,-8.093335 -4.016891 -0.3443581,-8.190638 -3.479192 -0.08670369,-8.200844 -3.110336 0.1845492,-8.40865 -5.338037 -0.4006761,-8.689156 -4.598416 -0.2354611,-8.727262 -4.121469 -0.05872193,-8.727223 -3.723276 0.09830868,5.710,31 3 0
-1.373191 -7.910164 -0.2727732,-2.003797 -7.460498 -0.07521415,-2.409655 -6.599801 -0.006411463,-2.59574 -5.757177 0.1265259,-2.765758 -5.004589 0.2872452,-1.985362 -5.183691 -0.5388651,-2.105257 -4.216238 -0.4646415,-2.207687 -3.643137 -0.3698442,-2.302327 -3.092104 -0.2906431,-1.632785 -5.050962 -0.4754519,-1.700652 -4.048495 -0.46546,-1.700652 -4.048495 -0.46546,-1.87828 -2.900637 -0.228402,-1.287748 -5.144775 -0.3310728,-1.284583 -4.158077 -0.295469,-1.34854 -3.553744 -0.1158282,-1.419907 -3.082326 0.03697494,-0.9395127 -5.441217 -0.1323849,-0.905571 -4.632965 -0.03943799,-0.9430666 -4.087121 0.1161895,-1.000359 -3.612371 0.2539605,-8.745375 -7.374786 -0.5177009,-8.179487 -7.111116 -0.1404003,-7.794344 -6.433961 0.07625794,-7.606201 -5.756656 0.2847079,-7.415264 -5.153743 0.4786697,-8.21882 -4.846609 -0.3997822,-8.114778 -3.891916 -0.2895834,-8.108452 -3.297124 -0.1214811,-8.123212 -2.768261 0.008782804,-8.572963 -4.761222 -0.4264144,-8.57447 -3.820331 -0.3415906,-8.622873 -3.321824 -0.1097408,-8.671578 -2.971309 0.08173174,-8.895216 -4.889586 -0.3903847,-8.948685 -4.025587 -0.3013791,-8.988745 -3.592387 -0.07763389,-9.01644 -3.304931 0.111213,-9.209706 -5.175863 -0.3165427,-9.319159 -4.505731 -0.2204194,-9.366544 -4.155262 -0.07042915,-9.373346 -3.895713 0.05401349,5.810,31 3 0
-1.363056 -7.932954 -0.2571738,-1.986524 -7.513068 -0.03107075,-2.400171 -6.684453 0.05523279,-2.607744 -5.85036 0.1983579,-2.810137 -5.10499 0.3634963,-1.986468 -5.209182 -0.466914,-2.113377 -4.222208 -0.3734125,-2.208319 -3.622246 -0.2771201,-2.288929 -3.055736 -0.1985681,-1.632415 -5.067657 -0.4200684,-1.709776 -4.042209 -0.4007395,-1.709776 -4.042209 -0.4007395,-1.875091 -2.852121 -0.1818796,-1.281914 -5.151807 -0.2882468,-1.284255 -4.143687 -0.2517052,-1.345563 -3.492482 -0.08581133,-1.406901 -2.968282 0.06900373,-0.9278059 -5.453 -0.1021527,-0.8869524 -4.642177 -0.02002011,-0.9184332 -4.069702 0.1384882,-0.9640512 -3.565921 0.2828678,-8.744013 -7.4092 -0.456767,-8.185894 -7.127169 -0.0494681,-7.800652 -6.462434 0.1786358,-7.609888 -5.784801 0.3966358,-7.415317 -5.171054 0.6010673,-8.221485 -4.842104 -0.3187663,-8.113929 -3.893435 -0.2077307,-8.112202 -3.289453 -0.03718087,-8.133783 -2.752742 0.09913218,-8.578487 -4.752428 -0.3615568,-8.57735 -3.818978 -0.2576017,-8.626084 -3.343179 -0.01482606,-8.679152 -3.024995 0.1776296,-8.905716 -4.877629 -0.3398676,-8.952969 -4.021745 -0.235193,-8.993237 -3.609248 -0.00309217,-9.023542 -3.346096 0.1870617,-9.228556 -5.171573 -0.2782749,-9.331131 -4.491638 -0.1714067,-9.373896 -4.154268 -0.009833485,-9.375363 -3.916226 0.1237954,5.910,31 3 0
-1.39043 -7.977687 -0.2107003,-2.012268 -7.520053 0.05043414,-2.424263 -6.680152 0.165076,-2.623937 -5.851839 0.3368318,-2.832934 -5.101131 0.5347217,-1.985553 -5.206878 -0.3420241,-2.104707 -4.220596 -0.202371,-2.200776 -3.627553 -0.07930987,-2.285921 -3.062889 0.01793131,-1.62665 -5.0927 -0.292757,-1.68068 -4.063735 -0.2149592,-1.68068 -4.063735 -0.2149592,-1.837342 -2.862226 0.04661423,-1.280072 -5.211169 -0.1550265,-1.262467 -4.199831 -0.06439982,-1.318867 -3.537717 0.126269,-1.37745 -3.000907 0.2947893,-0.9318852 -5.54203 0.03720912,-0.8743935 -4.727314 0.1643199,-0.8991299 -4.142715 0.3448257,-0.9338541 -3.621002 0.4994914,-8.744917 -7.402282 -0.4914508,-8.185706 -7.125099 -0.1163878,-7.806859 -6.445194 0.09819102,-7.62179 -5.764904 0.3061942,-7.43228 -5.16445 0.502059,-8.232681 -4.859403 -0.3695633,-8.12841 -3.90038 -0.2638857,-8.122796 -3.309565 -0.1045339,-8.13624 -2.790347 0.01987255,-8.589183 -4.780195 -0.3996814,-8.590803 -3.832098 -0.3259567,-8.640428 -3.335897 -0.1085779,-8.688795 -2.994872 0.06970638,-8.91351 -4.916442 -0.3667846,-8.965475 -4.047247 -0.2869827,-9.004632 -3.606266 -0.07527128,-9.030166 -3.309859 0.1039874,-9.229918 -5.217365 -0.2981132,-9.335711 -4.546757 -0.2058761,-9.383712 -4.180994 -0.05850503,-9.391909 -3.895994 0.06216937,6.010,31 3 0
-1.372517 -8.014511 -0.1312785,-2.002718 -7.575311 0.1320968,-2.428822 -6.752897 0.2419118,-2.629125 -5.924512 0.4004219,-2.811276 -5.160238 0.5801433,-1.98379 -5.238063 -0.2756716,-2.104319 -4.246416 -0.1664023,-2.20036 -3.651216 -0.05932531,-2.284523 -3.084498 0.03171265,-1.624842 -5.108617 -0.2294181,-1.698077 -4.077213 -0.187068,-1.698077 -4.077213 -0.187068,-1.854067 -2.851636 0.0658766,-1.274195 -5.221361 -0.0974472,-1.28078 -4.207429 -0.02734544,-1.337478 -3.545301 0.1633788,-1.392752 -3.005815 0.3362326,-0.9165897 -5.551916 0.09179552,-0.8742676 -4.736076 0.2118369,-0.9021878 -4.150097 0.4010494,-0.9396763 -3.625244 0.572037,-8.761444 -7.400915 -0.4463026,-8.205935 -7.136268 -0.07761964,-7.825652 -6.451765 0.1349627,-7.642955 -5.763361 0.340646,-7.448616 -5.165154 0.5328826,-8.251377 -4.848901 -0.3370376,-8.154214 -3.886484 -0.224303,-8.147429 -3.283347 -0.05463862,-8.158194 -2.763687 0.07659984,-8.611265 -4.765096 -0.3689206,-8.616302 -3.805112 -0.2737918,-8.66294 -3.317062 -0.04284894,-8.71026 -3.014125 0.1406678,-8.936929 -4.904629 -0.336916,-8.995919 -4.019841 -0.2504463,-9.037367 -3.599281 -0.0367848,-9.065986 -3.337617 0.1406773,-9.253329 -5.215086 -0.2707043,-9.35638 -4.52489 -0.1826579,-9.398638 -4.167966 -0.0320664,-9.401516 -3.905701 0.09181648,6.110,31 3 0
-1.367273 -8.020674 -0.1668878,-2.003732 -7.593494 0.122225,-2.428686 -6.79421 0.2582974,-2.635105 -5.97622 0.4332815,-2.843813 -5.240356 0.6246826,-2.010279 -5.25922 -0.2170681,-2.12877 -4.270599 -0.07924053,-2.208866 -3.68058 0.04888809,-2.27577 -3.12704 0.1516436,-1.648046 -5.126035 -0.1895369,-1.726471 -4.107924 -0.1251329,-1.726471 -4.107924 -0.1251329,-1.87086 -2.912102 0.1542223,-1.293067 -5.23804 -0.07734001,-1.295729 -4.234994 0.008087799,-1.345419 -3.578376 0.2036574,-1.395655 -3.025172 0.3852465,-0.9374876 -5.573648 0.08754599,-0.8803329 -4.776159 0.2173412,-0.9005356 -4.201241 0.4044752,-0.932394 -3.66896 0.5770615,-8.777791 -7.42418 -0.4307202,-8.22147 -7.160156 -0.05302307,-7.84276 -6.471651 0.1634981,-7.65648 -5.790676 0.3758665,-7.464971 -5.184356 0.5776309,-8.266874 -4.870636 -0.3007921,-8.156152 -3.908773 -0.178529,-8.142211 -3.307724 0.002585232,-8.147803 -2.783603 0.1422845,-8.625854 -4.785028 -0.3241622,-8.628113 -3.828071 -0.2171495,-8.682066 -3.335375 0.02355924,-8.737513 -3.018773 0.2163888,-8.952519 -4.926054 -0.2842102,-9.006532 -4.048911 -0.1797002,-9.051133 -3.628845 0.04911825,-9.082964 -3.370397 0.2426317,-9.270477 -5.240201 -0.208835,-9.372016 -4.549648 -0.09663156,-9.415571 -4.201734 0.06891489,-9.419423 -3.956521 0.2077922,6.210,31 3 0
-1.326014 -7.984951 -0.2242222,-1.963755 -7.606222 0.1213173,-2.408086 -6.816871 0.2727607,-2.627339 -6.018959 0.459551,-2.82297 -5.280817 0.6663442,-2.010774 -5.24857 -0.2146953,-2.13892 -4.25324 -0.05935699,-2.216184 -3.654069 0.07833073,-2.272869 -3.093795 0.1963244,-1.637803 -5.1099 -0.2015296,-1.720537 -4.073425 -0.1072228,-1.720537 -4.073425 -0.1072228,-1.8439 -2.90399 0.1953542,-1.273329 -5.209548 -0.100584,-1.277534 -4.195657 0.02447701,-1.325207 -3.543306 0.2511761,-1.373413 -3.005188 0.4496287,-0.9071593 -5.531894 0.0576947,-0.8742065 -4.727186 0.2191664,-0.9074969 -4.173097 0.4258068,-0.9559941 -3.668986 0.6079786,-8.793258 -7.453775 -0.4244836,-8.235958 -7.174081 -0.04225993,-7.851484 -6.478677 0.1744795,-7.662705 -5.79042 0.3862759,-7.470893 -5.181391 0.5886863,-8.270318 -4.900554 -0.2842219,-8.154605 -3.945787 -0.1610426,-8.138663 -3.356008 0.01237717,-8.14286 -2.830403 0.1442149,-8.628302 -4.813898 -0.3111705,-8.625293 -3.860466 -0.2089226,-8.674097 -3.377252 0.03155211,-8.727976 -3.039076 0.2244501,-8.953542 -4.949898 -0.2772006,-9.002808 -4.075485 -0.173038,-9.044879 -3.657537 0.04820451,-9.078622 -3.381258 0.2393517,-9.272262 -5.256063 -0.2071039,-9.376809 -4.565123 -0.1024756,-9.420449 -4.226882 0.04918185,-9.428496 -3.982988 0.1793513,6.310,31 3 0
-1.34282 -8.027506 -0.1223635,-1.97098 -7.627817 0.197304,-2.410456 -6.826768 0.3376079,-2.622639 -6.027462 0.5127787,-2.818511 -5.283521 0.7091079,-1.994657 -5.252628 -0.1530504,-2.12182 -4.264234 -0.02159856,-2.224269 -3.675175 0.09787427,-2.322238 -3.123846 0.2011718,-1.628318 -5.12045 -0.1355993,-1.71809 -4.109451 -0.06455635,-1.71809 -4.109451 -0.06455635,-1.906156 -2.952233 0.2136517,-1.269392 -5.233654 -0.03143457,-1.285817 -4.243507 0.06085631,-1.349104 -3.598242 0.265822,-1.413758 -3.05689 0.4550503,-0.907897 -5.566066 0.1295671,-0.8618851 -4.777532 0.2641596,-0.8925076 -4.212363 0.4645144,-0.9328504 -3.699696 0.6403928,-8.795792 -7.472206 -0.4155141,-8.231719 -7.196542 -0.0275737,-7.852461 -6.513465 0.1935035,-7.669722 -5.845998 0.4074097,-7.487298 -5.239828 0.6155328,-8.288374 -4.916831 -0.2535179,-8.180561 -3.96283 -0.1141188,-8.168722 -3.382496 0.08146587,-8.172893 -2.872048 0.2383097,-8.647211 -4.830147 -0.2742767,-8.653247 -3.870246 -0.1396299,-8.7015 -3.390138 0.1435724,-8.751844 -3.0788 0.3678721,-8.971882 -4.973369 -0.2351519,-9.031333 -4.091699 -0.1043849,-9.071514 -3.673782 0.1502468,-9.096668 -3.412224 0.3621664,-9.288444 -5.291831 -0.1612329,-9.397564 -4.595403 -0.01875344,-9.437428 -4.250801 0.1644523,-9.434168 -4.015834 0.3160233,6.410,31 3 0
-1.353909 -8.077522 -0.2070349,-1.979559 -7.664544 0.1243097,-2.402108 -6.872684 0.2886083,-2.602265 -6.069627 0.481919,-2.807475 -5.326328 0.6963961,-1.97947 -5.321158 -0.1333811,-2.113683 -4.322116 0.03726497,-2.212664 -3.731193 0.167108,-2.303339 -3.169001 0.2733917,-1.60622 -5.193279 -0.1091541,-1.688142 -4.165885 0.0168034,-1.688142 -4.165885 0.0168034,-1.867663 -2.992972 0.3392675,-1.247334 -5.315387 -0.007927373,-1.246629 -4.310313 0.1337842,-1.313506 -3.662657 0.3672963,-1.385566 -3.121563 0.5775942,-0.8970041 -5.660193 0.1468692,-0.8442326 -4.868406 0.3241163,-0.8787041 -4.295031 0.5464381,-0.930099 -3.762614 0.7433605,-8.787871 -7.484439 -0.3957865,-8.235899 -7.204685 -0.01656425,-7.866528 -6.527055 0.2011321,-7.688784 -5.859031 0.4162169,-7.506795 -5.258892 0.6277877,-8.300194 -4.917951 -0.277549,-8.196838 -3.969984 -0.1487137,-8.181649 -3.387682 0.04895836,-8.182727 -2.889163 0.2088856,-8.656126 -4.834024 -0.2937802,-8.667854 -3.87371 -0.1766907,-8.719963 -3.39492 0.09756473,-8.772345 -3.108943 0.3197899,-8.978643 -4.984012 -0.2442622,-9.0463 -4.101789 -0.1279848,-9.088532 -3.689474 0.1295753,-9.115474 -3.448278 0.3473929,-9.292916 -5.314897 -0.1590566,-9.409093 -4.615341 -0.02294046,-9.451929 -4.270439 0.1696085,-9.449704 -4.045232 0.3313667,6.510,31 3 0
-1.077639 -7.994587 -0.385614,-1.769935 -7.5464 -0.0344902,-2.273066 -6.711654 0.1159258,-2.528945 -5.819662 0.356411,-2.780662 -5.027444 0.6400954,-1.714312 -5.350841 -0.3569189,-1.748178 -4.311687 -0.09524533,-1.847033 -3.636501 0.1024912,-1.969143 -2.990321 0.2814985,-1.127213 -5.304135 -0.3356078,-1.221557 -4.194413 -0.198586,-1.221557 -4.194413 -0.198586,-1.397981 -2.901272 0.3214986,-0.5905113 -5.483043 -0.2144343,-0.639029 -4.413195 -0.103854,-0.7062769 -3.709994 0.1867745,-0.7706132 -3.111494 0.4954039,-0.04023647 -5.842662 -0.11104,0.007330418 -4.979883 0.0869852,-0.05857134 -4.357209 0.3582572,-0.1770453 -3.785068 0.6066211,-8.814066 -7.492269 -0.3914461,-7.886925 -7.266757 -0.03305259,-7.443705 -6.521286 0.2314097,-6.660762 -5.913076 0.4963678,-6.347368 -5.194368 0.8225407,-7.131974 -4.958843 -0.1823789,-6.945533 -3.97639 -0.135375,-6.913982 -3.305041 0.1326798,-6.917625 -2.719661 0.3661968,-7.578923 -4.826804 -0.2399272,-7.508127 -3.819864 -0.1023346,-7.838952 -3.304792 0.2472513,-7.930655 -2.981244 0.5590508,-8.044578 -5.047515 -0.2744378,-8.230231 -4.084959 -0.1408001,-8.335996 -3.603929 0.184403,-8.377256 -3.351101 0.5142497,-8.522151 -5.445607 -0.2441977,-8.803234 -4.663658 -0.02415613,-8.838883 -4.230234 0.2202664,-8.837817 -3.950747 0.4504673,6.610,31 3 0
-1.049192 -8.031708 -0.4509396,-1.72913 -7.580337 -0.09837607,-2.228398 -6.751012 0.07649384,-2.481054 -5.869253 0.3404402,-2.760008 -5.106452 0.6553795,-1.67829 -5.405511 -0.3476681,-1.720744 -4.37104 -0.04833705,-1.826241 -3.688954 0.1836435,-1.958606 -3.038872 0.3894739,-1.093036 -5.362751 -0.3055127,-1.195846 -4.253107 -0.1206203,-1.195846 -4.253107 -0.1206203,-1.382555 -2.971313 0.4627058,-0.5558314 -5.551805 -0.1675931,-0.6084223 -4.472881 -0.01336411,-0.6836557 -3.775062 0.3001408,-0.7572966 -3.183961 0.623054,-0.003607273 -5.921808 -0.05255078,0.0353837 -5.046249 0.1826121,-0.03063011 -4.42101 0.4658818,-0.1457539 -3.845176 0.7235398,-8.831996 -7.525123 -0.3068696,-7.898607 -7.294544 0.04797366,-7.452549 -6.545878 0.3109094,-6.672638 -5.942226 0.5747218,-6.372227 -5.218738 0.8956699,-7.14204 -4.966669 -0.1110542,-6.958885 -3.987158 -0.06599358,-6.928755 -3.318887 0.1861866,-6.933558 -2.721807 0.3996189,-7.591477 -4.835837 -0.1649499,-7.523618 -3.842353 -0.04943786,-7.842604 -3.331504 0.2825655,-7.921675 -2.981475 0.5631586,-8.066641 -5.06737 -0.2010703,-8.236764 -4.110986 -0.06792677,-8.342924 -3.619176 0.2394023,-8.370091 -3.333753 0.5502979,-8.54237 -5.45856 -0.1594178,-8.8262 -4.693802 0.04980331,-8.86225 -4.252862 0.2728409,-8.854402 -3.950498 0.477739,6.710,31 3 0
-1.270122 -8.097582 -0.3609867,-1.879554 -7.748376 -0.02300736,-2.312256 -6.934267 0.130122,-2.51816 -6.153432 0.3077626,-2.759542 -5.507644 0.5030491,-1.909979 -5.389957 -0.2116158,-2.060354 -4.39994 -0.02375141,-2.154859 -3.814165 0.111883,-2.244141 -3.254297 0.2357054,-1.533324 -5.262079 -0.18838,-1.627273 -4.262252 -0.02621329,-1.627273 -4.262252 -0.02621329,-1.804955 -3.134238 0.3449831,-1.168769 -5.383684 -0.08952931,-1.164535 -4.423812 0.08448339,-1.225603 -3.82171 0.3351249,-1.299833 -3.290931 0.5575219,-0.8141556 -5.726743 0.04907861,-0.7476606 -4.973298 0.2485713,-0.7778025 -4.45762 0.4777852,-0.8267946 -3.965692 0.6685201,-8.842893 -7.548082 -0.2290066,-8.292409 -7.279258 0.1693711,-7.920741 -6.57929 0.3890405,-7.744088 -5.904411 0.6018912,-7.573516 -5.30928 0.8145857,-8.362782 -4.933584 -0.09985271,-8.262763 -3.998281 0.01169334,-8.268476 -3.412165 0.2059101,-8.294912 -2.901533 0.3702648,-8.720096 -4.849416 -0.1292315,-8.731174 -3.911812 -0.03280279,-8.800211 -3.46588 0.2317846,-8.876059 -3.209297 0.4552004,-9.047185 -5.005929 -0.09255932,-9.10895 -4.152877 0.01373205,-9.162187 -3.758574 0.2693414,-9.202447 -3.540589 0.4944234,-9.367703 -5.351734 -0.01704721,-9.48817 -4.667968 0.1072824,-9.546233 -4.336931 0.2949241,-9.559851 -4.128152 0.4589615,6.810,31 3 0
-1.252569 -8.086039 -0.4215522,-1.872446 -7.776252 -0.04125157,-2.311062 -6.975029 0.1301299,-2.511216 -6.184792 0.3199348,-2.759421 -5.543466 0.5244011,-1.9147 -5.40241 -0.1969985,-2.070491 -4.423309 0.01694196,-2.164682 -3.841338 0.1691447,-2.251776 -3.275489 0.2984069,-1.531069 -5.274155 -0.1834112,-1.632002 -4.291563 0.01218721,-1.632002 -4.291563 0.01218721,-1.81038 -3.178105 0.4161588,-1.162007 -5.404871 -0.09421161,-1.164944 -4.458565 0.1112659,-1.232072 -3.877669 0.3725027,-1.308141 -3.356094 0.6033367,-0.8002653 -5.763698 0.03543907,-0.7451968 -5.017 0.2627339,-0.7742615 -4.513215 0.5069506,-0.8211532 -4.016201 0.7081643,-8.854131 -7.538359 -0.2972478,-8.304955 -7.278408 0.08888447,-7.930367 -6.598485 0.3127646,-7.756918 -5.927548 0.5313924,-7.593603 -5.327428 0.7475008,-8.379468 -4.959789 -0.1561053,-8.279318 -4.015174 -0.02729669,-8.282022 -3.435747 0.1743131,-8.306961 -2.945876 0.3441563,-8.737877 -4.85992 -0.1739554,-8.751523 -3.897163 -0.05625626,-8.825784 -3.445167 0.2174129,-8.912955 -3.212465 0.4501684,-9.067878 -5.008657 -0.1246977,-9.136115 -4.137194 -0.002602071,-9.193754 -3.738422 0.2616156,-9.240342 -3.536533 0.4959241,-9.393741 -5.351352 -0.03931069,-9.515782 -4.644989 0.107819,-9.568944 -4.318104 0.3107458,-9.576406 -4.134533 0.4865335,6.910,31 3 0
-1.272752 -8.084856 -0.5314721,-1.887831 -7.76181 -0.1749957,-2.327929 -6.966756 -0.01582497,-2.534248 -6.187683 0.1613339,-2.775435 -5.561395 0.3492666,-1.919415 -5.418997 -0.327508,-2.075132 -4.445579 -0.1204461,-2.165583 -3.860867 0.02086478,-2.246865 -3.296261 0.1404552,-1.539552 -5.302377 -0.3066354,-1.636353 -4.326388 -0.1224561,-1.636353 -4.326388 -0.1224561,-1.808069 -3.208884 0.2547748,-1.171713 -5.436983 -0.2146097,-1.173222 -4.496797 -0.02422023,-1.23757 -3.916894 0.2177006,-1.314012 -3.408119 0.4323252,-0.8086576 -5.790543 -0.08061376,-0.7548566 -5.039667 0.1296251,-0.7861876 -4.53773 0.3579247,-0.835433 -4.054174 0.5462623,-8.86693 -7.558242 -0.2977577,-8.322126 -7.30466 0.09074423,-7.95198 -6.625346 0.3147085,-7.782379 -5.94955 0.5314511,-7.620195 -5.353757 0.7407092,-8.381904 -4.98233 -0.1326517,-8.282209 -4.026399 -0.0008821487,-8.285193 -3.448913 0.1947319,-8.310961 -2.960759 0.3493141,-8.741805 -4.881629 -0.1494483,-8.757767 -3.913743 -0.0198752,-8.839667 -3.462376 0.2524615,-8.934916 -3.230138 0.4732535,-9.073083 -5.031831 -0.09949221,-9.144996 -4.157871 0.02896553,-9.20806 -3.753016 0.2879723,-9.261847 -3.54089 0.5131686,-9.397319 -5.380418 -0.016307,-9.520463 -4.680697 0.1301501,-9.581328 -4.343715 0.3309004,-9.602562 -4.138967 0.4978769,7.010,31 3 0
-1.26392 -8.090799 -0.5560518,-1.883225 -7.765844 -0.1864697,-2.327748 -6.971206 -0.01090807,-2.533929 -6.197706 0.1724399,-2.775865 -5.579001 0.3679621,-1.940108 -5.452091 -0.2864296,-2.095492 -4.474543 -0.06243426,-2.178105 -3.883657 0.1001933,-2.255612 -3.324853 0.2363514,-1.559495 -5.323802 -0.2718779,-1.646196 -4.348693 -0.0664328,-1.646196 -4.348693 -0.0664328,-1.803394 -3.243455 0.3614604,-1.191576 -5.446773 -0.1874608,-1.188475 -4.511877 0.01883847,-1.243268 -3.933322 0.2809183,-1.316117 -3.420263 0.5149907,-0.833456 -5.788572 -0.0667901,-0.7715049 -5.043111 0.1545377,-0.7933426 -4.546596 0.3856487,-0.8367434 -4.060866 0.5771532,-8.878081 -7.585197 -0.2376286,-8.329778 -7.321325 0.150332,-7.955511 -6.629097 0.3681638,-7.787052 -5.950767 0.5801738,-7.617094 -5.363307 0.7893441,-8.384408 -4.987967 -0.0828061,-8.295904 -4.04223 0.04000172,-8.303046 -3.467041 0.2244283,-8.329201 -2.968158 0.3701597,-8.746371 -4.891016 -0.1013841,-8.767539 -3.934625 0.007801667,-8.841498 -3.478842 0.2636445,-8.925467 -3.21698 0.4725301,-9.077306 -5.043346 -0.05423272,-9.151007 -4.173581 0.06440836,-9.209963 -3.76526 0.3128561,-9.258088 -3.537055 0.5305734,-9.401521 -5.390163 0.02839172,-9.523462 -4.688725 0.1662959,-9.580735 -4.34973 0.3565188,-9.598491 -4.139734 0.5156271,7.110,31 3 0
-1.262583 -8.104729 -0.4996084,-1.884053 -7.770158 -0.1017961,-2.337415 -7.01186 0.1109473,-2.552417 -6.230939 0.3282847,-2.784006 -5.568312 0.5513676,-1.962162 -5.478433 -0.1526309,-2.133938 -4.514634 0.09459603,-2.218231 -3.934117 0.2705144,-2.294923 -3.388706 0.4147916,-1.576961 -5.33209 -0.1409025,-1.682391 -4.364928 0.09206206,-1.682391 -4.364928 0.09206206,-1.845809 -3.259233 0.5559481,-1.203346 -5.45232 -0.06351879,-1.212284 -4.518519 0.1696708,-1.270016 -3.938671 0.4545475,-1.34737 -3.431963 0.710269,-0.8366022 -5.80214 0.05126035,-0.7822313 -5.048542 0.2967903,-0.8094225 -4.54602 0.5556613,-0.8667464 -4.054608 0.7726123,-8.883872 -7.582969 -0.2538803,-8.331016 -7.310199 0.1397113,-7.952248 -6.620609 0.3617126,-7.780061 -5.945401 0.5828491,-7.618132 -5.34719 0.7978249,-8.394774 -4.987775 -0.1356042,-8.298491 -4.040927 -0.02206445,-8.301918 -3.461142 0.1716392,-8.323543 -2.958507 0.3321738,-8.753649 -4.891674 -0.1566007,-8.77184 -3.939847 -0.05078749,-8.84779 -3.482252 0.2176341,-8.932998 -3.227963 0.4400554,-9.081612 -5.036673 -0.1080881,-9.154707 -4.173435 0.003694177,-9.215631 -3.773126 0.2579546,-9.264769 -3.560925 0.4788362,-9.404041 -5.372495 -0.02092415,-9.531347 -4.670197 0.1130629,-9.5871 -4.348975 0.3026403,-9.601567 -4.167839 0.4630505,7.210,31 3 0
-1.280871 -8.101316 -0.4855673,-1.904586 -7.810236 -0.1080007,-2.362715 -7.056219 0.06670666,-2.576383 -6.275167 0.2575775,-2.801191 -5.640346 0.4580842,-1.974907 -5.460466 -0.2611635,-2.12505 -4.498912 -0.04732555,-2.218542 -3.928381 0.1135288,-2.316466 -3.382936 0.2493879,-1.592082 -5.311285 -0.2475134,-1.689283 -4.350372 -0.06363893,-1.689283 -4.350372 -0.06363893,-1.872079 -3.270622 0.3666304,-1.219465 -5.427846 -0.1644772,-1.223023 -4.499374 0.028144,-1.286255 -3.940837 0.2876787,-1.370879 -3.466299 0.5195752,-0.8490934 -5.767084 -0.03748861,-0.7956052 -5.026144 0.1788999,-0.8276701 -4.539321 0.4123116,-0.8860669 -4.083873 0.6049833,-8.887283 -7.58724 -0.3262783,-8.332504 -7.313797 0.07223523,-7.961843 -6.63963 0.3075188,-7.79463 -5.960575 0.5343495,-7.619187 -5.355996 0.7562565,-8.398853 -5.020387 -0.1484441,-8.305447 -4.060516 -0.007673293,-8.309002 -3.48213 0.1956207,-8.331035 -2.99628 0.3571071,-8.757514 -4.919466 -0.1697718,-8.77912 -3.941989 -0.03689945,-8.852643 -3.469331 0.2382438,-8.936237 -3.207537 0.4672717,-9.086957 -5.065481 -0.1250526,-9.165443 -4.177834 0.005522549,-9.22654 -3.77357 0.2674677,-9.278249 -3.559 0.4946265,-9.411348 -5.401884 -0.04599905,-9.536851 -4.688676 0.1010482,-9.592568 -4.360728 0.2981614,-9.610141 -4.171404 0.4651702,7.310,31 3 0
-1.292273 -8.072765 -0.5796848,-1.914785 -7.778625 -0.1685556,-2.368338 -7.038618 0.04115278,-2.580356 -6.282105 0.251092,-2.805605 -5.647933 0.4593288,-1.988599 -5.466672 -0.2317189,-2.144766 -4.498168 0.01016003,-2.240166 -3.933489 0.1704462,-2.343808 -3.39399 0.303138,-1.604239 -5.321596 -0.2323834,-1.706417 -4.357108 -0.0001251101,-1.706417 -4.357108 -0.0001251101,-1.88867 -3.278619 0.4428043,-1.232239 -5.439388 -0.1678158,-1.239525 -4.504086 0.06183279,-1.301143 -3.937919 0.3349416,-1.387268 -3.432328 0.5825754,-0.8664689 -5.782943 -0.06252855,-0.8036509 -5.042548 0.1751342,-0.8292036 -4.547922 0.4241614,-0.8831778 -4.06489 0.6330694,-8.879601 -7.598884 -0.2804019,-8.331593 -7.327394 0.1318929,-7.957729 -6.647897 0.3666188,-7.790918 -5.983016 0.594549,-7.634215 -5.382058 0.8146569,-8.399493 -5.010601 -0.1142208,-8.306878 -4.061966 0.02321708,-8.313484 -3.485301 0.2311357,-8.338243 -2.990493 0.4006457,-8.759499 -4.916854 -0.13553,-8.779294 -3.958734 0.004181802,-8.855558 -3.495293 0.2952523,-8.939343 -3.241934 0.5316548,-9.089094 -5.065477 -0.09000762,-9.162225 -4.19058 0.04871339,-9.224485 -3.781572 0.3255576,-9.272817 -3.564754 0.5634376,-9.412056 -5.406909 -0.00509423,-9.53345 -4.698308 0.154635,-9.588116 -4.361846 0.3667973,-9.598563 -4.164876 0.5455896,7.410,31 3 0
-1.299286 -8.104021 -0.5666322,-1.923904 -7.813396 -0.1898103,-2.377736 -7.063291 -0.006035805,-2.590293 -6.297212 0.1886402,-2.820494 -5.660314 0.3987702,-1.989263 -5.47681 -0.3210722,-2.147399 -4.50301 -0.09191546,-2.243099 -3.925702 0.07339078,-2.339373 -3.384319 0.209547,-1.601946 -5.33855 -0.3054812,-1.702508 -4.367584 -0.1035238,-1.702508 -4.367584 -0.1035238,-1.889047 -3.282016 0.3175281,-1.228046 -5.460115 -0.2188393,-1.23608 -4.515871 -0.0148834,-1.303658 -3.949852 0.2375025,-1.390135 -3.467892 0.4604714,-0.8547544 -5.801449 -0.08978835,-0.8010359 -5.052656 0.1297979,-0.8346806 -4.561677 0.3633683,-0.8921571 -4.102972 0.5515343,-8.888241 -7.617977 -0.2938005,-8.337549 -7.341178 0.1284043,-7.96588 -6.653972 0.3671917,-7.80157 -5.981474 0.5943744,-7.637368 -5.388462 0.8153737,-8.405198 -5.031118 -0.09403048,-8.315483 -4.073635 0.05335161,-8.323413 -3.495454 0.259547,-8.347589 -2.99357 0.4206933,-8.769255 -4.941333 -0.1220064,-8.791432 -3.983856 0.02334204,-8.869263 -3.511095 0.3045071,-8.949624 -3.234183 0.5282722,-9.099936 -5.093518 -0.08266173,-9.175562 -4.223752 0.05994922,-9.242225 -3.810187 0.3289129,-9.291885 -3.57244 0.5562217,-9.422721 -5.435844 -0.006400436,-9.545054 -4.733954 0.1502856,-9.604883 -4.393547 0.3555274,-9.622627 -4.172109 0.5265304,7.510,31 3 0
-0.8407512 -7.912733 -0.9861701,-1.603307 -7.450922 -0.5825905,-2.199228 -6.635776 -0.3791685,-2.506765 -5.746992 -0.08256911,-2.816319 -4.972593 0.2695983,-1.499415 -5.524725 -0.7349517,-1.466434 -4.42686 -0.3219956,-1.556049 -3.680158 -0.02397636,-1.719366 -2.968072 0.2234354,-0.6911602 -5.540217 -0.7104697,-0.8103676 -4.327995 -0.4686196,-0.8103676 -4.327995 -0.4686196,-0.9436955 -2.957446 0.3367883,0.02465105 -5.765214 -0.585666,-0.07641411 -4.626988 -0.4324968,-0.1551757 -3.883169 -0.06631421,-0.2134538 -3.263635 0.3626029,0.7761555 -6.125022 -0.566452,0.8188143 -5.197071 -0.2795403,0.7255712 -4.541809 0.0514129,0.5524149 -3.924621 0.3337305,-8.8933 -7.60889 -0.2944309,-7.571814 -7.407402 0.06125152,-7.069577 -6.621915 0.3724569,-5.685484 -6.096069 0.6900397,-5.280166 -5.218311 1.133918,-6.024883 -5.078091 -0.01546781,-5.770455 -4.065298 -0.04963011,-5.713434 -3.313308 0.2748307,-5.699334 -2.657889 0.5714027,-6.563468 -4.901636 -0.1134521,-6.431715 -3.838759 0.01339093,-7.043747 -3.310819 0.4051678,-7.140993 -2.899193 0.7723409,-7.176386 -5.201292 -0.2262629,-7.48801 -4.168003 -0.09564358,-7.657701 -3.593648 0.2702515,-7.690758 -3.301132 0.7089646,-7.804298 -5.652225 -0.2347401,-8.29074 -4.835336 0.05080435,-8.324987 -4.307315 0.319168,-8.318443 -3.963537 0.6060454,7.610,31 3 0
