TiagoOliveira98/Thesis-Project/Difficulty_1/Motor_Task/Unity_Project/DataLogging/JointData/Logs(1647319588)_Tiago_Motor.csv
WRIST,THUMB_CMC,THUMB_MCP,THUMB_IP,THUMB_TIP,INDEX_FINGER_MCP,INDEX_FINGER_PIP,INDEX_FINGER_DIP,INDEX_FINGER_TIP,MIDDLE_FINGER_MCP,MIDDLE_FINGER_PIP,MIDDLE_FINGER_DIP,MIDDLE_FINGER_TIP,RING_FINGER_MCP,RING_FINGER_PIP,RING_FINGER_DIP,RING_FINGER_TIP,PINKY_MCP,PINKY_PIP,PINKY_DIP,PINKY_TIP,WRIST2,THUMB_CMC2,THUMB_MCP2,THUMB_IP2,THUMB_TIP2,INDEX_FINGER_MCP2,INDEX_FINGER_PIP2,INDEX_FINGER_DIP2,INDEX_FINGER_TIP2,MIDDLE_FINGER_MCP2,MIDDLE_FINGER_PIP2,MIDDLE_FINGER_DIP2,MIDDLE_FINGER_TIP2,RING_FINGER_MCP2,RING_FINGER_PIP2,RING_FINGER_DIP2,RING_FINGER_TIP2,PINKY_MCP2,PINKY_PIP2,PINKY_DIP2,PINKY_TIP2,Timestamp,Event
-2.420324 -9.099218 -0.02041398,-3.070511 -8.74263 0.1300175,-3.569077 -8.046165 0.1861207,-3.880493 -7.27876 0.2996803,-4.171688 -6.722034 0.4593802,-3.122452 -6.544252 -0.2234889,-3.328329 -5.566665 -0.1761156,-3.461895 -4.971845 -0.1217887,-3.560999 -4.423879 -0.08215542,-2.793591 -6.351747 -0.1223482,-2.952536 -5.215879 -0.1239714,-2.952536 -5.215879 -0.1239714,-3.136761 -3.869965 0.1096065,-2.466587 -6.368951 0.04724906,-2.519692 -5.264732 0.0926355,-2.601972 -4.559309 0.2394937,-2.674859 -3.94705 0.3991058,-2.133043 -6.592257 0.2622995,-2.081345 -5.728811 0.3218544,-2.106101 -5.157615 0.4503075,-2.145484 -4.634376 0.5885344,-8.020284 -8.903948 -0.01654573,-7.435934 -8.538815 0.1859936,-6.934893 -7.72684 0.3690994,-6.60856 -7.009662 0.6004524,-6.289804 -6.554109 0.8577414,-7.362385 -6.194225 0.1335586,-7.244758 -5.147884 0.2733845,-7.196438 -4.512022 0.4220984,-7.159966 -3.973064 0.5167803,-7.69304 -6.048774 0.2268813,-7.610312 -4.84839 0.3208176,-7.567397 -4.081739 0.5015972,-7.535539 -3.41963 0.6420559,-8.0178 -6.151138 0.3629332,-7.978468 -5.031847 0.4701774,-7.938125 -4.322312 0.61304,-7.885903 -3.724873 0.7324587,-8.352862 -6.456754 0.5158768,-8.434228 -5.597149 0.6561863,-8.461362 -5.04451 0.777345,-8.453919 -4.532861 0.8679077,0.010,4  0
-2.42164 -9.102499 -0.008384774,-3.077067 -8.73604 0.1631959,-3.571432 -8.037228 0.2349398,-3.879302 -7.272036 0.3635521,-4.168739 -6.720475 0.5356888,-3.11113 -6.546369 -0.2212461,-3.319937 -5.581562 -0.1706904,-3.448921 -5.011749 -0.1107804,-3.549149 -4.484445 -0.07064664,-2.78266 -6.350625 -0.1273302,-2.947654 -5.224054 -0.1397072,-2.947654 -5.224054 -0.1397072,-3.132395 -3.892721 0.1035727,-2.456816 -6.368169 0.03867733,-2.519011 -5.26596 0.07216408,-2.604105 -4.572782 0.2233697,-2.67941 -3.965448 0.3836103,-2.121378 -6.594839 0.2532972,-2.06238 -5.736978 0.3067029,-2.077341 -5.182174 0.4390889,-2.101434 -4.675436 0.578072,-7.981215 -8.91539 -0.03255809,-7.415588 -8.534332 0.1399162,-6.936142 -7.74274 0.3198625,-6.626944 -7.03672 0.5593336,-6.304985 -6.616996 0.8242245,-7.363939 -6.184674 0.1114442,-7.269559 -5.11779 0.2473068,-7.226785 -4.461316 0.3886536,-7.193372 -3.894028 0.4800668,-7.698062 -6.060395 0.2142272,-7.626152 -4.842739 0.3156083,-7.571555 -4.070467 0.4924491,-7.530324 -3.409316 0.6277273,-8.022249 -6.170129 0.3543979,-8.006804 -5.047368 0.4609706,-7.972008 -4.34268 0.5840463,-7.927414 -3.752781 0.6803051,-8.351841 -6.480655 0.5072429,-8.435369 -5.586946 0.6424301,-8.458034 -5.022214 0.7491207,-8.453894 -4.505199 0.8219932,0.110,4  0
-2.411292 -9.103739 -0.06020888,-3.075339 -8.721651 0.09662175,-3.569516 -8.04533 0.1712622,-3.876202 -7.289928 0.2933877,-4.174841 -6.73455 0.4569976,-3.101344 -6.544236 -0.2339626,-3.298496 -5.534223 -0.1871579,-3.424677 -4.935278 -0.1290785,-3.510541 -4.383592 -0.07575113,-2.769447 -6.365018 -0.1410544,-2.92253 -5.209512 -0.1291602,-2.92253 -5.209512 -0.1291602,-3.099957 -3.825419 0.1278014,-2.44207 -6.396924 0.01503647,-2.499386 -5.283231 0.05404195,-2.588747 -4.575084 0.1973888,-2.659838 -3.962349 0.3631591,-2.110447 -6.638122 0.2200482,-2.039451 -5.783634 0.2782932,-2.052829 -5.206424 0.4180783,-2.075223 -4.681224 0.5688247,-8.000195 -8.917505 0.02512206,-7.429149 -8.56534 0.2289555,-6.939523 -7.75704 0.4069918,-6.62478 -7.034746 0.6351372,-6.30202 -6.602894 0.8839478,-7.364578 -6.189455 0.169446,-7.264995 -5.144763 0.3094234,-7.224489 -4.490256 0.4519636,-7.192115 -3.924011 0.5481585,-7.700834 -6.046081 0.2544028,-7.628196 -4.849842 0.3561183,-7.577351 -4.074256 0.5400904,-7.538188 -3.408079 0.6854038,-8.02558 -6.14781 0.3822962,-8.007189 -5.048028 0.4905133,-7.970805 -4.349845 0.6236449,-7.92381 -3.763988 0.7332265,-8.356253 -6.455518 0.525298,-8.440639 -5.593922 0.6674397,-8.466393 -5.039269 0.7860107,-8.462249 -4.527208 0.8719708,0.210,4  0
-2.433808 -9.112411 -0.06788754,-3.093561 -8.734798 0.07858017,-3.574471 -8.045181 0.1517369,-3.869328 -7.280839 0.2768767,-4.171903 -6.716223 0.438595,-3.100334 -6.548034 -0.2690159,-3.285173 -5.548928 -0.1964113,-3.398807 -4.960792 -0.1185188,-3.478691 -4.409872 -0.06384601,-2.778221 -6.374405 -0.157355,-2.925056 -5.238494 -0.1094346,-2.925056 -5.238494 -0.1094346,-3.086987 -3.855527 0.1712898,-2.45664 -6.406059 0.0199063,-2.509667 -5.291093 0.09743154,-2.59477 -4.583028 0.2602634,-2.664607 -3.95964 0.4281839,-2.12344 -6.644773 0.2439571,-2.056051 -5.769891 0.330326,-2.070037 -5.196913 0.4860058,-2.090971 -4.673142 0.6395532,-8.016546 -8.929461 0.04567643,-7.435883 -8.576946 0.254096,-6.937989 -7.754314 0.4260961,-6.617911 -7.01986 0.644996,-6.298773 -6.565835 0.8808275,-7.369639 -6.202955 0.1692318,-7.261166 -5.147916 0.2932844,-7.214055 -4.49473 0.4246288,-7.176201 -3.939092 0.5102787,-7.703382 -6.051492 0.2468015,-7.625397 -4.853099 0.3308533,-7.579978 -4.078031 0.4971977,-7.545709 -3.418441 0.6281132,-8.027257 -6.148717 0.3675467,-7.992735 -5.036901 0.455615,-7.949315 -4.338457 0.5692521,-7.896412 -3.758283 0.6684783,-8.358699 -6.450924 0.5067735,-8.442631 -5.593658 0.6361708,-8.46746 -5.046844 0.7458445,-8.459305 -4.551815 0.8285272,0.310,4  0
-2.431482 -9.064167 -0.3562754,-3.094883 -8.692827 -0.171907,-3.581876 -8.037777 -0.06862226,-3.881356 -7.284036 0.06900099,-4.17134 -6.716426 0.2351503,-3.096279 -6.581047 -0.4081605,-3.305996 -5.577171 -0.3218776,-3.429081 -4.979693 -0.2578179,-3.513549 -4.437261 -0.222238,-2.762132 -6.406193 -0.3228696,-2.928102 -5.236084 -0.2536195,-2.928102 -5.236084 -0.2536195,-3.111021 -3.837801 0.02667603,-2.431412 -6.436361 -0.1794569,-2.490571 -5.302606 -0.08808574,-2.583638 -4.57809 0.07354084,-2.661915 -3.953784 0.2433001,-2.098817 -6.675416 0.002255619,-2.012268 -5.7989 0.1009949,-2.011756 -5.214214 0.2619863,-2.018933 -4.681953 0.4195091,-8.015583 -8.93697 0.06984346,-7.437113 -8.581936 0.247505,-6.945024 -7.768753 0.406508,-6.629744 -7.04525 0.618552,-6.312572 -6.610477 0.8460009,-7.366799 -6.19724 0.1724833,-7.263437 -5.153738 0.3032941,-7.219405 -4.505271 0.4447657,-7.183559 -3.946731 0.5358598,-7.698825 -6.052218 0.2679233,-7.627477 -4.857667 0.3500589,-7.581047 -4.085418 0.5268648,-7.545092 -3.422734 0.6627843,-8.021628 -6.153522 0.4054629,-8.001624 -5.05372 0.4980631,-7.96518 -4.358665 0.6250063,-7.916342 -3.779452 0.7304906,-8.349268 -6.461814 0.5572094,-8.436975 -5.610551 0.6926455,-8.465092 -5.065917 0.8080714,-8.461537 -4.568782 0.8889157,0.410,4  0
-2.442693 -9.099037 -0.194947,-3.097065 -8.707645 -0.01899219,-3.580309 -8.031023 0.06380126,-3.879606 -7.265714 0.1934759,-4.166424 -6.698225 0.3578407,-3.09437 -6.569749 -0.3376974,-3.300591 -5.562349 -0.2557081,-3.42486 -4.968452 -0.1815632,-3.510504 -4.425727 -0.1347301,-2.768673 -6.394317 -0.2448347,-2.925418 -5.243873 -0.2137452,-2.925418 -5.243873 -0.2137452,-3.100084 -3.864529 0.05615965,-2.443782 -6.428977 -0.08730766,-2.493855 -5.31875 -0.02345124,-2.577773 -4.611845 0.1335563,-2.650217 -3.998281 0.29904,-2.114362 -6.67172 0.1138876,-2.033858 -5.813644 0.1925174,-2.037657 -5.244651 0.3359944,-2.049428 -4.731277 0.4742843,-8.034502 -8.942829 0.08158122,-7.450498 -8.590872 0.2728765,-6.951182 -7.769866 0.4402111,-6.631335 -7.043911 0.6578761,-6.303364 -6.612602 0.8909044,-7.370349 -6.207283 0.1950193,-7.264127 -5.155756 0.3251589,-7.217415 -4.505345 0.4665073,-7.180605 -3.941782 0.5533514,-7.70508 -6.056318 0.2821793,-7.631147 -4.863121 0.3642238,-7.583813 -4.093262 0.5388659,-7.547926 -3.432408 0.6721901,-8.029455 -6.150445 0.4120231,-8.0012 -5.049793 0.5065628,-7.959614 -4.357938 0.6290413,-7.90843 -3.78207 0.7271114,-8.360204 -6.449934 0.556693,-8.438422 -5.599256 0.6942407,-8.461733 -5.05606 0.8071063,-8.456285 -4.563299 0.8844175,0.510,4  0
-2.415971 -9.078993 -0.1836437,-3.088692 -8.733955 0.01645605,-3.580615 -8.067478 0.1072796,-3.866066 -7.30471 0.2382922,-4.160482 -6.731494 0.4061932,-3.134769 -6.561977 -0.2968073,-3.319582 -5.563632 -0.211493,-3.428022 -4.966909 -0.1384811,-3.496147 -4.410556 -0.08458487,-2.799617 -6.378433 -0.2225585,-2.941666 -5.241584 -0.1708447,-2.941666 -5.241584 -0.1708447,-3.08627 -3.88507 0.09166476,-2.468711 -6.408662 -0.0783333,-2.519834 -5.313026 -0.001168802,-2.595687 -4.610317 0.1697421,-2.656093 -3.985517 0.3486334,-2.128984 -6.650464 0.1143835,-2.063483 -5.809144 0.1999694,-2.074158 -5.243845 0.3663369,-2.089957 -4.715315 0.5386297,-8.013271 -8.967188 0.0813234,-7.434223 -8.612383 0.2627849,-6.939238 -7.79384 0.4223911,-6.628175 -7.059528 0.6331474,-6.308393 -6.630473 0.859836,-7.363434 -6.221012 0.2071361,-7.266569 -5.159769 0.350016,-7.223502 -4.50492 0.4945788,-7.188228 -3.933659 0.5905036,-7.699164 -6.080446 0.3016597,-7.625585 -4.884595 0.3998174,-7.573376 -4.10535 0.5863073,-7.532559 -3.43333 0.736206,-8.024702 -6.185781 0.4345603,-8.001448 -5.079978 0.5407408,-7.96491 -4.38034 0.6718867,-7.918582 -3.796598 0.7833143,-8.356825 -6.498154 0.580331,-8.435519 -5.629217 0.7240965,-8.458281 -5.075637 0.839946,-8.452171 -4.570307 0.925938,0.610,4  0
-2.420835 -9.069838 -0.221315,-3.085356 -8.718901 -0.04574344,-3.578056 -8.058611 0.03843534,-3.870826 -7.309341 0.1697912,-4.166604 -6.759477 0.3444588,-3.135246 -6.559627 -0.3637408,-3.317331 -5.570446 -0.2824397,-3.422361 -4.984338 -0.2154524,-3.487219 -4.439025 -0.1657188,-2.806266 -6.380573 -0.2723937,-2.950019 -5.25163 -0.2254098,-2.950019 -5.25163 -0.2254098,-3.088446 -3.906679 0.03770575,-2.477144 -6.415256 -0.1125505,-2.527303 -5.329225 -0.04291108,-2.603241 -4.634964 0.1195467,-2.664276 -4.021589 0.2901585,-2.137273 -6.661217 0.0947583,-2.066876 -5.824367 0.1766054,-2.07636 -5.26133 0.3366437,-2.091337 -4.738666 0.501903,-8.027449 -8.959641 0.0793514,-7.450046 -8.616573 0.2754186,-6.951136 -7.80242 0.4460837,-6.630604 -7.079299 0.6646284,-6.313257 -6.632864 0.8943311,-7.373416 -6.221597 0.2089595,-7.264522 -5.16855 0.3456406,-7.216234 -4.52549 0.4828023,-7.177758 -3.968498 0.5711855,-7.706672 -6.073965 0.2966992,-7.634316 -4.879351 0.3902704,-7.588531 -4.113657 0.5658502,-7.553297 -3.454041 0.7024606,-8.028837 -6.177095 0.4262601,-7.998586 -5.074537 0.5299374,-7.957847 -4.378694 0.656524,-7.905281 -3.796644 0.762592,-8.357871 -6.486628 0.5701665,-8.434575 -5.638288 0.7122639,-8.45423 -5.100275 0.8299521,-8.441699 -4.611316 0.9131233,0.710,4  0
-2.439224 -9.13064 -0.2838345,-3.088013 -8.737148 -0.09777881,-3.569845 -8.083109 -0.007589102,-3.868015 -7.324333 0.1292372,-4.162605 -6.755445 0.2877074,-3.088128 -6.623349 -0.4103963,-3.290845 -5.627468 -0.3082877,-3.416553 -5.064745 -0.2277415,-3.506929 -4.549562 -0.1821132,-2.770576 -6.451898 -0.3222299,-2.927935 -5.313177 -0.2505813,-2.927935 -5.313177 -0.2505813,-3.107122 -3.934148 0.03280258,-2.451511 -6.493375 -0.1638967,-2.5074 -5.387445 -0.07550392,-2.586487 -4.69207 0.08708763,-2.655076 -4.085855 0.2484892,-2.125253 -6.751621 0.03469676,-2.051295 -5.905508 0.1253907,-2.048662 -5.343519 0.2765473,-2.050696 -4.833326 0.4173452,-8.005905 -8.973003 0.04880963,-7.441332 -8.620955 0.2126465,-6.953236 -7.798881 0.3663625,-6.641343 -7.07559 0.5724403,-6.318119 -6.648223 0.79757,-7.386779 -6.230001 0.1642423,-7.282941 -5.177125 0.2905303,-7.238144 -4.533277 0.4180422,-7.204509 -3.969298 0.5078728,-7.721603 -6.092796 0.2727315,-7.651491 -4.884043 0.356238,-7.599071 -4.113243 0.5256083,-7.557468 -3.451108 0.6604143,-8.045713 -6.208988 0.421173,-8.030421 -5.097785 0.5296587,-7.99297 -4.395977 0.6612255,-7.943884 -3.801687 0.7744125,-8.376187 -6.538287 0.5795488,-8.468939 -5.678336 0.7375634,-8.498919 -5.129356 0.8638911,-8.495886 -4.629632 0.9539151,0.810,4  0
-2.424435 -9.11989 -0.3224265,-3.088627 -8.756571 -0.1586833,-3.574111 -8.093592 -0.0806876,-3.869064 -7.334886 0.03627723,-4.165206 -6.782644 0.1855945,-3.085164 -6.627835 -0.4530003,-3.284513 -5.608779 -0.3947368,-3.411219 -5.012601 -0.3368696,-3.504324 -4.476646 -0.2968292,-2.759524 -6.452917 -0.3688315,-2.914451 -5.29049 -0.3369175,-2.914451 -5.29049 -0.3369175,-3.108109 -3.91226 -0.09088045,-2.437649 -6.482543 -0.2218188,-2.490682 -5.360414 -0.1591473,-2.581289 -4.654122 -0.01035687,-2.664723 -4.043272 0.143651,-2.113583 -6.717699 -0.03271171,-2.042304 -5.862768 0.04588202,-2.051536 -5.303092 0.1833203,-2.070371 -4.790464 0.3176203,-8.024724 -9.006605 0.02634666,-7.454414 -8.639069 0.2097919,-6.966312 -7.828214 0.374757,-6.654362 -7.103605 0.588224,-6.33639 -6.662551 0.8098943,-7.397177 -6.274705 0.159192,-7.293643 -5.211278 0.299307,-7.241309 -4.570203 0.4303967,-7.198568 -4.018018 0.5143794,-7.729315 -6.134095 0.2513234,-7.66075 -4.928566 0.3511154,-7.610527 -4.156038 0.5328867,-7.569865 -3.496758 0.6760486,-8.050447 -6.243314 0.3813558,-8.028073 -5.137945 0.4879933,-7.989543 -4.434525 0.6228628,-7.935811 -3.851108 0.7375848,-8.378654 -6.559829 0.5239078,-8.466487 -5.705891 0.6753384,-8.486172 -5.164836 0.8032054,-8.469623 -4.688912 0.8945062,0.910,4  0
-2.392012 -9.126095 -0.3471581,-3.060266 -8.779947 -0.2203071,-3.552904 -8.110521 -0.1642188,-3.847783 -7.350313 -0.0618645,-4.155005 -6.804615 0.07408318,-3.09058 -6.65218 -0.5080546,-3.289019 -5.647179 -0.4498052,-3.404136 -5.065703 -0.406462,-3.481407 -4.53086 -0.3721502,-2.767934 -6.471807 -0.3985256,-2.91716 -5.318381 -0.3492259,-2.91716 -5.318381 -0.3492259,-3.081879 -3.937738 -0.1014945,-2.442139 -6.50121 -0.2261775,-2.492746 -5.374279 -0.1486733,-2.574256 -4.661834 0.003515512,-2.644125 -4.042186 0.1653531,-2.109292 -6.738054 -0.01678923,-2.036481 -5.878923 0.07564116,-2.04402 -5.309106 0.2328789,-2.061744 -4.791881 0.3884164,-8.032596 -9.03307 0.01800181,-7.464035 -8.677509 0.2036802,-6.97711 -7.857944 0.3733222,-6.666375 -7.134147 0.5924615,-6.348496 -6.692372 0.8269855,-7.402709 -6.307716 0.1633629,-7.296013 -5.236602 0.3062351,-7.240911 -4.59627 0.443795,-7.195458 -4.042476 0.532343,-7.736274 -6.164493 0.2605987,-7.66854 -4.952493 0.3633644,-7.619975 -4.180321 0.5444674,-7.581833 -3.513972 0.6854608,-8.058212 -6.270294 0.3968413,-8.034303 -5.147408 0.5084271,-7.991891 -4.438236 0.6388566,-7.935051 -3.847293 0.7515016,-8.386456 -6.57948 0.5456951,-8.468259 -5.702449 0.6992902,-8.481134 -5.150974 0.8185327,-8.457832 -4.663196 0.898275,1.010,4  0
-2.389316 -9.2295 -0.2887949,-3.034796 -8.884039 -0.1275821,-3.528046 -8.207113 -0.04551907,-3.824118 -7.444468 0.07109317,-4.125065 -6.892331 0.2290574,-3.05294 -6.725571 -0.3811872,-3.244709 -5.715784 -0.311264,-3.364721 -5.116985 -0.2443818,-3.448703 -4.556619 -0.1865724,-2.725225 -6.552488 -0.2834604,-2.872638 -5.411785 -0.2389919,-2.872638 -5.411785 -0.2389919,-3.050392 -3.999494 0.03648466,-2.397512 -6.592569 -0.1345977,-2.447291 -5.483674 -0.06720003,-2.536985 -4.764965 0.08116871,-2.614941 -4.140584 0.2503073,-2.065367 -6.841807 0.05867571,-1.98189 -5.98364 0.142961,-1.981878 -5.387469 0.2877407,-1.989253 -4.829294 0.4436105,-8.071107 -9.078289 0.05988052,-7.504222 -8.729572 0.2460674,-7.021584 -7.899346 0.4140902,-6.706108 -7.179298 0.6316487,-6.377018 -6.74914 0.8686576,-7.449665 -6.335998 0.211099,-7.343089 -5.264303 0.3393474,-7.291151 -4.611907 0.4740722,-7.249291 -4.051204 0.5686288,-7.779 -6.197866 0.3103466,-7.71622 -4.999785 0.402198,-7.673508 -4.225084 0.5815303,-7.642344 -3.552791 0.7293378,-8.09913 -6.30747 0.4503332,-8.084427 -5.206084 0.5548201,-8.048536 -4.496683 0.6918286,-7.999952 -3.897611 0.8164918,-8.426249 -6.624874 0.602321,-8.533388 -5.772919 0.7524371,-8.571873 -5.222902 0.8796802,-8.576611 -4.716054 0.9717746,1.110,4  0
-2.384831 -9.264923 -0.3463107,-3.039721 -8.927534 -0.1800041,-3.532236 -8.244858 -0.0941565,-3.814764 -7.469898 0.02926308,-4.124975 -6.905791 0.1912499,-3.060595 -6.775883 -0.4029074,-3.244692 -5.773426 -0.2947052,-3.357422 -5.188877 -0.2184567,-3.437622 -4.628353 -0.1623774,-2.726846 -6.605764 -0.2954293,-2.864022 -5.465738 -0.2118545,-2.864022 -5.465738 -0.2118545,-3.032688 -4.067415 0.08317325,-2.395862 -6.648821 -0.1285927,-2.44217 -5.533865 -0.03858098,-2.52904 -4.812177 0.1304012,-2.599242 -4.172727 0.3170773,-2.058867 -6.901454 0.07935339,-1.974549 -6.041568 0.1704931,-1.974889 -5.444278 0.3337756,-1.979056 -4.876709 0.5110323,-8.10415 -9.104998 0.0231928,-7.532904 -8.775597 0.2126548,-7.045324 -7.947778 0.3774543,-6.726205 -7.220606 0.5898024,-6.400121 -6.794326 0.8239817,-7.471812 -6.380738 0.175393,-7.36547 -5.300691 0.3109607,-7.317411 -4.641718 0.4498606,-7.281606 -4.068463 0.5526438,-7.803147 -6.235795 0.2708426,-7.739032 -5.022233 0.3701294,-7.689666 -4.243545 0.5545221,-7.653725 -3.5655 0.7063659,-8.125607 -6.339248 0.4088764,-8.11003 -5.226127 0.5169374,-8.070483 -4.510808 0.6514329,-8.0228 -3.903781 0.7782342,-8.454125 -6.658351 0.557604,-8.555465 -5.794068 0.7046188,-8.591251 -5.241029 0.8312564,-8.597758 -4.723426 0.9264556,1.210,4  0
-2.331654 -9.354174 -0.4076214,-2.979758 -9.009186 -0.3097314,-3.479478 -8.319595 -0.2354092,-3.803425 -7.520146 -0.1415282,-4.114167 -6.989089 -0.005496681,-3.021893 -6.89731 -0.4372596,-3.210093 -5.833543 -0.4045149,-3.345868 -5.210817 -0.3838932,-3.439152 -4.664808 -0.3553044,-2.680302 -6.713316 -0.3730599,-2.837132 -5.544753 -0.3615362,-2.837132 -5.544753 -0.3615362,-3.035645 -4.10058 -0.2127229,-2.341067 -6.748395 -0.2761286,-2.418831 -5.631851 -0.2507213,-2.521226 -4.879802 -0.1594863,-2.603889 -4.255041 -0.02503201,-2.003524 -6.999975 -0.1485907,-1.958378 -6.128458 -0.09524098,-1.982983 -5.542681 0.02569231,-2.010226 -4.995652 0.1690954,-8.121991 -9.20784 0.05622615,-7.561269 -8.851116 0.2348133,-7.08489 -8.037586 0.4084877,-6.771305 -7.319566 0.6313993,-6.449742 -6.897895 0.8764048,-7.514595 -6.46166 0.218079,-7.412135 -5.365009 0.348182,-7.366626 -4.700202 0.4865405,-7.334248 -4.125644 0.5923227,-7.845472 -6.327873 0.3173237,-7.784102 -5.095609 0.4235423,-7.739223 -4.318717 0.6082866,-7.707705 -3.644497 0.7559734,-8.163996 -6.43771 0.4561476,-8.150487 -5.309762 0.5651809,-8.116786 -4.592842 0.6947237,-8.072296 -3.985594 0.8130556,-8.48437 -6.762159 0.6040821,-8.585144 -5.876197 0.7533367,-8.617038 -5.317623 0.8761821,-8.618601 -4.80096 0.9618946,1.310,4  0
-2.313283 -9.483833 -0.2206021,-2.949463 -9.132521 -0.06579219,-3.444643 -8.420782 0.01099946,-3.756146 -7.636018 0.1164573,-4.062958 -7.106842 0.269306,-2.999569 -6.962622 -0.2800767,-3.180579 -5.918069 -0.2314537,-3.306845 -5.312803 -0.1979344,-3.398712 -4.768878 -0.1521491,-2.667547 -6.789617 -0.2025142,-2.816214 -5.639842 -0.1858865,-2.816214 -5.639842 -0.1858865,-2.998652 -4.227514 0.02285978,-2.334644 -6.833373 -0.07553796,-2.400283 -5.719385 -0.03761151,-2.490284 -4.981384 0.07773945,-2.568881 -4.353225 0.2222318,-2.000009 -7.093641 0.09589252,-1.951057 -6.22056 0.1519231,-1.962279 -5.63738 0.2681245,-1.976171 -5.087581 0.4022061,-8.215548 -9.35248 0.4264821,-7.643486 -8.98358 0.6372707,-7.163857 -8.181204 0.8329659,-6.844513 -7.467435 1.07054,-6.515144 -7.023593 1.333173,-7.58474 -6.587503 0.6409207,-7.475552 -5.497807 0.7841276,-7.425617 -4.8444 0.9278737,-7.354118 -4.196081 1.015714,-7.869908 -6.375091 0.709823,-7.805911 -5.16591 0.8273634,-7.762801 -4.398533 1.021312,-7.73247 -3.725135 1.175656,-8.190452 -6.490772 0.8537989,-8.177684 -5.383828 0.9698592,-8.141932 -4.665293 1.109084,-8.094647 -4.052448 1.23305,-8.516694 -6.819595 1.009748,-8.621008 -5.946476 1.164898,-8.652514 -5.379741 1.295696,-8.652411 -4.851143 1.38729,1.410,4  0
-2.272348 -9.547276 -0.1910772,-2.923222 -9.205599 -0.06971344,-3.423493 -8.462147 -0.01439443,-3.729849 -7.663581 0.07980031,-4.052491 -7.143388 0.2252094,-2.9904 -7.033306 -0.2165651,-3.179549 -5.993659 -0.1404265,-3.313337 -5.390464 -0.1065736,-3.411718 -4.834711 -0.06650136,-2.660865 -6.850587 -0.1049518,-2.803525 -5.691514 -0.03172949,-2.803525 -5.691514 -0.03172949,-2.982887 -4.251361 0.2170179,-2.329901 -6.905929 0.05179366,-2.387086 -5.774987 0.1471264,-2.473687 -5.031497 0.3039866,-2.547188 -4.380822 0.4778126,-1.996852 -7.180052 0.2443164,-1.950971 -6.307365 0.3556367,-1.973853 -5.72347 0.5194879,-1.99905 -5.172414 0.6851224,-8.235933 -9.42996 0.2231724,-7.669204 -9.044743 0.4632367,-7.195923 -8.226616 0.67669,-6.872984 -7.504205 0.9260446,-6.542435 -7.060989 1.197841,-7.627728 -6.642434 0.4348762,-7.519444 -5.57474 0.5838767,-7.464492 -4.917192 0.7390441,-7.423502 -4.343681 0.8587812,-7.965933 -6.503669 0.509935,-7.895516 -5.279741 0.6395783,-7.842468 -4.504657 0.8335169,-7.795932 -3.830186 0.9903613,-8.291205 -6.611619 0.6303701,-8.282244 -5.485078 0.7482965,-8.242296 -4.746085 0.8828933,-8.18407 -4.118951 1.003644,-8.622799 -6.936825 0.7680877,-8.719359 -6.055768 0.9205784,-8.742982 -5.491144 1.046589,-8.733074 -4.96709 1.139132,1.510,4  0
-2.250646 -9.707706 -0.02073073,-2.895623 -9.409147 0.1455515,-3.390461 -8.649075 0.2121949,-3.687002 -7.8088 0.3103458,-4.02174 -7.274295 0.4530363,-2.992553 -7.174684 -0.05034929,-3.190135 -6.139178 0.02180463,-3.323974 -5.523386 0.04541997,-3.418983 -4.975529 0.07000516,-2.656142 -6.963138 0.007132614,-2.812313 -5.790255 0.04760798,-2.812313 -5.790255 0.04760798,-2.981656 -4.353839 0.2177619,-2.320798 -6.999444 0.1214077,-2.392845 -5.86588 0.188273,-2.478391 -5.114789 0.3188223,-2.551656 -4.464162 0.4712267,-1.977707 -7.268234 0.2764594,-1.946667 -6.404642 0.3694659,-1.971496 -5.835865 0.5241256,-1.995931 -5.305149 0.6764993,-8.332587 -9.587992 0.322661,-7.753778 -9.201674 0.5460235,-7.277518 -8.383774 0.7625628,-6.959053 -7.656759 1.020611,-6.641253 -7.197531 1.306095,-7.739305 -6.760412 0.5324851,-7.640092 -5.672629 0.6888494,-7.596442 -5.006955 0.8543156,-7.563426 -4.420272 0.9798092,-8.086804 -6.632171 0.6225894,-8.028803 -5.384578 0.7660742,-7.985898 -4.598491 0.9642164,-7.94667 -3.919139 1.126137,-8.416598 -6.760599 0.7562454,-8.409967 -5.597642 0.8881794,-8.375648 -4.851899 1.039281,-8.317122 -4.211746 1.169246,-8.746495 -7.109836 0.9059717,-8.845745 -6.196822 1.076684,-8.872037 -5.60368 1.218623,-8.858604 -5.044385 1.318714,1.610,4  0
-2.205898 -9.813662 0.08563672,-2.871913 -9.509794 0.2480338,-3.381762 -8.713202 0.3080188,-3.685062 -7.853984 0.3991594,-4.034763 -7.297344 0.540947,-2.99029 -7.267139 0.03345496,-3.188319 -6.220254 0.1093389,-3.312637 -5.599533 0.1437675,-3.400309 -5.050523 0.1757508,-2.647338 -7.04376 0.08602102,-2.803304 -5.858032 0.1276454,-2.803304 -5.858032 0.1276454,-2.972023 -4.39973 0.3090352,-2.306554 -7.073938 0.1997161,-2.376731 -5.934715 0.2680855,-2.451508 -5.182447 0.4041923,-2.527386 -4.520089 0.55986,-1.957116 -7.334358 0.3533992,-1.929863 -6.466514 0.4582572,-1.949614 -5.896703 0.6260487,-1.979828 -5.371948 0.7830701,-8.383096 -9.656736 0.3357219,-7.8009 -9.268019 0.5586149,-7.326366 -8.452822 0.7683941,-7.013998 -7.717461 1.019453,-6.699885 -7.24401 1.287429,-7.786619 -6.820518 0.5467557,-7.697282 -5.725215 0.7071651,-7.656343 -5.069131 0.875845,-7.628271 -4.487566 0.9990553,-8.140032 -6.696813 0.63451,-8.095514 -5.432327 0.7729679,-8.05801 -4.646031 0.9741317,-8.02535 -3.975061 1.139685,-8.471062 -6.834424 0.7687654,-8.483475 -5.663413 0.9010397,-8.467575 -4.919279 1.057634,-8.430563 -4.283576 1.194366,-8.801527 -7.19111 0.9137288,-8.892247 -6.265607 1.093087,-8.912624 -5.66809 1.241195,-8.898532 -5.114435 1.344335,1.710,4  0
-2.181695 -10.00306 0.06578004,-2.858235 -9.645657 0.1477986,-3.356547 -8.838604 0.1856425,-3.658558 -7.979637 0.2500221,-4.013752 -7.472333 0.3566794,-2.948157 -7.465228 0.05649798,-3.189608 -6.35573 0.1232206,-3.333744 -5.699417 0.1375158,-3.439207 -5.123426 0.1432788,-2.589237 -7.234034 0.1051254,-2.761908 -5.984998 0.14049,-2.761908 -5.984998 0.14049,-2.948099 -4.512561 0.2894787,-2.239983 -7.256334 0.2016063,-2.338054 -6.05134 0.2627906,-2.430465 -5.260101 0.3962294,-2.520995 -4.58786 0.5521553,-1.886475 -7.508346 0.3150191,-1.85945 -6.573759 0.4205794,-1.890152 -5.979648 0.5932938,-1.939362 -5.445268 0.7576739,-8.54004 -9.821968 0.5121003,-7.961299 -9.388807 0.7536504,-7.48781 -8.56422 0.9778999,-7.181763 -7.836797 1.239297,-6.875581 -7.355237 1.516005,-7.949308 -6.934291 0.7626631,-7.864505 -5.83839 0.9355497,-7.842308 -5.172554 1.114058,-7.834317 -4.573488 1.239272,-8.313679 -6.813408 0.8441049,-8.278686 -5.558482 0.989824,-8.254891 -4.758625 1.201328,-8.234049 -4.072395 1.373871,-8.656026 -6.956808 0.9660271,-8.668791 -5.78073 1.100933,-8.651054 -5.029306 1.263603,-8.611141 -4.391236 1.39833,-9.001119 -7.312811 1.100189,-9.097929 -6.398024 1.274338,-9.119617 -5.800044 1.416727,-9.107657 -5.22867 1.511672,1.810,4  0
-2.146938 -10.02795 0.2561569,-2.827982 -9.690166 0.3617613,-3.33289 -8.903288 0.3998039,-3.624374 -8.048615 0.4685466,-3.974051 -7.533456 0.5748961,-2.955553 -7.454355 0.1923226,-3.184014 -6.392194 0.2529629,-3.309883 -5.763278 0.2785301,-3.401594 -5.191204 0.3075009,-2.594606 -7.209801 0.2433554,-2.766789 -5.986938 0.2779529,-2.766789 -5.986938 0.2779529,-2.938651 -4.520092 0.4736001,-2.242054 -7.230183 0.3513967,-2.326372 -6.054937 0.4009204,-2.400058 -5.287012 0.5444651,-2.47317 -4.6277 0.7166371,-1.884223 -7.483509 0.4808998,-1.845462 -6.57674 0.5681541,-1.864409 -5.995363 0.7393827,-1.901423 -5.472141 0.9053338,-8.59055 -9.815739 0.5493654,-8.017283 -9.372097 0.8172486,-7.533906 -8.562777 1.057356,-7.218435 -7.850095 1.331953,-6.91017 -7.361287 1.62075,-7.99305 -6.91988 0.8104398,-7.911528 -5.813813 0.9856836,-7.89275 -5.147131 1.163412,-7.884469 -4.560287 1.285834,-8.355511 -6.797576 0.885557,-8.327077 -5.546424 1.032522,-8.305652 -4.744445 1.242684,-8.285066 -4.056619 1.414817,-8.698055 -6.934927 1.003726,-8.710804 -5.781204 1.135768,-8.693218 -5.036636 1.288931,-8.649231 -4.405794 1.412826,-9.043871 -7.285111 1.144981,-9.146639 -6.402156 1.301043,-9.179065 -5.827443 1.422876,-9.17536 -5.285736 1.508944,1.910,4  0
-2.137493 -10.12574 0.3446591,-2.801535 -9.773537 0.4777337,-3.308695 -8.968594 0.5556459,-3.608581 -8.115313 0.672608,-3.96703 -7.570686 0.8442555,-2.95493 -7.528123 0.3510195,-3.205317 -6.494247 0.4885091,-3.346197 -5.856936 0.5615999,-3.445899 -5.248277 0.6087507,-2.593635 -7.284654 0.430524,-2.777326 -6.067334 0.5448309,-2.777326 -6.067334 0.5448309,-2.960897 -4.600692 0.7763487,-2.240913 -7.299827 0.5749908,-2.316998 -6.109253 0.6943486,-2.393203 -5.339571 0.8699421,-2.469215 -4.652503 1.0571,-1.881316 -7.547548 0.7409835,-1.844981 -6.615123 0.882001,-1.86398 -6.018489 1.073101,-1.897277 -5.465469 1.249185,-8.683002 -9.774202 0.6198943,-8.091696 -9.328281 0.9257088,-7.60203 -8.507322 1.181854,-7.283422 -7.800017 1.473558,-6.976801 -7.266969 1.766143,-8.075141 -6.844844 0.8584459,-7.988977 -5.772278 1.034107,-7.962226 -5.12613 1.218623,-7.949718 -4.539787 1.341726,-8.436509 -6.733158 0.9231731,-8.428165 -5.549955 1.052964,-8.420777 -4.828392 1.246856,-8.405235 -4.203916 1.391122,-8.772573 -6.867317 1.040743,-8.806891 -5.740003 1.179368,-8.811183 -5.040689 1.349749,-8.78862 -4.436979 1.467204,-9.110611 -7.202224 1.185913,-9.222972 -6.347162 1.345044,-9.268176 -5.783441 1.467566,-9.284499 -5.247262 1.539923,2.010,4  0
-2.13197 -10.14589 0.3121662,-2.809515 -9.79459 0.4460317,-3.312458 -8.99416 0.5203726,-3.60294 -8.132217 0.6248416,-3.950638 -7.590524 0.7664351,-2.932281 -7.548118 0.3486077,-3.175089 -6.486032 0.4661826,-3.312731 -5.845538 0.5174464,-3.409733 -5.251837 0.5450314,-2.567886 -7.31104 0.3988994,-2.745306 -6.072757 0.4921502,-2.745306 -6.072757 0.4921502,-2.922195 -4.59471 0.6722466,-2.217274 -7.335372 0.5061477,-2.297647 -6.144676 0.6005731,-2.372525 -5.377662 0.7466785,-2.443832 -4.694211 0.9126226,-1.867096 -7.590129 0.6324506,-1.832521 -6.657323 0.754487,-1.852828 -6.071208 0.9285575,-1.889184 -5.530868 1.087932,-8.703259 -9.721529 0.5388404,-8.108007 -9.289316 0.8174219,-7.619143 -8.442842 1.048306,-7.320906 -7.705069 1.314538,-7.025668 -7.140647 1.592899,-8.129974 -6.780599 0.6420348,-8.03973 -5.715099 0.7611841,-8.008995 -5.08533 0.9201333,-7.987108 -4.524569 1.041239,-8.499483 -6.689069 0.6865513,-8.503073 -5.586774 0.7503783,-8.512461 -4.956682 0.8896753,-8.511126 -4.431705 0.9860728,-8.829023 -6.814412 0.7974769,-8.866873 -5.753038 0.8794338,-8.878374 -5.126988 1.020161,-8.860853 -4.596288 1.109108,-9.148617 -7.125484 0.9350563,-9.249572 -6.310518 1.038099,-9.295084 -5.774353 1.139754,-9.304939 -5.261586 1.20587,2.110,4  0
-2.167197 -10.20944 0.3822119,-2.829303 -9.835201 0.5073522,-3.321478 -9.040974 0.5713584,-3.598091 -8.187996 0.6697391,-3.948206 -7.642152 0.8121049,-2.935297 -7.567731 0.4030471,-3.183517 -6.500248 0.5341636,-3.328796 -5.850023 0.5927894,-3.427078 -5.241299 0.6240059,-2.567976 -7.349291 0.4727369,-2.740733 -6.126256 0.5820035,-2.740733 -6.126256 0.5820035,-2.913786 -4.646204 0.8037066,-2.211562 -7.385595 0.6010741,-2.284909 -6.209098 0.7169771,-2.351046 -5.432828 0.8884786,-2.412615 -4.75071 1.066875,-1.852331 -7.649364 0.7478181,-1.81482 -6.727712 0.880879,-1.831609 -6.126441 1.062731,-1.858153 -5.568674 1.229114,-8.716427 -9.56506 0.2646497,-8.127284 -9.191093 0.570107,-7.662274 -8.331408 0.7910376,-7.364098 -7.593461 1.019249,-7.085924 -7.036095 1.258311,-8.152062 -6.691813 0.3284993,-8.063855 -5.633876 0.4193097,-8.056091 -5.01946 0.5833522,-8.043545 -4.47594 0.7112411,-8.542118 -6.607023 0.3540778,-8.597692 -5.607708 0.433987,-8.665384 -5.142579 0.6421363,-8.697071 -4.868411 0.7815567,-8.890171 -6.730882 0.4491631,-8.962979 -5.786706 0.5300059,-8.990826 -5.267217 0.7422478,-8.982689 -4.908052 0.8855551,-9.218768 -7.034112 0.5786545,-9.311817 -6.256831 0.679467,-9.357701 -5.741774 0.8363032,-9.359309 -5.251777 0.9578345,2.210,4  0
-2.149664 -10.24642 0.3722736,-2.810662 -9.882195 0.5016273,-3.303541 -9.101866 0.5670475,-3.580513 -8.24704 0.6696364,-3.916801 -7.681631 0.8125857,-2.927746 -7.62697 0.3531523,-3.162349 -6.572795 0.4720547,-3.300631 -5.924386 0.5415337,-3.403602 -5.30511 0.5931446,-2.562788 -7.39002 0.4274627,-2.743161 -6.172777 0.5262631,-2.743161 -6.172777 0.5262631,-2.932014 -4.715436 0.7723942,-2.205616 -7.410512 0.5629035,-2.286383 -6.237621 0.6718208,-2.361057 -5.469404 0.8435234,-2.434842 -4.792096 1.032767,-1.84207 -7.6608 0.7194223,-1.808188 -6.733259 0.8504822,-1.834779 -6.133173 1.036004,-1.877486 -5.574837 1.207048,-8.779985 -9.452789 0.1523331,-8.201558 -9.095255 0.4881991,-7.743937 -8.246944 0.7025282,-7.442173 -7.520629 0.9285734,-7.15056 -6.954179 1.177446,-8.233747 -6.600252 0.1607615,-8.138438 -5.559876 0.2222194,-8.129488 -4.928173 0.3660636,-8.128824 -4.380717 0.4805232,-8.619325 -6.524736 0.1594264,-8.656276 -5.576726 0.1952804,-8.728717 -5.139125 0.3723119,-8.766642 -4.880006 0.4993697,-8.959118 -6.662872 0.2358294,-9.041412 -5.798406 0.280811,-9.078758 -5.32931 0.4786628,-9.080052 -5.005323 0.6242558,-9.281071 -6.980453 0.3578795,-9.382311 -6.26802 0.4422483,-9.432738 -5.805043 0.6048394,-9.439783 -5.370617 0.7393739,2.310,4  0
-2.150002 -10.23813 0.3758659,-2.816376 -9.886982 0.5203477,-3.314974 -9.104631 0.5859312,-3.585276 -8.247135 0.6839948,-3.918029 -7.694815 0.82379,-2.927494 -7.611139 0.3550027,-3.151154 -6.554643 0.4823898,-3.281404 -5.922953 0.5534016,-3.374685 -5.318206 0.605292,-2.568411 -7.381347 0.428107,-2.737142 -6.154308 0.5501339,-2.737142 -6.154308 0.5501339,-2.905557 -4.679393 0.8135144,-2.215275 -7.408458 0.5685912,-2.296358 -6.241394 0.6926398,-2.369673 -5.485742 0.8697437,-2.43864 -4.812816 1.055133,-1.848198 -7.661705 0.7326224,-1.807844 -6.733881 0.8713696,-1.826605 -6.139588 1.063535,-1.856765 -5.584956 1.234694,-8.8154 -9.3708 0.04053091,-8.258904 -9.011328 0.3784264,-7.812911 -8.164026 0.5933855,-7.51644 -7.426183 0.8113636,-7.217672 -6.857666 1.049138,-8.309617 -6.543631 0.1391039,-8.20464 -5.488548 0.2401966,-8.189306 -4.847959 0.3910526,-8.192711 -4.296571 0.5060894,-8.695049 -6.474481 0.1404323,-8.725893 -5.48021 0.2548708,-8.795838 -5.062219 0.4663095,-8.841134 -4.874631 0.6168652,-9.030848 -6.642238 0.2108418,-9.121422 -5.763469 0.3152824,-9.165722 -5.317633 0.559017,-9.177746 -5.053005 0.7419146,-9.34612 -6.992931 0.3187979,-9.444949 -6.298786 0.4534428,-9.495988 -5.848228 0.6670709,-9.503756 -5.451042 0.8441445,2.410,4  0
-2.148726 -10.25259 0.3709647,-2.811519 -9.897947 0.5157105,-3.308125 -9.105394 0.5880557,-3.577096 -8.250942 0.6935337,-3.92729 -7.697736 0.8471216,-2.928566 -7.622329 0.3990628,-3.156693 -6.562028 0.5393323,-3.287416 -5.924387 0.615448,-3.382439 -5.305681 0.670553,-2.560524 -7.397825 0.4777377,-2.729799 -6.18094 0.613427,-2.729799 -6.18094 0.613427,-2.909387 -4.739704 0.8828274,-2.20358 -7.42291 0.6193353,-2.284318 -6.255253 0.7592757,-2.362316 -5.510374 0.9403951,-2.434534 -4.836654 1.13351,-1.838758 -7.672033 0.7839224,-1.80273 -6.747123 0.9418072,-1.823856 -6.154537 1.142822,-1.859348 -5.594625 1.324398,-8.899446 -9.189833 -0.04607941,-8.350695 -8.850973 0.3604131,-7.921097 -8.016552 0.6007255,-7.620785 -7.280588 0.8341131,-7.31936 -6.706135 1.076748,-8.417175 -6.356292 0.0651914,-8.308361 -5.338617 0.1618303,-8.306087 -4.671205 0.3607495,-8.33139 -4.09197 0.528105,-8.798109 -6.318361 0.0736806,-8.826804 -5.316747 0.3578863,-8.885319 -5.078025 0.7526604,-8.930346 -5.157143 0.9973416,-9.134658 -6.530733 0.1532118,-9.241557 -5.633765 0.3917035,-9.277086 -5.358976 0.7623563,-9.286903 -5.368735 0.9938364,-9.452269 -6.932501 0.2690008,-9.585835 -6.210634 0.5225306,-9.619923 -5.8931 0.8174916,-9.610423 -5.773429 1.022336,2.510,4  0
-2.12411 -10.25335 0.3293754,-2.793386 -9.916225 0.506369,-3.300823 -9.114916 0.5921812,-3.571995 -8.268652 0.7083182,-3.916611 -7.709163 0.8665735,-2.926255 -7.624513 0.3778113,-3.143362 -6.560754 0.538928,-3.273567 -5.929804 0.6140633,-3.366481 -5.312351 0.6635028,-2.561822 -7.415348 0.4580607,-2.723467 -6.205667 0.6178977,-2.723467 -6.205667 0.6178977,-2.893367 -4.745651 0.8907045,-2.203652 -7.456272 0.6096303,-2.281003 -6.297565 0.7717087,-2.358425 -5.548097 0.9598193,-2.428601 -4.866765 1.155387,-1.832453 -7.718738 0.7873943,-1.792786 -6.795763 0.9603738,-1.818073 -6.199047 1.172802,-1.852336 -5.640848 1.357725,-8.990049 -9.023539 -0.1170836,-8.416239 -8.727329 0.3334159,-8.001961 -7.907859 0.5925235,-7.728333 -7.144109 0.8214923,-7.445589 -6.541055 1.043468,-8.499384 -6.246038 0.0253159,-8.412313 -5.212474 0.1487445,-8.424268 -4.509531 0.3598286,-8.445257 -3.903842 0.5302441,-8.879923 -6.172795 0.004867047,-8.938197 -5.122312 0.3488564,-8.996406 -5.092823 0.7696119,-9.00885 -5.359946 1.014912,-9.224416 -6.327756 0.05177628,-9.329243 -5.353391 0.3549395,-9.362692 -5.369797 0.7039632,-9.354517 -5.691902 0.8906336,-9.559502 -6.670467 0.1381246,-9.693943 -5.849651 0.41508,-9.6866 -5.699691 0.674915,-9.62801 -5.863801 0.83419,2.610,4  0
-2.148313 -10.27049 0.3361193,-2.812192 -9.912588 0.5103092,-3.310288 -9.116999 0.6034552,-3.580389 -8.273584 0.7299678,-3.927154 -7.715887 0.9036022,-2.937953 -7.641044 0.4015813,-3.166896 -6.5784 0.5786871,-3.296282 -5.949979 0.6692691,-3.383441 -5.33379 0.7243513,-2.572314 -7.429718 0.4897377,-2.737042 -6.209596 0.6631371,-2.737042 -6.209596 0.6631371,-2.891959 -4.738083 0.9642683,-2.212968 -7.473886 0.6468777,-2.287872 -6.307461 0.8232104,-2.357058 -5.557144 1.026066,-2.418265 -4.871236 1.229627,-1.841101 -7.737321 0.827466,-1.800806 -6.80813 1.011013,-1.823566 -6.209431 1.231333,-1.855509 -5.641534 1.425743,-9.016434 -8.972153 -0.07526335,-8.433905 -8.675192 0.376274,-8.032004 -7.814818 0.6289247,-7.770055 -7.036589 0.8557771,-7.491485 -6.443222 1.074645,-8.54001 -6.159689 0.02999432,-8.459542 -5.134117 0.1657262,-8.468294 -4.406272 0.3996426,-8.484921 -3.791478 0.5922525,-8.916864 -6.107887 0.01410879,-8.988458 -5.041658 0.3866113,-9.029282 -5.051607 0.8375993,-9.027221 -5.372831 1.087484,-9.259316 -6.261316 0.07053943,-9.366964 -5.268629 0.3908495,-9.374288 -5.375746 0.7519646,-9.351731 -5.795112 0.9371132,-9.595053 -6.596349 0.1602646,-9.73676 -5.767221 0.4446704,-9.715569 -5.673225 0.6988996,-9.655404 -5.908437 0.8435323,2.710,4  0
-2.136193 -10.27845 0.3320017,-2.805053 -9.912182 0.5067763,-3.312576 -9.111073 0.5939596,-3.590513 -8.268785 0.7171561,-3.940327 -7.723808 0.8845069,-2.934923 -7.649683 0.3992133,-3.176798 -6.596085 0.5906107,-3.310143 -5.975781 0.6833651,-3.399511 -5.362957 0.7333758,-2.570325 -7.440527 0.4878167,-2.731262 -6.234046 0.665907,-2.731262 -6.234046 0.665907,-2.874625 -4.750962 0.9758044,-2.211544 -7.492916 0.6463276,-2.28276 -6.340049 0.8228347,-2.348172 -5.59718 1.031028,-2.406133 -4.911415 1.232455,-1.841865 -7.770053 0.8295181,-1.802933 -6.86265 1.016778,-1.82411 -6.27769 1.238633,-1.852979 -5.717777 1.426567,-9.093445 -8.877142 -0.0891993,-8.509872 -8.566339 0.393342,-8.112767 -7.720391 0.6627681,-7.860916 -6.952488 0.9036135,-7.583017 -6.360478 1.134904,-8.632185 -6.067014 0.0799385,-8.56171 -5.021472 0.2428394,-8.563997 -4.297372 0.4950247,-8.572817 -3.707544 0.7091764,-9.011047 -6.018934 0.06220351,-9.102039 -4.929668 0.4559124,-9.126904 -4.895477 0.9256743,-9.108954 -5.204424 1.20817,-9.345254 -6.17954 0.1194996,-9.473638 -5.168437 0.4703713,-9.458129 -5.275607 0.8633816,-9.409959 -5.723863 1.083195,-9.669044 -6.525437 0.211958,-9.827407 -5.707824 0.5271141,-9.80483 -5.602491 0.8077014,-9.73469 -5.840597 0.9815999,2.810,4  0
-2.115469 -10.27051 0.3081765,-2.78931 -9.944691 0.4735896,-3.303781 -9.145264 0.5602156,-3.590018 -8.286943 0.6760473,-3.942154 -7.741374 0.8393164,-2.935715 -7.668238 0.3646174,-3.167467 -6.619721 0.5287242,-3.297242 -5.991689 0.6089419,-3.384966 -5.37853 0.6551921,-2.572098 -7.441986 0.4438099,-2.737049 -6.234994 0.5931225,-2.737049 -6.234994 0.5931225,-2.89034 -4.752903 0.870856,-2.210279 -7.479714 0.5904707,-2.288269 -6.314875 0.7436312,-2.361509 -5.561534 0.9356214,-2.425633 -4.877241 1.134352,-1.835513 -7.74873 0.7630669,-1.806494 -6.827987 0.9251833,-1.836279 -6.241596 1.131713,-1.875254 -5.689363 1.316872,-9.139081 -8.851183 -0.07712649,-8.549397 -8.541458 0.4126551,-8.152042 -7.691453 0.6851987,-7.903525 -6.909875 0.9321717,-7.634552 -6.294775 1.167946,-8.677863 -6.037947 0.08201382,-8.601268 -4.977994 0.2467772,-8.605846 -4.240755 0.493205,-8.614591 -3.633783 0.6991165,-9.058828 -5.988957 0.06511013,-9.150976 -4.891452 0.4662223,-9.18585 -4.866388 0.9368638,-9.170005 -5.161626 1.21028,-9.395152 -6.144367 0.1248513,-9.521991 -5.118253 0.4794887,-9.512053 -5.222786 0.8627629,-9.465701 -5.651479 1.066998,-9.721648 -6.487628 0.2203648,-9.876056 -5.646771 0.5422893,-9.851229 -5.546793 0.818736,-9.781734 -5.781701 0.9814957,2.910,4  0
-2.146306 -10.29107 0.3735154,-2.806144 -9.934893 0.5408344,-3.309999 -9.136234 0.6328175,-3.585541 -8.284845 0.7559556,-3.934898 -7.730495 0.9258355,-2.938605 -7.661148 0.4344403,-3.171688 -6.614451 0.604133,-3.302542 -5.984863 0.692423,-3.391821 -5.370637 0.7490587,-2.573661 -7.439451 0.5165396,-2.741229 -6.240812 0.6734332,-2.741229 -6.240812 0.6734332,-2.891557 -4.777269 0.9661049,-2.213251 -7.480834 0.6640747,-2.295325 -6.325349 0.8187541,-2.369951 -5.573583 1.015383,-2.4363 -4.895685 1.211169,-1.839429 -7.751586 0.8385841,-1.807173 -6.835866 0.9992664,-1.834426 -6.246528 1.200228,-1.870892 -5.693443 1.381603,-9.211658 -8.793354 0.09150676,-8.605254 -8.479494 0.5928173,-8.226408 -7.607051 0.8491324,-7.995893 -6.82053 1.085554,-7.731936 -6.211822 1.30586,-8.758378 -5.924904 0.2217555,-8.666296 -4.897649 0.4056547,-8.682053 -4.151712 0.6658506,-8.710812 -3.542925 0.8896551,-9.151402 -5.881144 0.20649,-9.260591 -4.781173 0.6298351,-9.286934 -4.810625 1.115037,-9.27053 -5.159271 1.393664,-9.494452 -6.049263 0.278354,-9.64258 -5.017145 0.657048,-9.621689 -5.186259 1.051676,-9.567165 -5.676475 1.256866,-9.822748 -6.413518 0.3828923,-9.99472 -5.568634 0.7245915,-9.966265 -5.480022 1.004026,-9.895865 -5.731196 1.166625,3.010,4  0
-2.122287 -10.26882 0.3098406,-2.782434 -9.906332 0.4980398,-3.287563 -9.129431 0.6072824,-3.570137 -8.288637 0.7457072,-3.918365 -7.743198 0.9320162,-2.913967 -7.648022 0.4035065,-3.160178 -6.596908 0.5817024,-3.291631 -5.959074 0.6862642,-3.375629 -5.332063 0.7576401,-2.552862 -7.437658 0.4811247,-2.723752 -6.229855 0.6361214,-2.723752 -6.229855 0.6361214,-2.866323 -4.753908 0.9484448,-2.195978 -7.489732 0.623921,-2.273493 -6.329641 0.775667,-2.344431 -5.583194 0.9834223,-2.407817 -4.905403 1.198235,-1.828476 -7.77132 0.7949382,-1.797999 -6.854192 0.9663436,-1.825919 -6.264238 1.180517,-1.861714 -5.71055 1.371051,-9.215952 -8.80537 0.1664642,-8.60695 -8.471701 0.6838742,-8.231126 -7.606519 0.9675566,-8.000299 -6.811399 1.217954,-7.745768 -6.164005 1.453365,-8.788032 -5.924287 0.3393878,-8.706621 -4.883487 0.5238603,-8.731434 -4.114732 0.7969613,-8.767681 -3.461962 1.03069,-9.178494 -5.872749 0.3133753,-9.288545 -4.747247 0.7388259,-9.307384 -4.782122 1.244098,-9.288035 -5.136367 1.538451,-9.526628 -6.032816 0.3645367,-9.668652 -4.967122 0.7414447,-9.635347 -5.126342 1.138353,-9.569439 -5.612758 1.341774,-9.869948 -6.383897 0.4524074,-10.05695 -5.517951 0.8034719,-10.01367 -5.434148 1.076208,-9.918338 -5.71319 1.224028,3.110,4  0
-2.146612 -10.26372 0.3024519,-2.796603 -9.915504 0.4826164,-3.296194 -9.117931 0.5752387,-3.571463 -8.274858 0.7004071,-3.927223 -7.734156 0.8749242,-2.921762 -7.643905 0.3841214,-3.167114 -6.600324 0.5671193,-3.296341 -5.973506 0.650809,-3.382349 -5.354251 0.700408,-2.555797 -7.431256 0.4697834,-2.725438 -6.228624 0.6402779,-2.725438 -6.228624 0.6402779,-2.880024 -4.760831 0.934766,-2.19532 -7.480192 0.6238242,-2.273168 -6.324132 0.7991536,-2.351867 -5.578397 1.004352,-2.423846 -4.89801 1.208327,-1.824259 -7.76025 0.8051456,-1.791587 -6.852521 0.9850397,-1.826258 -6.266152 1.200694,-1.872738 -5.710385 1.388471,-9.25232 -8.802073 0.245588,-8.647285 -8.439039 0.7424899,-8.268078 -7.562031 1.004343,-8.036716 -6.76032 1.241416,-7.768793 -6.129615 1.467794,-8.817296 -5.87751 0.3998592,-8.733745 -4.827263 0.5817758,-8.765321 -4.093921 0.8499627,-8.804973 -3.481828 1.087877,-9.221695 -5.846509 0.3875613,-9.341908 -4.746908 0.8015326,-9.382735 -4.726499 1.314133,-9.373461 -5.039487 1.630872,-9.569319 -6.03318 0.4508155,-9.730839 -4.99155 0.8200936,-9.718805 -5.056255 1.217323,-9.660046 -5.461587 1.435208,-9.89882 -6.417676 0.5524124,-10.09098 -5.568315 0.885203,-10.07538 -5.407872 1.159111,-9.998053 -5.579654 1.322361,3.210,4  0
-2.13151 -10.27616 0.334788,-2.791539 -9.936182 0.5160579,-3.297063 -9.138004 0.6085882,-3.567305 -8.289213 0.7337396,-3.921255 -7.736916 0.9093987,-2.917257 -7.647003 0.3884987,-3.150386 -6.598772 0.5655909,-3.28352 -5.978092 0.6492127,-3.372545 -5.361351 0.7005491,-2.552573 -7.434594 0.473478,-2.715676 -6.238435 0.6386355,-2.715676 -6.238435 0.6386355,-2.857206 -4.771868 0.9496763,-2.191162 -7.487378 0.6264924,-2.268781 -6.338693 0.7997198,-2.336803 -5.596933 1.019264,-2.394408 -4.915321 1.235378,-1.816971 -7.76781 0.8062856,-1.79124 -6.852306 0.9897592,-1.826096 -6.268819 1.217826,-1.866874 -5.717908 1.415493,-9.280345 -8.842991 0.3654317,-8.646057 -8.462437 0.8989418,-8.270646 -7.57447 1.171248,-8.039649 -6.756429 1.415332,-7.764293 -6.097326 1.645323,-8.853145 -5.892526 0.5221302,-8.769839 -4.822416 0.7275941,-8.806529 -4.059848 1.027197,-8.851661 -3.411008 1.288953,-9.257561 -5.852851 0.5032821,-9.378623 -4.68398 0.9628443,-9.407985 -4.689989 1.525922,-9.394089 -5.026942 1.860851,-9.610733 -6.025668 0.5622638,-9.776843 -4.914913 0.9557419,-9.756367 -4.992243 1.383604,-9.691838 -5.408895 1.613415,-9.950832 -6.403774 0.6618239,-10.15753 -5.533683 1.028239,-10.13167 -5.400573 1.325944,-10.0391 -5.619117 1.49935,3.310,4  0
-2.135653 -10.26726 0.3290726,-2.788539 -9.926422 0.5080784,-3.293513 -9.14534 0.6080214,-3.567125 -8.30447 0.7436909,-3.910194 -7.732949 0.9276739,-2.916615 -7.633719 0.3876304,-3.148165 -6.597648 0.5521675,-3.28301 -5.969755 0.6249448,-3.372284 -5.3585 0.6693709,-2.552113 -7.427107 0.4771265,-2.71593 -6.232648 0.632354,-2.71593 -6.232648 0.632354,-2.865962 -4.763527 0.9059801,-2.192888 -7.477874 0.6311204,-2.265749 -6.332328 0.7877648,-2.338257 -5.581451 0.982731,-2.397321 -4.908697 1.181667,-1.82348 -7.751709 0.8154305,-1.790974 -6.839895 0.9843108,-1.821329 -6.244167 1.194365,-1.854931 -5.688114 1.375183,-9.276783 -8.857546 0.4716432,-8.648001 -8.460402 1.018114,-8.266264 -7.574664 1.315024,-8.035742 -6.753392 1.581605,-7.764729 -6.074373 1.832771,-8.869493 -5.880473 0.6614634,-8.79484 -4.791631 0.8484281,-8.83362 -4.026414 1.134192,-8.879649 -3.357557 1.392542,-9.272536 -5.838731 0.6431753,-9.39852 -4.684482 1.089437,-9.421826 -4.659203 1.656589,-9.403678 -4.963497 2.015758,-9.621216 -6.014974 0.6950274,-9.795941 -4.928728 1.083626,-9.774492 -4.952529 1.536883,-9.702522 -5.321378 1.801907,-9.957258 -6.395064 0.7918667,-10.16533 -5.534559 1.145537,-10.14624 -5.389068 1.44742,-10.04961 -5.585094 1.637667,3.410,4  0
-2.154412 -10.27557 0.2817177,-2.806371 -9.907312 0.4518402,-3.291052 -9.131948 0.5502642,-3.557739 -8.290308 0.67585,-3.901703 -7.739389 0.8541484,-2.911935 -7.660622 0.345142,-3.144041 -6.60762 0.5093703,-3.270676 -5.971483 0.5998335,-3.354666 -5.351755 0.6610668,-2.547227 -7.445423 0.4241295,-2.708334 -6.235323 0.5769821,-2.708334 -6.235323 0.5769821,-2.850275 -4.771815 0.8714208,-2.190466 -7.491773 0.566785,-2.260772 -6.331726 0.7171016,-2.330254 -5.585035 0.9137002,-2.391983 -4.910972 1.114485,-1.825097 -7.767242 0.735436,-1.784894 -6.847642 0.89899,-1.808681 -6.253853 1.103866,-1.843955 -5.692783 1.285513,-9.276028 -8.9168 0.6144182,-8.647128 -8.494955 1.1288,-8.260533 -7.603757 1.403095,-8.028754 -6.765646 1.64899,-7.765846 -6.078025 1.875948,-8.863852 -5.903003 0.7798194,-8.779785 -4.814867 0.9606318,-8.82689 -4.060581 1.245583,-8.879344 -3.399524 1.510491,-9.27404 -5.856205 0.7695646,-9.406487 -4.698005 1.185231,-9.449992 -4.619073 1.748833,-9.444328 -4.874202 2.122641,-9.629858 -6.035289 0.8240875,-9.81223 -4.949981 1.17939,-9.80165 -4.92247 1.605279,-9.729942 -5.228511 1.870423,-9.969586 -6.418504 0.921587,-10.1888 -5.556529 1.255155,-10.18073 -5.378704 1.541219,-10.08433 -5.521212 1.726004,3.510,4  0
-2.124927 -10.25005 0.2229539,-2.783687 -9.922821 0.405731,-3.286175 -9.143309 0.5072578,-3.561111 -8.30644 0.6409237,-3.906119 -7.746556 0.825061,-2.91322 -7.650623 0.2894647,-3.134439 -6.603289 0.4635906,-3.260526 -5.973033 0.5469924,-3.34408 -5.360555 0.5977579,-2.550781 -7.442224 0.3747382,-2.71465 -6.242289 0.5370658,-2.71465 -6.242289 0.5370658,-2.868496 -4.769937 0.8182564,-2.191141 -7.486877 0.5261304,-2.260289 -6.335564 0.6913415,-2.335224 -5.584329 0.885059,-2.399406 -4.901866 1.082304,-1.820461 -7.756855 0.706525,-1.786109 -6.842006 0.8811567,-1.81745 -6.25271 1.087429,-1.855633 -5.698477 1.268487,-9.304051 -8.869682 0.6280667,-8.667757 -8.457275 1.158817,-8.271493 -7.578973 1.450118,-8.021687 -6.760467 1.72191,-7.746405 -6.081857 1.978043,-8.876158 -5.852456 0.8367348,-8.781091 -4.779641 1.100276,-8.819281 -4.014506 1.445549,-8.868565 -3.383739 1.741634,-9.289381 -5.808393 0.8374041,-9.427736 -4.605611 1.35233,-9.431803 -4.637156 1.94523,-9.403477 -5.022923 2.298693,-9.653521 -5.993991 0.9169314,-9.837253 -4.854515 1.368256,-9.784154 -4.958696 1.829464,-9.694949 -5.425169 2.078347,-10.003 -6.39291 1.035125,-10.22697 -5.502416 1.444213,-10.18371 -5.368556 1.76043,-10.06921 -5.622466 1.95108,3.610,4  0
-2.145146 -10.26168 0.2864999,-2.797584 -9.922266 0.4711002,-3.293612 -9.129133 0.5734519,-3.567116 -8.282694 0.708221,-3.927101 -7.741127 0.8936415,-2.91594 -7.642956 0.3381196,-3.143308 -6.615738 0.5069135,-3.27393 -5.99407 0.5875916,-3.359934 -5.383499 0.6360983,-2.548122 -7.431163 0.4195848,-2.711738 -6.250197 0.5763751,-2.711738 -6.250197 0.5763751,-2.860024 -4.790607 0.8731945,-2.188648 -7.48126 0.5678343,-2.264078 -6.34277 0.7253066,-2.337079 -5.603891 0.9268045,-2.39585 -4.928821 1.129361,-1.819332 -7.758612 0.7456701,-1.790597 -6.852733 0.9120554,-1.81914 -6.264465 1.12104,-1.855096 -5.699298 1.310649,-9.289006 -8.91379 0.6858063,-8.66503 -8.479967 1.217262,-8.269201 -7.590311 1.506788,-8.025294 -6.760007 1.771956,-7.744971 -6.06834 2.02588,-8.867403 -5.877188 0.906822,-8.775018 -4.779746 1.116782,-8.815119 -4.052965 1.421828,-8.861653 -3.438949 1.696326,-9.288216 -5.836402 0.9014168,-9.424129 -4.696773 1.332911,-9.493809 -4.571176 1.92657,-9.50948 -4.817297 2.342111,-9.653343 -6.036787 0.9640369,-9.834649 -4.96556 1.344058,-9.841722 -4.895505 1.805943,-9.78255 -5.180892 2.103784,-9.997328 -6.448531 1.065909,-10.2148 -5.583803 1.429847,-10.2148 -5.364133 1.753926,-10.12695 -5.470842 1.975439,3.710,4  0
-2.116219 -10.26994 0.2612605,-2.778819 -9.942062 0.4574467,-3.28401 -9.16057 0.5600794,-3.560747 -8.321321 0.6925399,-3.91935 -7.767295 0.879829,-2.926771 -7.66538 0.3487753,-3.161865 -6.622966 0.5265052,-3.291479 -6.001361 0.6169736,-3.374128 -5.393107 0.6767474,-2.56117 -7.454952 0.4309535,-2.727587 -6.254197 0.5944949,-2.727587 -6.254197 0.5944949,-2.87299 -4.794353 0.9078104,-2.198752 -7.510444 0.5806963,-2.271609 -6.357908 0.7502797,-2.34366 -5.6117 0.9599066,-2.405522 -4.932277 1.171531,-1.825197 -7.794382 0.758414,-1.79373 -6.884866 0.9385306,-1.827045 -6.297639 1.155896,-1.866474 -5.747121 1.349431,-9.293046 -8.856253 0.4385593,-8.674234 -8.431635 0.9829468,-8.272569 -7.576705 1.28634,-8.020638 -6.788528 1.566643,-7.740207 -6.114854 1.850724,-8.872792 -5.884709 0.6987285,-8.774717 -4.801403 0.9493865,-8.803394 -4.076058 1.296772,-8.846525 -3.472658 1.59452,-9.287443 -5.852859 0.6942959,-9.409857 -4.757293 1.171621,-9.49261 -4.568742 1.785492,-9.532587 -4.754583 2.210493,-9.649913 -6.053979 0.76612,-9.822681 -5.010242 1.180204,-9.827163 -4.933561 1.65647,-9.778344 -5.206871 1.961375,-9.993074 -6.458692 0.878014,-10.20916 -5.626585 1.26369,-10.21449 -5.419063 1.601964,-10.1422 -5.524043 1.835873,3.810,4  0
-2.127872 -10.31041 0.2789979,-2.777054 -9.981705 0.4898874,-3.276321 -9.189392 0.5993809,-3.549187 -8.347149 0.7429969,-3.891046 -7.757345 0.9356089,-2.890345 -7.682094 0.405424,-3.108664 -6.626728 0.6176524,-3.240574 -5.98566 0.7247458,-3.331721 -5.354786 0.7919768,-2.532899 -7.487537 0.4966053,-2.696573 -6.294282 0.710657,-2.696573 -6.294282 0.710657,-2.875953 -4.812332 1.044187,-2.175753 -7.547042 0.6591805,-2.239428 -6.394208 0.8811445,-2.313324 -5.642173 1.108779,-2.380233 -4.954265 1.333151,-1.807275 -7.83497 0.8483415,-1.771966 -6.925622 1.076785,-1.803722 -6.326766 1.318326,-1.844258 -5.760063 1.52654,-9.287007 -8.774076 0.2070945,-8.649517 -8.39846 0.7748643,-8.260178 -7.568468 1.089071,-8.024752 -6.804542 1.368687,-7.755838 -6.135336 1.671508,-8.85434 -5.88817 0.5365047,-8.761489 -4.837078 0.8127422,-8.797174 -4.087544 1.183691,-8.842931 -3.467444 1.511803,-9.27228 -5.841962 0.5142663,-9.397277 -4.76831 1.000283,-9.457046 -4.60593 1.596199,-9.484111 -4.75611 2.106356,-9.642611 -6.059058 0.6298405,-9.82089 -5.019353 1.072056,-9.809649 -4.925662 1.552258,-9.748993 -5.200181 1.865766,-9.991596 -6.456747 0.7393849,-10.20928 -5.62675 1.14638,-10.21231 -5.402322 1.490203,-10.13619 -5.49823 1.736803,3.910,4  0
-2.146474 -10.29 0.2395635,-2.796472 -9.952415 0.4664959,-3.299072 -9.172405 0.6004115,-3.574086 -8.343752 0.7590206,-3.918 -7.77573 0.9659555,-2.901715 -7.67402 0.4336747,-3.109766 -6.613143 0.6430473,-3.233126 -5.97754 0.7428929,-3.314552 -5.357155 0.8045629,-2.536521 -7.480957 0.509106,-2.695334 -6.276449 0.7138444,-2.695334 -6.276449 0.7138444,-2.849893 -4.797401 1.026141,-2.173416 -7.544542 0.6488075,-2.2362 -6.390718 0.8568898,-2.305175 -5.642936 1.06841,-2.365005 -4.953969 1.277008,-1.799826 -7.831577 0.8154773,-1.761191 -6.920358 1.020129,-1.786329 -6.330278 1.241888,-1.81668 -5.767728 1.43864,-9.283588 -8.740274 0.07234142,-8.646865 -8.370163 0.6518919,-8.263872 -7.565937 0.9821345,-8.029115 -6.810453 1.26887,-7.753162 -6.142884 1.579114,-8.847872 -5.892442 0.4738253,-8.758496 -4.829103 0.7809439,-8.791404 -4.084341 1.165797,-8.833293 -3.472798 1.497156,-9.270675 -5.856761 0.4615562,-9.408545 -4.770439 0.9870397,-9.463276 -4.619981 1.598738,-9.473353 -4.842447 2.021786,-9.643975 -6.055915 0.521679,-9.819692 -5.006414 0.9809539,-9.801164 -4.986741 1.472109,-9.729928 -5.327053 1.782617,-10.00014 -6.450948 0.6219882,-10.21305 -5.627902 1.032307,-10.21085 -5.436887 1.380387,-10.1242 -5.582561 1.625654,4.010,4  0
-2.107529 -10.2855 0.2531601,-2.758352 -10.04791 0.4892322,-3.287749 -9.234886 0.5851887,-3.565821 -8.402868 0.7072533,-3.903233 -7.83756 0.839494,-2.919149 -7.687001 0.3581907,-3.129095 -6.633743 0.554838,-3.24374 -6.03569 0.6470059,-3.322529 -5.437163 0.6977629,-2.561082 -7.474237 0.4226516,-2.693328 -6.295595 0.6300883,-2.693328 -6.295595 0.6300883,-2.803064 -4.874155 0.9226713,-2.203061 -7.513265 0.5625098,-2.253663 -6.388566 0.7629299,-2.309843 -5.65442 0.9606971,-2.362571 -4.981676 1.147577,-1.827672 -7.779449 0.7329768,-1.773884 -6.8963 0.9318378,-1.776669 -6.325695 1.138881,-1.792839 -5.788377 1.320471,-9.307721 -8.667253 -0.1403573,-8.675582 -8.378441 0.5100017,-8.294898 -7.622478 0.9253215,-8.076966 -6.899332 1.285786,-7.789482 -6.21442 1.674683,-8.861734 -5.959204 0.5509173,-8.793357 -4.892578 0.9810368,-8.833342 -4.14332 1.425505,-8.875991 -3.547361 1.761417,-9.304523 -5.897697 0.5278637,-9.456202 -4.761661 1.168017,-9.47716 -4.848522 1.743608,-9.451606 -5.265061 2.103762,-9.710095 -6.051544 0.5704689,-9.869527 -4.973054 1.107586,-9.834679 -5.187339 1.555335,-9.756895 -5.715562 1.79592,-10.10371 -6.403218 0.6550859,-10.27571 -5.504125 1.09479,-10.23294 -5.462465 1.401687,-10.12801 -5.791484 1.599728,4.110,4  0
-2.130962 -10.3262 0.2815516,-2.768961 -10.02942 0.53421,-3.286064 -9.230873 0.6556719,-3.568779 -8.407019 0.8069947,-3.896549 -7.8355 0.9662995,-2.903981 -7.704182 0.3997132,-3.117983 -6.655767 0.5995067,-3.231281 -6.057672 0.6866956,-3.304424 -5.47492 0.7317103,-2.553099 -7.502022 0.4534653,-2.684297 -6.314323 0.6531385,-2.684297 -6.314323 0.6531385,-2.791221 -4.880518 0.945504,-2.20464 -7.541991 0.5808593,-2.256943 -6.42521 0.7647393,-2.322485 -5.693246 0.9594147,-2.379944 -5.027942 1.140514,-1.841292 -7.801719 0.7384173,-1.781641 -6.919245 0.9247902,-1.785804 -6.35112 1.11985,-1.802314 -5.824104 1.29363,-9.32602 -8.619942 -0.2377682,-8.685459 -8.374956 0.4082365,-8.29052 -7.60133 0.7919054,-8.073299 -6.872907 1.110025,-7.795414 -6.212554 1.442013,-8.864382 -5.946861 0.4674327,-8.805952 -4.881818 0.94393,-8.85009 -4.145158 1.408695,-8.89744 -3.548523 1.742996,-9.309591 -5.876749 0.420752,-9.51164 -4.678354 1.063829,-9.511424 -4.888943 1.606321,-9.466616 -5.384744 1.923819,-9.716435 -6.035429 0.441326,-9.917001 -4.926968 1.019338,-9.848502 -5.279571 1.421197,-9.743485 -5.891719 1.604719,-10.11413 -6.389122 0.4941115,-10.31476 -5.472514 0.9480301,-10.26814 -5.460535 1.231795,-10.16321 -5.841117 1.37945,4.210,4  0
-2.111654 -10.32361 0.2265449,-2.753828 -10.05405 0.476461,-3.272288 -9.250961 0.5896156,-3.555874 -8.425783 0.7337891,-3.885925 -7.852199 0.8855563,-2.895927 -7.712707 0.3352763,-3.110593 -6.654871 0.5320989,-3.224047 -6.05561 0.6267121,-3.295479 -5.46031 0.6765953,-2.547378 -7.517471 0.3998545,-2.680198 -6.329931 0.6021255,-2.680198 -6.329931 0.6021255,-2.783721 -4.898067 0.9063518,-2.199561 -7.5596 0.5404961,-2.246521 -6.438804 0.7331427,-2.312703 -5.713335 0.9281874,-2.370598 -5.047973 1.111723,-1.835608 -7.816217 0.7131263,-1.775188 -6.934995 0.9064233,-1.780569 -6.368101 1.10123,-1.795294 -5.834709 1.272881,-9.358471 -8.61911 0.0657768,-8.726099 -8.335819 0.7203715,-8.317533 -7.560611 1.112637,-8.101624 -6.821977 1.445599,-7.83931 -6.157568 1.777451,-8.889112 -5.8633 0.7636389,-8.849457 -4.838829 1.261999,-8.910077 -4.144151 1.749117,-8.966707 -3.563848 2.089069,-9.350705 -5.787065 0.7257151,-9.583291 -4.56521 1.409612,-9.554656 -4.896514 1.966424,-9.484506 -5.455936 2.266652,-9.770243 -5.952124 0.7541854,-9.999113 -4.839522 1.375802,-9.904904 -5.284532 1.774438,-9.783269 -5.933279 1.924764,-10.18266 -6.322565 0.8146041,-10.41061 -5.380291 1.270836,-10.33706 -5.420588 1.524037,-10.21695 -5.829298 1.625728,4.310,4  0
-2.108236 -10.3365 0.2064476,-2.743085 -10.06104 0.464367,-3.271572 -9.257759 0.5869935,-3.563762 -8.43714 0.7395537,-3.890867 -7.865835 0.8949479,-2.891889 -7.732776 0.3421408,-3.104354 -6.679615 0.5527718,-3.21752 -6.081363 0.6488887,-3.291031 -5.490848 0.6962349,-2.539772 -7.536741 0.3981665,-2.6692 -6.351864 0.6182097,-2.6692 -6.351864 0.6182097,-2.772137 -4.925694 0.9216406,-2.190917 -7.581092 0.5278822,-2.239924 -6.469556 0.7293984,-2.30248 -5.749144 0.9278228,-2.357998 -5.090307 1.109183,-1.827222 -7.840877 0.6878961,-1.768558 -6.967514 0.8817141,-1.771441 -6.410224 1.078566,-1.784943 -5.885734 1.247559,-9.324731 -8.605623 0.136151,-8.706839 -8.306276 0.8144078,-8.297373 -7.507577 1.198915,-8.079602 -6.765575 1.521497,-7.809009 -6.126377 1.835258,-8.894578 -5.819269 0.84799,-8.829741 -4.833765 1.411624,-8.881353 -4.164293 1.931424,-8.933339 -3.596469 2.280848,-9.361085 -5.754731 0.8027785,-9.601687 -4.553585 1.544987,-9.561087 -4.85989 2.141656,-9.482227 -5.412482 2.45719,-9.777461 -5.923692 0.8301938,-10.0252 -4.826854 1.49436,-9.906491 -5.247803 1.932351,-9.756937 -5.893084 2.10318,-10.18323 -6.304512 0.8948653,-10.44719 -5.364775 1.405663,-10.35547 -5.388423 1.707081,-10.19214 -5.812384 1.830046,4.410,4  0
-2.11364 -10.35135 0.1935951,-2.746138 -10.09959 0.4502812,-3.269931 -9.283884 0.5676203,-3.555088 -8.45719 0.7134217,-3.885143 -7.889363 0.8615045,-2.886423 -7.755058 0.3314977,-3.098615 -6.698616 0.5368855,-3.209712 -6.103183 0.6232466,-3.283062 -5.522514 0.6604681,-2.535888 -7.554412 0.3927825,-2.667228 -6.368389 0.6140284,-2.667228 -6.368389 0.6140284,-2.77277 -4.945217 0.909874,-2.188217 -7.599329 0.5295129,-2.235411 -6.486645 0.7428517,-2.297968 -5.758125 0.9422706,-2.356598 -5.092945 1.12434,-1.823986 -7.864622 0.695019,-1.762994 -6.99732 0.8998808,-1.76379 -6.44271 1.100394,-1.7765 -5.925676 1.274422,-9.31365 -8.572399 0.1327817,-8.701504 -8.274904 0.8034083,-8.284648 -7.490188 1.191951,-8.059364 -6.758908 1.522106,-7.793518 -6.123615 1.839967,-8.87927 -5.814524 0.8876445,-8.807891 -4.820572 1.488925,-8.856082 -4.153912 2.021704,-8.906971 -3.601808 2.376362,-9.347021 -5.733642 0.8454792,-9.588823 -4.504947 1.601869,-9.537764 -4.881179 2.184466,-9.457534 -5.490196 2.479122,-9.768848 -5.891565 0.8742444,-10.02356 -4.790779 1.541334,-9.903752 -5.226949 1.965377,-9.756938 -5.881757 2.123551,-10.17871 -6.265569 0.9376357,-10.45167 -5.320535 1.443848,-10.3619 -5.34248 1.732734,-10.20296 -5.772794 1.844344,4.510,4  0
-2.104846 -10.34826 0.1644056,-2.745943 -10.09349 0.4023968,-3.270173 -9.279221 0.5129429,-3.556232 -8.45302 0.6531821,-3.88224 -7.888566 0.7939743,-2.88401 -7.757898 0.2934223,-3.096824 -6.705398 0.498634,-3.211214 -6.114658 0.5848715,-3.287811 -5.534385 0.623464,-2.533493 -7.560732 0.3633807,-2.667576 -6.379634 0.5824974,-2.667576 -6.379634 0.5824974,-2.781151 -4.964911 0.8825391,-2.186357 -7.610967 0.5052299,-2.233855 -6.494745 0.7168279,-2.29989 -5.76856 0.9105206,-2.360616 -5.108898 1.088372,-1.823573 -7.882666 0.6758667,-1.759808 -7.014205 0.876452,-1.763577 -6.459352 1.071523,-1.77986 -5.943237 1.238608,-9.334383 -8.481586 0.305441,-8.704432 -8.178837 1.020247,-8.276645 -7.394524 1.444984,-8.034227 -6.661306 1.800954,-7.749322 -6.003269 2.148888,-8.872322 -5.686422 1.134229,-8.816985 -4.696509 1.729791,-8.878755 -4.035934 2.266026,-8.939592 -3.508989 2.636806,-9.346963 -5.610542 1.090227,-9.579818 -4.381074 1.873185,-9.539846 -4.673419 2.492479,-9.466668 -5.246057 2.844508,-9.774711 -5.784044 1.119423,-10.01974 -4.649167 1.818877,-9.900782 -5.062584 2.260298,-9.755344 -5.723335 2.451675,-10.19467 -6.181137 1.185414,-10.46287 -5.214368 1.731286,-10.37072 -5.241288 2.059589,-10.20699 -5.679912 2.219265,4.610,4  0
-2.097439 -10.34231 0.1011319,-2.733309 -10.11545 0.379435,-3.254463 -9.322233 0.5038432,-3.537448 -8.498667 0.6471208,-3.857197 -7.91715 0.7883928,-2.867147 -7.774766 0.2634259,-3.086861 -6.713386 0.470795,-3.205381 -6.114044 0.5660542,-3.286222 -5.529302 0.6140912,-2.518126 -7.572443 0.3077878,-2.648756 -6.38544 0.5341673,-2.648756 -6.38544 0.5341673,-2.757157 -4.953584 0.8428906,-2.171548 -7.617546 0.4262683,-2.215887 -6.510628 0.6405765,-2.283744 -5.784297 0.8410171,-2.344592 -5.12708 1.029048,-1.810658 -7.883649 0.5752584,-1.746112 -7.012745 0.7841171,-1.748236 -6.451652 0.9849942,-1.762555 -5.930276 1.159139,-9.357608 -8.438782 0.4455499,-8.73127 -8.128695 1.176707,-8.312035 -7.336099 1.617672,-8.071252 -6.597019 1.982474,-7.793243 -5.969829 2.357396,-8.906166 -5.620942 1.391528,-8.87723 -4.621755 2.047858,-8.935809 -4.003377 2.617264,-8.988634 -3.580686 2.989852,-9.385245 -5.553234 1.324016,-9.65116 -4.285021 2.127588,-9.585687 -4.709629 2.683908,-9.483675 -5.380414 2.988565,-9.821119 -5.726025 1.326301,-10.09379 -4.562366 2.04265,-9.960209 -5.062248 2.458018,-9.807029 -5.77038 2.612206,-10.24292 -6.114952 1.358775,-10.52429 -5.124513 1.9435,-10.40631 -5.235759 2.266878,-10.22095 -5.731019 2.398339,4.710,4  0
-2.102955 -10.35452 0.1129577,-2.739154 -10.09928 0.384532,-3.255581 -9.30022 0.5038124,-3.53826 -8.477301 0.6495491,-3.860487 -7.88819 0.795918,-2.864052 -7.769029 0.2426756,-3.077156 -6.71446 0.4472954,-3.193841 -6.116228 0.5439147,-3.26905 -5.531608 0.5963946,-2.514071 -7.577916 0.2923168,-2.638368 -6.394926 0.5104735,-2.638368 -6.394926 0.5104735,-2.73407 -4.962696 0.8191807,-2.168593 -7.629518 0.4158731,-2.204263 -6.53162 0.6250142,-2.267104 -5.806787 0.8261836,-2.319551 -5.149366 1.011382,-1.810339 -7.898813 0.5730742,-1.741934 -7.041164 0.7797517,-1.745558 -6.481478 0.9848567,-1.759345 -5.956012 1.158952,-9.392183 -8.397331 0.445942,-8.76412 -8.107031 1.18888,-8.339758 -7.316463 1.640714,-8.093704 -6.577944 2.014321,-7.818144 -5.948978 2.387623,-8.949246 -5.598997 1.433034,-8.928215 -4.645319 2.113574,-8.992521 -4.039375 2.70042,-9.038997 -3.65562 3.086953,-9.432365 -5.523966 1.363333,-9.702736 -4.286252 2.179832,-9.635005 -4.698144 2.753969,-9.523527 -5.376291 3.077319,-9.872595 -5.697154 1.361799,-10.14999 -4.561262 2.094884,-10.01461 -5.043077 2.520552,-9.852264 -5.751764 2.685033,-10.29757 -6.08854 1.390182,-10.58841 -5.108201 1.964857,-10.48105 -5.196519 2.278663,-10.2955 -5.679779 2.406002,4.810,4  0
-2.075527 -10.36488 0.09771499,-2.718818 -10.14081 0.3912629,-3.232738 -9.330694 0.5277791,-3.502505 -8.508484 0.6829392,-3.826132 -7.918638 0.8432351,-2.861452 -7.788463 0.2961066,-3.069747 -6.725946 0.5251964,-3.178574 -6.1205 0.6386836,-3.24458 -5.52378 0.7056411,-2.504786 -7.60111 0.3505843,-2.62848 -6.421701 0.5965575,-2.62848 -6.421701 0.5965575,-2.722056 -4.980127 0.9258735,-2.151162 -7.663251 0.4817278,-2.185913 -6.551695 0.718531,-2.247622 -5.81644 0.936587,-2.299441 -5.151205 1.136539,-1.783447 -7.947353 0.6444722,-1.713763 -7.078083 0.8749094,-1.713766 -6.506854 1.094714,-1.7247 -5.968804 1.285465,-9.4856 -8.450493 0.6850494,-8.858014 -8.158792 1.451247,-8.433428 -7.358205 1.908454,-8.183196 -6.605752 2.281482,-7.915647 -5.983205 2.640608,-9.05654 -5.587236 1.700245,-9.037051 -4.612705 2.368886,-9.112198 -3.951501 2.930445,-9.177409 -3.470378 3.296782,-9.540889 -5.510206 1.616856,-9.813374 -4.285424 2.449501,-9.735509 -4.758384 3.019476,-9.606254 -5.441354 3.327917,-9.983598 -5.690366 1.601828,-10.26351 -4.579142 2.345751,-10.11794 -5.110107 2.759931,-9.935684 -5.817866 2.909566,-10.40847 -6.088172 1.617832,-10.6974 -5.130242 2.206619,-10.57407 -5.267816 2.514292,-10.36244 -5.765287 2.637812,4.910,4  0
-2.075805 -10.3944 0.09013906,-2.716604 -10.14893 0.3749335,-3.23009 -9.345512 0.509369,-3.500007 -8.526001 0.6635836,-3.818476 -7.93695 0.819482,-2.837652 -7.813491 0.2937534,-3.04513 -6.734777 0.5139036,-3.150164 -6.12359 0.6210114,-3.209075 -5.524245 0.6835001,-2.484077 -7.629865 0.3451033,-2.608953 -6.429189 0.5784239,-2.608953 -6.429189 0.5784239,-2.691753 -4.991234 0.8939593,-2.133403 -7.69151 0.469875,-2.164584 -6.570205 0.6976643,-2.218173 -5.833059 0.9087998,-2.262677 -5.168941 1.099465,-1.769536 -7.9743 0.6272328,-1.703405 -7.102386 0.8493646,-1.706334 -6.536818 1.061721,-1.71983 -6.006636 1.236182,-9.527606 -8.467489 0.6258357,-8.88313 -8.177031 1.408966,-8.472197 -7.368685 1.887769,-8.244459 -6.598017 2.281125,-7.979416 -5.961037 2.671421,-9.104161 -5.618642 1.684759,-9.100305 -4.640116 2.387315,-9.17909 -4.032474 2.990885,-9.240843 -3.682259 3.383328,-9.597758 -5.556223 1.59124,-9.881166 -4.318758 2.430118,-9.81772 -4.770939 3.009115,-9.695482 -5.461122 3.329464,-10.04647 -5.736832 1.560729,-10.33316 -4.598264 2.310845,-10.20096 -5.121569 2.71639,-10.02628 -5.824194 2.867505,-10.47756 -6.130986 1.559412,-10.7724 -5.145519 2.142613,-10.66141 -5.306293 2.438442,-10.45852 -5.817623 2.544795,5.010,4  0
-2.0735 -10.39845 0.09385487,-2.715086 -10.14171 0.4041554,-3.228502 -9.350599 0.5566378,-3.499523 -8.527378 0.7239708,-3.825387 -7.940687 0.8949821,-2.842281 -7.819351 0.3484562,-3.059113 -6.746291 0.5890099,-3.167297 -6.143098 0.7037484,-3.232156 -5.548562 0.7690958,-2.483113 -7.637407 0.3923529,-2.606991 -6.440736 0.6506771,-2.606991 -6.440736 0.6506771,-2.690707 -5.010662 0.9835091,-2.130368 -7.701444 0.5110226,-2.163859 -6.582799 0.7599295,-2.218435 -5.854587 0.9880627,-2.263831 -5.184635 1.190723,-1.76754 -7.986988 0.6594304,-1.700132 -7.114901 0.8996118,-1.700679 -6.555679 1.129314,-1.711931 -6.018961 1.318616,-9.582912 -8.477774 0.5857834,-8.944531 -8.200861 1.403335,-8.538653 -7.422617 1.917276,-8.311572 -6.668802 2.343655,-8.067748 -6.053805 2.760627,-9.206512 -5.669866 1.739143,-9.217065 -4.672594 2.510797,-9.303841 -4.043729 3.154613,-9.37223 -3.64702 3.565349,-9.708888 -5.615709 1.651266,-10.01599 -4.373395 2.544233,-9.941679 -4.867339 3.106945,-9.810654 -5.562642 3.40041,-10.16021 -5.791589 1.628252,-10.46823 -4.637693 2.432096,-10.32614 -5.156801 2.82111,-10.13329 -5.853738 2.945296,-10.58645 -6.18781 1.63846,-10.91731 -5.181719 2.257653,-10.80255 -5.310985 2.560769,-10.573 -5.809032 2.658521,5.110,4  0
-2.066374 -10.40876 0.09144133,-2.705244 -10.16505 0.3966823,-3.221669 -9.368069 0.541495,-3.49296 -8.551432 0.7035838,-3.81618 -7.97382 0.869601,-2.833653 -7.830162 0.3394224,-3.043865 -6.751523 0.5803367,-3.145515 -6.136056 0.7013471,-3.202145 -5.538705 0.7705481,-2.475494 -7.6478 0.3847363,-2.601437 -6.445643 0.6410447,-2.601437 -6.445643 0.6410447,-2.680869 -5.005485 0.9760374,-2.122175 -7.705131 0.5056797,-2.157501 -6.588459 0.7516634,-2.212873 -5.853551 0.9670298,-2.260182 -5.184198 1.164052,-1.756211 -7.985277 0.6558675,-1.686121 -7.115626 0.8848907,-1.683561 -6.55637 1.098914,-1.6929 -6.025087 1.281403,-9.628861 -8.521566 0.5582873,-8.971406 -8.215763 1.375276,-8.554737 -7.445928 1.891155,-8.332309 -6.675356 2.318721,-8.089993 -6.035501 2.719587,-9.265445 -5.696478 1.668942,-9.295403 -4.703497 2.468884,-9.397495 -4.099756 3.151594,-9.463937 -3.766223 3.589825,-9.765396 -5.652114 1.579077,-10.08337 -4.424572 2.481751,-10.02733 -4.879327 3.057781,-9.901484 -5.550183 3.35956,-10.2101 -5.838688 1.562302,-10.54061 -4.696266 2.343801,-10.41861 -5.144024 2.725126,-10.22689 -5.798698 2.856138,-10.62628 -6.250285 1.580428,-10.98337 -5.267779 2.15957,-10.9061 -5.306808 2.448108,-10.69408 -5.733218 2.546032,5.210,4  0
-2.079664 -10.44614 0.167219,-2.709004 -10.19524 0.4803188,-3.215316 -9.385332 0.6289096,-3.48086 -8.568518 0.7906398,-3.810334 -8.008989 0.9613217,-2.825649 -7.845514 0.4327763,-3.040464 -6.768296 0.6888169,-3.145557 -6.153254 0.8201451,-3.204569 -5.547775 0.89844,-2.468062 -7.661867 0.4756576,-2.593942 -6.456281 0.7499428,-2.593942 -6.456281 0.7499428,-2.671926 -5.003511 1.098131,-2.114103 -7.718013 0.5891989,-2.15205 -6.603665 0.8479484,-2.213033 -5.876466 1.078476,-2.263446 -5.205275 1.283591,-1.745578 -8.005226 0.7289288,-1.683941 -7.131823 0.9768919,-1.683035 -6.569922 1.207276,-1.691133 -6.023674 1.400949,-9.613461 -8.528244 0.5681694,-8.970111 -8.206387 1.37597,-8.561315 -7.437542 1.890988,-8.332317 -6.687378 2.324292,-8.095472 -6.065118 2.740456,-9.276399 -5.684541 1.661614,-9.295511 -4.659418 2.430949,-9.390051 -4.008378 3.076335,-9.458977 -3.577074 3.491487,-9.778582 -5.658989 1.593753,-10.09403 -4.406984 2.509453,-10.03011 -4.867109 3.092646,-9.900863 -5.534842 3.402891,-10.22511 -5.857231 1.598675,-10.54656 -4.683683 2.391613,-10.42108 -5.125013 2.788236,-10.23138 -5.784969 2.936433,-10.64308 -6.281415 1.641099,-10.99674 -5.279645 2.227509,-10.9202 -5.275774 2.532108,-10.71448 -5.681798 2.661327,5.310,4  0
-2.068367 -10.43908 0.1828241,-2.717592 -10.17657 0.4859711,-3.228201 -9.36442 0.6288996,-3.495268 -8.544285 0.7862977,-3.811453 -7.965192 0.9511778,-2.821013 -7.824273 0.3981894,-3.028402 -6.754999 0.6285768,-3.13368 -6.143013 0.7436768,-3.196035 -5.543679 0.8147063,-2.462645 -7.64602 0.4412059,-2.582162 -6.456588 0.6926885,-2.582162 -6.456588 0.6926885,-2.66762 -5.024206 1.015657,-2.112162 -7.70993 0.5618044,-2.137068 -6.603893 0.8061075,-2.19064 -5.881242 1.023407,-2.236995 -5.221915 1.217084,-1.751823 -7.992349 0.7145684,-1.680609 -7.128558 0.9440523,-1.676252 -6.571321 1.161435,-1.68361 -6.03509 1.340764,-9.619501 -8.475182 0.5503151,-8.973339 -8.169657 1.442202,-8.562398 -7.419963 2.012066,-8.342839 -6.659208 2.478408,-8.083947 -6.015893 2.916301,-9.28476 -5.713925 1.818343,-9.330235 -4.728694 2.683575,-9.436502 -4.132452 3.40686,-9.498297 -3.807461 3.861253,-9.795052 -5.665266 1.713952,-10.10838 -4.441847 2.683203,-10.05446 -4.861703 3.307217,-9.932343 -5.494485 3.63974,-10.24385 -5.849124 1.679051,-10.57348 -4.687953 2.506896,-10.45689 -5.098197 2.915339,-10.2662 -5.731742 3.07121,-10.65691 -6.273438 1.682987,-11.02467 -5.263008 2.273864,-10.95636 -5.254808 2.579913,-10.74263 -5.65828 2.691571,5.410,4 4 0
-2.059903 -10.44081 0.1612173,-2.707673 -10.19401 0.4914575,-3.225262 -9.395746 0.6516121,-3.493176 -8.574322 0.8212328,-3.804016 -7.971378 1.001564,-2.839823 -7.84707 0.4286159,-3.041483 -6.760904 0.6631464,-3.143276 -6.139622 0.7886958,-3.204596 -5.533085 0.8686126,-2.479366 -7.661615 0.458746,-2.599556 -6.460071 0.7033333,-2.599556 -6.460071 0.7033333,-2.682662 -5.018524 1.029406,-2.124548 -7.722534 0.5657866,-2.152626 -6.60713 0.8017627,-2.20384 -5.877344 1.013021,-2.250236 -5.213068 1.210066,-1.761017 -8.005505 0.7056311,-1.698862 -7.132638 0.9334315,-1.697995 -6.571937 1.147724,-1.70988 -6.04141 1.332018,-9.615641 -8.452093 0.4701669,-8.968096 -8.127098 1.348387,-8.558558 -7.386301 1.914791,-8.336729 -6.639331 2.379911,-8.083091 -6.007877 2.823788,-9.292256 -5.701458 1.73335,-9.3311 -4.711907 2.601699,-9.432217 -4.110219 3.331735,-9.494387 -3.79356 3.789689,-9.801062 -5.669331 1.637753,-10.10906 -4.425527 2.606268,-10.05315 -4.812562 3.228956,-9.931642 -5.440685 3.579757,-10.24865 -5.860752 1.611457,-10.57771 -4.681815 2.437306,-10.46568 -5.06858 2.832516,-10.28096 -5.698986 2.989449,-10.66396 -6.28547 1.62664,-11.03606 -5.250072 2.215211,-10.97208 -5.226864 2.510512,-10.76195 -5.631433 2.631517,5.510,4 4 0
-2.081045 -10.47255 0.1838836,-2.717543 -10.20058 0.5366324,-3.22734 -9.393044 0.7073683,-3.49707 -8.557711 0.8856875,-3.826153 -7.971374 1.069441,-2.836255 -7.870506 0.4832825,-3.057845 -6.789143 0.7383217,-3.165819 -6.168836 0.8601388,-3.230047 -5.562788 0.9338338,-2.471079 -7.684998 0.5039293,-2.601373 -6.4783 0.7688434,-2.601373 -6.4783 0.7688434,-2.695148 -5.045911 1.086125,-2.117304 -7.741914 0.6041915,-2.152818 -6.616748 0.8589634,-2.217386 -5.890727 1.085422,-2.271432 -5.227012 1.284383,-1.755872 -8.019472 0.7377917,-1.692799 -7.150329 0.9824156,-1.696607 -6.591431 1.214892,-1.711349 -6.053405 1.406336,-9.60328 -8.386194 0.2987697,-8.951559 -8.131605 1.22542,-8.528627 -7.430944 1.829596,-8.306447 -6.691905 2.333072,-8.072685 -6.057181 2.797787,-9.25696 -5.768571 1.673669,-9.295859 -4.777212 2.608481,-9.392977 -4.174606 3.37004,-9.452275 -3.896686 3.830042,-9.775562 -5.698566 1.561598,-10.07269 -4.458496 2.579301,-10.00758 -4.83152 3.222586,-9.887392 -5.467265 3.573664,-10.22992 -5.858033 1.518772,-10.55963 -4.692434 2.379106,-10.44735 -5.063151 2.799574,-10.26009 -5.694137 2.965408,-10.64367 -6.256134 1.519844,-11.0276 -5.232646 2.121473,-10.97028 -5.187536 2.429979,-10.755 -5.58264 2.554313,5.610,4 4 0
-2.069266 -10.47773 0.1811277,-2.714369 -10.18965 0.5226246,-3.227211 -9.397537 0.6944159,-3.495937 -8.576433 0.8741224,-3.819618 -7.989383 1.059421,-2.836681 -7.876596 0.492612,-3.050943 -6.790349 0.7469583,-3.158264 -6.175306 0.8673484,-3.228884 -5.576446 0.9380531,-2.470129 -7.694499 0.5181878,-2.593522 -6.485996 0.7823535,-2.593522 -6.485996 0.7823535,-2.689645 -5.05723 1.114037,-2.11407 -7.757925 0.619929,-2.143764 -6.634011 0.8775747,-2.197272 -5.907251 1.110234,-2.248205 -5.241462 1.316546,-1.752093 -8.044847 0.7530085,-1.686808 -7.178053 1.000367,-1.689835 -6.621969 1.235364,-1.708174 -6.083932 1.427254,-9.570151 -8.461254 0.415801,-8.916703 -8.179836 1.299241,-8.479369 -7.46656 1.878429,-8.232543 -6.717886 2.36357,-7.994608 -6.098765 2.798468,-9.215233 -5.778239 1.69014,-9.243637 -4.770374 2.614896,-9.335367 -4.148188 3.369278,-9.380993 -3.821573 3.836997,-9.738328 -5.696688 1.589107,-10.03449 -4.413431 2.572122,-9.944163 -4.896558 3.156114,-9.796334 -5.573516 3.443816,-10.19701 -5.8448 1.569368,-10.52148 -4.629619 2.394366,-10.39452 -5.045002 2.767255,-10.19633 -5.681127 2.891043,-10.61799 -6.243343 1.592411,-11.00645 -5.203796 2.1746,-10.93925 -5.180435 2.455188,-10.71711 -5.565229 2.558704,5.710,4 4 0
-2.058706 -10.4691 0.1409716,-2.703662 -10.20353 0.4805876,-3.214701 -9.417662 0.6475165,-3.486654 -8.589338 0.8218979,-3.816254 -7.982218 1.007239,-2.82822 -7.878782 0.4403522,-3.049688 -6.782089 0.6770102,-3.154179 -6.156587 0.7890861,-3.21524 -5.552017 0.8576257,-2.463755 -7.695983 0.4600243,-2.591671 -6.475492 0.7023591,-2.591671 -6.475492 0.7023591,-2.671257 -5.041124 1.014878,-2.109868 -7.754274 0.5553353,-2.145481 -6.624713 0.7876107,-2.202508 -5.888278 1.000409,-2.249306 -5.221393 1.197958,-1.746884 -8.033718 0.681023,-1.684905 -7.150196 0.9098807,-1.683851 -6.583053 1.129395,-1.692934 -6.042949 1.313852,-9.54999 -8.420694 0.4395192,-8.899216 -8.180422 1.370676,-8.45774 -7.470796 1.987364,-8.207382 -6.732856 2.497003,-7.964677 -6.124052 2.963637,-9.186958 -5.775342 1.830757,-9.21128 -4.77667 2.834615,-9.300615 -4.170179 3.634291,-9.347958 -3.862724 4.124904,-9.716596 -5.698495 1.724179,-10.00717 -4.408741 2.791037,-9.903296 -4.926904 3.400787,-9.753304 -5.605279 3.699176,-10.18003 -5.840003 1.699692,-10.50272 -4.611184 2.582455,-10.36163 -5.057413 2.945933,-10.16026 -5.684971 3.061711,-10.60704 -6.218341 1.720924,-10.9873 -5.161891 2.329046,-10.89971 -5.188976 2.60572,-10.6711 -5.598411 2.697489,5.810,4 4 0
-2.046162 -10.51372 0.2123381,-2.693223 -10.24516 0.5589404,-3.204432 -9.438156 0.7214556,-3.469859 -8.593309 0.8950089,-3.784904 -7.97298 1.073475,-2.802841 -7.895591 0.4667694,-3.018673 -6.807235 0.6961039,-3.127903 -6.185485 0.8125939,-3.196789 -5.582434 0.8839548,-2.439882 -7.71368 0.4881286,-2.564904 -6.501971 0.7235042,-2.564904 -6.501971 0.7235042,-2.650645 -5.067682 1.048892,-2.089553 -7.771902 0.5867221,-2.121794 -6.649038 0.8173987,-2.180268 -5.916427 1.039011,-2.232749 -5.252386 1.239096,-1.730691 -8.049822 0.7215334,-1.666122 -7.172609 0.9494006,-1.668152 -6.606174 1.167034,-1.679524 -6.071753 1.348738,-9.520776 -8.44017 0.5749403,-8.874111 -8.181709 1.456726,-8.42813 -7.454078 2.046049,-8.17213 -6.704475 2.541242,-7.937463 -6.094238 2.994284,-9.150253 -5.731133 1.880764,-9.170786 -4.743311 2.845071,-9.259929 -4.13348 3.622046,-9.302018 -3.838605 4.105265,-9.674785 -5.643703 1.791248,-9.965519 -4.369879 2.816182,-9.85943 -4.895715 3.404407,-9.698548 -5.605406 3.693073,-10.1407 -5.791536 1.785005,-10.46148 -4.576955 2.643395,-10.31778 -5.027446 3.016684,-10.11012 -5.686248 3.133459,-10.56853 -6.185607 1.819884,-10.9536 -5.140075 2.422662,-10.86575 -5.153728 2.698308,-10.63245 -5.56355 2.787464,5.910,4 4 0
-2.05309 -10.56288 0.195535,-2.710078 -10.24852 0.5069731,-3.19536 -9.448589 0.6785923,-3.435312 -8.596838 0.8412527,-3.76581 -7.997688 1.034054,-2.797915 -7.972225 0.6463497,-3.006159 -6.864098 0.8878859,-3.103369 -6.193114 0.9810619,-3.160217 -5.54344 1.041713,-2.406415 -7.788045 0.6638761,-2.530361 -6.522164 0.9231125,-2.530361 -6.522164 0.9231125,-2.611603 -5.026554 1.214748,-2.037908 -7.865563 0.7305018,-2.068359 -6.677602 1.00368,-2.114391 -5.891235 1.244583,-2.149392 -5.190839 1.469694,-1.678921 -8.175274 0.8145314,-1.624026 -7.254673 1.080228,-1.634049 -6.64578 1.331678,-1.650712 -6.055801 1.54475,-9.410419 -8.666744 0.6622098,-8.774103 -8.233707 1.540398,-8.355414 -7.448448 2.125029,-8.129862 -6.675886 2.61509,-7.886744 -5.979385 3.077724,-9.073568 -5.844011 1.892908,-9.094471 -4.736963 2.670812,-9.169372 -4.063056 3.361658,-9.207297 -3.664847 3.84082,-9.583304 -5.819786 1.819885,-9.802637 -4.575826 2.708116,-9.852239 -4.339208 3.469947,-9.821691 -4.601945 4.009831,-10.02525 -6.01087 1.811513,-10.2947 -4.785999 2.5295,-10.31439 -4.579915 3.037531,-10.24064 -4.809315 3.369725,-10.42298 -6.426321 1.870368,-10.78021 -5.384422 2.430192,-10.81472 -5.056922 2.825342,-10.68929 -5.13012 3.104562,6.010,4 4 0
-2.011124 -10.54409 0.258559,-2.668257 -10.24363 0.6017287,-3.168486 -9.468378 0.775706,-3.411264 -8.634174 0.9454764,-3.729657 -8.000261 1.130169,-2.747385 -7.926944 0.6359868,-2.975485 -6.855571 0.8546089,-3.085016 -6.225955 0.9425564,-3.15416 -5.614557 0.9973989,-2.372602 -7.739555 0.6463655,-2.500386 -6.50751 0.8887336,-2.500386 -6.50751 0.8887336,-2.587496 -5.054393 1.17915,-2.023701 -7.813497 0.7182347,-2.044904 -6.666078 0.9754373,-2.089965 -5.909971 1.210844,-2.125444 -5.230412 1.427431,-1.67695 -8.119867 0.8199767,-1.615586 -7.240048 1.075059,-1.622038 -6.659664 1.326677,-1.63605 -6.106105 1.531484,-9.425188 -8.616871 0.7256575,-8.794377 -8.230965 1.50769,-8.355727 -7.454662 2.051244,-8.108307 -6.738462 2.517457,-7.847893 -6.102102 2.971735,-9.044353 -5.824945 1.918333,-8.988754 -4.761796 2.694583,-9.051555 -4.08543 3.363345,-9.095759 -3.666067 3.810856,-9.545303 -5.743614 1.873452,-9.73918 -4.571828 2.773805,-9.79079 -4.344821 3.548304,-9.762716 -4.646446 4.075368,-9.983666 -5.911886 1.882037,-10.22673 -4.745354 2.615347,-10.21785 -4.688824 3.137788,-10.11918 -5.124797 3.464641,-10.38595 -6.321884 1.951273,-10.69094 -5.332292 2.52953,-10.69314 -5.136999 2.931383,-10.55547 -5.412433 3.225419,6.110,4 4 0
-2.021974 -10.59124 0.4271272,-2.66756 -10.27367 0.8182665,-3.157994 -9.467724 1.000092,-3.391029 -8.616268 1.17727,-3.714226 -7.967411 1.381002,-2.727326 -7.912236 0.7567577,-2.941702 -6.847965 0.9839786,-3.058985 -6.220376 1.097646,-3.141945 -5.612009 1.179598,-2.352492 -7.726453 0.7549257,-2.481385 -6.527135 0.9912845,-2.481385 -6.527135 0.9912845,-2.61355 -5.09025 1.307487,-2.003982 -7.802874 0.8312375,-2.019468 -6.671413 1.087007,-2.074084 -5.917522 1.330982,-2.124142 -5.230678 1.555578,-1.65757 -8.116673 0.9462749,-1.59049 -7.247211 1.192348,-1.60119 -6.666637 1.448017,-1.622469 -6.104845 1.662374,-9.263063 -8.570267 0.3778678,-8.62054 -8.249847 1.100176,-8.193703 -7.504381 1.564047,-7.975907 -6.800152 1.956391,-7.750593 -6.132324 2.323454,-8.831301 -5.839283 1.335497,-8.743341 -4.864473 2.004464,-8.778128 -4.208433 2.607357,-8.803695 -3.726469 3.022407,-9.309146 -5.718831 1.299281,-9.466283 -4.584152 2.06694,-9.517811 -4.272214 2.819537,-9.512454 -4.448129 3.32837,-9.733638 -5.878026 1.318175,-9.958158 -4.747863 1.996633,-9.950986 -4.699423 2.569942,-9.861175 -5.105821 2.942187,-10.12785 -6.306189 1.397906,-10.41457 -5.396892 1.95023,-10.42072 -5.167993 2.37631,-10.29547 -5.363885 2.684872,6.210,4 4 0
-2.026782 -10.60794 0.4186474,-2.685194 -10.27724 0.7790211,-3.175644 -9.480385 0.9513998,-3.406275 -8.633217 1.122071,-3.719144 -7.994245 1.305811,-2.72782 -7.925187 0.7503976,-2.935606 -6.834005 0.9653952,-3.046277 -6.194458 1.066546,-3.128273 -5.579215 1.140386,-2.353974 -7.746046 0.7534644,-2.483185 -6.520042 0.9928914,-2.483185 -6.520042 0.9928914,-2.626987 -5.07212 1.298066,-2.006271 -7.816379 0.8290288,-2.021951 -6.675147 1.089697,-2.075661 -5.911996 1.327535,-2.129169 -5.218494 1.551887,-1.662929 -8.120293 0.9357832,-1.588604 -7.244628 1.188757,-1.595671 -6.659601 1.446023,-1.617875 -6.096675 1.664742,-9.152808 -8.748745 0.09800252,-8.502581 -8.407156 0.7043913,-8.078108 -7.601044 1.037256,-7.867281 -6.854171 1.318692,-7.659398 -6.167915 1.564617,-8.68945 -6.025539 0.7091429,-8.578512 -5.01477 1.193247,-8.597114 -4.341924 1.671789,-8.607756 -3.799238 2.035244,-9.134732 -5.890975 0.6823815,-9.264792 -4.776041 1.298547,-9.321816 -4.543394 1.966457,-9.331561 -4.75114 2.422966,-9.531003 -6.005096 0.7104019,-9.708776 -4.9027 1.258729,-9.698128 -4.774772 1.814827,-9.625026 -5.096201 2.170197,-9.911947 -6.355525 0.785414,-10.14973 -5.482339 1.267961,-10.14931 -5.246722 1.674553,-10.04199 -5.415715 1.959748,6.310,4 4 0
-2.02865 -10.60498 0.4166209,-2.680704 -10.28065 0.7777948,-3.170109 -9.487762 0.9608496,-3.407491 -8.640356 1.141578,-3.728697 -7.998166 1.342073,-2.730111 -7.920286 0.7369304,-2.932831 -6.825941 0.9504829,-3.041462 -6.18947 1.053991,-3.119522 -5.583035 1.12732,-2.363843 -7.743635 0.7432069,-2.491059 -6.51947 0.9771119,-2.491059 -6.51947 0.9771119,-2.634152 -5.071232 1.274681,-2.020195 -7.81925 0.822979,-2.028436 -6.677174 1.073745,-2.081544 -5.922218 1.304461,-2.134711 -5.22891 1.519416,-1.678982 -8.133781 0.9373915,-1.599914 -7.262269 1.183982,-1.603295 -6.677648 1.441378,-1.621124 -6.112226 1.6578,-9.069245 -8.761667 -0.07839653,-8.422215 -8.390022 0.5038826,-7.999863 -7.591404 0.8238149,-7.79428 -6.863756 1.108619,-7.579665 -6.169082 1.3768,-8.617746 -6.034277 0.4297808,-8.510604 -4.99412 0.8509619,-8.508899 -4.324554 1.304664,-8.499317 -3.772886 1.651599,-9.045403 -5.936046 0.4035735,-9.143698 -4.881174 0.9626813,-9.215347 -4.544492 1.62055,-9.245208 -4.624567 2.101808,-9.422666 -6.061844 0.4365435,-9.570041 -5.045105 0.9197255,-9.59177 -4.827431 1.454426,-9.554569 -5.010019 1.827444,-9.78879 -6.391693 0.5184383,-9.991826 -5.54227 0.9568692,-10.00683 -5.292986 1.352169,-9.933139 -5.391456 1.651585,6.410,4 4 0
-2.049682 -10.60623 0.435359,-2.695898 -10.273 0.8092946,-3.180826 -9.463739 0.9866841,-3.412376 -8.61281 1.163074,-3.725639 -7.975082 1.348787,-2.73181 -7.912178 0.7834024,-2.946241 -6.807223 1.01264,-3.06591 -6.162091 1.118696,-3.152754 -5.544992 1.197665,-2.363056 -7.740158 0.7887061,-2.49262 -6.512578 1.035237,-2.49262 -6.512578 1.035237,-2.63509 -5.052394 1.359728,-2.019664 -7.812725 0.8677223,-2.033846 -6.670619 1.128754,-2.090371 -5.913398 1.363559,-2.145916 -5.219645 1.586062,-1.680688 -8.112818 0.9803216,-1.594326 -7.23908 1.231559,-1.594054 -6.659816 1.479155,-1.609818 -6.099132 1.690183,-8.968049 -8.737501 -0.423901,-8.325372 -8.429642 0.115059,-7.896592 -7.60876 0.4208429,-7.695024 -6.862016 0.7089064,-7.475014 -6.145689 1.012047,-8.441829 -6.059764 -0.1283748,-8.319832 -5.047506 0.1452299,-8.301042 -4.346029 0.5276507,-8.302985 -3.772014 0.8552576,-8.848121 -5.986394 -0.145526,-8.89494 -4.998819 0.2694341,-8.963612 -4.59261 0.8566238,-9.037531 -4.581735 1.306598,-9.221889 -6.121509 -0.08473486,-9.306704 -5.141597 0.3127306,-9.344633 -4.91569 0.8209686,-9.364706 -5.096491 1.197807,-9.600536 -6.421398 0.01524436,-9.734785 -5.569881 0.3742921,-9.747736 -5.327754 0.7397686,-9.715074 -5.436016 1.031701,6.510,4 4 0
-2.034749 -10.61321 0.4539863,-2.691809 -10.2928 0.7892982,-3.182779 -9.484404 0.9494787,-3.416609 -8.639351 1.114902,-3.737864 -8.026676 1.298467,-2.73892 -7.917169 0.7417587,-2.947678 -6.828447 0.9745116,-3.067564 -6.183187 1.098008,-3.15414 -5.562455 1.186484,-2.372172 -7.739841 0.7674421,-2.499341 -6.532847 1.036157,-2.499341 -6.532847 1.036157,-2.652689 -5.064752 1.369671,-2.025193 -7.819085 0.8706857,-2.03871 -6.69292 1.152247,-2.096611 -5.93363 1.394225,-2.152967 -5.240577 1.61428,-1.685024 -8.138527 1.002091,-1.601314 -7.274064 1.273722,-1.59899 -6.682858 1.540556,-1.609902 -6.111955 1.762752,-8.955465 -8.751366 -0.4779834,-8.310151 -8.504316 0.06428438,-7.871048 -7.666134 0.3469221,-7.662779 -6.900763 0.6074959,-7.437412 -6.204875 0.8812319,-8.384926 -6.095037 -0.2278131,-8.256984 -5.103664 0.02771974,-8.233357 -4.40847 0.3750363,-8.225321 -3.827097 0.6669077,-8.793969 -6.012979 -0.2530252,-8.819352 -5.034247 0.1664975,-8.873121 -4.669784 0.7507002,-8.927814 -4.660337 1.174862,-9.174062 -6.14147 -0.2009041,-9.232561 -5.163887 0.2152724,-9.255344 -5.027828 0.7480688,-9.25855 -5.278009 1.113262,-9.561361 -6.429702 -0.1111409,-9.675173 -5.599218 0.2569899,-9.675653 -5.397695 0.6372921,-9.633301 -5.555969 0.929413,6.610,4 4 0
-2.029688 -10.60645 0.4260726,-2.681002 -10.29033 0.8008778,-3.165881 -9.476751 0.9790996,-3.388375 -8.621471 1.160557,-3.709218 -7.976753 1.357083,-2.727997 -7.918804 0.7607315,-2.946545 -6.822483 0.9969656,-3.067225 -6.185607 1.11262,-3.151426 -5.569192 1.198021,-2.356677 -7.744582 0.7796681,-2.486253 -6.524944 1.02398,-2.486253 -6.524944 1.02398,-2.61936 -5.075106 1.346168,-2.008894 -7.825817 0.8732493,-2.024571 -6.68448 1.14383,-2.08083 -5.928186 1.389933,-2.13537 -5.230661 1.616421,-1.662414 -8.144955 1.001646,-1.580578 -7.275673 1.27175,-1.580313 -6.685874 1.536566,-1.591831 -6.111804 1.762977,-8.901678 -8.971861 -0.3329565,-8.278118 -8.707857 0.2309407,-7.851655 -7.830534 0.5040917,-7.652064 -7.045562 0.7436632,-7.437197 -6.335107 1.003133,-8.343408 -6.278175 -0.06357497,-8.208765 -5.309992 0.1727163,-8.190151 -4.634448 0.5032597,-8.179502 -4.046632 0.7806501,-8.747666 -6.190723 -0.1162859,-8.773253 -5.252845 0.2613224,-8.850848 -4.937721 0.8286711,-8.91789 -4.943379 1.244807,-9.129334 -6.336918 -0.09778063,-9.18747 -5.39947 0.2749533,-9.223323 -5.234293 0.7983783,-9.234558 -5.418625 1.167103,-9.511547 -6.657938 -0.04247573,-9.62366 -5.879213 0.3132895,-9.63213 -5.640854 0.7002201,-9.594902 -5.713663 0.9963517,6.710,4 4 0
-2.002608 -10.63418 0.4301005,-2.655764 -10.31384 0.8342314,-3.148216 -9.504587 1.028373,-3.369377 -8.649956 1.216501,-3.669802 -7.97288 1.41626,-2.714169 -7.954896 0.8167663,-2.931331 -6.856775 1.064399,-3.056755 -6.220729 1.188773,-3.148924 -5.60132 1.276821,-2.34022 -7.777194 0.8204483,-2.469969 -6.561173 1.081507,-2.469969 -6.561173 1.081507,-2.612467 -5.124488 1.407929,-1.990385 -7.851782 0.9010198,-2.010496 -6.712492 1.178649,-2.07006 -5.955816 1.424428,-2.124992 -5.260067 1.656603,-1.640039 -8.156054 1.016132,-1.566542 -7.276268 1.287288,-1.570575 -6.684246 1.554547,-1.585618 -6.113081 1.783044,-8.905045 -9.078014 -0.2946962,-8.286336 -8.814461 0.2699279,-7.857892 -7.938545 0.5528795,-7.648254 -7.157111 0.8046013,-7.424997 -6.441907 1.077789,-8.34832 -6.374288 -0.03453606,-8.215301 -5.410345 0.1861872,-8.193947 -4.724856 0.5066022,-8.182801 -4.131132 0.7753357,-8.7465 -6.285583 -0.08543818,-8.765086 -5.332544 0.3016287,-8.837989 -5.0415 0.8661638,-8.904571 -5.068157 1.266907,-9.125439 -6.42638 -0.06344616,-9.176764 -5.477696 0.3129792,-9.212244 -5.337329 0.8331553,-9.227104 -5.542226 1.191323,-9.50636 -6.738463 -0.006886452,-9.612988 -5.940549 0.3426147,-9.620338 -5.71107 0.7205027,-9.585814 -5.801557 1.009992,6.810,4 4 0
-1.976089 -10.70623 0.4363544,-2.633785 -10.37452 0.879238,-3.126625 -9.584953 1.109904,-3.350105 -8.738632 1.324068,-3.64397 -8.019342 1.541888,-2.68232 -8.0196 0.8921285,-2.876621 -6.918834 1.152107,-2.981388 -6.286554 1.291402,-3.057699 -5.680345 1.388625,-2.304823 -7.853862 0.8778014,-2.420475 -6.644668 1.150589,-2.420475 -6.644668 1.150589,-2.553243 -5.242786 1.50957,-1.951253 -7.943656 0.9360453,-1.960275 -6.799455 1.216507,-2.018075 -6.059095 1.468382,-2.0664 -5.365929 1.701215,-1.598876 -8.268848 1.03141,-1.519053 -7.386283 1.308323,-1.5198 -6.785169 1.580583,-1.526577 -6.195001 1.809163,-8.939445 -9.308533 -0.2044678,-8.317727 -9.04558 0.3397006,-7.878109 -8.147423 0.5996711,-7.666503 -7.342492 0.8284829,-7.426744 -6.632245 1.077866,-8.352388 -6.584383 0.01386501,-8.211899 -5.622145 0.1999875,-8.194199 -4.958393 0.5021555,-8.18832 -4.367176 0.7603926,-8.752431 -6.488853 -0.04198086,-8.758837 -5.537014 0.2881346,-8.835776 -5.229717 0.8204446,-8.909412 -5.223594 1.216036,-9.133238 -6.626491 -0.02428322,-9.16959 -5.692005 0.2920763,-9.196143 -5.469752 0.783621,-9.209397 -5.573324 1.14025,-9.522267 -6.942783 0.02875097,-9.61841 -6.159044 0.3466803,-9.621492 -5.910406 0.7067016,-9.586842 -5.956911 0.9941455,6.910,4 4 0
-1.955011 -10.75732 0.3321081,-2.607429 -10.44181 0.7757302,-3.083513 -9.658297 1.01121,-3.285757 -8.84063 1.224943,-3.568069 -8.113882 1.437729,-2.637693 -8.074244 0.8070894,-2.804782 -6.984592 1.076983,-2.903182 -6.349552 1.221311,-2.983885 -5.736667 1.329122,-2.255641 -7.936414 0.8001336,-2.362853 -6.759101 1.075796,-2.362853 -6.759101 1.075796,-2.505487 -5.466426 1.405822,-1.900306 -8.045862 0.8623233,-1.900037 -6.912662 1.158444,-1.947448 -6.19206 1.423503,-1.992694 -5.53363 1.663582,-1.55042 -8.378334 0.9639369,-1.487666 -7.480674 1.254553,-1.490931 -6.867155 1.530044,-1.502258 -6.274242 1.765195,-8.965044 -9.400621 -0.3063364,-8.348671 -9.114883 0.2082813,-7.913026 -8.220684 0.4614101,-7.689423 -7.426309 0.6899297,-7.44599 -6.726345 0.9360085,-8.390617 -6.688186 -0.1214552,-8.25594 -5.725255 0.03636724,-8.23051 -5.087795 0.3151147,-8.216044 -4.511327 0.5529333,-8.789157 -6.608447 -0.1624935,-8.799361 -5.680977 0.148132,-8.876858 -5.355903 0.6640867,-8.943563 -5.302616 1.058884,-9.159137 -6.758674 -0.1315379,-9.202746 -5.855554 0.1787942,-9.242761 -5.616557 0.6684841,-9.262478 -5.688888 1.024752,-9.53099 -7.081953 -0.06924826,-9.618249 -6.332249 0.2481518,-9.632595 -6.06849 0.6116143,-9.610055 -6.056587 0.9038664,7.010,4 4 0
-1.918229 -10.76272 0.3315149,-2.576153 -10.46691 0.8092324,-3.056479 -9.635403 1.03624,-3.240522 -8.789158 1.234972,-3.511821 -8.049366 1.443427,-2.620586 -8.070047 0.7734848,-2.77667 -7.008068 1.021241,-2.878265 -6.391501 1.169571,-2.971073 -5.776069 1.289086,-2.231662 -7.935129 0.746845,-2.323193 -6.817276 1.017355,-2.323193 -6.817276 1.017355,-2.439766 -5.584211 1.409316,-1.872107 -8.05188 0.7931952,-1.874452 -6.963439 1.087366,-1.916875 -6.274717 1.382469,-1.962921 -5.621986 1.647899,-1.518655 -8.391645 0.8855177,-1.46216 -7.520767 1.177212,-1.464022 -6.934537 1.463977,-1.474287 -6.35376 1.710005,-8.977402 -9.421566 -0.2579344,-8.365222 -9.131342 0.285421,-7.927942 -8.244108 0.5584282,-7.704454 -7.452311 0.8015813,-7.459823 -6.733929 1.075288,-8.399307 -6.693233 -0.01699851,-8.266444 -5.750669 0.1536348,-8.245194 -5.121721 0.4457392,-8.23887 -4.552494 0.6959108,-8.797842 -6.61849 -0.06808287,-8.79126 -5.719703 0.2319091,-8.867993 -5.347113 0.7462652,-8.942093 -5.236375 1.158326,-9.172752 -6.78092 -0.04552634,-9.206468 -5.910508 0.2591141,-9.254295 -5.658987 0.7551417,-9.28649 -5.701978 1.128067,-9.552543 -7.117373 0.01053643,-9.641128 -6.387569 0.3341991,-9.663225 -6.13154 0.7081597,-9.644886 -6.109766 1.013207,7.110,4 4 0
-1.929839 -10.7261 0.06733861,-2.566855 -10.47783 0.5750345,-3.02021 -9.64183 0.8162861,-3.181063 -8.820032 1.031007,-3.417213 -8.063377 1.255672,-2.564049 -8.056789 0.5002144,-2.672771 -7.015257 0.7590258,-2.772374 -6.406175 0.938572,-2.866148 -5.8045 1.08216,-2.168296 -7.966218 0.4727126,-2.230427 -6.928463 0.7749514,-2.230427 -6.928463 0.7749514,-2.36538 -5.848388 1.223237,-1.807606 -8.112591 0.5152875,-1.783466 -7.110941 0.8226219,-1.823791 -6.486434 1.136696,-1.880837 -5.921447 1.409841,-1.457997 -8.462639 0.6109564,-1.405884 -7.617468 0.9014976,-1.412868 -7.062055 1.183216,-1.432176 -6.51095 1.428791,-8.989559 -9.43104 -0.3338221,-8.371843 -9.159977 0.2072974,-7.934874 -8.26704 0.4850042,-7.707203 -7.470212 0.7374181,-7.462887 -6.762596 1.019613,-8.416048 -6.729172 -0.1594235,-8.278994 -5.785058 -0.008875668,-8.258347 -5.140333 0.2727902,-8.255792 -4.557565 0.5158806,-8.810955 -6.645935 -0.2098599,-8.811994 -5.738633 0.08582655,-8.886009 -5.374731 0.598579,-8.958971 -5.286851 0.9974071,-9.180597 -6.791658 -0.1818344,-9.21486 -5.904853 0.1281734,-9.259607 -5.697619 0.631972,-9.293617 -5.806612 0.9963474,-9.557772 -7.103199 -0.1208387,-9.641479 -6.354093 0.2003567,-9.651091 -6.143754 0.576884,-9.629708 -6.196821 0.8739084,7.210,4 4 0
-1.886289 -10.75136 0.0788743,-2.538837 -10.48098 0.5788879,-2.988655 -9.612757 0.8104594,-3.127243 -8.752216 1.02584,-3.313162 -7.912593 1.246807,-2.561155 -8.046034 0.2576086,-2.6696 -7.025087 0.4448147,-2.762472 -6.43594 0.6533561,-2.834043 -5.897626 0.8364882,-2.150605 -7.964554 0.2226923,-2.206414 -6.995681 0.4221896,-2.206414 -6.995681 0.4221896,-2.330793 -6.133745 0.9844598,-1.782873 -8.115929 0.2616166,-1.764283 -7.205497 0.4780292,-1.806955 -6.661211 0.8334959,-1.876103 -6.277894 1.141572,-1.416943 -8.443316 0.366705,-1.379108 -7.661336 0.5963583,-1.401404 -7.162641 0.8691677,-1.444989 -6.724817 1.118782,-8.997081 -9.425041 -0.3880663,-8.381074 -9.159025 0.1597741,-7.950127 -8.276163 0.4387803,-7.72637 -7.486979 0.686632,-7.480153 -6.774654 0.9620204,-8.429709 -6.7276 -0.1381871,-8.301083 -5.77357 0.005543381,-8.278852 -5.134706 0.2640014,-8.275084 -4.55804 0.4877366,-8.828287 -6.658945 -0.1939429,-8.81931 -5.75475 0.09450537,-8.89682 -5.404582 0.5764655,-8.975602 -5.305955 0.9597167,-9.197153 -6.823341 -0.1788071,-9.239367 -5.948524 0.1226946,-9.291376 -5.697663 0.6006602,-9.329611 -5.736522 0.9538969,-9.567852 -7.160262 -0.1287507,-9.660257 -6.432575 0.1815615,-9.6884 -6.18334 0.5402679,-9.678946 -6.162899 0.8341535,7.310,4 4 0
-1.852491 -10.83934 0.05207513,-2.490946 -10.51931 0.5297786,-2.931495 -9.596779 0.733214,-3.050061 -8.693668 0.9300954,-3.231887 -7.830503 1.112716,-2.492438 -8.116699 0.1490771,-2.620383 -7.116176 0.2751144,-2.706544 -6.546463 0.4335528,-2.758964 -5.9736 0.5890611,-2.0828 -8.054394 0.1233499,-2.145371 -7.155264 0.3312852,-2.145371 -7.155264 0.3312852,-2.233839 -6.481233 0.9137551,-1.714922 -8.225517 0.1698445,-1.693127 -7.405418 0.3999677,-1.733048 -6.92833 0.7778467,-1.80265 -6.626703 1.096374,-1.34861 -8.561518 0.2824627,-1.303554 -7.846351 0.5281562,-1.325277 -7.407836 0.811555,-1.368417 -7.04018 1.082866,-9.002082 -9.434891 -0.3534246,-8.385386 -9.146969 0.1870406,-7.958922 -8.259184 0.4654493,-7.73659 -7.46746 0.7146455,-7.495113 -6.754861 0.9896642,-8.44907 -6.737715 -0.1367642,-8.311238 -5.796407 0.02925789,-8.28711 -5.151177 0.3201463,-8.284422 -4.578628 0.5711622,-8.843728 -6.656709 -0.1822187,-8.830756 -5.746717 0.1473779,-8.897264 -5.393147 0.6798389,-8.969138 -5.325891 1.091922,-9.215345 -6.796383 -0.1509279,-9.246742 -5.910491 0.1796746,-9.29739 -5.728045 0.6938163,-9.336447 -5.869704 1.065581,-9.593779 -7.097982 -0.08954939,-9.679607 -6.344062 0.2351335,-9.689245 -6.136399 0.613957,-9.665644 -6.209308 0.9192277,7.410,4 4 0
-1.804729 -10.7898 0.09050056,-2.418743 -10.52502 0.6816164,-2.839332 -9.641836 0.987253,-2.969687 -8.781494 1.262275,-3.160968 -7.910999 1.551263,-2.472097 -8.095066 0.3239217,-2.60953 -7.086589 0.5397135,-2.669885 -6.462698 0.8440208,-2.676061 -5.94183 1.121635,-2.058105 -8.000645 0.268239,-2.11623 -7.026411 0.6710688,-2.11623 -7.026411 0.6710688,-2.084884 -6.861902 1.597535,-1.688405 -8.159229 0.2916129,-1.682081 -7.277742 0.6498237,-1.683802 -6.996473 1.19965,-1.695966 -7.054411 1.619846,-1.313745 -8.506535 0.3765779,-1.255903 -7.803758 0.7287469,-1.279721 -7.490718 1.134672,-1.31282 -7.42836 1.487591,-8.998985 -9.396372 -0.4306047,-8.389272 -9.131088 0.1267471,-7.961777 -8.259981 0.4255555,-7.742323 -7.48661 0.6963617,-7.508586 -6.774148 0.9925345,-8.447122 -6.717161 -0.1972455,-8.316076 -5.775548 -0.02032506,-8.296388 -5.126611 0.2871138,-8.293438 -4.550632 0.5515561,-8.840005 -6.641542 -0.2414034,-8.826145 -5.731 0.1124959,-8.901872 -5.3886 0.6610873,-8.983916 -5.344947 1.081245,-9.211924 -6.790373 -0.208254,-9.240458 -5.894382 0.1295536,-9.289987 -5.675877 0.6540893,-9.333387 -5.782167 1.034293,-9.594205 -7.105829 -0.1403642,-9.677329 -6.341298 0.186376,-9.688331 -6.121477 0.5771651,-9.670891 -6.177406 0.8948212,7.510,4 4 0
-1.780751 -10.79657 0.09818538,-2.410116 -10.50518 0.695054,-2.823409 -9.574463 0.9897864,-2.925746 -8.65477 1.228795,-3.123281 -7.777129 1.492096,-2.452663 -8.099518 0.409678,-2.585412 -7.128274 0.6434231,-2.640873 -6.505005 0.9775504,-2.631237 -5.952329 1.285717,-2.038321 -8.011082 0.3479244,-2.081224 -7.060612 0.7807028,-2.081224 -7.060612 0.7807028,-2.002855 -6.917325 1.723866,-1.665455 -8.156639 0.3644252,-1.642279 -7.274507 0.7668149,-1.64448 -7.041681 1.323543,-1.641523 -7.149478 1.744992,-1.283577 -8.479362 0.4430482,-1.215226 -7.763711 0.8308998,-1.246964 -7.514022 1.25258,-1.271819 -7.548032 1.618995,-9.004324 -9.383751 -0.4455381,-8.389955 -9.130793 0.09870714,-7.965284 -8.250759 0.3901656,-7.745067 -7.466058 0.6541417,-7.506003 -6.761916 0.9401774,-8.450651 -6.71627 -0.2548044,-8.31773 -5.771007 -0.08383197,-8.292614 -5.109233 0.2207041,-8.283854 -4.536943 0.4880106,-8.842236 -6.631155 -0.2922063,-8.836775 -5.705522 0.06121016,-8.90487 -5.3893 0.6087346,-8.979403 -5.399175 1.018106,-9.213292 -6.768636 -0.2503561,-9.24446 -5.854248 0.08978295,-9.290797 -5.684553 0.6115463,-9.33179 -5.86573 0.9812801,-9.594083 -7.073568 -0.1731775,-9.675522 -6.295541 0.1456608,-9.678983 -6.078723 0.5245587,-9.657458 -6.169979 0.8317811,7.610,4 4 0
-1.687948 -10.85297 -0.1613794,-2.32453 -10.58265 0.4679279,-2.762851 -9.711779 0.7747728,-2.903508 -8.792004 1.0142,-3.088123 -7.908252 1.269818,-2.396645 -8.246258 0.2176608,-2.508419 -7.270441 0.4361176,-2.575934 -6.655549 0.766702,-2.581859 -6.016371 1.090913,-1.991012 -8.149628 0.1158653,-2.020903 -7.235496 0.478902,-2.020903 -7.235496 0.478902,-1.916238 -6.8467 1.309676,-1.616166 -8.258402 0.08989137,-1.591046 -7.424038 0.4187796,-1.584293 -7.16741 0.9051841,-1.567719 -7.140136 1.282363,-1.233756 -8.510696 0.128031,-1.187883 -7.818681 0.4455722,-1.21493 -7.646535 0.7815758,-1.219309 -7.677413 1.071443,-9.015706 -9.409811 -0.4124318,-8.401825 -9.138784 0.1420821,-7.972275 -8.248837 0.4201772,-7.754078 -7.465206 0.6685473,-7.516263 -6.760078 0.9397687,-8.455246 -6.726469 -0.1838056,-8.321975 -5.783998 -0.02496567,-8.298637 -5.146875 0.2616773,-8.294348 -4.576671 0.5113576,-8.850741 -6.649165 -0.2376018,-8.843739 -5.749937 0.07878396,-8.918431 -5.38582 0.6022499,-8.996771 -5.298584 1.015913,-9.22327 -6.799835 -0.2139942,-9.25564 -5.91819 0.1030144,-9.306635 -5.692739 0.6099881,-9.349019 -5.780488 0.9855878,-9.602877 -7.112649 -0.1561163,-9.681472 -6.363021 0.1487778,-9.699667 -6.114107 0.5245284,-9.687609 -6.123684 0.8381877,7.710,4 4 0
-1.619474 -10.91545 -0.4909904,-2.249432 -10.6691 0.2179527,-2.687404 -9.815269 0.59008,-2.814211 -8.91424 0.8669132,-2.995283 -8.045994 1.154643,-2.30585 -8.424088 0.2007869,-2.419789 -7.38655 0.4969666,-2.489933 -6.734153 0.8267934,-2.500651 -6.048883 1.136009,-1.895997 -8.351839 0.07662159,-1.917324 -7.38885 0.5662003,-1.917324 -7.38885 0.5662003,-1.829909 -6.922533 1.411824,-1.524383 -8.468481 0.02293736,-1.485019 -7.598056 0.4501203,-1.484542 -7.309144 0.9489154,-1.470476 -7.206865 1.326638,-1.153109 -8.709082 0.0277282,-1.086566 -7.980979 0.4106764,-1.102638 -7.838502 0.7746463,-1.099607 -7.870164 1.086738,-9.019283 -9.389097 -0.4699404,-8.403839 -9.119398 0.08478451,-7.982886 -8.256596 0.3711235,-7.764305 -7.477066 0.6247103,-7.521539 -6.780917 0.9021481,-8.467549 -6.728426 -0.2513844,-8.331466 -5.784214 -0.06551927,-8.306929 -5.136355 0.2454696,-8.299135 -4.576536 0.5128666,-8.863761 -6.643791 -0.3044978,-8.86684 -5.709074 0.06408566,-8.937717 -5.398025 0.6254801,-9.006634 -5.399153 1.038974,-9.234082 -6.789033 -0.2799681,-9.275931 -5.871227 0.07323778,-9.320054 -5.746624 0.6014798,-9.352083 -5.960851 0.9678903,-9.610185 -7.101807 -0.2248675,-9.698288 -6.347906 0.1127651,-9.703305 -6.155124 0.4999096,-9.677686 -6.258787 0.8026459,7.810,4 4 0
