TiagoOliveira98/Thesis-Project/Difficulty_1/Motor_Task/Unity_Project/DataLogging/JointData/Logs(1647320836)_Tiago_Motor.csv
WRIST,THUMB_CMC,THUMB_MCP,THUMB_IP,THUMB_TIP,INDEX_FINGER_MCP,INDEX_FINGER_PIP,INDEX_FINGER_DIP,INDEX_FINGER_TIP,MIDDLE_FINGER_MCP,MIDDLE_FINGER_PIP,MIDDLE_FINGER_DIP,MIDDLE_FINGER_TIP,RING_FINGER_MCP,RING_FINGER_PIP,RING_FINGER_DIP,RING_FINGER_TIP,PINKY_MCP,PINKY_PIP,PINKY_DIP,PINKY_TIP,WRIST2,THUMB_CMC2,THUMB_MCP2,THUMB_IP2,THUMB_TIP2,INDEX_FINGER_MCP2,INDEX_FINGER_PIP2,INDEX_FINGER_DIP2,INDEX_FINGER_TIP2,MIDDLE_FINGER_MCP2,MIDDLE_FINGER_PIP2,MIDDLE_FINGER_DIP2,MIDDLE_FINGER_TIP2,RING_FINGER_MCP2,RING_FINGER_PIP2,RING_FINGER_DIP2,RING_FINGER_TIP2,PINKY_MCP2,PINKY_PIP2,PINKY_DIP2,PINKY_TIP2,Timestamp,Event
-2.640131 -8.241379 0.0005111649,-3.308155 -7.795693 0.1752021,-3.81307 -6.95329 0.2367348,-4.095109 -6.15217 0.3410688,-4.333725 -5.568797 0.4624998,-3.260582 -5.486429 -0.07445551,-3.454794 -4.381572 0.05695531,-3.56154 -3.733904 0.1262982,-3.640741 -3.125096 0.1717431,-2.890265 -5.329803 0.02195741,-2.972579 -4.067854 0.1525638,-2.972579 -4.067854 0.1525638,-3.083786 -2.542195 0.4348537,-2.53476 -5.400297 0.1948609,-2.533627 -4.190122 0.3485619,-2.583026 -3.396504 0.534199,-2.647546 -2.760017 0.6835765,-2.171189 -5.686309 0.3897175,-2.024539 -4.72488 0.5314229,-1.966042 -4.061244 0.7141333,-1.938508 -3.471811 0.867199,-7.456687 -8.344526 0.0004369532,-6.836658 -7.728597 0.1448489,-6.38212 -6.777732 0.2868322,-6.117973 -5.931448 0.4843515,-5.831301 -5.382659 0.6913606,-6.898858 -5.211467 0.01357056,-6.778897 -4.078965 0.1288919,-6.7344 -3.380315 0.2774454,-6.713243 -2.778531 0.3877633,-7.267553 -5.134423 0.1170243,-7.242471 -3.790829 0.1601796,-7.238332 -2.97882 0.3325129,-7.245203 -2.282419 0.4638098,-7.601598 -5.296433 0.2478288,-7.631197 -4.075687 0.3073736,-7.637846 -3.330364 0.4258437,-7.628372 -2.724668 0.5190427,-7.917693 -5.662317 0.4099772,-8.053408 -4.755945 0.4978567,-8.116502 -4.194625 0.5813469,-8.140275 -3.696072 0.6373962,0.010,9  0
-2.645206 -8.254833 0.00196099,-3.313955 -7.833467 0.1814302,-3.817267 -6.97335 0.2431102,-4.095177 -6.157106 0.3417833,-4.331526 -5.571462 0.4520491,-3.262172 -5.506908 -0.06558807,-3.450764 -4.400157 0.05712321,-3.554608 -3.747325 0.1149664,-3.631538 -3.14554 0.1560418,-2.890074 -5.342394 0.02775072,-2.966184 -4.07431 0.1525499,-2.966184 -4.07431 0.1525499,-3.073381 -2.540206 0.4304642,-2.533951 -5.40759 0.1959409,-2.532734 -4.188756 0.3444541,-2.583551 -3.38125 0.5209119,-2.653592 -2.742606 0.663031,-2.171532 -5.697894 0.388994,-2.025716 -4.745751 0.5244051,-1.96552 -4.086206 0.6922705,-1.937418 -3.503971 0.8334213,-7.448707 -8.338444 -0.004666682,-6.835801 -7.725791 0.1400149,-6.381857 -6.786033 0.2893673,-6.120387 -5.944843 0.4936357,-5.832644 -5.395225 0.7145951,-6.892928 -5.211224 0.02847988,-6.76951 -4.091319 0.1528918,-6.722141 -3.395728 0.3132836,-6.70014 -2.793904 0.4321878,-7.262229 -5.130668 0.1378216,-7.235785 -3.795702 0.1873506,-7.230866 -2.982873 0.3700502,-7.2342 -2.286335 0.5073831,-7.597858 -5.29326 0.272106,-7.62592 -4.078268 0.3420138,-7.635402 -3.33253 0.4745128,-7.62816 -2.724371 0.5717097,-7.918888 -5.660326 0.4381118,-8.047387 -4.751468 0.5355327,-8.111757 -4.183141 0.6248831,-8.139658 -3.67058 0.6814154,0.110,9  0
-2.637317 -8.23387 0.003118254,-3.306051 -7.847752 0.2028265,-3.8124 -6.983821 0.2713777,-4.08601 -6.168447 0.3740612,-4.335436 -5.588874 0.4854887,-3.259007 -5.499511 -0.01244309,-3.4587 -4.403643 0.1376793,-3.56074 -3.756542 0.2043764,-3.631277 -3.161159 0.2453243,-2.889635 -5.322494 0.07261847,-2.975663 -4.071948 0.2251881,-2.975663 -4.071948 0.2251881,-3.07247 -2.551383 0.5125212,-2.53421 -5.389986 0.2356982,-2.522431 -4.191678 0.4071351,-2.559934 -3.402502 0.6031283,-2.61197 -2.765217 0.7574996,-2.175359 -5.691983 0.4207321,-2.031502 -4.770393 0.5763379,-1.966416 -4.139935 0.7613814,-1.926949 -3.574257 0.9101639,-7.439656 -8.352755 0.002038765,-6.821207 -7.774436 0.1674116,-6.371432 -6.829032 0.315803,-6.115447 -5.959358 0.5062276,-5.830481 -5.401777 0.7085499,-6.898174 -5.229346 0.04371097,-6.783747 -4.096271 0.1401588,-6.745957 -3.396061 0.2785029,-6.728373 -2.789432 0.3854861,-7.274643 -5.140707 0.1150661,-7.25184 -3.796933 0.1390961,-7.248356 -2.988297 0.2983149,-7.248764 -2.289623 0.426872,-7.61431 -5.301631 0.2125457,-7.641812 -4.069718 0.2498885,-7.649353 -3.327908 0.3551466,-7.640015 -2.717339 0.4459587,-7.937887 -5.670991 0.3418636,-8.064713 -4.766593 0.4043078,-8.131577 -4.194276 0.4883338,-8.162044 -3.668752 0.5492057,0.210,9  0
-2.636929 -8.223862 -0.07614806,-3.304672 -7.821992 0.1302143,-3.815748 -6.982484 0.2094472,-4.099298 -6.175108 0.3188937,-4.34548 -5.593299 0.4388456,-3.24823 -5.500457 -0.06768464,-3.450232 -4.397027 0.07341975,-3.558119 -3.745214 0.1396843,-3.637192 -3.147949 0.1866574,-2.88166 -5.33493 0.006348833,-2.975119 -4.08151 0.1587683,-2.975119 -4.08151 0.1587683,-3.07981 -2.5533 0.4553412,-2.528899 -5.400912 0.1552978,-2.527034 -4.203334 0.316985,-2.568563 -3.411201 0.5099417,-2.623284 -2.769389 0.6644971,-2.171897 -5.693006 0.326006,-2.03381 -4.755191 0.47241,-1.971992 -4.110879 0.6522242,-1.933386 -3.532654 0.7975051,-7.456721 -8.355085 0.05169976,-6.841524 -7.767684 0.1932414,-6.384429 -6.826229 0.3294665,-6.119695 -5.965618 0.5166249,-5.835363 -5.405349 0.7153519,-6.911104 -5.219585 0.02963075,-6.788363 -4.099149 0.1213357,-6.7501 -3.401761 0.2581363,-6.733907 -2.805253 0.3602052,-7.286038 -5.127946 0.1229634,-7.248957 -3.787424 0.1335924,-7.240195 -2.983449 0.2895368,-7.240597 -2.296198 0.4085669,-7.626906 -5.29178 0.2422195,-7.64835 -4.056596 0.2736324,-7.650808 -3.309903 0.3813283,-7.637949 -2.694406 0.4766037,-7.952721 -5.672439 0.3934749,-8.086844 -4.781792 0.4611792,-8.15094 -4.220621 0.5540188,-8.17542 -3.70408 0.6214024,0.310,9  0
-2.646957 -8.20591 -0.1682637,-3.307785 -7.820586 0.05136672,-3.809814 -6.982849 0.1336581,-4.086652 -6.175476 0.2390348,-4.332642 -5.598539 0.3564235,-3.25142 -5.517061 -0.1452626,-3.45046 -4.4158 0.005888715,-3.553185 -3.762064 0.08225378,-3.623055 -3.16367 0.1340919,-2.881648 -5.342888 -0.07550376,-2.974292 -4.085935 0.07094797,-2.974292 -4.085935 0.07094797,-3.071196 -2.557745 0.3653096,-2.526238 -5.413637 0.06879361,-2.515281 -4.213362 0.2388054,-2.552821 -3.415728 0.4345515,-2.607395 -2.769051 0.5940767,-2.170489 -5.720547 0.2364081,-2.026415 -4.812555 0.3872418,-1.965137 -4.187431 0.5628468,-1.931465 -3.627746 0.7040858,-7.455512 -8.383408 0.0729906,-6.848664 -7.788873 0.2091363,-6.394624 -6.849424 0.3488623,-6.13554 -5.987312 0.5405072,-5.852129 -5.425548 0.7418483,-6.92039 -5.236236 0.08346634,-6.801188 -4.100596 0.1824705,-6.763855 -3.402526 0.3179471,-6.747074 -2.803753 0.4153539,-7.295118 -5.150623 0.1801955,-7.266808 -3.793951 0.2040816,-7.262013 -2.979555 0.3638407,-7.264231 -2.284666 0.4831544,-7.635223 -5.31407 0.3016705,-7.662892 -4.076828 0.3448701,-7.669683 -3.332086 0.4614538,-7.657834 -2.716131 0.5620251,-7.959725 -5.688066 0.4531874,-8.089065 -4.785007 0.5306675,-8.1523 -4.216327 0.6255676,-8.174088 -3.692485 0.6911301,0.410,9  0
-2.603796 -8.236053 -0.1533106,-3.281121 -7.859581 0.05385324,-3.792503 -7.024719 0.1214245,-4.08357 -6.222883 0.212993,-4.323921 -5.641016 0.3146889,-3.242664 -5.549085 -0.1667735,-3.444767 -4.448891 -0.02209282,-3.549292 -3.792895 0.06085701,-3.621366 -3.189279 0.1249526,-2.873713 -5.370965 -0.09195379,-2.962805 -4.118425 0.05309492,-2.962805 -4.118425 0.05309492,-3.059647 -2.569394 0.377279,-2.51602 -5.435843 0.05989568,-2.515542 -4.237832 0.2147759,-2.558746 -3.440441 0.4177377,-2.613559 -2.795331 0.5909899,-2.157444 -5.729972 0.2325345,-2.011911 -4.800736 0.3730621,-1.949782 -4.158756 0.5607544,-1.912643 -3.581034 0.7236187,-7.478599 -8.391251 0.1506132,-6.858496 -7.79298 0.3047379,-6.399003 -6.854084 0.4431276,-6.131241 -5.984881 0.6269282,-5.853335 -5.418417 0.8131485,-6.926298 -5.231735 0.1527657,-6.804708 -4.106504 0.2454936,-6.773725 -3.409411 0.3807909,-6.764299 -2.812917 0.4816414,-7.302018 -5.136308 0.2297826,-7.266657 -3.797338 0.2396222,-7.260462 -2.997179 0.3988378,-7.2653 -2.308082 0.5205996,-7.643106 -5.300468 0.3314015,-7.667519 -4.067623 0.3592104,-7.676244 -3.327981 0.4727918,-7.66875 -2.710977 0.573673,-7.967726 -5.685667 0.4637927,-8.099607 -4.813138 0.5299081,-8.165961 -4.259106 0.6240267,-8.192653 -3.742525 0.6938981,0.510,9  0
-2.540939 -8.243292 -0.0945736,-3.228226 -7.869125 0.1332382,-3.734325 -7.038038 0.208029,-4.001019 -6.220382 0.2988035,-4.240881 -5.642012 0.4071298,-3.195746 -5.545959 -0.1012882,-3.390932 -4.45584 0.03244571,-3.490995 -3.807285 0.1218974,-3.554039 -3.192443 0.1957648,-2.820603 -5.362054 -0.04485541,-2.904716 -4.1194 0.08782823,-2.904716 -4.1194 0.08782823,-2.961581 -2.573759 0.4338074,-2.459434 -5.43008 0.0873712,-2.462365 -4.254324 0.2327252,-2.50036 -3.465 0.4358227,-2.540583 -2.824074 0.617151,-2.09652 -5.729345 0.2432398,-1.95924 -4.813715 0.3806771,-1.89808 -4.199417 0.5652362,-1.8567 -3.639283 0.7339786,-7.476922 -8.400612 0.1255321,-6.867589 -7.811849 0.2838047,-6.419384 -6.860094 0.4327849,-6.160657 -5.984653 0.6247084,-5.875828 -5.412866 0.8225278,-6.948574 -5.230823 0.1550235,-6.833265 -4.091278 0.2561673,-6.793848 -3.395587 0.3874842,-6.774786 -2.798473 0.4806195,-7.323567 -5.15249 0.2334517,-7.30259 -3.798109 0.260128,-7.298261 -2.989984 0.418926,-7.300383 -2.293433 0.539572,-7.659632 -5.326978 0.3366184,-7.695831 -4.092561 0.3792107,-7.702091 -3.356179 0.4893814,-7.689998 -2.737909 0.5838293,-7.976871 -5.711812 0.469114,-8.111423 -4.810102 0.5468556,-8.178053 -4.245656 0.6463219,-8.205174 -3.71296 0.7141554,0.610,9  0
-2.519584 -8.240965 -0.135861,-3.201912 -7.844066 0.08547711,-3.693848 -7.007541 0.1594938,-3.948257 -6.174948 0.241281,-4.177938 -5.594878 0.3343507,-3.159744 -5.545002 -0.1167881,-3.351175 -4.440813 0.02765697,-3.450309 -3.776687 0.1149428,-3.514099 -3.154466 0.1889591,-2.783738 -5.37067 -0.05980176,-2.859484 -4.103561 0.07919355,-2.859484 -4.103561 0.07919355,-2.914699 -2.539441 0.3933501,-2.426666 -5.447692 0.06752801,-2.413355 -4.248191 0.2216137,-2.441823 -3.442274 0.413467,-2.479757 -2.794563 0.5815942,-2.07404 -5.761787 0.2221397,-1.937816 -4.844047 0.3616896,-1.878444 -4.220928 0.5326989,-1.839247 -3.658756 0.6792633,-7.496868 -8.409239 0.1961084,-6.883131 -7.818471 0.350427,-6.420126 -6.880613 0.4908029,-6.151381 -6.006513 0.6741129,-5.871723 -5.445217 0.8605402,-6.953121 -5.226673 0.2020714,-6.8327 -4.105957 0.2894741,-6.798686 -3.418815 0.4237843,-6.791397 -2.824539 0.522747,-7.32946 -5.140868 0.2782611,-7.2984 -3.797209 0.2875314,-7.294431 -2.993231 0.4461976,-7.304852 -2.30293 0.5663456,-7.66918 -5.315303 0.3787802,-7.697576 -4.0823 0.4069418,-7.703537 -3.339612 0.5165032,-7.696763 -2.720869 0.6130874,-7.991034 -5.709904 0.5118688,-8.12089 -4.82233 0.5800438,-8.185351 -4.259849 0.6819458,-8.213936 -3.734392 0.758794,0.710,9  0
-2.380476 -8.219187 -0.0519095,-3.070278 -7.774967 0.1054985,-3.551702 -6.93785 0.134363,-3.813002 -6.099119 0.1863625,-4.046392 -5.52738 0.2471894,-3.012848 -5.495468 -0.1488311,-3.215227 -4.378701 -0.03140426,-3.330678 -3.719243 0.05891878,-3.416282 -3.090969 0.1325882,-2.649381 -5.324227 -0.05867641,-2.730923 -4.045366 0.0695965,-2.730923 -4.045366 0.0695965,-2.810141 -2.451203 0.4229593,-2.301991 -5.398586 0.1026267,-2.298874 -4.165355 0.2496233,-2.337106 -3.34222 0.4498469,-2.380275 -2.663879 0.6270371,-1.949731 -5.707227 0.2835149,-1.809185 -4.755353 0.4134023,-1.747936 -4.111928 0.5872878,-1.711362 -3.528961 0.7414424,-7.520444 -8.44758 0.1752209,-6.91668 -7.863107 0.3784733,-6.453898 -6.927386 0.5539527,-6.192222 -6.041671 0.768314,-5.917248 -5.46595 0.9838102,-6.984197 -5.277078 0.2622884,-6.870997 -4.122063 0.3792176,-6.840474 -3.416397 0.5202137,-6.827929 -2.813289 0.6191398,-7.36651 -5.186946 0.3252227,-7.349808 -3.812016 0.3732713,-7.347801 -2.990438 0.5399824,-7.35465 -2.288167 0.6669077,-7.708571 -5.349954 0.4149875,-7.743609 -4.106207 0.465288,-7.748755 -3.357555 0.5772724,-7.739593 -2.740808 0.6751456,-8.032541 -5.729795 0.5391549,-8.163149 -4.834705 0.6253849,-8.230045 -4.269809 0.7308096,-8.259818 -3.748291 0.8042622,0.810,9  0
-2.328426 -8.207308 -0.01097455,-3.008402 -7.77831 0.2112759,-3.49135 -6.949272 0.2899801,-3.743685 -6.089315 0.386568,-3.971735 -5.484744 0.4865533,-2.941966 -5.468254 0.02411241,-3.140685 -4.343066 0.184843,-3.247934 -3.67448 0.296361,-3.323566 -3.034694 0.3813111,-2.569869 -5.300623 0.1086452,-2.650017 -3.996775 0.2928577,-2.650017 -3.996775 0.2928577,-2.724005 -2.384414 0.6907312,-2.220612 -5.397125 0.2588799,-2.200157 -4.130998 0.4608238,-2.22908 -3.301345 0.6854085,-2.264894 -2.606912 0.878719,-1.868134 -5.729705 0.4299674,-1.719906 -4.764133 0.6015096,-1.660598 -4.118347 0.7892151,-1.632294 -3.521448 0.9548276,-7.570132 -8.451315 0.1527128,-6.946445 -7.868301 0.3437282,-6.482993 -6.923467 0.5066966,-6.2202 -6.033758 0.7077327,-5.950703 -5.457332 0.9141345,-7.0138 -5.293455 0.217464,-6.893653 -4.151014 0.3135881,-6.862838 -3.451185 0.4443567,-6.852071 -2.849534 0.5338799,-7.397434 -5.196762 0.2710363,-7.382813 -3.810662 0.294358,-7.384021 -2.994105 0.4516901,-7.389541 -2.299886 0.5686643,-7.73805 -5.350221 0.3464981,-7.776521 -4.094762 0.3752325,-7.783654 -3.34964 0.4791991,-7.772702 -2.73822 0.5673872,-8.056543 -5.716815 0.454642,-8.189818 -4.808836 0.5180336,-8.256261 -4.236986 0.6155767,-8.285549 -3.719851 0.6805624,0.910,9  0
-2.244921 -8.249403 0.1441908,-2.920908 -7.784555 0.3656108,-3.406411 -6.973996 0.4479809,-3.65638 -6.109075 0.5463095,-3.881836 -5.459035 0.6640327,-2.863438 -5.454949 0.1413372,-3.064577 -4.327687 0.2672081,-3.167739 -3.64311 0.364048,-3.234892 -2.991621 0.4525881,-2.496235 -5.297656 0.2228409,-2.596187 -4.020465 0.3608713,-2.596187 -4.020465 0.3608713,-2.679187 -2.436519 0.7186951,-2.150223 -5.39233 0.3730983,-2.141555 -4.130723 0.5380126,-2.175863 -3.302373 0.7475062,-2.212379 -2.606374 0.9355208,-1.796946 -5.711464 0.5476528,-1.665359 -4.714995 0.6981655,-1.617529 -4.050867 0.8840291,-1.591614 -3.444337 1.058985,-7.579318 -8.482206 0.1573296,-6.967272 -7.898466 0.3359024,-6.51115 -6.950256 0.4937954,-6.25032 -6.059495 0.6915043,-5.976637 -5.48745 0.8928019,-7.041377 -5.3269 0.2096044,-6.915684 -4.160074 0.3092277,-6.87993 -3.454991 0.4355034,-6.865407 -2.849492 0.5208038,-7.423487 -5.225267 0.2695855,-7.404575 -3.823862 0.3111885,-7.403097 -3.0037 0.46961,-7.405849 -2.307697 0.5852915,-7.76386 -5.379243 0.350547,-7.803991 -4.099896 0.3990448,-7.809282 -3.339464 0.5130751,-7.796736 -2.715353 0.6079814,-8.079237 -5.749197 0.4613184,-8.22566 -4.836366 0.52864,-8.293237 -4.257319 0.630168,-8.321938 -3.730874 0.6929499,1.010,9  0
-2.128862 -8.26833 0.2435934,-2.79269 -7.718706 0.4677905,-3.269242 -6.930407 0.5627241,-3.526987 -6.081546 0.6819139,-3.721312 -5.387825 0.8220954,-2.72162 -5.420848 0.1725093,-2.90895 -4.292736 0.2915105,-3.009445 -3.618169 0.386321,-3.077991 -2.965954 0.4641892,-2.35777 -5.285354 0.2686395,-2.446049 -4.000227 0.3986175,-2.446049 -4.000227 0.3986175,-2.521592 -2.457165 0.7340963,-2.010755 -5.386081 0.435909,-2.004453 -4.114603 0.5907979,-2.050712 -3.296014 0.794005,-2.095594 -2.594433 0.964851,-1.651855 -5.692436 0.6346009,-1.541471 -4.687245 0.7853651,-1.512841 -4.000223 0.9702774,-1.507958 -3.355539 1.150769,-7.637762 -8.541704 0.2712102,-7.017614 -7.942655 0.4925198,-6.550294 -6.98997 0.6720586,-6.277496 -6.092624 0.8805964,-6.003948 -5.526857 1.092321,-7.093794 -5.341177 0.3694948,-6.972814 -4.187191 0.4550501,-6.941261 -3.477783 0.571236,-6.930053 -2.872308 0.6601194,-7.487329 -5.252271 0.3938298,-7.468986 -3.862689 0.430811,-7.473396 -3.042108 0.5894024,-7.483 -2.345106 0.7133425,-7.835086 -5.418796 0.4374946,-7.874635 -4.147225 0.4776838,-7.880013 -3.378255 0.5904593,-7.864787 -2.754335 0.6867435,-8.155204 -5.801469 0.515419,-8.295326 -4.902847 0.5740723,-8.358416 -4.322069 0.6774887,-8.378471 -3.793766 0.7500799,1.110,9  0
-2.066165 -8.230751 0.1122915,-2.710991 -7.738883 0.3633699,-3.176847 -7.03789 0.4857021,-3.395953 -6.294822 0.6285547,-3.403811 -5.797996 0.7774604,-2.650998 -5.4177 0.1528239,-2.861787 -4.226661 0.2948916,-2.964054 -3.513105 0.4086064,-3.032085 -2.847738 0.4877592,-2.282585 -5.287055 0.2389074,-2.35219 -3.919082 0.3767438,-2.35219 -3.919082 0.3767438,-2.417936 -2.352581 0.7118609,-1.941097 -5.401651 0.3909467,-1.929848 -4.084021 0.5697091,-1.959316 -3.244062 0.7946428,-1.986748 -2.515824 0.9854285,-1.594807 -5.713315 0.5757806,-1.49305 -4.708334 0.750755,-1.460624 -4.054048 0.9475327,-1.457369 -3.430052 1.124186,-7.656033 -8.575792 0.4006942,-7.038184 -7.95551 0.625867,-6.567055 -6.963964 0.7941265,-6.292282 -6.047814 0.9964334,-6.008185 -5.447741 1.196782,-7.117734 -5.34132 0.4602109,-7.000951 -4.200641 0.5570554,-6.965767 -3.503531 0.6962663,-6.95221 -2.910724 0.8036063,-7.509016 -5.248427 0.5015893,-7.475842 -3.889884 0.529645,-7.473755 -3.069643 0.7100452,-7.487589 -2.353759 0.8629686,-7.853297 -5.423717 0.5701383,-7.872368 -4.178184 0.6150301,-7.874075 -3.412173 0.7522458,-7.858787 -2.780994 0.8820454,-8.175394 -5.828916 0.6769223,-8.298938 -4.948608 0.7603649,-8.351912 -4.388428 0.8778062,-8.366391 -3.879241 0.9690849,1.210,9  0
-1.930613 -8.139261 0.2559694,-2.58233 -7.651482 0.6151713,-3.040485 -6.907091 0.7855493,-3.238596 -6.11079 0.9611704,-3.268038 -5.511729 1.129228,-2.527533 -5.297546 0.4849674,-2.73665 -4.082492 0.6611078,-2.836815 -3.348247 0.7949716,-2.896104 -2.661973 0.8898479,-2.14738 -5.162311 0.5072776,-2.209684 -3.771213 0.6778283,-2.209684 -3.771213 0.6778283,-2.255586 -2.169042 1.036602,-1.804919 -5.275966 0.6007578,-1.780138 -3.938871 0.8001231,-1.801735 -3.087709 1.036154,-1.820105 -2.344821 1.240338,-1.459194 -5.593082 0.7290708,-1.33586 -4.554224 0.9080352,-1.282805 -3.890055 1.112755,-1.252595 -3.267927 1.301399,-7.680054 -8.619789 0.4195742,-7.063817 -7.981683 0.607116,-6.603851 -6.985696 0.7725964,-6.333539 -6.093946 0.9809348,-6.043139 -5.510927 1.194083,-7.158299 -5.370201 0.4685712,-7.054262 -4.217542 0.5737192,-7.023438 -3.513896 0.7184435,-7.011891 -2.911273 0.8177181,-7.539039 -5.28726 0.5343886,-7.522484 -3.91686 0.5707853,-7.525538 -3.090507 0.7485456,-7.541384 -2.371778 0.8863067,-7.873244 -5.459808 0.6248518,-7.913057 -4.202195 0.6787785,-7.92402 -3.435365 0.8133824,-7.919031 -2.802806 0.9301717,-8.185309 -5.857043 0.7478098,-8.322604 -4.955081 0.8368133,-8.381672 -4.386354 0.9455118,-8.406952 -3.873642 1.023537,1.310,9  0
-1.887601 -8.131285 0.4454647,-2.522976 -7.622196 0.6948048,-2.957749 -6.814685 0.7992087,-3.183229 -6.023314 0.9292755,-3.340798 -5.454088 1.076207,-2.453485 -5.233943 0.5264986,-2.667127 -4.0426 0.6810728,-2.766387 -3.31183 0.7976511,-2.818622 -2.631746 0.8864479,-2.082007 -5.091197 0.5858839,-2.138027 -3.724604 0.7450409,-2.138027 -3.724604 0.7450409,-2.152452 -2.105987 1.088253,-1.743023 -5.200689 0.7135515,-1.71667 -3.879209 0.8892859,-1.738329 -3.03408 1.115056,-1.745941 -2.304853 1.307514,-1.400809 -5.52956 0.8670617,-1.266398 -4.484548 1.016971,-1.204421 -3.817001 1.216213,-1.158356 -3.190534 1.395607,-7.700594 -8.618538 0.4461805,-7.086723 -7.980089 0.6382666,-6.618879 -7.001222 0.8198855,-6.340122 -6.117536 1.049458,-6.04332 -5.531539 1.286852,-7.160757 -5.362075 0.5123181,-7.053709 -4.218202 0.6216902,-7.024989 -3.510649 0.7711303,-7.016485 -2.910161 0.8739625,-7.546518 -5.279962 0.5870374,-7.525152 -3.921614 0.6241834,-7.533802 -3.092924 0.8079498,-7.554215 -2.377841 0.9518615,-7.888075 -5.45803 0.6845868,-7.925548 -4.213004 0.7364726,-7.937873 -3.447311 0.867013,-7.930697 -2.823447 0.977167,-8.208059 -5.859407 0.8185903,-8.338371 -4.960632 0.9080633,-8.392797 -4.391054 1.008732,-8.412569 -3.886132 1.079121,1.410,9  0
-1.747227 -8.126331 0.832796,-2.398753 -7.592298 1.120527,-2.842907 -6.749202 1.238941,-3.030479 -5.901388 1.385185,-3.15785 -5.209439 1.544381,-2.33436 -5.118876 0.9167489,-2.526405 -3.92095 1.081138,-2.619289 -3.18514 1.213938,-2.66815 -2.480115 1.323733,-1.946675 -4.97546 0.9703126,-1.999939 -3.634403 1.133314,-1.999939 -3.634403 1.133314,-2.019927 -2.003615 1.475679,-1.599112 -5.105733 1.101751,-1.551416 -3.811297 1.288636,-1.561644 -2.967463 1.530368,-1.559805 -2.22824 1.735655,-1.249812 -5.473836 1.26819,-1.112157 -4.459927 1.437525,-1.049813 -3.795433 1.645867,-1.001016 -3.168165 1.828088,-7.700572 -8.642738 0.4711942,-7.090214 -8.006052 0.6463348,-6.625854 -7.017215 0.8164911,-6.354249 -6.123548 1.036463,-6.06475 -5.529275 1.260658,-7.181651 -5.383747 0.4917565,-7.081659 -4.233095 0.5871211,-7.053259 -3.518991 0.7306319,-7.043308 -2.907835 0.8370811,-7.563498 -5.29497 0.5766469,-7.54823 -3.941929 0.6060109,-7.557144 -3.110406 0.7902696,-7.578018 -2.388963 0.9401468,-7.902915 -5.477928 0.6862073,-7.942711 -4.231626 0.735016,-7.956512 -3.456126 0.8749253,-7.951827 -2.81534 0.9973961,-8.222927 -5.892207 0.829863,-8.360449 -4.993533 0.9216063,-8.418446 -4.419761 1.033115,-8.442117 -3.902608 1.11685,1.510,9  0
-1.710741 -8.119669 0.9254454,-2.356655 -7.526767 1.228937,-2.773563 -6.684099 1.362776,-2.939715 -5.817657 1.521145,-3.078354 -5.087129 1.697565,-2.243866 -5.028524 0.9921775,-2.421895 -3.805046 1.129179,-2.508868 -3.057086 1.256796,-2.555953 -2.342485 1.376298,-1.841828 -4.937459 1.030018,-1.877001 -3.631811 1.154217,-1.877001 -3.631811 1.154217,-1.913493 -2.145196 1.475268,-1.484279 -5.085481 1.151622,-1.422564 -3.811487 1.308334,-1.432601 -2.984885 1.539222,-1.439137 -2.273666 1.740854,-1.129883 -5.44901 1.30967,-0.9767675 -4.417003 1.449805,-0.9063687 -3.730771 1.633964,-0.8506446 -3.079089 1.820442,-7.725677 -8.664171 0.4512801,-7.108252 -8.032688 0.642552,-6.636667 -7.056348 0.8173171,-6.365962 -6.154346 1.03267,-6.086657 -5.577178 1.243049,-7.201517 -5.422371 0.5108567,-7.093692 -4.284454 0.6064264,-7.065817 -3.575582 0.7415648,-7.056228 -2.965236 0.8453354,-7.587994 -5.32259 0.5710042,-7.569953 -3.955879 0.6093752,-7.579359 -3.123263 0.7932926,-7.602597 -2.405939 0.9412904,-7.928372 -5.486791 0.6526313,-7.963231 -4.234544 0.6989445,-7.97775 -3.457262 0.8300593,-7.972144 -2.823261 0.9434674,-8.247235 -5.88234 0.7697801,-8.378911 -4.97928 0.8447105,-8.436656 -4.406011 0.9539675,-8.458779 -3.893617 1.036581,1.610,9  0
-1.589076 -8.054329 0.935108,-2.237024 -7.494028 1.346211,-2.666708 -6.617509 1.536628,-2.822273 -5.737045 1.736539,-2.953232 -4.978605 1.96263,-2.153998 -4.94952 1.08856,-2.311663 -3.733979 1.252997,-2.390219 -2.989702 1.388627,-2.423288 -2.266965 1.512137,-1.735116 -4.872064 1.090164,-1.751321 -3.615232 1.214841,-1.751321 -3.615232 1.214841,-1.750806 -2.223407 1.492384,-1.367791 -5.031588 1.191798,-1.291409 -3.795108 1.351258,-1.277145 -2.979839 1.585777,-1.265896 -2.274945 1.789269,-1.010325 -5.404558 1.338013,-0.8720317 -4.386247 1.485582,-0.8084211 -3.703587 1.683059,-0.7585592 -3.054367 1.870012,-7.740582 -8.666927 0.4327186,-7.122085 -8.032907 0.614672,-6.648011 -7.050762 0.7779682,-6.374686 -6.154239 0.9887249,-6.09644 -5.585892 1.201601,-7.207039 -5.422046 0.4597456,-7.101398 -4.284471 0.5677546,-7.077965 -3.574403 0.7185799,-7.074279 -2.963974 0.8310922,-7.596604 -5.330312 0.5352305,-7.581363 -3.969102 0.5738961,-7.596644 -3.136935 0.7706879,-7.626012 -2.414911 0.9293456,-7.943469 -5.499321 0.6351759,-7.985654 -4.261573 0.6839869,-8.005486 -3.492158 0.8184334,-8.003521 -2.858161 0.9353175,-8.269433 -5.896097 0.7741882,-8.411257 -4.99435 0.8550619,-8.48164 -4.417474 0.9622614,-8.509588 -3.891037 1.044981,1.710,9  0
-1.513694 -7.998643 0.8259041,-2.179292 -7.469217 1.309085,-2.626362 -6.619266 1.532227,-2.772775 -5.734762 1.746434,-2.891744 -4.951131 1.983154,-2.112366 -4.942737 1.081761,-2.26753 -3.727582 1.277043,-2.335963 -2.984838 1.448236,-2.354209 -2.245054 1.606892,-1.678357 -4.853538 1.061447,-1.684183 -3.6186 1.237548,-1.684183 -3.6186 1.237548,-1.631105 -2.236294 1.620244,-1.302402 -5.006589 1.140798,-1.233237 -3.799104 1.328092,-1.209525 -3.010217 1.597819,-1.177363 -2.313453 1.834128,-0.9338112 -5.363416 1.264731,-0.798233 -4.352935 1.443542,-0.7327251 -3.692968 1.657762,-0.6777563 -3.059131 1.860327,-7.747846 -8.660551 0.4266094,-7.128281 -8.029249 0.6322243,-6.656775 -7.056875 0.798654,-6.385237 -6.158884 1.005298,-6.105737 -5.589239 1.206456,-7.231457 -5.419675 0.458394,-7.128699 -4.267925 0.5554701,-7.102942 -3.552248 0.701449,-7.096025 -2.938205 0.8155985,-7.615277 -5.324697 0.5084542,-7.599488 -3.963706 0.5467867,-7.611542 -3.133123 0.7359377,-7.635391 -2.415001 0.8918852,-7.955884 -5.492155 0.5840134,-7.99567 -4.25557 0.6307697,-8.015438 -3.487173 0.7699476,-8.013071 -2.851364 0.8887684,-8.27788 -5.888153 0.69803,-8.410152 -4.999094 0.7751751,-8.474316 -4.425752 0.888167,-8.49792 -3.905519 0.9740403,1.810,9  0
-1.332726 -7.855712 0.6304352,-1.993511 -7.358299 1.144358,-2.468074 -6.516304 1.37098,-2.64496 -5.662954 1.599232,-2.73921 -4.853485 1.845779,-1.972424 -4.816116 0.740382,-2.100657 -3.631078 0.8640488,-2.1564 -2.916978 1.063659,-2.178346 -2.221612 1.271914,-1.524956 -4.760137 0.7022778,-1.548032 -3.60566 0.8449979,-1.548032 -3.60566 0.8449979,-1.501842 -2.504938 1.350628,-1.13437 -4.962097 0.7567691,-1.090222 -3.892442 0.9202062,-1.066745 -3.267798 1.265193,-1.064957 -2.878156 1.528629,-0.7528014 -5.352516 0.8728762,-0.6607533 -4.481863 1.040646,-0.6224484 -3.940441 1.276839,-0.6149597 -3.495691 1.462604,-7.738329 -8.664778 0.4092781,-7.138023 -8.039307 0.6144481,-6.666366 -7.058519 0.792084,-6.39324 -6.155645 1.010361,-6.109746 -5.588247 1.231114,-7.233426 -5.428924 0.4580576,-7.127771 -4.282411 0.5653448,-7.101027 -3.570907 0.7162223,-7.093225 -2.957886 0.8359199,-7.616958 -5.334446 0.525002,-7.599223 -3.980619 0.5769168,-7.610701 -3.149007 0.7731555,-7.636725 -2.427989 0.9324086,-7.958958 -5.50344 0.6186961,-7.997606 -4.268743 0.6834005,-8.016482 -3.490869 0.8299481,-8.014692 -2.846708 0.9525622,-8.283736 -5.90306 0.7502835,-8.41956 -5.005106 0.8474362,-8.486795 -4.430175 0.9675943,-8.512568 -3.909618 1.058846,1.910,9  0
-1.268765 -7.799461 0.5511613,-1.927215 -7.316137 1.071219,-2.403209 -6.472742 1.296839,-2.57478 -5.602672 1.516999,-2.691582 -4.791975 1.729074,-1.909513 -4.790462 0.6688395,-2.040881 -3.591957 0.8142367,-2.100062 -2.891929 1.036932,-2.112944 -2.214715 1.253946,-1.47776 -4.728038 0.6355758,-1.492899 -3.579502 0.8601177,-1.492899 -3.579502 0.8601177,-1.411654 -2.697271 1.460407,-1.09354 -4.921622 0.6912626,-1.054834 -3.855944 0.9215666,-1.011777 -3.306336 1.320721,-0.999362 -3.033903 1.61212,-0.7108836 -5.309375 0.8100976,-0.6308441 -4.462499 1.024194,-0.6016226 -3.976667 1.309108,-0.6074333 -3.622001 1.529884,-7.753406 -8.67938 0.3202871,-7.139318 -8.067102 0.5505367,-6.665523 -7.112714 0.722222,-6.395744 -6.206476 0.9217387,-6.131084 -5.641347 1.111944,-7.232922 -5.490421 0.4090933,-7.110249 -4.35046 0.5306599,-7.080876 -3.640584 0.6891528,-7.074795 -3.028566 0.8083062,-7.624809 -5.375339 0.4502745,-7.598032 -4.004838 0.5055137,-7.600782 -3.171723 0.7100724,-7.626463 -2.447284 0.8842578,-7.972221 -5.530286 0.5164379,-7.999123 -4.281375 0.5831254,-8.008997 -3.503593 0.7385983,-8.004805 -2.858791 0.8735583,-8.299828 -5.921249 0.623207,-8.437828 -5.035388 0.7153274,-8.503972 -4.461732 0.8382258,-8.530832 -3.929769 0.9392884,2.010,9  0
-1.236024 -7.796699 0.7171277,-1.879008 -7.362846 1.316908,-2.35084 -6.474257 1.593672,-2.503871 -5.586256 1.842739,-2.612763 -4.762819 2.088704,-1.862122 -4.765039 0.9411064,-1.981964 -3.561721 1.15524,-2.027143 -2.849391 1.448238,-2.029308 -2.192724 1.720569,-1.414683 -4.680679 0.9099666,-1.42136 -3.515168 1.247214,-1.42136 -3.515168 1.247214,-1.329528 -2.765791 2.014189,-1.020438 -4.866563 0.9720652,-0.9872937 -3.767215 1.301258,-0.9326248 -3.220292 1.788523,-0.9183121 -3.061195 2.138382,-0.6239872 -5.268939 1.095832,-0.5361786 -4.384376 1.403721,-0.499114 -3.912186 1.76118,-0.5044875 -3.650889 2.046093,-7.758911 -8.667105 0.2334856,-7.142009 -8.061207 0.4488653,-6.672776 -7.110892 0.613523,-6.405321 -6.203929 0.8047559,-6.134217 -5.644107 0.9859607,-7.239652 -5.503442 0.3013432,-7.123587 -4.351442 0.4124357,-7.09869 -3.63955 0.5655528,-7.096196 -3.027505 0.6806903,-7.6285 -5.38711 0.3407795,-7.60335 -4.004639 0.3946765,-7.609963 -3.169265 0.5982165,-7.636843 -2.445536 0.7729047,-7.973708 -5.542905 0.4021935,-8.005863 -4.283548 0.4593478,-8.020816 -3.504234 0.6049473,-8.022323 -2.857248 0.7366605,-8.298188 -5.933136 0.5011934,-8.427324 -5.034471 0.5859469,-8.498332 -4.461091 0.7105355,-8.519373 -3.939746 0.8044394,2.110,9  0
-1.194654 -7.763097 0.7564046,-1.833873 -7.3502 1.33478,-2.304992 -6.443202 1.586842,-2.460126 -5.540813 1.826369,-2.586972 -4.720962 2.052809,-1.811845 -4.717551 0.8713346,-1.931494 -3.505014 1.046655,-1.972149 -2.799845 1.323037,-1.965301 -2.16267 1.580973,-1.374823 -4.631088 0.839564,-1.384513 -3.444543 1.134408,-1.384513 -3.444543 1.134408,-1.281007 -2.789532 1.883423,-0.9870195 -4.813037 0.9054949,-0.9570007 -3.692667 1.203302,-0.8996449 -3.191709 1.679142,-0.8813639 -3.096158 2.019354,-0.5888939 -5.213134 1.031854,-0.4855232 -4.359636 1.304323,-0.4328175 -3.922533 1.649127,-0.4178867 -3.719407 1.923963,-7.757882 -8.665092 0.2402096,-7.144307 -8.056711 0.4846753,-6.672369 -7.106668 0.6620677,-6.399813 -6.200727 0.8632048,-6.13286 -5.631771 1.050478,-7.238555 -5.497472 0.3572657,-7.128137 -4.335733 0.4838602,-7.108526 -3.620651 0.6423051,-7.108574 -3.004935 0.7589838,-7.63033 -5.38455 0.3859288,-7.609101 -4.001293 0.4503741,-7.61581 -3.163048 0.6538858,-7.639859 -2.441955 0.833468,-7.978355 -5.543031 0.4377021,-8.01459 -4.280584 0.5051622,-8.030098 -3.502689 0.6573658,-8.030737 -2.861194 0.7941055,-8.303811 -5.936738 0.5281374,-8.433239 -5.042367 0.6139629,-8.492349 -4.466804 0.732734,-8.514376 -3.933926 0.8335741,2.210,9  0
-1.111305 -7.72578 0.7938704,-1.73685 -7.282916 1.340288,-2.194449 -6.40859 1.602568,-2.347065 -5.51554 1.863556,-2.491093 -4.695668 2.121062,-1.680033 -4.654423 0.8945711,-1.810223 -3.428456 1.064594,-1.851725 -2.706772 1.341661,-1.835923 -2.055316 1.603279,-1.248249 -4.581146 0.8883201,-1.274725 -3.367227 1.19109,-1.274725 -3.367227 1.19109,-1.135037 -2.821716 1.94426,-0.8629704 -4.777906 0.9753542,-0.8324847 -3.634147 1.269196,-0.7675467 -3.162895 1.753228,-0.7319293 -3.100414 2.088078,-0.4680862 -5.196853 1.116986,-0.3473773 -4.324008 1.374363,-0.2788944 -3.86602 1.710532,-0.2400999 -3.655156 1.971805,-7.755603 -8.681625 0.2697968,-7.143558 -8.07811 0.5228902,-6.668415 -7.131916 0.7081798,-6.397223 -6.222492 0.9136637,-6.138867 -5.642341 1.104636,-7.244701 -5.504119 0.3958025,-7.123037 -4.340263 0.5215916,-7.094652 -3.627504 0.6797486,-7.088287 -3.017329 0.7955164,-7.640128 -5.392606 0.4239766,-7.615264 -4.007026 0.4862112,-7.619953 -3.165791 0.6898826,-7.645733 -2.440599 0.8659429,-7.988826 -5.556465 0.472167,-8.019303 -4.290956 0.5406955,-8.027916 -3.510172 0.6970453,-8.024135 -2.866508 0.8367433,-8.313169 -5.954523 0.5640154,-8.44576 -5.066148 0.6591797,-8.502234 -4.487678 0.7923141,-8.522323 -3.954417 0.8995683,2.310,9  0
-1.081896 -7.709979 0.881655,-1.714485 -7.286004 1.461318,-2.159287 -6.368903 1.72698,-2.306925 -5.459711 1.974243,-2.494593 -4.649493 2.218013,-1.631352 -4.631582 1.081138,-1.766446 -3.397772 1.295168,-1.804848 -2.67452 1.573928,-1.783998 -2.041763 1.829765,-1.188422 -4.542533 1.056777,-1.197131 -3.301952 1.417053,-1.197131 -3.301952 1.417053,-1.055925 -2.892858 2.186888,-0.7963977 -4.733655 1.124585,-0.7478571 -3.558488 1.453902,-0.6796541 -3.093927 1.952319,-0.640398 -3.080512 2.296237,-0.3965893 -5.165237 1.241617,-0.2652693 -4.277725 1.532456,-0.202178 -3.825128 1.899291,-0.1760302 -3.65644 2.181887,-7.759386 -8.676861 0.2440244,-7.148552 -8.079847 0.5143698,-6.673351 -7.139898 0.6943014,-6.400058 -6.23583 0.8979974,-6.135146 -5.65975 1.084547,-7.237308 -5.517041 0.3733546,-7.119896 -4.36016 0.5036643,-7.092122 -3.650224 0.6657287,-7.087803 -3.044261 0.7851949,-7.630995 -5.395692 0.3985554,-7.606598 -4.016226 0.4583946,-7.612494 -3.182049 0.6664541,-7.639773 -2.460939 0.84668,-7.979407 -5.546995 0.4498438,-8.011857 -4.290637 0.517597,-8.026597 -3.517829 0.6717224,-8.028244 -2.876531 0.8070634,-8.30593 -5.932552 0.5448898,-8.444674 -5.047966 0.635988,-8.509197 -4.478552 0.7548371,-8.537335 -3.949591 0.8502418,2.410,9  0
-1.043638 -7.679761 1.025437,-1.673353 -7.278501 1.670578,-2.12101 -6.362236 1.986063,-2.275562 -5.465135 2.271084,-2.460718 -4.663097 2.562043,-1.591846 -4.574564 1.32623,-1.715462 -3.332035 1.555876,-1.757531 -2.60256 1.854698,-1.747386 -1.96326 2.124203,-1.147781 -4.477042 1.288016,-1.147314 -3.247838 1.672282,-1.147314 -3.247838 1.672282,-1.05494 -2.724428 2.481495,-0.7554617 -4.663675 1.351954,-0.6935377 -3.480011 1.709829,-0.634757 -3.000864 2.219531,-0.6030121 -2.958464 2.57588,-0.3560686 -5.104978 1.463047,-0.2130337 -4.206344 1.785937,-0.1455388 -3.767645 2.167737,-0.1108446 -3.608962 2.465302,-7.765022 -8.668968 0.1747445,-7.149543 -8.073357 0.4304859,-6.677127 -7.140022 0.608844,-6.409132 -6.239345 0.8081711,-6.151854 -5.672056 0.989911,-7.249695 -5.517608 0.2982661,-7.140236 -4.341617 0.4257182,-7.117672 -3.6233 0.5833227,-7.114152 -3.005618 0.7016709,-7.641983 -5.407038 0.3215173,-7.622952 -4.013912 0.3923034,-7.628923 -3.170619 0.5966208,-7.653278 -2.44032 0.7736995,-7.989595 -5.567951 0.3680751,-8.024989 -4.29589 0.4450204,-8.040237 -3.513462 0.6006631,-8.041459 -2.864293 0.7366292,-8.31326 -5.961931 0.4548784,-8.441491 -5.066703 0.5524073,-8.497092 -4.49088 0.6817332,-8.514583 -3.959226 0.7843816,2.510,9  0
-0.9261532 -7.635015 1.381895,-1.569357 -7.257171 2.073012,-2.026602 -6.322847 2.414316,-2.185389 -5.398956 2.706669,-2.41218 -4.596145 3.015988,-1.471029 -4.448843 1.798148,-1.592628 -3.247057 2.103522,-1.619747 -2.551184 2.442966,-1.588569 -1.93326 2.718319,-1.013818 -4.339126 1.745099,-0.9995546 -3.128709 2.200928,-0.9995546 -3.128709 2.200928,-0.8464265 -2.699735 3.049874,-0.6080418 -4.544604 1.801354,-0.5363445 -3.371175 2.209167,-0.4628782 -2.961213 2.747459,-0.4133902 -2.971633 3.116986,-0.1924086 -5.029384 1.906517,-0.05396032 -4.115371 2.272279,0.002484322 -3.715102 2.693236,0.02462244 -3.599538 3.018551,-7.772435 -8.677933 0.1850977,-7.161202 -8.076044 0.4592887,-6.691524 -7.145309 0.6460251,-6.422455 -6.239995 0.8505827,-6.165098 -5.664299 1.034959,-7.262912 -5.527992 0.3317631,-7.15484 -4.345576 0.4624062,-7.136279 -3.622793 0.6223745,-7.133919 -3.009779 0.7401148,-7.656148 -5.413127 0.3391021,-7.644147 -4.013479 0.4080811,-7.651909 -3.173717 0.6057373,-7.675988 -2.446284 0.7806471,-8.005927 -5.570787 0.3694416,-8.044388 -4.296434 0.434615,-8.059155 -3.524333 0.5788419,-8.062499 -2.884878 0.7074827,-8.332262 -5.961294 0.4428812,-8.46427 -5.072818 0.5196289,-8.524109 -4.502386 0.6358135,-8.552862 -3.972899 0.7336568,2.610,9  0
-0.9170446 -7.619022 1.378245,-1.563867 -7.21433 2.05842,-2.006563 -6.28955 2.39652,-2.15612 -5.373804 2.690391,-2.389366 -4.588712 3.004035,-1.431458 -4.429995 1.763541,-1.534786 -3.243997 2.064897,-1.556439 -2.546942 2.40638,-1.532817 -1.931598 2.683956,-0.9712586 -4.321409 1.722541,-0.9316931 -3.100002 2.187768,-0.9316931 -3.100002 2.187768,-0.8139772 -2.81554 3.053147,-0.5639458 -4.517557 1.789653,-0.4620256 -3.333881 2.208604,-0.4009314 -3.009397 2.770175,-0.3734531 -3.139829 3.14349,-0.1479969 -4.993827 1.9067,0.01034546 -4.063527 2.270488,0.05382919 -3.693464 2.693942,0.05653048 -3.664013 3.014647,-7.772479 -8.68997 0.2315419,-7.160221 -8.077978 0.468148,-6.688232 -7.141222 0.6421989,-6.424276 -6.239265 0.8429546,-6.176538 -5.656177 1.023441,-7.277694 -5.522693 0.3274235,-7.165112 -4.35407 0.4489377,-7.137444 -3.632381 0.6117766,-7.125425 -3.014332 0.7363765,-7.668633 -5.410477 0.3630863,-7.652838 -4.023502 0.4252262,-7.657737 -3.185536 0.6322299,-7.679804 -2.461801 0.8114908,-8.016604 -5.568895 0.4221911,-8.050016 -4.304019 0.481996,-8.062611 -3.532467 0.6304867,-8.062881 -2.89455 0.7622036,-8.341711 -5.96169 0.5212637,-8.474678 -5.072727 0.600667,-8.535093 -4.498139 0.7210105,-8.562212 -3.961592 0.8195893,2.710,9  0
-0.8955889 -7.649942 1.593014,-1.547019 -7.206835 2.257493,-2.003422 -6.283679 2.603415,-2.17157 -5.38123 2.904306,-2.403409 -4.591432 3.220371,-1.399231 -4.395361 1.977472,-1.490999 -3.225233 2.283162,-1.50541 -2.541751 2.623695,-1.482661 -1.966742 2.883194,-0.9292307 -4.291281 1.945977,-0.8694353 -3.073011 2.417517,-0.8694353 -3.073011 2.417517,-0.7696953 -2.868574 3.262345,-0.5215635 -4.492213 2.022469,-0.4053564 -3.288332 2.455564,-0.3491292 -3.001017 3.002979,-0.3359613 -3.19227 3.360633,-0.1142626 -4.974823 2.149324,0.07051229 -4.025854 2.530617,0.1081591 -3.687677 2.970391,0.09020329 -3.742342 3.301071,-7.782378 -8.689793 0.1692242,-7.171545 -8.075933 0.4350849,-6.704704 -7.144184 0.6192758,-6.439066 -6.241289 0.8250629,-6.186521 -5.658554 1.01464,-7.28495 -5.541154 0.3047168,-7.175006 -4.347723 0.4453163,-7.152476 -3.626959 0.6081002,-7.146858 -3.011365 0.7271456,-7.67447 -5.429811 0.3346208,-7.660874 -4.022569 0.4177559,-7.668633 -3.179317 0.6254281,-7.690086 -2.448736 0.8007702,-8.020023 -5.591089 0.3883859,-8.062641 -4.31538 0.4750823,-8.079651 -3.539629 0.6325027,-8.083557 -2.892169 0.7664574,-8.342463 -5.98704 0.4836342,-8.485388 -5.0951 0.5924968,-8.553036 -4.518888 0.7284663,-8.58582 -3.980667 0.8343654,2.810,9  0
-0.8868418 -7.657983 1.575013,-1.549158 -7.199372 2.247597,-2.015305 -6.288013 2.594559,-2.202919 -5.393558 2.898654,-2.426685 -4.600053 3.212344,-1.413541 -4.406023 1.93433,-1.50851 -3.23084 2.243793,-1.514789 -2.5423 2.595014,-1.483583 -1.976464 2.858789,-0.9425716 -4.301021 1.889645,-0.889535 -3.094615 2.338752,-0.889535 -3.094615 2.338752,-0.7877851 -2.828981 3.19812,-0.5318174 -4.489987 1.955701,-0.4164147 -3.293178 2.367636,-0.3582687 -2.998581 2.920974,-0.3387747 -3.194638 3.28385,-0.1213722 -4.957078 2.075484,0.06274939 -4.008961 2.442883,0.1017804 -3.678799 2.890893,0.0910964 -3.75016 3.226296,-7.785026 -8.69022 0.2208822,-7.177111 -8.088896 0.480867,-6.711479 -7.145341 0.6582633,-6.447913 -6.235791 0.8556158,-6.18613 -5.662646 1.036857,-7.286325 -5.536724 0.3470924,-7.169256 -4.371473 0.4770958,-7.14351 -3.65797 0.6367781,-7.139838 -3.046475 0.7607281,-7.677378 -5.414886 0.3750533,-7.658058 -4.018621 0.4396924,-7.66363 -3.173308 0.6453313,-7.689199 -2.443789 0.828055,-8.024694 -5.568305 0.4278758,-8.059952 -4.298803 0.4997298,-8.077416 -3.52226 0.6495056,-8.082323 -2.877738 0.7864516,-8.349329 -5.957695 0.5219542,-8.483703 -5.064626 0.6186873,-8.549591 -4.492989 0.7447283,-8.581804 -3.964655 0.8482844,2.910,9  0
-0.9115057 -7.675761 1.601461,-1.571295 -7.215833 2.236552,-2.050211 -6.297638 2.591862,-2.257607 -5.410497 2.908776,-2.504344 -4.635467 3.25537,-1.43333 -4.404655 1.959506,-1.536247 -3.271801 2.272579,-1.541838 -2.620789 2.638868,-1.517138 -2.114175 2.913858,-0.9595852 -4.314431 1.950425,-0.9070959 -3.114385 2.430549,-0.9070959 -3.114385 2.430549,-0.8361635 -2.924504 3.338964,-0.5450373 -4.519224 2.041304,-0.4209514 -3.318198 2.479352,-0.3795824 -3.071033 3.02762,-0.3799419 -3.323446 3.374655,-0.1306844 -5.003124 2.184675,0.05782986 -4.034981 2.566222,0.08893299 -3.721084 3.00067,0.05987406 -3.818437 3.322454,-7.793897 -8.690674 0.177534,-7.180551 -8.085014 0.4482434,-6.70768 -7.15459 0.6329022,-6.436291 -6.251626 0.8375604,-6.173184 -5.667976 1.026132,-7.284716 -5.551025 0.3338337,-7.166646 -4.383527 0.4803872,-7.140759 -3.66934 0.6511897,-7.137341 -3.055624 0.778734,-7.676687 -5.429786 0.3645973,-7.659174 -4.030935 0.4443413,-7.667838 -3.188704 0.6597733,-7.694822 -2.4586 0.8473397,-8.025428 -5.583822 0.4195703,-8.06248 -4.307926 0.5028407,-8.083035 -3.534413 0.665377,-8.090303 -2.886482 0.8101723,-8.351011 -5.971628 0.5167226,-8.487474 -5.08497 0.6214238,-8.554758 -4.51004 0.7530916,-8.585711 -3.971493 0.8575763,3.010,9  0
-0.8975587 -7.68715 1.501692,-1.560009 -7.232435 2.116045,-2.043694 -6.314966 2.456254,-2.265471 -5.415735 2.752106,-2.512589 -4.651802 3.070631,-1.412851 -4.452981 1.874412,-1.520615 -3.314592 2.185995,-1.521709 -2.665494 2.542424,-1.488057 -2.165322 2.808679,-0.9352231 -4.35544 1.861279,-0.8656254 -3.124736 2.33406,-0.8656254 -3.124736 2.33406,-0.7778158 -2.931032 3.191609,-0.5199409 -4.553766 1.940805,-0.3841696 -3.336233 2.362808,-0.3361607 -3.095954 2.878206,-0.3271608 -3.35559 3.197471,-0.1051135 -5.029678 2.071971,0.0875082 -4.05446 2.433399,0.1230559 -3.740633 2.836633,0.0995574 -3.828497 3.128063,-7.784688 -8.698641 0.1564751,-7.166202 -8.094589 0.4069227,-6.703604 -7.160208 0.5830858,-6.445842 -6.249198 0.7785466,-6.192546 -5.670628 0.9603784,-7.291561 -5.552119 0.2636092,-7.187938 -4.352443 0.3853964,-7.169065 -3.630317 0.5424024,-7.167952 -3.016403 0.6569775,-7.683786 -5.440259 0.2812723,-7.673729 -4.031143 0.3476374,-7.682076 -3.192019 0.5411175,-7.706551 -2.469232 0.709461,-8.031105 -5.593086 0.3221998,-8.077097 -4.314525 0.3919758,-8.094581 -3.539981 0.532162,-8.098058 -2.901723 0.6524104,-8.353603 -5.97491 0.4012809,-8.491032 -5.065511 0.48569,-8.554192 -4.48292 0.6021939,-8.5822 -3.951834 0.6897721,3.110,9  0
-0.8648629 -7.691057 1.553279,-1.535459 -7.255281 2.215426,-2.042628 -6.332183 2.585233,-2.257131 -5.426762 2.890103,-2.495167 -4.650898 3.217705,-1.401031 -4.462641 2.057088,-1.510959 -3.341117 2.420475,-1.50272 -2.698118 2.819073,-1.460955 -2.214003 3.106619,-0.9153996 -4.357809 2.019005,-0.8594761 -3.151212 2.53694,-0.8594761 -3.151212 2.53694,-0.7757254 -2.929747 3.437295,-0.4913831 -4.549818 2.07279,-0.3665104 -3.368124 2.513588,-0.3212767 -3.130306 3.022278,-0.3109818 -3.382905 3.342289,-0.06828547 -5.024063 2.179017,0.1201754 -4.052598 2.567136,0.1499128 -3.771928 2.978642,0.1201458 -3.897438 3.273186,-7.782025 -8.713795 0.2512193,-7.179756 -8.094788 0.5179911,-6.712938 -7.15875 0.7066056,-6.451153 -6.254713 0.9146252,-6.192119 -5.677845 1.108325,-7.286673 -5.551515 0.4131659,-7.173209 -4.388483 0.5637943,-7.149886 -3.671499 0.7394524,-7.146371 -3.053628 0.8754635,-7.679088 -5.431758 0.4459294,-7.66407 -4.045347 0.5324869,-7.674509 -3.197914 0.7502844,-7.704734 -2.462834 0.9436293,-8.027338 -5.586164 0.5036979,-8.066717 -4.327413 0.5847239,-8.083054 -3.551718 0.7447014,-8.089452 -2.904664 0.8935148,-8.353781 -5.975406 0.6043384,-8.492505 -5.088343 0.704603,-8.562944 -4.510439 0.8397673,-8.598557 -3.964914 0.9510406,3.210,9  0
-0.8667669 -7.686992 1.515364,-1.522233 -7.240453 2.178012,-2.018432 -6.287527 2.543756,-2.226219 -5.368352 2.843768,-2.481614 -4.585855 3.182734,-1.372987 -4.436969 2.01423,-1.461824 -3.348783 2.382586,-1.457105 -2.730512 2.787248,-1.4406 -2.278844 3.08187,-0.8741312 -4.363617 1.976203,-0.8015318 -3.188064 2.505882,-0.8015318 -3.188064 2.505882,-0.7318726 -2.96831 3.45032,-0.4481249 -4.580212 2.02651,-0.3024631 -3.447711 2.490553,-0.2500033 -3.237285 3.017208,-0.2446251 -3.503975 3.343088,-0.03109264 -5.068273 2.129409,0.1632547 -4.140028 2.533207,0.195899 -3.892222 2.955054,0.1654902 -4.028093 3.255929,-7.783406 -8.700985 0.1580459,-7.173309 -8.093744 0.3996346,-6.707273 -7.149604 0.5717756,-6.434904 -6.240841 0.7680557,-6.166011 -5.671657 0.9539177,-7.288885 -5.555573 0.2692693,-7.183533 -4.363632 0.3987586,-7.157031 -3.640853 0.5633591,-7.150195 -3.020361 0.6857492,-7.676466 -5.443393 0.3070568,-7.668872 -4.038837 0.3812652,-7.675584 -3.184393 0.587457,-7.69904 -2.444458 0.7702099,-8.022995 -5.602256 0.3671637,-8.06766 -4.321866 0.4462643,-8.083362 -3.538179 0.5979009,-8.087116 -2.881877 0.7335586,-8.347523 -5.990676 0.4673145,-8.489281 -5.092294 0.5652912,-8.557794 -4.512159 0.6940463,-8.590911 -3.970601 0.7942036,3.310,9  0
-0.8313231 -7.70708 1.483541,-1.508975 -7.255459 2.144818,-2.011475 -6.305137 2.50225,-2.223736 -5.364164 2.79707,-2.475601 -4.541708 3.121293,-1.356542 -4.460621 1.950457,-1.444275 -3.369981 2.309716,-1.433718 -2.747475 2.709548,-1.403688 -2.278188 3.003563,-0.8580108 -4.387479 1.902925,-0.7955456 -3.228328 2.405864,-0.7955456 -3.228328 2.405864,-0.7035904 -2.898808 3.337731,-0.4280024 -4.595943 1.948153,-0.2946348 -3.470774 2.394388,-0.2387314 -3.258483 2.922184,-0.2211437 -3.507106 3.250684,-0.004226685 -5.068223 2.043935,0.1916332 -4.129041 2.428315,0.228672 -3.881862 2.839324,0.2100086 -4.015514 3.129742,-7.781054 -8.709126 0.1858372,-7.171507 -8.092932 0.4311204,-6.703192 -7.152509 0.6117612,-6.433438 -6.250823 0.8167991,-6.176521 -5.683158 1.010405,-7.28511 -5.554899 0.3169768,-7.171718 -4.372692 0.4605621,-7.143714 -3.652931 0.630824,-7.135274 -3.038689 0.7564901,-7.676707 -5.4447 0.3597462,-7.666416 -4.042051 0.4394093,-7.672034 -3.192802 0.6502969,-7.696225 -2.459068 0.8375053,-8.025867 -5.604778 0.4247887,-8.069006 -4.330841 0.5049561,-8.084045 -3.55205 0.6505994,-8.087005 -2.904607 0.7807487,-8.350924 -5.997356 0.5309303,-8.493718 -5.08933 0.6237605,-8.564878 -4.507995 0.7400268,-8.601284 -3.963258 0.8343294,3.410,9  0
-0.795393 -7.635935 1.280924,-1.477357 -7.238702 2.029531,-1.993785 -6.268199 2.427877,-2.193605 -5.306051 2.732371,-2.449745 -4.469293 3.065503,-1.330511 -4.46216 1.929444,-1.397912 -3.364654 2.350316,-1.369421 -2.746275 2.79297,-1.339751 -2.320427 3.115989,-0.8168745 -4.394139 1.830899,-0.7532606 -3.235788 2.398866,-0.7532606 -3.235788 2.398866,-0.6609488 -2.854063 3.401349,-0.3756971 -4.602952 1.823927,-0.2517557 -3.492253 2.325783,-0.1920528 -3.285095 2.878122,-0.1794214 -3.532632 3.224179,0.05556774 -5.063877 1.868208,0.2381234 -4.119493 2.29133,0.2847176 -3.907374 2.715095,0.2704887 -4.063047 3.016843,-7.764423 -8.689491 0.2002943,-7.156356 -8.092749 0.4368582,-6.692814 -7.14151 0.6138005,-6.42855 -6.231609 0.8183699,-6.162329 -5.656957 1.018134,-7.277925 -5.531597 0.2986212,-7.170101 -4.362134 0.4273665,-7.148682 -3.639993 0.5921533,-7.144711 -3.017318 0.7171583,-7.668812 -5.419282 0.3462219,-7.658625 -4.02964 0.4118589,-7.668777 -3.17807 0.6116661,-7.691631 -2.448257 0.7849201,-8.017861 -5.577873 0.4189536,-8.063376 -4.313941 0.4897962,-8.082015 -3.538522 0.6318154,-8.08574 -2.897585 0.7563645,-8.345704 -5.968453 0.5349951,-8.487929 -5.072101 0.6281781,-8.5565 -4.498912 0.746558,-8.589221 -3.967933 0.834598,3.510,9  0
-0.8181276 -7.621482 1.268739,-1.499038 -7.215524 2.009478,-1.993137 -6.231033 2.404466,-2.187015 -5.261079 2.703211,-2.43215 -4.420417 3.039927,-1.327554 -4.455545 1.929658,-1.39301 -3.383058 2.360786,-1.361054 -2.768802 2.801924,-1.32632 -2.341777 3.1127,-0.8107634 -4.385337 1.831457,-0.7365694 -3.235001 2.405703,-0.7365694 -3.235001 2.405703,-0.6515064 -2.890478 3.379343,-0.366221 -4.611959 1.822395,-0.2210312 -3.50292 2.327543,-0.1722522 -3.300703 2.868486,-0.1696963 -3.570738 3.195139,0.0658741 -5.105304 1.869783,0.2673302 -4.166002 2.285751,0.3071547 -3.921848 2.697469,0.2822461 -4.055208 2.982527,-7.756963 -8.699619 0.2198529,-7.160036 -8.077824 0.4703156,-6.696624 -7.146301 0.654506,-6.430571 -6.244743 0.865427,-6.170313 -5.662231 1.065123,-7.278182 -5.532674 0.3403254,-7.175797 -4.360042 0.4807524,-7.149307 -3.637599 0.651765,-7.138814 -3.013145 0.7843612,-7.669201 -5.424621 0.387357,-7.658514 -4.042743 0.4676712,-7.666413 -3.189004 0.6849779,-7.69122 -2.448659 0.8757098,-8.016908 -5.587571 0.459905,-8.056968 -4.328804 0.5407708,-8.075395 -3.548106 0.696897,-8.080204 -2.894138 0.8350837,-8.341668 -5.984093 0.5743116,-8.478456 -5.090011 0.6828007,-8.543105 -4.509508 0.8130716,-8.570779 -3.970882 0.9119627,3.610,9  0
-0.8105822 -7.624584 1.325844,-1.497931 -7.232194 2.068449,-1.990207 -6.236339 2.464867,-2.180218 -5.266429 2.776727,-2.423902 -4.406692 3.124141,-1.31535 -4.422449 1.930002,-1.380964 -3.361053 2.318574,-1.352714 -2.742932 2.737801,-1.315352 -2.297806 3.036434,-0.7895384 -4.362794 1.832865,-0.6950836 -3.231245 2.368525,-0.6950836 -3.231245 2.368525,-0.6204495 -2.849966 3.363164,-0.3428416 -4.60391 1.826967,-0.1896305 -3.526546 2.298744,-0.1496754 -3.303426 2.846227,-0.1555333 -3.534203 3.183525,0.08297729 -5.109897 1.87324,0.2975669 -4.182996 2.264107,0.3437047 -3.923326 2.67308,0.3248215 -4.018245 2.959083,-7.769796 -8.683897 0.191921,-7.165882 -8.080305 0.4574109,-6.696033 -7.147442 0.6411226,-6.42592 -6.248278 0.8489112,-6.164494 -5.671993 1.041157,-7.274252 -5.521746 0.3130767,-7.175195 -4.350141 0.4466431,-7.149986 -3.626307 0.6141577,-7.139802 -3.009488 0.7423798,-7.666808 -5.416765 0.3478753,-7.658993 -4.038677 0.4197027,-7.668566 -3.18696 0.6327431,-7.696004 -2.453429 0.8183716,-8.017673 -5.586566 0.410428,-8.061158 -4.327794 0.4858088,-8.081003 -3.550418 0.6439512,-8.088209 -2.89972 0.7863796,-8.346734 -5.988344 0.5183964,-8.487077 -5.109945 0.6188556,-8.552033 -4.537871 0.7539421,-8.580528 -4.000257 0.860341,3.710,9  0
-0.7782726 -7.623039 1.346672,-1.470765 -7.22381 2.104811,-1.977105 -6.225368 2.514055,-2.174296 -5.26568 2.82218,-2.427663 -4.424839 3.161836,-1.312837 -4.441829 2.057783,-1.367597 -3.377677 2.509847,-1.324965 -2.758464 2.977602,-1.280117 -2.307622 3.29945,-0.789979 -4.372355 1.954067,-0.7206573 -3.259738 2.50524,-0.7206573 -3.259738 2.50524,-0.6106291 -2.75171 3.490507,-0.338356 -4.595512 1.943275,-0.2108498 -3.515759 2.443935,-0.1562424 -3.306346 2.978189,-0.1431904 -3.520011 3.308926,0.09953833 -5.078453 1.984968,0.2918673 -4.150616 2.400769,0.3414283 -3.916311 2.808197,0.334094 -4.023731 3.094156,-7.769783 -8.67662 0.1340445,-7.168143 -8.078726 0.4020087,-6.702406 -7.145488 0.5944468,-6.434355 -6.245891 0.8110934,-6.171049 -5.673262 1.019258,-7.273455 -5.537758 0.2897111,-7.165005 -4.353895 0.4446074,-7.143494 -3.631533 0.6148443,-7.1403 -3.011713 0.7397374,-7.667917 -5.428402 0.3335718,-7.66086 -4.027681 0.426771,-7.672386 -3.173066 0.6376675,-7.69899 -2.439719 0.818011,-8.019948 -5.593404 0.4027461,-8.065448 -4.317575 0.4998896,-8.082675 -3.533703 0.6584376,-8.086871 -2.881809 0.7968225,-8.351789 -5.992894 0.5166664,-8.492743 -5.092452 0.6348487,-8.558539 -4.509092 0.769069,-8.587892 -3.962136 0.8699387,3.810,9  0
-0.7833366 -7.605398 1.539327,-1.472352 -7.233205 2.375666,-1.98374 -6.242097 2.850003,-2.167637 -5.295152 3.200286,-2.422536 -4.449604 3.589296,-1.293815 -4.407629 2.430487,-1.355359 -3.341664 2.934447,-1.313133 -2.719362 3.443688,-1.26976 -2.271409 3.79049,-0.7552261 -4.331657 2.304476,-0.6820192 -3.190326 2.923985,-0.6820192 -3.190326 2.923985,-0.5833492 -2.719739 3.97216,-0.2945004 -4.552469 2.275195,-0.1633763 -3.442784 2.811878,-0.1134715 -3.247256 3.375573,-0.1033421 -3.485963 3.733031,0.1471205 -5.041748 2.296801,0.3430738 -4.077949 2.743665,0.3899708 -3.855728 3.184145,0.379549 -3.989618 3.498811,-7.760234 -8.688047 0.16321,-7.163652 -8.062698 0.4006884,-6.699409 -7.129558 0.5878872,-6.432432 -6.244139 0.803883,-6.179084 -5.681085 1.015219,-7.285886 -5.528348 0.2958819,-7.184778 -4.341814 0.4511405,-7.158331 -3.627 0.6333129,-7.149372 -3.009721 0.7685015,-7.67191 -5.43083 0.3586475,-7.670607 -4.032932 0.4593833,-7.679233 -3.178987 0.6775451,-7.703833 -2.438827 0.8629367,-8.016936 -5.603504 0.444664,-8.066134 -4.330871 0.5426841,-8.085143 -3.541481 0.7049989,-8.09461 -2.880655 0.8441076,-8.339075 -6.010919 0.5712927,-8.484738 -5.113313 0.6817179,-8.557997 -4.520692 0.8132686,-8.596829 -3.960321 0.9132559,3.910,9  0
-0.7834291 -7.569602 1.441281,-1.461154 -7.203153 2.298292,-1.965354 -6.219043 2.786574,-2.16918 -5.286755 3.151934,-2.422268 -4.454023 3.555358,-1.27564 -4.399028 2.368937,-1.353646 -3.334541 2.895232,-1.301478 -2.709417 3.423989,-1.251976 -2.271928 3.784434,-0.7342644 -4.331979 2.23573,-0.6620135 -3.182178 2.885464,-0.6620135 -3.182178 2.885464,-0.5660605 -2.737211 3.937226,-0.2755694 -4.544658 2.198791,-0.1384077 -3.423248 2.759609,-0.09197998 -3.225555 3.329306,-0.09492588 -3.485303 3.67864,0.1628385 -5.016191 2.215527,0.3635259 -4.048082 2.669939,0.405591 -3.823663 3.099073,0.3781586 -3.965784 3.396361,-7.750044 -8.715626 0.256399,-7.164797 -8.083292 0.5118431,-6.705307 -7.146073 0.7072295,-6.448147 -6.25789 0.9322201,-6.183066 -5.689674 1.147585,-7.2802 -5.52989 0.4242505,-7.18504 -4.35247 0.5857425,-7.159086 -3.623407 0.7673355,-7.153337 -2.994821 0.9064299,-7.669906 -5.433954 0.4892041,-7.667665 -4.058517 0.5903278,-7.677346 -3.199285 0.8182808,-7.705733 -2.45997 1.014956,-8.019389 -5.610782 0.5791904,-8.066294 -4.363044 0.6801823,-8.086228 -3.581287 0.8490033,-8.096252 -2.931921 0.9962845,-8.350748 -6.018557 0.711498,-8.496734 -5.136787 0.8339939,-8.567664 -4.552819 0.9746029,-8.604879 -4.000036 1.084282,4.010,9 9 0
-0.748385 -7.615169 1.719832,-1.427087 -7.260761 2.623427,-1.937306 -6.238635 3.15645,-2.135794 -5.298007 3.555884,-2.408317 -4.45232 3.987264,-1.236177 -4.397712 2.773775,-1.300264 -3.303867 3.340478,-1.239515 -2.684402 3.876266,-1.180387 -2.266119 4.234025,-0.6815729 -4.331831 2.651705,-0.594697 -3.150305 3.345411,-0.594697 -3.150305 3.345411,-0.5174217 -2.778765 4.405512,-0.2172956 -4.556352 2.624802,-0.06790924 -3.400707 3.218189,-0.02606583 -3.170171 3.799867,-0.0411315 -3.40574 4.153094,0.2274237 -5.04891 2.653255,0.4399819 -4.043516 3.138134,0.478128 -3.806809 3.573718,0.441761 -3.938391 3.873146,-7.771766 -8.711596 0.1532349,-7.169157 -8.098957 0.405649,-6.709547 -7.158868 0.5924193,-6.443944 -6.265855 0.8038565,-6.179538 -5.698211 1.001887,-7.297571 -5.558074 0.3080208,-7.195617 -4.360521 0.4536246,-7.17095 -3.636384 0.6190245,-7.165745 -3.017955 0.7452738,-7.689382 -5.457475 0.3548548,-7.685432 -4.051954 0.4464992,-7.69512 -3.199727 0.6589988,-7.721196 -2.460659 0.8419492,-8.036302 -5.629398 0.425,-8.084696 -4.347068 0.5173417,-8.099622 -3.55946 0.6794752,-8.103952 -2.899834 0.8220311,-8.359494 -6.032127 0.5349458,-8.503406 -5.13202 0.6491288,-8.568738 -4.543962 0.7919949,-8.599072 -3.990816 0.9010168,4.110,9 9 0
-0.7228127 -7.606806 1.788604,-1.404575 -7.298143 2.705177,-1.921513 -6.256018 3.24301,-2.127842 -5.288589 3.645593,-2.407003 -4.435536 4.096025,-1.223893 -4.405618 2.90647,-1.27541 -3.347881 3.512777,-1.205951 -2.72793 4.074677,-1.139562 -2.251508 4.439903,-0.6530781 -4.3229 2.788154,-0.5504928 -3.193385 3.497057,-0.5504928 -3.193385 3.497057,-0.4426775 -2.637731 4.543775,-0.1741204 -4.558938 2.768914,-0.008768082 -3.457733 3.381904,0.05463886 -3.16694 3.976529,0.04989004 -3.284315 4.34503,0.2794209 -5.083681 2.802802,0.4995794 -4.122177 3.315351,0.5471029 -3.877208 3.769626,0.5183163 -3.946906 4.090772,-7.754135 -8.720007 0.1747553,-7.165652 -8.083099 0.4202616,-6.708008 -7.147537 0.615136,-6.443032 -6.25831 0.8409796,-6.179752 -5.677835 1.06017,-7.300753 -5.548324 0.3476868,-7.203596 -4.351219 0.5105098,-7.175924 -3.628772 0.688817,-7.16854 -3.006631 0.8237563,-7.689842 -5.461978 0.4156085,-7.692585 -4.068729 0.5288737,-7.704404 -3.211036 0.756622,-7.73139 -2.470594 0.9491237,-8.034831 -5.651111 0.5068078,-8.091699 -4.385692 0.6197993,-8.111619 -3.594307 0.7948065,-8.119116 -2.934542 0.9443339,-8.356313 -6.070747 0.6351843,-8.509295 -5.17966 0.766275,-8.578383 -4.589589 0.9161375,-8.610384 -4.037765 1.029974,4.210,9 9 0
-0.6906176 -7.638015 1.857015,-1.376168 -7.29857 2.803631,-1.88523 -6.275331 3.364784,-2.083907 -5.317965 3.778628,-2.35715 -4.489807 4.235695,-1.160765 -4.400581 3.009251,-1.213159 -3.322177 3.641016,-1.131979 -2.719639 4.220874,-1.056445 -2.279541 4.58281,-0.5876656 -4.339264 2.872074,-0.4811621 -3.19005 3.604343,-0.4811621 -3.19005 3.604343,-0.3511038 -2.68733 4.64885,-0.1063738 -4.584285 2.833671,0.06988764 -3.47816 3.459482,0.1367512 -3.280243 4.044621,0.1325188 -3.464308 4.392923,0.3478117 -5.115213 2.858413,0.5846138 -4.145948 3.375265,0.6230597 -3.963734 3.827338,0.5834398 -4.114471 4.131365,-7.772953 -8.723017 0.146602,-7.182228 -8.090746 0.3868301,-6.728161 -7.143196 0.5717446,-6.468934 -6.254137 0.7920631,-6.201602 -5.685343 1.007904,-7.309597 -5.556667 0.2854785,-7.215277 -4.368968 0.4359033,-7.18415 -3.643661 0.6064212,-7.174254 -3.016025 0.7385343,-7.696254 -5.471176 0.3565761,-7.697815 -4.082244 0.4498984,-7.707088 -3.223142 0.6697183,-7.733209 -2.477641 0.8541961,-8.041158 -5.653818 0.4523718,-8.092384 -4.386983 0.5509489,-8.108103 -3.598643 0.7115188,-8.112473 -2.936698 0.848765,-8.364229 -6.062618 0.5870148,-8.513094 -5.161661 0.7183986,-8.582171 -4.572345 0.8577949,-8.614027 -4.017961 0.959608,4.310,9 9 0
-0.6506271 -7.736328 2.031697,-1.322744 -7.360155 2.911992,-1.858692 -6.344549 3.454227,-2.073425 -5.397155 3.868491,-2.343044 -4.528999 4.304621,-1.136788 -4.410652 2.989389,-1.227988 -3.311677 3.527075,-1.164268 -2.695176 4.044009,-1.076056 -2.254642 4.382799,-0.5907917 -4.338079 2.879028,-0.5312939 -3.156861 3.479457,-0.5312939 -3.156861 3.479457,-0.3767152 -2.632765 4.465385,-0.1223741 -4.564507 2.871682,0.01245689 -3.416191 3.402638,0.07378912 -3.225897 3.99484,0.09108067 -3.452919 4.377201,0.3282332 -5.069588 2.923236,0.5520172 -4.077228 3.390864,0.5824623 -3.939106 3.846673,0.5396624 -4.177047 4.176445,-7.778934 -8.728619 0.1154433,-7.187071 -8.100737 0.3270219,-6.735582 -7.158243 0.507884,-6.476238 -6.268597 0.7273008,-6.211677 -5.690544 0.9398516,-7.329198 -5.570379 0.2418588,-7.23169 -4.367717 0.3905874,-7.202198 -3.633253 0.5565403,-7.194945 -3.007674 0.6838014,-7.715817 -5.485374 0.3247437,-7.717563 -4.082424 0.4251924,-7.726004 -3.217272 0.6395473,-7.7522 -2.47823 0.8166057,-8.059072 -5.675966 0.4281374,-8.114088 -4.398208 0.5296745,-8.126112 -3.604782 0.6902131,-8.128604 -2.945854 0.824885,-8.378971 -6.094639 0.5675246,-8.529875 -5.190012 0.7012245,-8.592457 -4.597091 0.8483247,-8.620851 -4.049089 0.9534423,4.410,9 9 0
-0.7328444 -7.834608 1.887485,-1.413255 -7.395219 2.741485,-1.901695 -6.384861 3.24235,-2.094665 -5.442682 3.640387,-2.361977 -4.555871 4.079851,-1.235652 -4.494567 2.685718,-1.289375 -3.359371 3.177236,-1.244145 -2.691865 3.672578,-1.175984 -2.215181 4.014703,-0.711412 -4.445697 2.59231,-0.6232924 -3.27842 3.186039,-0.6232924 -3.27842 3.186039,-0.52317 -2.998154 4.25044,-0.1799741 -4.631954 2.724102,-0.03008461 -3.482721 3.269382,0.02628517 -3.268988 3.859042,0.03954649 -3.522752 4.229328,0.2661633 -5.155309 2.781659,0.5020266 -4.172031 3.264062,0.5262613 -3.971133 3.73595,0.4790983 -4.173149 4.082026,-7.803386 -8.739222 0.1490559,-7.211436 -8.111286 0.3781486,-6.761231 -7.166385 0.5720403,-6.505504 -6.281954 0.8081823,-6.239311 -5.705369 1.048814,-7.352648 -5.560068 0.2949714,-7.263462 -4.35968 0.456094,-7.24021 -3.623634 0.620061,-7.237552 -2.99615 0.7393951,-7.742367 -5.487936 0.382662,-7.75316 -4.089622 0.4927071,-7.766125 -3.224545 0.6980783,-7.791515 -2.491046 0.8629348,-8.087062 -5.683624 0.4956176,-8.147895 -4.417444 0.6077363,-8.159313 -3.624527 0.7662115,-8.158941 -2.972812 0.8964082,-8.406562 -6.106456 0.6471627,-8.569914 -5.215893 0.7864992,-8.645078 -4.628986 0.9340285,-8.68351 -4.085985 1.040994,4.510,9 9 0
-0.8112974 -7.887732 1.778847,-1.479951 -7.439462 2.627563,-1.93577 -6.438421 3.097429,-2.103991 -5.486205 3.46558,-2.361949 -4.615333 3.889963,-1.29016 -4.556761 2.504308,-1.33829 -3.420453 2.951685,-1.291088 -2.749433 3.412846,-1.217049 -2.242631 3.743853,-0.7771463 -4.50942 2.373986,-0.6742196 -3.341076 2.900586,-0.6742196 -3.341076 2.900586,-0.5870042 -2.993837 3.896259,-0.3329601 -4.731794 2.348608,-0.1676283 -3.578523 2.814582,-0.120245 -3.452292 3.377075,-0.1157956 -3.762756 3.722198,0.09458208 -5.219844 2.38895,0.3234844 -4.253482 2.791061,0.358408 -4.081947 3.225807,0.3348346 -4.299305 3.535006,-7.807968 -8.76709 0.1471709,-7.224591 -8.148619 0.3580732,-6.773475 -7.200321 0.537092,-6.520196 -6.309499 0.7587738,-6.253316 -5.7404 0.9816206,-7.356881 -5.598969 0.2501541,-7.263581 -4.413312 0.3980221,-7.243267 -3.682853 0.5666871,-7.246181 -3.052737 0.6968606,-7.743142 -5.513968 0.3438484,-7.750116 -4.135545 0.4336793,-7.764795 -3.260248 0.6484374,-7.794503 -2.518683 0.825977,-8.087481 -5.70662 0.4625409,-8.149339 -4.450853 0.5639647,-8.16965 -3.658606 0.7291956,-8.178089 -2.998393 0.8704501,-8.411687 -6.131183 0.6191943,-8.573711 -5.231382 0.7592539,-8.645257 -4.641809 0.9086009,-8.679047 -4.087369 1.013457,4.610,9 9 0
-0.8663235 -8.013651 1.733285,-1.523153 -7.54324 2.535338,-1.963733 -6.555715 2.982478,-2.140993 -5.637478 3.347928,-2.3933 -4.812026 3.766915,-1.360316 -4.698102 2.373668,-1.413164 -3.514057 2.782856,-1.385645 -2.824192 3.209216,-1.337839 -2.32303 3.512939,-0.8592958 -4.639667 2.27694,-0.7648335 -3.421005 2.786342,-0.7648335 -3.421005 2.786342,-0.689549 -3.156074 3.763037,-0.4282885 -4.850772 2.277248,-0.279501 -3.639443 2.753309,-0.2397842 -3.471241 3.363335,-0.2574739 -3.823868 3.73849,-0.01135159 -5.324567 2.339876,0.2131147 -4.345367 2.758222,0.239882 -4.138687 3.23261,0.1988573 -4.369076 3.584641,-7.809465 -8.769136 0.1027083,-7.223219 -8.161533 0.3487402,-6.774424 -7.215037 0.5469842,-6.523182 -6.327763 0.7814034,-6.250579 -5.754961 1.021772,-7.347904 -5.6187 0.2593957,-7.253982 -4.428339 0.428746,-7.231277 -3.694139 0.6134497,-7.233365 -3.05985 0.751872,-7.739037 -5.532228 0.3487013,-7.745716 -4.148095 0.4618836,-7.758932 -3.265713 0.6910236,-7.789358 -2.514996 0.8773502,-8.08908 -5.719752 0.4654246,-8.147491 -4.460113 0.5881839,-8.163836 -3.659486 0.7649584,-8.170343 -2.986413 0.9132084,-8.420542 -6.136477 0.6225046,-8.580798 -5.233207 0.7766611,-8.654645 -4.637146 0.9287944,-8.690905 -4.062109 1.035813,4.710,9 9 0
-1.036232 -8.434607 1.637666,-1.643827 -7.900122 2.34974,-2.089014 -6.93121 2.747487,-2.262726 -6.0422 3.100132,-2.519695 -5.262701 3.495571,-1.556334 -5.133415 2.159273,-1.655492 -3.935287 2.534187,-1.629821 -3.244415 2.933321,-1.554719 -2.73899 3.221636,-1.084972 -5.075208 2.090789,-1.019917 -3.871239 2.512986,-1.019917 -3.871239 2.512986,-0.8866072 -3.350941 3.388676,-0.6727791 -5.278779 2.125485,-0.5503063 -4.129482 2.505405,-0.4850612 -3.784959 3.022775,-0.4762163 -3.907556 3.364746,-0.2657223 -5.725814 2.224382,-0.05566025 -4.786235 2.586905,-0.02916574 -4.527078 2.98929,-0.07687187 -4.635684 3.319638,-7.78947 -8.76618 0.02398681,-7.207542 -8.144508 0.2706355,-6.760827 -7.210253 0.4637112,-6.516596 -6.331654 0.6891448,-6.249866 -5.749734 0.9113584,-7.3493 -5.631227 0.210971,-7.271093 -4.42306 0.3904872,-7.252077 -3.688795 0.5728989,-7.25214 -3.051301 0.709213,-7.734689 -5.553237 0.2913753,-7.751744 -4.166748 0.4221123,-7.768631 -3.295583 0.653423,-7.797512 -2.550519 0.8481405,-8.079883 -5.748493 0.3955572,-8.142456 -4.485858 0.5263604,-8.164056 -3.694534 0.7046281,-8.173229 -3.02481 0.8573971,-8.407996 -6.171704 0.536493,-8.56472 -5.28693 0.6893234,-8.633309 -4.705296 0.8457904,-8.661811 -4.148521 0.9608026,4.810,9 9 0
-1.108669 -8.797075 1.291249,-1.739502 -8.301323 1.915133,-2.181181 -7.325976 2.289305,-2.379315 -6.435234 2.658888,-2.629464 -5.641279 3.033363,-1.727682 -5.610551 1.636806,-1.82054 -4.461565 1.972435,-1.820621 -3.791355 2.350717,-1.776843 -3.298126 2.628057,-1.282565 -5.529006 1.639748,-1.198244 -4.240402 2.152928,-1.198244 -4.240402 2.152928,-1.192179 -4.126215 3.04841,-0.877183 -5.690172 1.734044,-0.7057819 -4.458601 2.172613,-0.7015157 -4.252383 2.711108,-0.7476368 -4.529283 3.017802,-0.4700651 -6.095525 1.88508,-0.2477121 -5.094265 2.285784,-0.2846527 -4.884045 2.687341,-0.3984194 -5.12242 2.989342,-7.785439 -8.78783 0.06113366,-7.199679 -8.190531 0.3257377,-6.751957 -7.242319 0.5195904,-6.501269 -6.35412 0.7449898,-6.223681 -5.775505 0.9758754,-7.33354 -5.656799 0.2295848,-7.232335 -4.459581 0.3939935,-7.20225 -3.722099 0.5759367,-7.196074 -3.094639 0.7197682,-7.720512 -5.562955 0.3104411,-7.714549 -4.172948 0.4110487,-7.723432 -3.286556 0.6391103,-7.751121 -2.537402 0.8386523,-8.067508 -5.751452 0.4170393,-8.107219 -4.477065 0.5266268,-8.119621 -3.664965 0.7071795,-8.121819 -2.98224 0.8686178,-8.398648 -6.172601 0.5664434,-8.55994 -5.283103 0.7171493,-8.628801 -4.698347 0.8754764,-8.657371 -4.139648 0.9971447,4.910,9 9 0
-1.258114 -9.262718 1.395931,-1.896613 -8.737225 2.045555,-2.358924 -7.817985 2.420893,-2.582577 -6.937366 2.769321,-2.805548 -6.184534 3.120331,-1.851838 -6.04267 1.700516,-1.966303 -4.975626 1.934235,-1.988162 -4.283499 2.264524,-1.97035 -3.700819 2.535496,-1.406693 -5.954896 1.651814,-1.32081 -4.737615 2.072723,-1.32081 -4.737615 2.072723,-1.2416 -4.717312 2.847631,-1.026334 -6.131311 1.697277,-0.8641329 -4.957809 2.093595,-0.8534174 -4.79321 2.557179,-0.8763971 -5.088962 2.81912,-0.6593533 -6.548004 1.810123,-0.4670405 -5.601571 2.15926,-0.5046802 -5.45026 2.491313,-0.5971451 -5.699323 2.725196,-7.771581 -8.816601 0.1174962,-7.187349 -8.196964 0.362669,-6.734637 -7.257977 0.5610316,-6.474846 -6.383609 0.7954509,-6.208514 -5.806114 1.036065,-7.321178 -5.667806 0.278052,-7.217567 -4.472133 0.452062,-7.191931 -3.732547 0.6432932,-7.188015 -3.094928 0.7859788,-7.704159 -5.576286 0.3739104,-7.707351 -4.194433 0.4884816,-7.718833 -3.311237 0.7243214,-7.743413 -2.556514 0.923215,-8.048409 -5.763097 0.4952312,-8.095161 -4.498909 0.6183344,-8.107438 -3.691888 0.8002611,-8.105478 -3.009069 0.9553604,-8.376449 -6.180776 0.6558486,-8.539329 -5.288984 0.8154306,-8.609141 -4.697063 0.9700825,-8.637704 -4.131568 1.082391,5.010,9 9 0
-1.298702 -9.467525 1.304661,-1.933706 -8.930519 1.913303,-2.387182 -8.057039 2.305698,-2.63842 -7.215607 2.687247,-2.899362 -6.532588 3.088505,-1.906314 -6.254694 1.594962,-1.999669 -5.182448 1.867811,-2.033029 -4.540421 2.267505,-2.035892 -4.099073 2.596822,-1.477229 -6.188911 1.579227,-1.382556 -4.970367 2.017856,-1.382556 -4.970367 2.017856,-1.385753 -5.190757 2.843881,-1.098995 -6.373561 1.651156,-0.9397421 -5.202016 2.016457,-0.9574685 -5.095752 2.457151,-1.011758 -5.437872 2.703463,-0.7250051 -6.781845 1.789504,-0.5213299 -5.836517 2.117073,-0.5679965 -5.715524 2.406295,-0.6684551 -6.003314 2.608226,-7.763473 -8.830608 0.11435,-7.175006 -8.220976 0.3604389,-6.725416 -7.269151 0.5550215,-6.476447 -6.388492 0.7850714,-6.206558 -5.8171 1.021593,-7.314044 -5.6759 0.2810618,-7.222958 -4.469184 0.4546978,-7.200649 -3.733628 0.6418857,-7.198963 -3.095284 0.7822869,-7.6976 -5.591896 0.3799386,-7.710205 -4.212257 0.4993747,-7.725007 -3.337477 0.730154,-7.751002 -2.589504 0.9229099,-8.041119 -5.785621 0.5073659,-8.094812 -4.523955 0.6395648,-8.109986 -3.720903 0.8278497,-8.112577 -3.046625 0.986252,-8.36993 -6.210851 0.6710307,-8.53184 -5.32101 0.8402266,-8.604597 -4.729212 1.004786,-8.639104 -4.165239 1.122287,5.110,9 9 0
-1.36425 -9.965261 1.209511,-2.008631 -9.442749 1.860268,-2.446391 -8.497019 2.259785,-2.659267 -7.592042 2.640052,-2.946091 -6.844216 3.0561,-1.978332 -6.775131 1.518719,-2.065795 -5.720386 1.8681,-2.119083 -5.134917 2.32277,-2.131322 -4.794899 2.692126,-1.547486 -6.714601 1.489748,-1.474965 -5.548595 1.991871,-1.474965 -5.548595 1.991871,-1.483311 -5.612192 2.926939,-1.169007 -6.913845 1.550859,-1.045631 -5.779802 1.963178,-1.065993 -5.606672 2.45583,-1.111135 -5.882729 2.749308,-0.7925763 -7.329227 1.683702,-0.6106253 -6.410543 2.061502,-0.6606913 -6.204002 2.416109,-0.754262 -6.407083 2.6755,-7.750761 -8.864733 0.1009388,-7.173093 -8.248297 0.3310364,-6.722787 -7.300888 0.5293616,-6.464154 -6.43778 0.7661684,-6.18369 -5.876841 1.0082,-7.312637 -5.699112 0.2758311,-7.226085 -4.501762 0.4478112,-7.197364 -3.766747 0.6339735,-7.19048 -3.132945 0.7711501,-7.70029 -5.630575 0.3784201,-7.717476 -4.257152 0.5019192,-7.728175 -3.379891 0.7382349,-7.752846 -2.631834 0.9340676,-8.045168 -5.836454 0.5056101,-8.104688 -4.581722 0.6319237,-8.113832 -3.779902 0.8136576,-8.112386 -3.108058 0.9659729,-8.371389 -6.268075 0.6670596,-8.533574 -5.381049 0.8262737,-8.600864 -4.784521 0.9833624,-8.631805 -4.212405 1.095765,5.210,9 9 0
-1.393483 -10.23238 1.205398,-2.046041 -9.723558 1.88414,-2.477413 -8.758587 2.297201,-2.675661 -7.815805 2.669012,-2.922873 -7.028471 3.070042,-1.990709 -7.071178 1.562968,-2.095212 -6.04133 1.915735,-2.144493 -5.43811 2.357021,-2.144477 -5.049911 2.707622,-1.564272 -6.984302 1.508082,-1.501493 -5.778045 2.072017,-1.501493 -5.778045 2.072017,-1.50899 -6.055995 2.95193,-1.189717 -7.164346 1.539739,-1.051128 -5.983209 2.018847,-1.090306 -5.968698 2.516241,-1.133238 -6.376192 2.763388,-0.8156853 -7.57597 1.641651,-0.6335301 -6.642961 2.063038,-0.6960363 -6.515605 2.436154,-0.7852693 -6.806799 2.682652,-7.759549 -8.866982 0.1178048,-7.175083 -8.263014 0.367115,-6.723899 -7.317214 0.5729891,-6.461284 -6.456386 0.8146027,-6.185861 -5.887247 1.060054,-7.312637 -5.705279 0.3053511,-7.21465 -4.512975 0.4790453,-7.188559 -3.779681 0.661357,-7.18693 -3.147857 0.7952932,-7.699565 -5.62915 0.406693,-7.710387 -4.255361 0.5208155,-7.724702 -3.374007 0.7510231,-7.753957 -2.630972 0.9439973,-8.045207 -5.83366 0.53514,-8.100267 -4.575967 0.6592571,-8.109882 -3.769064 0.8431272,-8.105975 -3.093519 0.9981934,-8.372319 -6.269979 0.7018257,-8.536106 -5.383646 0.8701155,-8.601533 -4.793468 1.026891,-8.626617 -4.235725 1.139151,5.310,9 9 0
-1.394244 -10.65764 0.9399753,-2.062477 -10.2578 1.743883,-2.509746 -9.316448 2.218476,-2.690089 -8.36895 2.621484,-2.87718 -7.519529 2.992743,-2.018997 -7.621318 1.544311,-2.16335 -6.510146 1.966027,-2.190156 -5.941741 2.486665,-2.135219 -5.670578 2.883469,-1.576628 -7.510682 1.434458,-1.537586 -6.238808 2.017879,-1.537586 -6.238808 2.017879,-1.468108 -6.375101 3.057065,-1.195932 -7.686658 1.415545,-1.088785 -6.470173 1.851795,-1.088541 -6.297233 2.384764,-1.097252 -6.601059 2.733054,-0.8152971 -8.100979 1.477526,-0.6569638 -7.154872 1.907535,-0.6965389 -6.98595 2.318147,-0.77915 -7.237659 2.638434,-7.751477 -8.905928 0.1124229,-7.179871 -8.312437 0.387493,-6.733375 -7.363088 0.609347,-6.48018 -6.500423 0.8648719,-6.205931 -5.941719 1.124612,-7.325633 -5.743151 0.3358133,-7.242045 -4.553179 0.5169329,-7.213181 -3.818647 0.7028304,-7.206123 -3.18826 0.842829,-7.711928 -5.67085 0.4180706,-7.728066 -4.301826 0.5521475,-7.738072 -3.423808 0.7920682,-7.766796 -2.669469 0.9891922,-8.055324 -5.873765 0.5281342,-8.114823 -4.63521 0.6592505,-8.12441 -3.836098 0.8429965,-8.126821 -3.165449 1.000591,-8.378859 -6.303178 0.6773151,-8.547761 -5.430635 0.8356048,-8.618645 -4.848487 0.9954922,-8.654331 -4.292146 1.113339,5.410,9 9 0
-1.30781 -11.21656 0.7199895,-1.954532 -10.82006 1.42731,-2.457729 -9.98069 1.817517,-2.7059 -9.139561 2.156561,-2.953107 -8.346165 2.492324,-1.937555 -8.210501 1.15256,-2.120712 -7.215955 1.460261,-2.161205 -6.663246 1.827362,-2.134643 -6.240837 2.125852,-1.491061 -8.112356 1.058703,-1.490041 -7.001125 1.53095,-1.490041 -7.001125 1.53095,-1.447773 -6.838039 2.377687,-1.108534 -8.285614 1.061634,-1.029931 -7.210468 1.454033,-1.036726 -7.023279 1.932103,-1.063806 -7.241479 2.236888,-0.7349272 -8.694727 1.133256,-0.5799828 -7.847641 1.490827,-0.595932 -7.647672 1.871121,-0.6644917 -7.797647 2.161013,-7.773735 -8.9298 0.0005962215,-7.199477 -8.344433 0.2682632,-6.752163 -7.390834 0.4856687,-6.490036 -6.519409 0.7389528,-6.201082 -5.942388 1.0059,-7.337367 -5.799126 0.2080151,-7.244901 -4.602197 0.3961405,-7.218315 -3.86571 0.5893077,-7.219698 -3.228799 0.7318486,-7.724743 -5.726801 0.304929,-7.741409 -4.351776 0.4384526,-7.755651 -3.468606 0.6702282,-7.784646 -2.717041 0.8612719,-8.073416 -5.932279 0.4331295,-8.141113 -4.676546 0.5850431,-8.155041 -3.862774 0.7752304,-8.158444 -3.171596 0.9328285,-8.405685 -6.366697 0.599675,-8.579098 -5.476943 0.7829797,-8.65655 -4.881128 0.9489293,-8.695716 -4.295164 1.068682,5.510,9 9 0
-1.256233 -11.4247 0.5293453,-1.883938 -11.04059 1.240368,-2.395265 -10.23477 1.626048,-2.648631 -9.414745 1.950985,-2.913317 -8.664328 2.292342,-1.913294 -8.49935 1.021567,-2.086162 -7.546993 1.359354,-2.137018 -7.020713 1.747039,-2.14413 -6.612342 2.068393,-1.46988 -8.383547 0.9197733,-1.476109 -7.314483 1.399937,-1.476109 -7.314483 1.399937,-1.435162 -7.115404 2.285638,-1.084974 -8.534336 0.9083688,-1.015289 -7.518711 1.338799,-1.007385 -7.380377 1.83246,-1.008428 -7.615705 2.149721,-0.7062874 -8.904379 0.9601001,-0.574348 -8.101942 1.360686,-0.5792069 -7.988435 1.756047,-0.6159186 -8.180264 2.049557,-7.786518 -8.948456 -0.01624773,-7.194292 -8.35607 0.2335467,-6.747913 -7.403186 0.4400545,-6.489576 -6.530863 0.6833522,-6.205128 -5.953496 0.9354047,-7.338895 -5.817984 0.1750111,-7.247512 -4.61284 0.3546638,-7.221145 -3.878709 0.546353,-7.224944 -3.246476 0.6844553,-7.732074 -5.748529 0.2679241,-7.754464 -4.374074 0.3898182,-7.767095 -3.490852 0.6174738,-7.799483 -2.74249 0.8133889,-8.083479 -5.953962 0.3892874,-8.156912 -4.700014 0.5212729,-8.166306 -3.897511 0.6975709,-8.16869 -3.219163 0.8473855,-8.415504 -6.382839 0.5481303,-8.591824 -5.491421 0.7082167,-8.667294 -4.897016 0.8632277,-8.708646 -4.307893 0.9767466,5.610,9 9 0
-1.182139 -11.88889 -0.02675076,-1.818624 -11.53184 0.5973925,-2.276795 -10.69545 0.9141191,-2.48344 -9.797062 1.161075,-2.744383 -9.061569 1.452793,-1.799536 -9.136583 0.4804143,-1.958151 -8.170897 0.8400314,-1.988523 -7.604866 1.226544,-1.993205 -7.068852 1.536596,-1.355537 -9.007666 0.3780965,-1.356464 -7.943948 0.8582441,-1.356464 -7.943948 0.8582441,-1.288199 -7.583033 1.69095,-0.9628367 -9.137466 0.3543362,-0.894721 -8.113195 0.7967596,-0.8916521 -7.962688 1.254211,-0.8976235 -8.131613 1.521833,-0.5731835 -9.494999 0.3709022,-0.4504747 -8.67477 0.7559758,-0.4716945 -8.576452 1.083063,-0.507421 -8.736053 1.290836,-7.783883 -8.973721 -0.01524013,-7.199221 -8.38678 0.2457327,-6.761568 -7.429363 0.4621037,-6.505538 -6.556816 0.7175944,-6.209329 -5.992681 0.988137,-7.345324 -5.836423 0.1718947,-7.256676 -4.640615 0.3526223,-7.227541 -3.910375 0.5512931,-7.226563 -3.286863 0.6949624,-7.742705 -5.772592 0.2615372,-7.773181 -4.401786 0.3819578,-7.788561 -3.51231 0.6091962,-7.821593 -2.756877 0.7988327,-8.096985 -5.978532 0.3816532,-8.182292 -4.726179 0.5095682,-8.192831 -3.928566 0.6700091,-8.192079 -3.249069 0.8044706,-8.429643 -6.403085 0.5423498,-8.609172 -5.50473 0.6938011,-8.688771 -4.914506 0.8309273,-8.734118 -4.321323 0.9291464,5.710,9 9 0
-1.146453 -11.96918 -0.05065012,-1.783971 -11.61274 0.6192542,-2.246945 -10.7785 0.9804294,-2.44569 -9.891359 1.258135,-2.715476 -9.139833 1.597438,-1.76074 -9.243729 0.6316888,-1.909935 -8.292746 1.034182,-1.939182 -7.733499 1.440196,-1.945373 -7.207866 1.747341,-1.306451 -9.120695 0.5118163,-1.301085 -8.100609 1.029495,-1.301085 -8.100609 1.029495,-1.225494 -7.649143 1.897536,-0.9078364 -9.254366 0.4674947,-0.8297443 -8.28754 0.9253635,-0.8176479 -8.110037 1.428908,-0.8140411 -8.269579 1.739332,-0.5165181 -9.605799 0.4569791,-0.3940473 -8.808485 0.8538128,-0.4049621 -8.695326 1.213092,-0.4351029 -8.860638 1.455094,-7.795612 -8.977779 -0.04121989,-7.204093 -8.386766 0.2148724,-6.769478 -7.442022 0.4372968,-6.517863 -6.564594 0.6979706,-6.219251 -6.001145 0.9808651,-7.345279 -5.850844 0.1497967,-7.258926 -4.655221 0.3386573,-7.23656 -3.921754 0.5449727,-7.241039 -3.29514 0.6830541,-7.745014 -5.784807 0.2421421,-7.781105 -4.408197 0.3667377,-7.798153 -3.516815 0.5913906,-7.830009 -2.760889 0.7735475,-8.10172 -5.987668 0.36428,-8.191203 -4.727702 0.5006129,-8.20613 -3.927663 0.6544951,-8.206958 -3.245849 0.7778504,-8.436504 -6.407909 0.5242901,-8.613204 -5.497253 0.6768751,-8.689256 -4.900678 0.809952,-8.731832 -4.304679 0.8968331,5.810,9 9 0
-1.128723 -12.03051 -0.2210399,-1.760757 -11.65561 0.4313478,-2.19873 -10.79146 0.79101,-2.384597 -9.894539 1.07574,-2.641527 -9.126553 1.428521,-1.719861 -9.327206 0.3668208,-1.872737 -8.398945 0.7488378,-1.895329 -7.856531 1.154226,-1.891305 -7.337896 1.454569,-1.25945 -9.214838 0.2588348,-1.245003 -8.228966 0.7486535,-1.245003 -8.228966 0.7486535,-1.171305 -7.74077 1.628093,-0.8583937 -9.354136 0.2301524,-0.7625942 -8.404959 0.6604204,-0.7586179 -8.18585 1.173935,-0.7679424 -8.310509 1.490581,-0.4699516 -9.714058 0.236462,-0.3316746 -8.926004 0.6216571,-0.3497801 -8.778353 0.9867432,-0.400362 -8.917246 1.230605,-7.807081 -8.981417 -0.0626123,-7.213482 -8.403721 0.1900054,-6.775829 -7.451412 0.4043064,-6.524368 -6.564825 0.6550593,-6.23669 -6.000904 0.9180675,-7.360011 -5.866618 0.1327128,-7.269297 -4.667726 0.3288613,-7.248586 -3.936859 0.5304072,-7.260445 -3.308768 0.666712,-7.757137 -5.79467 0.2219818,-7.787718 -4.40905 0.3611522,-7.804526 -3.507624 0.5879055,-7.841018 -2.743493 0.775757,-8.112244 -5.997322 0.3414152,-8.196806 -4.732191 0.4898093,-8.214497 -3.924078 0.6492543,-8.223201 -3.237591 0.7822281,-8.445429 -6.423206 0.4959474,-8.613741 -5.517562 0.6629707,-8.687788 -4.919668 0.8069063,-8.729101 -4.326042 0.9043299,5.910,9 9 0
-1.047021 -12.00668 -0.558445,-1.69981 -11.67901 0.1241768,-2.138693 -10.78395 0.462918,-2.320616 -9.87475 0.7256554,-2.548267 -9.070663 1.02893,-1.646121 -9.386358 0.1143718,-1.781806 -8.435999 0.480378,-1.795181 -7.867597 0.8516304,-1.775066 -7.314479 1.120796,-1.182191 -9.300631 -0.01796412,-1.153649 -8.370148 0.4554139,-1.153649 -8.370148 0.4554139,-1.033789 -7.737787 1.29821,-0.7666168 -9.439909 -0.07616699,-0.6693044 -8.578802 0.3568869,-0.6524296 -8.327057 0.8376209,-0.645648 -8.351391 1.141547,-0.3739572 -9.773708 -0.09975916,-0.2295899 -9.018946 0.2732693,-0.225831 -8.809464 0.5954826,-0.2541542 -8.846376 0.8020132,-7.823037 -9.008295 -0.0592659,-7.217458 -8.42346 0.1666031,-6.774963 -7.454518 0.3579963,-6.52246 -6.564775 0.5888772,-6.242137 -5.994729 0.8328336,-7.370312 -5.886331 0.09409688,-7.278612 -4.68608 0.2771214,-7.249204 -3.957065 0.4714535,-7.251419 -3.331548 0.5999891,-7.765902 -5.817627 0.1877694,-7.801256 -4.42454 0.3140302,-7.813317 -3.529674 0.5333815,-7.845055 -2.770325 0.7099217,-8.119271 -6.017131 0.3130253,-8.20494 -4.749036 0.4486918,-8.220669 -3.950053 0.5936764,-8.228469 -3.270305 0.7135751,-8.44978 -6.435466 0.4692737,-8.620846 -5.527978 0.621639,-8.695876 -4.935171 0.7497214,-8.740671 -4.354192 0.8382537,6.010,9 9 0
-1.03985 -11.99922 -0.4933627,-1.675839 -11.68082 0.172612,-2.109019 -10.75955 0.5242515,-2.288445 -9.84993 0.8016198,-2.535481 -9.051662 1.124167,-1.623269 -9.369289 0.2250342,-1.75744 -8.430418 0.6259204,-1.767834 -7.862213 1.016075,-1.745811 -7.300495 1.290242,-1.159038 -9.285315 0.1038489,-1.126732 -8.337879 0.6183648,-1.126732 -8.337879 0.6183648,-1.009434 -7.747447 1.446627,-0.7428064 -9.421219 0.05530977,-0.6448369 -8.53694 0.5290974,-0.631875 -8.345633 0.9989464,-0.6282616 -8.42692 1.279488,-0.3497148 -9.751404 0.03660202,-0.1977596 -8.969025 0.4309365,-0.1965618 -8.799997 0.7385652,-0.2283196 -8.892534 0.924795,-7.822522 -9.014021 -0.00914234,-7.224998 -8.424404 0.2269132,-6.783242 -7.463362 0.4297873,-6.527941 -6.585709 0.6743907,-6.23855 -6.02247 0.9338796,-7.373705 -5.877316 0.1706122,-7.285185 -4.679584 0.3629256,-7.257662 -3.951304 0.5630084,-7.262862 -3.326562 0.6934491,-7.770311 -5.811386 0.2682275,-7.808018 -4.419051 0.3992016,-7.820863 -3.527128 0.6224416,-7.851871 -2.773304 0.8003275,-8.12495 -6.019078 0.3983456,-8.212134 -4.748943 0.5390633,-8.227554 -3.949265 0.6965914,-8.23316 -3.267842 0.825918,-8.456955 -6.449653 0.5589958,-8.628596 -5.547479 0.7190995,-8.701404 -4.951854 0.8552718,-8.740402 -4.366176 0.9512738,6.110,9 9 0
-1.018305 -11.92424 -0.4596218,-1.663402 -11.57509 0.2283818,-2.106157 -10.67758 0.6131797,-2.2729 -9.783674 0.9200705,-2.506698 -8.949823 1.267577,-1.592274 -9.285082 0.3998607,-1.698307 -8.30625 0.8449975,-1.696075 -7.724586 1.280536,-1.65887 -7.153446 1.59276,-1.124405 -9.235243 0.2803951,-1.086034 -8.286631 0.8203616,-1.086034 -8.286631 0.8203616,-0.9451046 -7.602399 1.721895,-0.7047439 -9.387589 0.2322021,-0.6113501 -8.517799 0.7143991,-0.578299 -8.272642 1.178033,-0.5578661 -8.270555 1.471504,-0.3114734 -9.717535 0.2092101,-0.1529751 -8.932783 0.599889,-0.1339989 -8.734882 0.8991697,-0.145134 -8.759752 1.09534,-7.830814 -9.04175 0.08676325,-7.239767 -8.443947 0.3170035,-6.803633 -7.476212 0.5153728,-6.551189 -6.591344 0.7514517,-6.254313 -6.029817 0.995637,-7.388063 -5.87623 0.2729433,-7.301594 -4.669411 0.4549797,-7.280432 -3.937803 0.6426812,-7.289352 -3.315507 0.7663608,-7.782546 -5.812633 0.3763212,-7.817067 -4.423084 0.5066994,-7.832052 -3.531995 0.7237586,-7.863423 -2.778704 0.9009889,-8.13543 -6.030279 0.5089214,-8.217082 -4.75889 0.6571347,-8.23314 -3.952682 0.8196993,-8.238415 -3.263383 0.9518465,-8.464615 -6.475444 0.6712749,-8.636804 -5.579694 0.8431825,-8.712989 -4.989149 0.9885934,-8.755405 -4.404996 1.091334,6.210,9 9 0
-1.005117 -11.87103 -0.5753598,-1.654201 -11.54978 0.1298516,-2.10833 -10.67578 0.5269331,-2.286716 -9.804998 0.8429698,-2.516499 -8.977352 1.196093,-1.584891 -9.296566 0.363633,-1.702931 -8.324869 0.8345693,-1.70682 -7.742176 1.271733,-1.670889 -7.174316 1.579093,-1.114557 -9.240177 0.2448589,-1.080403 -8.297506 0.8200361,-1.080403 -8.297506 0.8200361,-0.9352798 -7.582616 1.736079,-0.6920824 -9.389353 0.1967182,-0.6011105 -8.531925 0.7088406,-0.5665164 -8.258101 1.202312,-0.5411267 -8.239674 1.525926,-0.2974992 -9.709591 0.1728136,-0.1369944 -8.927586 0.581275,-0.1188264 -8.713556 0.9194268,-0.1323185 -8.737162 1.153765,-7.847498 -9.044271 0.09693136,-7.252542 -8.433201 0.3260439,-6.808074 -7.48318 0.5264747,-6.545138 -6.603521 0.7657028,-6.252105 -6.032254 1.010692,-7.394445 -5.87977 0.259124,-7.30483 -4.677013 0.436232,-7.286297 -3.94654 0.6287453,-7.2979 -3.325182 0.7587492,-7.786231 -5.810024 0.3577438,-7.815913 -4.428985 0.4848531,-7.835585 -3.550485 0.7058803,-7.873652 -2.807623 0.8871593,-8.135664 -6.020769 0.4861941,-8.215059 -4.759941 0.625548,-8.23405 -3.968584 0.7804023,-8.241943 -3.291131 0.9082536,-8.464046 -6.459169 0.6457382,-8.629594 -5.573341 0.8080685,-8.701979 -4.989668 0.9469662,-8.741664 -4.408601 1.044867,6.310,9 9 0
-1.026149 -11.78947 -0.4494846,-1.669697 -11.47584 0.2982327,-2.12117 -10.58086 0.7361989,-2.300569 -9.714993 1.082061,-2.534337 -8.89526 1.466102,-1.594191 -9.2155 0.6249129,-1.708412 -8.230843 1.142505,-1.704159 -7.652712 1.592361,-1.662824 -7.082603 1.894947,-1.117627 -9.162733 0.4979543,-1.072813 -8.201416 1.131703,-1.072813 -8.201416 1.131703,-0.9114008 -7.522693 2.05433,-0.6941843 -9.316807 0.4407774,-0.5934315 -8.439201 0.9987874,-0.5579748 -8.185156 1.498593,-0.5310917 -8.177856 1.823139,-0.2979755 -9.647139 0.4086255,-0.1325464 -8.847586 0.8517869,-0.1118765 -8.652153 1.204915,-0.1217594 -8.694643 1.44519,-7.856789 -9.06624 0.08251432,-7.264033 -8.454529 0.3232111,-6.816154 -7.505363 0.5344455,-6.554057 -6.616938 0.7840416,-6.260406 -6.041131 1.0344,-7.39676 -5.906334 0.2835212,-7.311308 -4.692403 0.4749695,-7.28794 -3.963455 0.668099,-7.291862 -3.342437 0.7939346,-7.794348 -5.83884 0.3745031,-7.824545 -4.441698 0.5127795,-7.840706 -3.563558 0.7343818,-7.873925 -2.817029 0.9162371,-8.150353 -6.049306 0.4965472,-8.22395 -4.774123 0.6404315,-8.239517 -3.976114 0.8022439,-8.244601 -3.292446 0.9353433,-8.48688 -6.4857 0.647652,-8.64521 -5.581913 0.8076552,-8.716684 -4.98389 0.9546224,-8.756522 -4.390863 1.063168,6.410,9 9 0
-1.013875 -11.75937 -0.4600613,-1.666006 -11.44344 0.2970478,-2.129867 -10.57163 0.7354914,-2.311846 -9.710653 1.083428,-2.546053 -8.880665 1.471719,-1.595335 -9.160824 0.5671608,-1.700926 -8.168728 1.059919,-1.693836 -7.587533 1.507952,-1.643764 -7.012399 1.819268,-1.119037 -9.116625 0.4307889,-1.072927 -8.170591 1.027051,-1.072927 -8.170591 1.027051,-0.8926654 -7.450582 1.967281,-0.6925049 -9.272978 0.3656982,-0.5958509 -8.42004 0.8873483,-0.5506406 -8.159042 1.393917,-0.5147085 -8.12133 1.732969,-0.2932277 -9.592829 0.3273762,-0.1309314 -8.811098 0.7473491,-0.107646 -8.63117 1.100047,-0.1123233 -8.670807 1.348102,-7.86492 -9.07902 0.08786679,-7.273136 -8.465933 0.3435832,-6.825493 -7.513664 0.5655936,-6.561139 -6.622381 0.8237458,-6.26824 -6.02873 1.078288,-7.406602 -5.921879 0.3337526,-7.321148 -4.698926 0.5406886,-7.299962 -3.967747 0.7334919,-7.305313 -3.342163 0.8558904,-7.79987 -5.854708 0.4269163,-7.828279 -4.447307 0.5852962,-7.845109 -3.572654 0.8087538,-7.878825 -2.827169 0.9869185,-8.154517 -6.069506 0.5523674,-8.224271 -4.775484 0.7188271,-8.240497 -3.96853 0.9028547,-8.244686 -3.277167 1.048301,-8.490706 -6.514131 0.7038283,-8.648556 -5.600312 0.8873139,-8.720633 -4.999964 1.052136,-8.758026 -4.405736 1.173697,6.510,9 9 0
-1.046776 -11.63696 -0.4094425,-1.701359 -11.40632 0.4078361,-2.169816 -10.54255 0.9048916,-2.366753 -9.705572 1.297747,-2.624021 -8.868767 1.732702,-1.624784 -9.108957 0.8449671,-1.715834 -8.141035 1.442805,-1.709005 -7.566414 1.921987,-1.660988 -7.005085 2.230561,-1.13582 -9.065796 0.7091616,-1.081666 -8.121582 1.422802,-1.081666 -8.121582 1.422802,-0.9256849 -7.371965 2.422276,-0.7031631 -9.232685 0.6445769,-0.5973434 -8.376465 1.269355,-0.5560331 -8.102402 1.814917,-0.5303082 -8.04451 2.176728,-0.3028712 -9.568594 0.6046169,-0.1294212 -8.755024 1.087096,-0.1097221 -8.56798 1.490315,-0.1187873 -8.610846 1.773488,-7.871234 -9.083326 0.09425996,-7.282168 -8.468962 0.3468094,-6.836411 -7.50913 0.5725607,-6.568906 -6.623111 0.8362527,-6.265596 -6.046037 1.11095,-7.419844 -5.922047 0.3377589,-7.340563 -4.702228 0.5466694,-7.318436 -3.971424 0.7459807,-7.321806 -3.345787 0.8780963,-7.811972 -5.857484 0.4371721,-7.845171 -4.446041 0.5990208,-7.862225 -3.562707 0.8292817,-7.892186 -2.810306 1.01273,-8.164374 -6.074009 0.5683595,-8.242714 -4.77733 0.7401667,-8.259768 -3.963968 0.927803,-8.259301 -3.265099 1.076033,-8.497886 -6.522272 0.7255467,-8.664045 -5.609601 0.9155207,-8.741858 -5.009662 1.080253,-8.780649 -4.411721 1.201383,6.610,9 9 0
-1.02239 -11.6442 -0.1127145,-1.681623 -11.41901 0.7537785,-2.172582 -10.57164 1.307103,-2.39057 -9.7435 1.740083,-2.640598 -8.931751 2.221546,-1.634782 -9.110699 1.277953,-1.730235 -8.149761 1.952486,-1.717558 -7.59497 2.474122,-1.67507 -7.064197 2.802957,-1.134629 -9.042858 1.141664,-1.093379 -8.07358 1.954201,-1.093379 -8.07358 1.954201,-0.9722891 -7.415658 3.008793,-0.6953249 -9.183849 1.074662,-0.5879726 -8.291965 1.787372,-0.5610847 -8.098257 2.353496,-0.5525064 -8.147396 2.711866,-0.2854719 -9.510519 1.040485,-0.1061187 -8.674614 1.581659,-0.09825373 -8.547743 2.011069,-0.1213694 -8.668472 2.315094,-7.877295 -9.092928 0.1239356,-7.28801 -8.467966 0.3666958,-6.842947 -7.508021 0.5901467,-6.573177 -6.624726 0.8551743,-6.261583 -6.057546 1.12819,-7.42555 -5.913475 0.3719502,-7.347342 -4.687707 0.582635,-7.331574 -3.958724 0.7753313,-7.342151 -3.335809 0.8957826,-7.822405 -5.859199 0.4736092,-7.853934 -4.446615 0.6445655,-7.871149 -3.569959 0.8678647,-7.904934 -2.822375 1.042607,-8.176661 -6.083741 0.6058462,-8.253284 -4.787822 0.7817023,-8.269769 -3.981805 0.9559472,-8.275048 -3.290077 1.091884,-8.510128 -6.538242 0.7628946,-8.670035 -5.621481 0.9448549,-8.741779 -5.023927 1.10304,-8.780669 -4.434194 1.21935,6.710,9 9 0
-1.010682 -11.61228 -0.1376162,-1.683862 -11.38895 0.7425737,-2.180978 -10.54677 1.322408,-2.417822 -9.734255 1.78076,-2.694264 -8.961817 2.295363,-1.628556 -9.13377 1.317303,-1.745969 -8.184944 2.03413,-1.733685 -7.654132 2.564797,-1.693651 -7.14711 2.890667,-1.115953 -9.05316 1.185949,-1.078709 -8.06711 2.053173,-1.078709 -8.06711 2.053173,-0.9491434 -7.454862 3.100808,-0.6739807 -9.193707 1.119259,-0.5600767 -8.268196 1.877729,-0.5257568 -8.094315 2.431339,-0.5115871 -8.147715 2.769081,-0.2685428 -9.535143 1.089265,-0.08268452 -8.701233 1.639941,-0.06802368 -8.552225 2.060103,-0.08465004 -8.626785 2.356893,-7.876393 -9.083487 0.1067878,-7.288095 -8.471973 0.3475122,-6.847539 -7.508214 0.5697678,-6.584252 -6.62694 0.8348092,-6.274776 -6.054705 1.113405,-7.44011 -5.904172 0.3352011,-7.366173 -4.68609 0.5388845,-7.342621 -3.953567 0.7370784,-7.345309 -3.323677 0.865625,-7.832637 -5.853402 0.4461795,-7.871494 -4.442541 0.6045135,-7.888534 -3.559622 0.8286737,-7.919785 -2.809949 1.00602,-8.18299 -6.082349 0.5889531,-8.266016 -4.782538 0.7556438,-8.280945 -3.970902 0.9353139,-8.28199 -3.271962 1.074762,-8.514853 -6.540459 0.7581416,-8.681824 -5.617112 0.9405947,-8.756568 -5.016226 1.096271,-8.794848 -4.422515 1.206973,6.810,9 9 0
-1.010421 -11.59056 -0.130556,-1.694429 -11.38416 0.7716897,-2.191052 -10.55843 1.367619,-2.437051 -9.76556 1.840117,-2.724301 -8.998703 2.368592,-1.63875 -9.14706 1.398149,-1.756625 -8.170443 2.131292,-1.742907 -7.636263 2.668699,-1.694147 -7.124406 3.009563,-1.12109 -9.070555 1.269758,-1.086421 -8.087742 2.133755,-1.086421 -8.087742 2.133755,-0.9348593 -7.357446 3.20894,-0.6751022 -9.219589 1.203564,-0.5606356 -8.322405 1.957554,-0.5012927 -8.057926 2.540706,-0.4642839 -7.976688 2.924641,-0.2697678 -9.568054 1.168132,-0.08432865 -8.753752 1.710185,-0.05436659 -8.558744 2.137137,-0.05545712 -8.54356 2.45716,-7.878079 -9.076647 0.09868597,-7.29405 -8.464622 0.3467344,-6.856277 -7.502964 0.5716633,-6.591875 -6.619905 0.839702,-6.27732 -6.055273 1.12823,-7.441891 -5.894791 0.3081936,-7.374693 -4.680315 0.5030314,-7.353957 -3.954801 0.7002993,-7.360282 -3.332551 0.8268223,-7.836897 -5.846076 0.4103815,-7.882183 -4.44632 0.5542688,-7.900276 -3.56957 0.7687295,-7.933635 -2.829959 0.9347915,-8.187796 -6.064092 0.5485369,-8.280305 -4.788635 0.7031491,-8.299641 -3.991157 0.858469,-8.306189 -3.309387 0.9791008,-8.518451 -6.504762 0.7187682,-8.688091 -5.588447 0.8879694,-8.767338 -4.992595 1.025631,-8.81434 -4.402652 1.121399,6.910,9 9 0
-1.011136 -11.57291 -0.1531456,-1.70698 -11.36692 0.7731543,-2.213459 -10.54366 1.37214,-2.469228 -9.755352 1.84588,-2.760969 -9.029236 2.359429,-1.638474 -9.197016 1.470915,-1.743006 -8.257652 2.234177,-1.734059 -7.748006 2.751201,-1.697671 -7.213928 3.068733,-1.11079 -9.112129 1.337181,-1.050746 -8.139263 2.221026,-1.050746 -8.139263 2.221026,-0.9153538 -7.309555 3.239692,-0.6629276 -9.242405 1.253908,-0.5206327 -8.349127 2.01756,-0.4744635 -8.038406 2.567659,-0.4512091 -7.855204 2.941263,-0.2609739 -9.574842 1.199322,-0.06565475 -8.776596 1.752832,-0.03948689 -8.588581 2.158499,-0.04836845 -8.551006 2.457964,-7.89788 -9.072252 0.03171994,-7.31159 -8.462692 0.2594657,-6.873183 -7.502757 0.4749653,-6.60488 -6.620744 0.737455,-6.292832 -6.052278 1.018448,-7.45577 -5.910947 0.2299013,-7.393589 -4.688519 0.4287706,-7.37432 -3.959172 0.6225561,-7.380529 -3.335169 0.7488509,-7.843925 -5.861082 0.3431817,-7.888781 -4.46318 0.4991198,-7.906609 -3.579739 0.7143047,-7.938298 -2.828798 0.8846149,-8.191037 -6.080366 0.4905221,-8.279645 -4.804298 0.6597255,-8.299288 -3.996715 0.8193303,-8.305412 -3.302372 0.9451022,-8.519056 -6.521371 0.6653734,-8.683329 -5.597167 0.8442367,-8.759756 -4.993279 0.9861569,-8.802693 -4.399984 1.084508,7.010,9 9 0
-1.004281 -11.57685 -0.001115276,-1.7135 -11.3784 0.9413404,-2.224885 -10.55042 1.560056,-2.489486 -9.760931 2.047528,-2.782893 -9.039852 2.5739,-1.647782 -9.192266 1.68786,-1.742569 -8.268631 2.498574,-1.737928 -7.783813 3.057266,-1.703667 -7.296642 3.406083,-1.109648 -9.107422 1.557478,-1.045193 -8.147907 2.483077,-1.045193 -8.147907 2.483077,-0.9165602 -7.353174 3.525126,-0.6561947 -9.242966 1.478024,-0.5055733 -8.36017 2.285642,-0.465004 -8.094154 2.837101,-0.4434443 -7.928743 3.208162,-0.2572069 -9.589945 1.428708,-0.04912472 -8.813646 2.013648,-0.02680111 -8.651829 2.428352,-0.03506899 -8.630304 2.733421,-7.916582 -9.071989 0.001755347,-7.327439 -8.480276 0.2398196,-6.884279 -7.511753 0.4490764,-6.615559 -6.630485 0.7034879,-6.303108 -6.06787 0.9746169,-7.476735 -5.913929 0.1885725,-7.40336 -4.692956 0.3817413,-7.373097 -3.961112 0.5769529,-7.371461 -3.343284 0.7068146,-7.869143 -5.867 0.288766,-7.91743 -4.471046 0.4381309,-7.93753 -3.581281 0.6588107,-7.970873 -2.827675 0.8303158,-8.21909 -6.085552 0.4249429,-8.311738 -4.822727 0.5824858,-8.324758 -4.019757 0.7364986,-8.323801 -3.336282 0.8508883,-8.549632 -6.524337 0.5913631,-8.725636 -5.613979 0.7603164,-8.809072 -5.021778 0.8956767,-8.857439 -4.435339 0.9830269,7.110,9 9 0
-0.984025 -11.56243 -0.05191712,-1.712556 -11.36376 0.9483746,-2.23042 -10.59191 1.605987,-2.50999 -9.824375 2.110519,-2.786689 -9.103838 2.640579,-1.635612 -9.276873 1.761811,-1.752092 -8.327515 2.591372,-1.749356 -7.833908 3.154356,-1.71448 -7.343074 3.514745,-1.088499 -9.177334 1.607696,-1.031187 -8.209074 2.564488,-1.031187 -8.209074 2.564488,-0.8729792 -7.367725 3.612955,-0.6303177 -9.317114 1.501957,-0.4738622 -8.441038 2.32573,-0.4135237 -8.114737 2.915989,-0.3735266 -7.907798 3.324049,-0.2338667 -9.674437 1.423216,-0.01172352 -8.902168 2.011994,0.008787155 -8.676554 2.446599,-0.006163597 -8.615877 2.779662,-7.935192 -9.080259 -0.01023403,-7.348769 -8.483997 0.2393867,-6.909234 -7.506817 0.459568,-6.64489 -6.611745 0.7268555,-6.330791 -6.051419 1.008623,-7.502478 -5.929548 0.1956631,-7.445547 -4.697449 0.3854598,-7.431945 -3.960439 0.5742726,-7.438387 -3.335366 0.7007966,-7.899171 -5.879797 0.2897159,-7.942998 -4.479955 0.4333655,-7.963054 -3.590885 0.6461422,-7.991509 -2.843354 0.8131382,-8.251564 -6.095466 0.4163429,-8.337258 -4.810688 0.5680985,-8.351463 -4.008197 0.7189857,-8.35049 -3.323106 0.8332074,-8.584406 -6.534919 0.5758372,-8.761133 -5.61824 0.7374506,-8.847557 -5.029182 0.8718393,-8.901571 -4.436444 0.9626322,7.210,9 9 0
-0.9570851 -11.55557 -0.128328,-1.699059 -11.35129 0.8733908,-2.213106 -10.58527 1.533624,-2.483421 -9.814274 2.044343,-2.751396 -9.056057 2.574473,-1.625467 -9.290127 1.673765,-1.74072 -8.325018 2.494276,-1.741273 -7.834945 3.046452,-1.71044 -7.341896 3.398823,-1.075836 -9.191916 1.522895,-1.017947 -8.239544 2.451161,-1.017947 -8.239544 2.451161,-0.8561726 -7.331832 3.495989,-0.6137266 -9.331758 1.417987,-0.4616437 -8.484829 2.230268,-0.3969369 -8.099815 2.836727,-0.3484516 -7.800075 3.269684,-0.2166777 -9.687237 1.339932,0.005057812 -8.936893 1.91417,0.04725313 -8.666412 2.354042,0.05850506 -8.531265 2.701553,-7.946074 -9.086143 0.008985845,-7.357225 -8.488529 0.2482119,-6.918801 -7.513547 0.4584009,-6.651226 -6.621764 0.7173946,-6.332134 -6.064514 0.9906223,-7.513922 -5.929119 0.1763263,-7.440882 -4.714191 0.357712,-7.411448 -3.982663 0.5477129,-7.40806 -3.357923 0.6778894,-7.909301 -5.876882 0.2717414,-7.947914 -4.488441 0.3961673,-7.965229 -3.596616 0.6109022,-7.99645 -2.84203 0.7815561,-8.260382 -6.094305 0.4024979,-8.346451 -4.819932 0.5376817,-8.36548 -4.01803 0.6825265,-8.372402 -3.32723 0.7978228,-8.590742 -6.532111 0.566367,-8.766927 -5.617001 0.7192634,-8.850409 -5.031803 0.8486178,-8.900224 -4.446943 0.9363946,7.310,9 9 0
-0.9541149 -11.60576 0.09432586,-1.701983 -11.35794 1.084785,-2.217373 -10.59434 1.749705,-2.492023 -9.827372 2.268453,-2.764358 -9.097857 2.812148,-1.63306 -9.256807 1.885874,-1.7295 -8.283726 2.718023,-1.727485 -7.802923 3.282467,-1.696962 -7.349525 3.646549,-1.084374 -9.164316 1.743908,-1.000134 -8.200439 2.688995,-1.000134 -8.200439 2.688995,-0.843854 -7.372022 3.722441,-0.6224489 -9.317055 1.646553,-0.4556446 -8.456976 2.459606,-0.3923678 -8.09206 3.059179,-0.353919 -7.85326 3.480175,-0.2213755 -9.691208 1.579934,0.005788803 -8.942865 2.16091,0.03971863 -8.691343 2.606425,0.0349617 -8.602076 2.955063,-7.963753 -9.103018 0.01280513,-7.376381 -8.52409 0.2683879,-6.942571 -7.546899 0.4885768,-6.678331 -6.666467 0.7559754,-6.360673 -6.121763 1.042101,-7.536903 -5.942237 0.1871065,-7.462498 -4.728082 0.370974,-7.433659 -3.996555 0.5658684,-7.432518 -3.375637 0.6971053,-7.931948 -5.89289 0.2790672,-7.972362 -4.508604 0.3991204,-7.989811 -3.613786 0.6139947,-8.024035 -2.857694 0.7816814,-8.281524 -6.109511 0.4071068,-8.370056 -4.846056 0.5319371,-8.387209 -4.049992 0.6700011,-8.396164 -3.367267 0.7808598,-8.610632 -6.542334 0.5754884,-8.789692 -5.627815 0.7232755,-8.874102 -5.047008 0.8443791,-8.927547 -4.470407 0.9244567,7.410,9 9 0
-0.945384 -11.56639 0.02001601,-1.689191 -11.3311 1.021978,-2.203753 -10.56639 1.68882,-2.46917 -9.80126 2.21602,-2.738007 -9.060368 2.771267,-1.618094 -9.231657 1.79447,-1.714559 -8.253729 2.633511,-1.722465 -7.796243 3.225675,-1.701532 -7.384773 3.619737,-1.070276 -9.142569 1.658098,-0.9859228 -8.19578 2.6032,-0.9859228 -8.19578 2.6032,-0.8332119 -7.461118 3.69558,-0.6053009 -9.293756 1.569579,-0.4464216 -8.43997 2.390627,-0.3927097 -8.104568 3.000148,-0.3579531 -7.911842 3.424056,-0.1897349 -9.651735 1.512358,0.03526306 -8.876631 2.114481,0.05734634 -8.669186 2.556745,0.04518223 -8.636847 2.891429,-7.973136 -9.098213 -0.04506462,-7.377965 -8.514982 0.1963536,-6.941886 -7.538101 0.4061518,-6.673272 -6.65731 0.667012,-6.347972 -6.118813 0.951396,-7.53631 -5.948789 0.08801107,-7.467942 -4.726327 0.2591031,-7.444407 -3.986399 0.4531339,-7.45102 -3.356592 0.5859033,-7.930432 -5.902007 0.1852376,-7.971836 -4.509988 0.2973984,-7.992119 -3.608113 0.5207922,-8.033203 -2.846473 0.69291,-8.278978 -6.114126 0.3170752,-8.372959 -4.836415 0.4405334,-8.397307 -4.032988 0.5903308,-8.414158 -3.336914 0.7095389,-8.609331 -6.541934 0.4887155,-8.791993 -5.606901 0.6410805,-8.874153 -5.020516 0.7653077,-8.92904 -4.431001 0.8454428,7.510,9 9 0
-0.9309316 -11.51926 -0.04645002,-1.678155 -11.30609 1.002451,-2.202477 -10.5513 1.697668,-2.482543 -9.779259 2.228768,-2.74432 -9.019064 2.772382,-1.588532 -9.280365 1.857603,-1.692109 -8.325994 2.706329,-1.672766 -7.8217 3.264352,-1.616902 -7.321889 3.623374,-1.033689 -9.19733 1.703186,-0.9606609 -8.257061 2.674875,-0.9606609 -8.257061 2.674875,-0.7873411 -7.368733 3.732665,-0.5690923 -9.339417 1.590943,-0.4019485 -8.494604 2.431489,-0.3462596 -8.119888 3.04371,-0.3067775 -7.844676 3.477813,-0.1696529 -9.68791 1.513621,0.0612793 -8.917461 2.104564,0.0865221 -8.678505 2.54888,0.07586527 -8.597578 2.893901,-7.961443 -9.106081 -0.02964549,-7.367382 -8.517487 0.2074522,-6.93398 -7.539506 0.4133182,-6.670581 -6.65599 0.6664017,-6.349753 -6.111808 0.9406154,-7.53088 -5.948898 0.1097618,-7.455689 -4.729179 0.2762313,-7.428379 -3.990011 0.4638271,-7.432094 -3.366744 0.5918212,-7.927481 -5.905601 0.203915,-7.966223 -4.523288 0.3149876,-7.983436 -3.627895 0.5290597,-8.021149 -2.87551 0.6957696,-8.2777 -6.126357 0.3314139,-8.37181 -4.869588 0.4470077,-8.390347 -4.080223 0.5753797,-8.40363 -3.40386 0.678682,-8.607636 -6.563739 0.4996467,-8.788206 -5.65253 0.6402763,-8.870818 -5.072679 0.7554188,-8.92706 -4.493424 0.8324212,7.610,9 9 0
-0.9155407 -11.54271 -0.07264566,-1.669718 -11.27687 0.9642971,-2.177773 -10.50514 1.658409,-2.443984 -9.731478 2.205162,-2.689873 -8.937195 2.783638,-1.558314 -9.263155 1.7606,-1.659871 -8.263695 2.606668,-1.634167 -7.767596 3.17832,-1.576258 -7.307448 3.542654,-0.9992857 -9.187098 1.619602,-0.9114985 -8.22448 2.56059,-0.9114985 -8.22448 2.56059,-0.7257204 -7.369365 3.623765,-0.5338058 -9.334925 1.521698,-0.3545151 -8.464359 2.348716,-0.291554 -8.094728 2.981447,-0.2536445 -7.87676 3.421848,-0.1271029 -9.683815 1.463145,0.1169887 -8.885801 2.059495,0.142889 -8.644257 2.511326,0.1179581 -8.592607 2.850093,-7.96193 -9.102507 0.01319095,-7.363464 -8.513037 0.2530933,-6.925037 -7.530311 0.4553952,-6.655351 -6.640834 0.703567,-6.333635 -6.093139 0.9697535,-7.52322 -5.936479 0.1447795,-7.438824 -4.725978 0.2968897,-7.400724 -3.993576 0.4776722,-7.389661 -3.373725 0.6055386,-7.920219 -5.8892 0.2376467,-7.954452 -4.515913 0.3332756,-7.967257 -3.630291 0.5413899,-7.997933 -2.87927 0.7131867,-8.270092 -6.108578 0.3646354,-8.352082 -4.849668 0.4757653,-8.366596 -4.058526 0.6077601,-8.372927 -3.37107 0.7185845,-8.597977 -6.544496 0.5324667,-8.782415 -5.640583 0.6692672,-8.872153 -5.071451 0.7853433,-8.933235 -4.494504 0.8678056,7.710,9 9 0
-0.8754125 -11.53241 0.4306848,-1.620051 -11.28302 1.522809,-2.132595 -10.50976 2.278066,-2.410282 -9.707872 2.868352,-2.655163 -8.941525 3.491174,-1.493914 -9.115215 2.325414,-1.566556 -8.125164 3.274206,-1.538379 -7.694406 3.975579,-1.500501 -7.417254 4.444433,-0.9339933 -9.04084 2.18107,-0.8175068 -8.01564 3.246342,-0.8175068 -8.01564 3.246342,-0.7119207 -7.593645 4.444458,-0.465477 -9.214359 2.087864,-0.26124 -8.29038 2.990406,-0.2261539 -8.106016 3.634457,-0.2254505 -8.118769 4.052831,-0.05835056 -9.620186 2.046432,0.2131128 -8.850004 2.706092,0.2223506 -8.753897 3.194054,0.1782594 -8.841742 3.548626,-7.947859 -9.093414 -0.08549403,-7.360304 -8.50773 0.1673353,-6.927369 -7.533865 0.3837644,-6.659943 -6.656637 0.6500551,-6.343796 -6.101217 0.9417071,-7.520384 -5.958134 0.07849674,-7.440267 -4.740142 0.2667881,-7.403282 -4.001237 0.4687442,-7.398305 -3.374152 0.6071187,-7.911525 -5.911849 0.1843273,-7.953739 -4.530034 0.3146199,-7.969792 -3.624351 0.5406789,-8.004713 -2.855876 0.7181046,-8.258615 -6.129566 0.3278917,-8.34817 -4.868935 0.4708414,-8.366009 -4.062563 0.6255447,-8.374455 -3.362452 0.7480329,-8.587008 -6.564787 0.5111957,-8.769953 -5.648857 0.6817329,-8.856308 -5.061586 0.8174534,-8.910869 -4.468696 0.9100423,7.810,31  1
