TiagoOliveira98/Thesis-Project/Difficulty_1/Motor_Task/Unity_Project/DataLogging/JointData/Logs(1647318539)_Tiago_Motor.csv
WRIST,THUMB_CMC,THUMB_MCP,THUMB_IP,THUMB_TIP,INDEX_FINGER_MCP,INDEX_FINGER_PIP,INDEX_FINGER_DIP,INDEX_FINGER_TIP,MIDDLE_FINGER_MCP,MIDDLE_FINGER_PIP,MIDDLE_FINGER_DIP,MIDDLE_FINGER_TIP,RING_FINGER_MCP,RING_FINGER_PIP,RING_FINGER_DIP,RING_FINGER_TIP,PINKY_MCP,PINKY_PIP,PINKY_DIP,PINKY_TIP,WRIST2,THUMB_CMC2,THUMB_MCP2,THUMB_IP2,THUMB_TIP2,INDEX_FINGER_MCP2,INDEX_FINGER_PIP2,INDEX_FINGER_DIP2,INDEX_FINGER_TIP2,MIDDLE_FINGER_MCP2,MIDDLE_FINGER_PIP2,MIDDLE_FINGER_DIP2,MIDDLE_FINGER_TIP2,RING_FINGER_MCP2,RING_FINGER_PIP2,RING_FINGER_DIP2,RING_FINGER_TIP2,PINKY_MCP2,PINKY_PIP2,PINKY_DIP2,PINKY_TIP2,Timestamp,Event
-1.685465 -8.350132 5.171186E-05,-2.321608 -8.037651 0.3667204,-2.906161 -7.392402 0.5883031,-3.317675 -6.714976 0.8122151,-3.655273 -6.185592 1.086231,-2.429142 -5.685997 0.1706585,-2.63027 -4.607389 0.3753878,-2.741349 -3.97072 0.5498443,-2.838122 -3.383053 0.6752141,-2.068496 -5.46419 0.2168684,-2.207489 -4.23942 0.4156788,-2.207489 -4.23942 0.4156788,-2.366982 -2.695611 0.7678533,-1.708263 -5.492677 0.3196693,-1.763482 -4.320333 0.5284685,-1.838161 -3.521234 0.7475026,-1.918912 -2.851265 0.9129965,-1.345756 -5.737036 0.4906743,-1.299456 -4.758966 0.6612803,-1.316242 -4.086301 0.8270384,-1.353139 -3.470283 0.9970103,-7.915837 -8.610613 0.0009142617,-7.31445 -8.151037 0.17102,-6.785906 -7.237768 0.3533154,-6.420678 -6.455986 0.6091155,-6.041101 -6.010076 0.9038494,-7.236219 -5.598361 0.06643116,-7.109669 -4.43181 0.1736705,-7.061054 -3.715061 0.3238003,-7.026889 -3.101191 0.4327775,-7.595004 -5.456882 0.1821857,-7.492523 -4.138595 0.256385,-7.43462 -3.288191 0.4576724,-7.395323 -2.560268 0.6299742,-7.943996 -5.564982 0.327575,-7.897855 -4.346628 0.405889,-7.853875 -3.576042 0.5092272,-7.801404 -2.933036 0.6047004,-8.300171 -5.896429 0.5023807,-8.374519 -4.91892 0.6233062,-8.388741 -4.296716 0.7221122,-8.382144 -3.716809 0.7961667,0.010,4  0
-1.678528 -8.347145 -0.05802931,-2.31776 -8.034683 0.3093802,-2.903641 -7.40595 0.5251191,-3.310211 -6.730193 0.740497,-3.642769 -6.192392 1.004326,-2.430041 -5.70203 0.1179265,-2.629607 -4.631799 0.3130168,-2.740774 -4.002332 0.4832488,-2.838854 -3.414939 0.6090894,-2.072749 -5.479646 0.1608513,-2.211233 -4.252805 0.3565031,-2.211233 -4.252805 0.3565031,-2.36677 -2.718729 0.7315216,-1.714709 -5.505903 0.25789,-1.773543 -4.337483 0.459704,-1.850804 -3.55103 0.6795661,-1.932001 -2.89115 0.8530116,-1.351517 -5.740951 0.4206961,-1.30271 -4.765661 0.5850903,-1.316646 -4.098863 0.7538623,-1.350052 -3.486966 0.9283919,-7.939293 -8.615499 0.05197717,-7.325968 -8.130838 0.2209908,-6.78988 -7.224573 0.395235,-6.418936 -6.4435 0.6374826,-6.036014 -5.981482 0.9179077,-7.241 -5.595035 0.1056186,-7.11265 -4.443421 0.2164439,-7.064594 -3.723992 0.3711092,-7.026555 -3.104789 0.4859024,-7.596521 -5.44863 0.2190307,-7.487202 -4.152302 0.3011068,-7.43361 -3.304496 0.5154663,-7.391753 -2.570848 0.7006907,-7.946488 -5.553302 0.3619828,-7.886243 -4.34015 0.4532571,-7.846601 -3.570203 0.5763078,-7.789756 -2.931088 0.6915487,-8.305269 -5.885648 0.5334877,-8.372481 -4.928229 0.6600865,-8.386361 -4.314805 0.7728714,-8.370058 -3.743085 0.8669842,0.110,4  0
-1.674946 -8.327738 -0.1682881,-2.316918 -8.032129 0.1668048,-2.909333 -7.397468 0.3675238,-3.321096 -6.719647 0.575489,-3.662922 -6.207641 0.8320725,-2.43729 -5.717164 -0.03320447,-2.641774 -4.624192 0.1797373,-2.752161 -3.980702 0.3624988,-2.846741 -3.381655 0.487182,-2.088419 -5.493148 0.02598673,-2.230723 -4.261709 0.236222,-2.230723 -4.261709 0.236222,-2.385932 -2.717639 0.6130037,-1.72872 -5.508779 0.1464206,-1.793336 -4.337537 0.3635476,-1.866388 -3.551463 0.5810118,-1.941384 -2.874528 0.7487809,-1.356754 -5.730947 0.3286375,-1.307072 -4.756471 0.5019246,-1.314044 -4.100177 0.6662444,-1.33735 -3.484414 0.8413016,-7.933806 -8.600233 -0.01644748,-7.318716 -8.113453 0.1480418,-6.778126 -7.220612 0.3246468,-6.399082 -6.45041 0.5689918,-6.02182 -5.991149 0.8535752,-7.237827 -5.597134 0.04683785,-7.111135 -4.437305 0.1706418,-7.065141 -3.712331 0.3308517,-7.028625 -3.095998 0.4461513,-7.591369 -5.453843 0.165552,-7.485168 -4.145971 0.2573675,-7.433851 -3.295053 0.472342,-7.395445 -2.561121 0.6585774,-7.940117 -5.562488 0.3133496,-7.884676 -4.341383 0.4159121,-7.846645 -3.567316 0.5408111,-7.79402 -2.920846 0.6565412,-8.2957 -5.897833 0.487859,-8.369963 -4.938308 0.6172001,-8.390994 -4.321345 0.7263746,-8.383719 -3.739654 0.8171881,0.210,4  0
-1.662886 -8.324087 -0.2358855,-2.304304 -8.069136 0.1871529,-2.901172 -7.472209 0.4359408,-3.301023 -6.815372 0.6653034,-3.628651 -6.28384 0.9350187,-2.429826 -5.742492 0.06921023,-2.624787 -4.639511 0.3063773,-2.729462 -4.005169 0.500484,-2.813984 -3.419689 0.6458526,-2.075424 -5.521048 0.08982071,-2.215827 -4.273289 0.3243218,-2.215827 -4.273289 0.3243218,-2.353123 -2.717283 0.7241327,-1.714154 -5.549599 0.1699346,-1.781996 -4.355356 0.4083065,-1.84769 -3.562093 0.6418329,-1.913284 -2.865702 0.8317447,-1.342514 -5.784036 0.3138366,-1.294872 -4.800117 0.5113326,-1.30021 -4.141433 0.6932124,-1.321836 -3.516538 0.8825051,-7.938776 -8.605627 -0.0896717,-7.336771 -8.132795 0.05060133,-6.809896 -7.262286 0.2118425,-6.449011 -6.505851 0.4488369,-6.072194 -6.060873 0.7219912,-7.232089 -5.63438 -0.01152129,-7.112537 -4.454833 0.1121743,-7.070011 -3.725617 0.2704053,-7.037992 -3.100081 0.3823331,-7.58316 -5.484146 0.1302163,-7.487367 -4.163631 0.2296658,-7.43929 -3.317102 0.4437985,-7.403959 -2.595792 0.6252203,-7.93265 -5.584489 0.3017102,-7.879178 -4.350224 0.4156374,-7.842862 -3.581348 0.5585743,-7.790466 -2.938152 0.6937885,-8.293914 -5.910305 0.4934529,-8.375607 -4.945836 0.6443263,-8.400273 -4.325582 0.771282,-8.391683 -3.739789 0.8756023,0.310,4  0
-1.67791 -8.330318 -0.2286072,-2.318344 -8.063171 0.1640559,-2.906303 -7.472516 0.3820568,-3.299665 -6.800008 0.5835993,-3.630774 -6.281119 0.8236451,-2.422551 -5.744187 0.03857821,-2.609998 -4.655813 0.2527097,-2.712012 -4.021015 0.4298408,-2.805996 -3.419235 0.5597782,-2.064967 -5.517406 0.05891174,-2.199485 -4.281398 0.2901322,-2.199485 -4.281398 0.2901322,-2.335613 -2.726053 0.7006654,-1.702727 -5.544105 0.1352819,-1.773887 -4.382179 0.3536975,-1.840049 -3.598055 0.5823504,-1.9099 -2.931174 0.7726829,-1.328032 -5.783065 0.2691154,-1.28477 -4.809028 0.46622,-1.293131 -4.160715 0.6609772,-1.324051 -3.558221 0.8504293,-7.921648 -8.634235 0.005090626,-7.324824 -8.15547 0.1751862,-6.796634 -7.262538 0.3586352,-6.426912 -6.475497 0.6102389,-6.033773 -6.003601 0.9057063,-7.238263 -5.641319 0.08192227,-7.121472 -4.47919 0.2004379,-7.080974 -3.751952 0.3575477,-7.052968 -3.130456 0.475321,-7.596755 -5.480505 0.2002127,-7.491861 -4.191324 0.2856558,-7.440567 -3.345618 0.4978431,-7.403039 -2.623919 0.6859921,-7.951691 -5.576241 0.3497779,-7.892483 -4.362535 0.4419376,-7.855331 -3.598142 0.5656588,-7.803575 -2.966205 0.6882662,-8.319498 -5.904487 0.5264826,-8.390108 -4.932552 0.6582434,-8.404416 -4.310747 0.7700713,-8.390777 -3.73106 0.8643743,0.410,4  0
-1.657488 -8.380003 -0.2043924,-2.297612 -8.113384 0.2035988,-2.881971 -7.508501 0.4340887,-3.276504 -6.842187 0.6482623,-3.604912 -6.311819 0.9008061,-2.400737 -5.782819 0.07295263,-2.601377 -4.681563 0.2874506,-2.712237 -4.036829 0.4669573,-2.802959 -3.438842 0.6048997,-2.046355 -5.561346 0.09328756,-2.190663 -4.312154 0.310496,-2.190663 -4.312154 0.310496,-2.33793 -2.760134 0.6995952,-1.684043 -5.588979 0.1710104,-1.757034 -4.401983 0.3874409,-1.831741 -3.604586 0.6174674,-1.90766 -2.916128 0.8100041,-1.311187 -5.819854 0.3100793,-1.263254 -4.842128 0.4961311,-1.275928 -4.185005 0.6816533,-1.309323 -3.570677 0.8729519,-7.925968 -8.657562 -0.06621127,-7.332286 -8.180944 0.1131574,-6.815428 -7.286468 0.3064398,-6.453485 -6.515356 0.5669854,-6.069175 -6.052628 0.8714667,-7.255937 -5.675292 0.05609722,-7.13798 -4.506036 0.1921022,-7.098387 -3.777331 0.3618356,-7.07259 -3.140719 0.4902608,-7.613289 -5.527387 0.1885914,-7.516141 -4.232257 0.2980822,-7.467907 -3.38138 0.5311141,-7.433643 -2.64648 0.738408,-7.966617 -5.637189 0.3492123,-7.916991 -4.416078 0.4695456,-7.876613 -3.646594 0.6203042,-7.824736 -3.001844 0.7638705,-8.335034 -5.974964 0.5378172,-8.414752 -5.009255 0.6983224,-8.432975 -4.388923 0.8236495,-8.424143 -3.799162 0.9258726,0.510,4  0
-1.605254 -8.45924 -0.1656882,-2.256135 -8.184635 0.2516974,-2.845587 -7.583375 0.4639667,-3.248362 -6.90052 0.6538411,-3.571859 -6.385883 0.8742092,-2.364196 -5.862615 0.1461546,-2.55745 -4.755792 0.3560359,-2.66065 -4.100827 0.5277054,-2.754681 -3.480327 0.6651679,-1.996606 -5.632029 0.1530555,-2.138768 -4.374574 0.3785402,-2.138768 -4.374574 0.3785402,-2.29394 -2.810541 0.7631819,-1.626997 -5.665817 0.2201156,-1.704609 -4.483539 0.4383247,-1.772038 -3.695293 0.6740639,-1.8448 -3.018803 0.8738428,-1.251705 -5.916788 0.3475235,-1.21088 -4.963819 0.5496433,-1.228816 -4.335186 0.7458151,-1.275173 -3.7551 0.9339581,-7.950755 -8.725397 -0.01732329,-7.349624 -8.284355 0.1931684,-6.827822 -7.365639 0.3914546,-6.45895 -6.565465 0.6514854,-6.061734 -6.109829 0.9532664,-7.286517 -5.727979 0.102979,-7.16775 -4.556939 0.2118482,-7.12612 -3.830842 0.3526636,-7.099021 -3.221726 0.4598326,-7.651316 -5.576768 0.1959475,-7.551772 -4.278837 0.2783476,-7.50208 -3.436515 0.4693711,-7.472167 -2.723885 0.6415672,-8.006503 -5.687484 0.3214592,-7.962131 -4.491129 0.4136975,-7.926799 -3.72993 0.5183808,-7.883446 -3.097155 0.6198086,-8.372534 -6.029323 0.4801113,-8.458371 -5.07397 0.6062278,-8.484989 -4.474666 0.7133247,-8.490602 -3.904294 0.8030878,0.610,4  0
-1.507178 -8.634495 -0.07088361,-2.177419 -8.366655 0.2773192,-2.764081 -7.676416 0.4569008,-3.15914 -6.95048 0.6237027,-3.488888 -6.434962 0.8186007,-2.264301 -6.007087 0.209268,-2.451551 -4.877381 0.4062653,-2.557628 -4.213834 0.5489832,-2.654535 -3.603739 0.6632812,-1.894943 -5.779409 0.2488853,-2.032125 -4.502805 0.4826019,-2.032125 -4.502805 0.4826019,-2.209319 -2.939892 0.8215827,-1.521208 -5.820777 0.3492328,-1.590549 -4.595935 0.5794346,-1.65217 -3.77984 0.796953,-1.729405 -3.077696 0.9981233,-1.14179 -6.101638 0.5007317,-1.08976 -5.145076 0.7102472,-1.100195 -4.497264 0.9029487,-1.145272 -3.911241 1.08839,-8.017548 -8.856384 -0.1261971,-7.433492 -8.383087 0.1379326,-6.925268 -7.495157 0.3776813,-6.551291 -6.713734 0.6515697,-6.150337 -6.257668 0.9693843,-7.385794 -5.901141 0.196997,-7.258763 -4.703367 0.3647981,-7.200642 -3.986157 0.5265775,-7.159865 -3.344205 0.6609602,-7.749181 -5.757475 0.2949831,-7.648653 -4.438569 0.4721612,-7.58246 -3.587215 0.7056066,-7.532803 -2.842027 0.9140992,-8.103596 -5.883338 0.425521,-8.053198 -4.666654 0.5986559,-7.995764 -3.875543 0.7747533,-7.926972 -3.208598 0.9279897,-8.474998 -6.233767 0.5779786,-8.55929 -5.282981 0.7962373,-8.582104 -4.665319 0.96306,-8.577737 -4.089237 1.084973,0.710,4  0
-1.325064 -8.793282 -0.06737644,-2.016109 -8.586527 0.3678335,-2.592181 -7.863437 0.5942779,-2.985727 -7.111114 0.7826011,-3.332169 -6.552528 0.9861093,-2.120018 -6.216077 0.4432104,-2.310629 -5.04421 0.6884274,-2.413755 -4.367989 0.8716684,-2.507137 -3.754506 1.012301,-1.731193 -5.963556 0.4200581,-1.86775 -4.690105 0.6743057,-1.86775 -4.690105 0.6743057,-2.046771 -3.104247 1.055054,-1.340232 -5.983154 0.4477845,-1.433042 -4.779377 0.6679182,-1.505832 -3.986626 0.8825942,-1.585804 -3.265459 1.107313,-0.9445348 -6.236218 0.5305249,-0.9245405 -5.234319 0.7435598,-0.9498615 -4.598909 0.9313819,-1.000291 -4.003269 1.116234,-8.180594 -8.966923 -0.2578791,-7.575578 -8.559679 0.0008944869,-7.047318 -7.676708 0.2371163,-6.667419 -6.881418 0.4906816,-6.285229 -6.404415 0.7727239,-7.506569 -6.08559 0.08050442,-7.395619 -4.893085 0.2907988,-7.338477 -4.209746 0.4973388,-7.290313 -3.566329 0.6694276,-7.86537 -5.915673 0.1984776,-7.775993 -4.602922 0.4217396,-7.705666 -3.748094 0.7059786,-7.639363 -2.976376 0.9421734,-8.225304 -6.014219 0.3454006,-8.172387 -4.772892 0.5361198,-8.106171 -3.980355 0.7563562,-8.0185 -3.298715 0.9467423,-8.605768 -6.333752 0.5052241,-8.70021 -5.363852 0.7439053,-8.722904 -4.715044 0.9287493,-8.715037 -4.111379 1.063029,0.810,4  0
-0.932672 -9.260599 -0.378278,-1.615993 -9.086292 -0.02561617,-2.191776 -8.356337 0.1196088,-2.559408 -7.604612 0.2455059,-2.92102 -7.067106 0.3831345,-1.682518 -6.696264 0.05034095,-1.876329 -5.486253 0.2339315,-1.965262 -4.7972 0.3968314,-2.026085 -4.154067 0.5399305,-1.296338 -6.509777 0.07284504,-1.42663 -5.176103 0.3283032,-1.42663 -5.176103 0.3283032,-1.530428 -3.645358 0.7777427,-0.9160814 -6.582637 0.1288123,-1.002571 -5.355815 0.3731364,-1.057738 -4.581577 0.6336452,-1.114945 -3.859282 0.8906912,-0.5287585 -6.869309 0.2299997,-0.5052977 -5.869789 0.488746,-0.5181389 -5.268375 0.7181447,-0.5522237 -4.711568 0.9451076,-8.472006 -9.355774 -0.3817263,-7.872162 -8.950901 -0.133844,-7.364108 -8.052164 0.07495227,-7.007366 -7.239553 0.3081227,-6.645348 -6.699475 0.5562901,-7.841615 -6.481174 -0.1406279,-7.749866 -5.276603 0.04727113,-7.692969 -4.597482 0.233472,-7.642282 -3.970751 0.3930022,-8.197869 -6.325334 -0.006385714,-8.120706 -4.983967 0.1942647,-8.052976 -4.121471 0.4813465,-7.977748 -3.36442 0.7132934,-8.552983 -6.459634 0.1671042,-8.515265 -5.163411 0.3560838,-8.442146 -4.334757 0.6141807,-8.333537 -3.628911 0.8358843,-8.930494 -6.827032 0.3527102,-9.047444 -5.840908 0.5816393,-9.063888 -5.192077 0.7856395,-9.037498 -4.605785 0.9371505,0.910,4  0
-0.8478289 -9.533951 -0.525009,-1.534708 -9.356091 -0.117557,-2.07093 -8.663198 0.05684012,-2.404734 -7.928485 0.1886349,-2.718313 -7.369533 0.3079202,-1.527778 -7.002657 -0.03141904,-1.697039 -5.754665 0.1840059,-1.782883 -5.021883 0.3620716,-1.831224 -4.361969 0.5066682,-1.143612 -6.823991 -0.03777006,-1.249464 -5.432575 0.2175031,-1.249464 -5.432575 0.2175031,-1.34028 -3.803398 0.6653852,-0.7702932 -6.897333 -0.01084077,-0.8292084 -5.618762 0.2060857,-0.8875513 -4.800153 0.4475768,-0.9360623 -4.062931 0.7025274,-0.3935213 -7.18659 0.0711959,-0.3525982 -6.146083 0.294533,-0.359549 -5.516233 0.515541,-0.3914576 -4.935691 0.7368637,-8.596825 -9.612972 -0.4997093,-7.983033 -9.176348 -0.2461772,-7.496887 -8.305357 -0.01644105,-7.180601 -7.498817 0.2426794,-6.854379 -6.934501 0.5093035,-7.968176 -6.746233 -0.1772784,-7.892425 -5.484689 0.03059262,-7.84276 -4.768833 0.2020573,-7.797121 -4.133964 0.3271182,-8.336217 -6.623779 -0.06248882,-8.275924 -5.210793 0.1699756,-8.212611 -4.330387 0.4430459,-8.145938 -3.575717 0.664085,-8.692093 -6.772424 0.08549511,-8.665385 -5.448967 0.2950399,-8.599702 -4.612174 0.519753,-8.503925 -3.90837 0.7079412,-9.060792 -7.130477 0.2364173,-9.156551 -6.107973 0.4529465,-9.153591 -5.465134 0.6342442,-9.109191 -4.876994 0.760098,1.010,4  0
-0.7833242 -10.32884 -0.4755287,-1.451502 -10.24958 0.1213958,-1.961063 -9.637516 0.4345026,-2.296011 -8.934443 0.6757909,-2.614896 -8.389914 0.9020491,-1.467029 -7.812129 0.1505361,-1.641462 -6.58323 0.4059346,-1.724091 -5.835841 0.6103262,-1.771646 -5.171628 0.7662227,-1.067128 -7.613433 0.06633973,-1.165299 -6.233257 0.3117337,-1.165299 -6.233257 0.3117337,-1.242917 -4.633558 0.7759873,-0.6870389 -7.691932 0.05471218,-0.7274046 -6.424181 0.2546195,-0.7778101 -5.610939 0.5159718,-0.8276548 -4.879797 0.7792151,-0.3191614 -8.014626 0.09428149,-0.2348623 -7.007701 0.325438,-0.2189674 -6.389281 0.566466,-0.2379551 -5.793783 0.7920574,-8.824064 -10.26423 -0.6568156,-8.206864 -9.831852 -0.3889206,-7.721493 -8.92522 -0.1875721,-7.398175 -8.119541 0.04423624,-7.032807 -7.617046 0.2972901,-8.193813 -7.409288 -0.3380363,-8.134521 -6.12255 -0.1313574,-8.109622 -5.369905 0.03317052,-8.096362 -4.727115 0.1418569,-8.574767 -7.315365 -0.2496732,-8.547258 -5.885733 -0.02536708,-8.52172 -5.019601 0.2319725,-8.505197 -4.281789 0.420733,-8.93489 -7.486402 -0.126318,-8.935953 -6.165772 0.09604871,-8.904595 -5.337328 0.29866,-8.851241 -4.642593 0.4639935,-9.302822 -7.868999 0.003400326,-9.413333 -6.885393 0.2465854,-9.432391 -6.261333 0.435904,-9.417137 -5.685177 0.5693715,1.110,4  0
-0.8079329 -10.63856 -0.07736796,-1.484578 -10.47293 0.4776275,-2.009352 -9.810804 0.7711585,-2.345458 -9.131447 1.011613,-2.657719 -8.604641 1.252935,-1.4964 -8.004763 0.5125778,-1.674872 -6.839901 0.8008186,-1.759644 -6.120918 1.023168,-1.806643 -5.469184 1.188788,-1.102274 -7.80677 0.4593299,-1.202251 -6.478067 0.7344963,-1.202251 -6.478067 0.7344963,-1.281313 -4.861008 1.204163,-0.7205687 -7.901815 0.4748674,-0.759326 -6.670135 0.7271873,-0.8077636 -5.844146 1.004067,-0.8562989 -5.114327 1.268767,-0.3407459 -8.253708 0.5404727,-0.2585478 -7.27577 0.7971684,-0.2437005 -6.642354 1.05165,-0.2607965 -6.042987 1.292141,-8.852526 -10.49382 -0.4962615,-8.243576 -10.05301 -0.2191551,-7.758595 -9.14904 -0.01300767,-7.435825 -8.335808 0.2274003,-7.086201 -7.817342 0.4949168,-8.22529 -7.593174 -0.2231036,-8.171356 -6.350895 -0.01858768,-8.156378 -5.610868 0.1587222,-8.153049 -4.962804 0.2772124,-8.607046 -7.490507 -0.1499282,-8.578103 -6.10097 0.04918456,-8.554784 -5.243667 0.3057206,-8.548717 -4.501947 0.496693,-8.967097 -7.666351 -0.03756303,-8.972717 -6.383975 0.1660748,-8.94943 -5.579502 0.3639797,-8.918389 -4.897144 0.533735,-9.341303 -8.061798 0.08792257,-9.440091 -7.093256 0.3254756,-9.461858 -6.475395 0.5120423,-9.457896 -5.901058 0.6451917,1.210,4  0
-0.789927 -11.05388 0.4261532,-1.441129 -10.84841 1.031734,-2.022394 -10.19347 1.358707,-2.404807 -9.527662 1.62605,-2.738919 -9.002991 1.917082,-1.502819 -8.2994 1.044696,-1.672122 -7.134709 1.324417,-1.740633 -6.427888 1.547306,-1.795346 -5.787645 1.723286,-1.090137 -8.077082 0.9706771,-1.194546 -6.773937 1.233873,-1.194546 -6.773937 1.233873,-1.289329 -5.174551 1.65681,-0.7017584 -8.169493 0.9726156,-0.7414846 -6.945352 1.251891,-0.7846274 -6.110797 1.539739,-0.8429384 -5.38976 1.793016,-0.3116474 -8.539644 1.033081,-0.2263517 -7.582275 1.311073,-0.2053552 -6.94544 1.555488,-0.226675 -6.357234 1.779424,-8.834768 -10.87228 -0.1748657,-8.230482 -10.37833 0.09151885,-7.749104 -9.458797 0.2881973,-7.429289 -8.629423 0.5213242,-7.089438 -8.100235 0.7750193,-8.251962 -7.870494 0.05485125,-8.198401 -6.635272 0.2351095,-8.192208 -5.895428 0.4104243,-8.198689 -5.259342 0.5308443,-8.64359 -7.766593 0.1144101,-8.615967 -6.399435 0.2826554,-8.61067 -5.571061 0.5229561,-8.629958 -4.841392 0.7017369,-9.009619 -7.944883 0.2093079,-9.010564 -6.677989 0.3790323,-8.995606 -5.903019 0.5540472,-8.988081 -5.248462 0.7040399,-9.381914 -8.348261 0.3216167,-9.480778 -7.398725 0.5094947,-9.513941 -6.805738 0.662717,-9.53337 -6.246477 0.7775674,1.310,4  0
-0.7720084 -11.18861 0.4425626,-1.425783 -10.91878 0.9866892,-2.004568 -10.24565 1.278169,-2.373295 -9.5392 1.519801,-2.688571 -8.988482 1.776092,-1.464595 -8.401058 0.9735863,-1.633204 -7.227005 1.250958,-1.698648 -6.52324 1.468722,-1.752335 -5.879466 1.644351,-1.056269 -8.192604 0.911102,-1.153949 -6.889791 1.165525,-1.153949 -6.889791 1.165525,-1.232259 -5.302557 1.550695,-0.6723585 -8.285872 0.9247354,-0.7088985 -7.069772 1.181229,-0.7415161 -6.255861 1.436802,-0.788969 -5.548203 1.661692,-0.2832232 -8.645975 0.994809,-0.1975765 -7.69289 1.255507,-0.1675882 -7.073822 1.483582,-0.1741886 -6.499357 1.688321,-8.846969 -11.04564 -0.1396486,-8.230532 -10.54131 0.1272861,-7.755566 -9.633652 0.3363579,-7.44067 -8.797457 0.576707,-7.107687 -8.253759 0.8329351,-8.261735 -8.046259 0.1010264,-8.200842 -6.800731 0.29061,-8.197745 -6.059249 0.4745052,-8.207537 -5.416376 0.5992426,-8.654506 -7.930674 0.1575068,-8.626661 -6.553672 0.3374211,-8.621903 -5.715832 0.5857776,-8.640731 -4.980836 0.7728045,-9.022529 -8.093445 0.2483354,-9.028615 -6.822443 0.4216468,-9.013524 -6.04626 0.5981808,-9.00309 -5.397126 0.7503695,-9.395742 -8.482153 0.355404,-9.499595 -7.521677 0.5523087,-9.533739 -6.908925 0.714212,-9.55406 -6.332807 0.8345923,1.410,4  0
-0.7082539 -11.37428 0.4308319,-1.373556 -11.09876 0.9699786,-1.962971 -10.40697 1.262661,-2.351824 -9.682636 1.507034,-2.712641 -9.141857 1.791583,-1.434877 -8.598288 0.9471517,-1.604075 -7.42418 1.240917,-1.655888 -6.708682 1.477838,-1.685555 -6.041556 1.663972,-1.017031 -8.382795 0.8909354,-1.112173 -7.071508 1.14128,-1.112173 -7.071508 1.14128,-1.140004 -5.469749 1.51298,-0.6184497 -8.474928 0.9092367,-0.6418734 -7.256057 1.154341,-0.6603003 -6.437133 1.410784,-0.6827364 -5.727764 1.631654,-0.216269 -8.831985 0.9833018,-0.1339254 -7.878879 1.238604,-0.103055 -7.271001 1.458825,-0.09768152 -6.706826 1.656348,-8.891652 -11.40154 -0.1227017,-8.286948 -10.89234 0.1715474,-7.815548 -9.975863 0.3914486,-7.506932 -9.131704 0.6401527,-7.178168 -8.589781 0.905205,-8.321303 -8.39015 0.147319,-8.273312 -7.135377 0.3306509,-8.266417 -6.395294 0.5052528,-8.272304 -5.756011 0.6256903,-8.71089 -8.28244 0.1892608,-8.688115 -6.884977 0.3553198,-8.67581 -6.033287 0.5812632,-8.682767 -5.285397 0.7520192,-9.072837 -8.454702 0.2639295,-9.093078 -7.1777 0.4321124,-9.080122 -6.408363 0.5948406,-9.065738 -5.761224 0.7345493,-9.439028 -8.851454 0.3588495,-9.552553 -7.892663 0.5581778,-9.590832 -7.278739 0.7140883,-9.612195 -6.706063 0.8215934,1.510,4  0
-0.7000208 -11.43895 0.45904,-1.359706 -11.1551 1.009356,-1.962766 -10.46402 1.323857,-2.399502 -9.770548 1.587345,-2.821198 -9.306105 1.908252,-1.428997 -8.670446 1.032535,-1.583611 -7.491659 1.344651,-1.630351 -6.77346 1.589638,-1.658087 -6.111701 1.7862,-1.013517 -8.447865 0.9692224,-1.107919 -7.139644 1.223638,-1.107919 -7.139644 1.223638,-1.140055 -5.540227 1.578041,-0.6149373 -8.539341 0.9762769,-0.6463971 -7.319442 1.237943,-0.670579 -6.501037 1.482633,-0.7012486 -5.790338 1.67914,-0.2093 -8.904514 1.039541,-0.1293354 -7.962068 1.305273,-0.0926733 -7.356611 1.513659,-0.07794905 -6.79252 1.700613,-8.850741 -11.50972 -0.047398,-8.252844 -10.96614 0.2570193,-7.791895 -10.06675 0.4942968,-7.488088 -9.236732 0.7585892,-7.161136 -8.697199 1.0493,-8.331413 -8.468636 0.2688249,-8.283227 -7.233188 0.4859743,-8.281386 -6.497027 0.6837842,-8.292882 -5.860687 0.8175329,-8.722875 -8.371769 0.3146706,-8.711504 -6.980999 0.5099242,-8.707278 -6.132484 0.7532736,-8.722334 -5.388891 0.9355879,-9.081811 -8.553772 0.3949681,-9.109468 -7.293523 0.5826374,-9.103343 -6.534406 0.7582085,-9.101338 -5.901199 0.9047405,-9.440233 -8.956335 0.5019256,-9.553024 -8.000683 0.7162279,-9.590023 -7.382306 0.8734985,-9.614071 -6.806592 0.9809051,1.610,4  0
-0.7047038 -11.63133 0.48056,-1.367461 -11.33281 1.019739,-1.965144 -10.61851 1.318308,-2.353691 -9.86418 1.56886,-2.706575 -9.279848 1.8464,-1.430262 -8.852982 1.041443,-1.596 -7.658475 1.371858,-1.65319 -6.941004 1.629423,-1.696775 -6.256073 1.831596,-1.017907 -8.6353 0.9981616,-1.112089 -7.315628 1.289508,-1.112089 -7.315628 1.289508,-1.160006 -5.689579 1.703852,-0.6217937 -8.72419 1.030078,-0.6520834 -7.499301 1.313323,-0.6801176 -6.672004 1.583171,-0.7161465 -5.944063 1.815531,-0.2144156 -9.08341 1.110316,-0.1259661 -8.134411 1.385363,-0.09235668 -7.520639 1.624085,-0.08733273 -6.95294 1.844351,-8.85676 -11.60387 -0.01810981,-8.257622 -11.05712 0.2628939,-7.788903 -10.14121 0.4850058,-7.473079 -9.306829 0.7398138,-7.134353 -8.772888 1.013525,-8.318237 -8.544706 0.2353176,-8.2716 -7.310226 0.4334843,-8.273964 -6.563097 0.6205623,-8.289938 -5.92216 0.7474652,-8.707788 -8.453697 0.3002338,-8.702455 -7.060974 0.475157,-8.707972 -6.209426 0.7061039,-8.733329 -5.460418 0.8843508,-9.067068 -8.641886 0.4057991,-9.096265 -7.38084 0.5810342,-9.099171 -6.603175 0.7520516,-9.105396 -5.942916 0.8983762,-9.425188 -9.057749 0.5343975,-9.550652 -8.102547 0.7489308,-9.596384 -7.477203 0.910056,-9.627653 -6.884519 1.025693,1.710,4  0
-0.7524667 -11.70419 0.523322,-1.402383 -11.39293 1.060452,-1.98484 -10.67957 1.370918,-2.363573 -9.936968 1.644291,-2.696549 -9.358612 1.930289,-1.461695 -8.882967 1.098984,-1.62082 -7.684724 1.421963,-1.681705 -6.973712 1.650679,-1.723182 -6.300014 1.832014,-1.04941 -8.697729 1.061769,-1.136026 -7.358721 1.373949,-1.136026 -7.358721 1.373949,-1.181051 -5.7551 1.795538,-0.6573067 -8.810213 1.105108,-0.6787114 -7.583599 1.402476,-0.7122884 -6.764221 1.669502,-0.7459917 -6.051958 1.892446,-0.2537298 -9.176067 1.191936,-0.1619081 -8.222761 1.461879,-0.1275654 -7.604848 1.698306,-0.1165466 -7.025888 1.915583,-8.834404 -11.72878 0.0768503,-8.231544 -11.16632 0.3248906,-7.765175 -10.21758 0.5369673,-7.457802 -9.357536 0.7836566,-7.124253 -8.805305 1.059083,-8.313547 -8.638512 0.3182709,-8.263412 -7.41883 0.508682,-8.263169 -6.676794 0.6973398,-8.278885 -6.039335 0.8274315,-8.702661 -8.551319 0.4026755,-8.697755 -7.157502 0.572144,-8.697922 -6.294541 0.8118064,-8.714867 -5.542387 1.001637,-9.061036 -8.745113 0.5218186,-9.093486 -7.478864 0.69512,-9.094522 -6.690498 0.8673019,-9.097076 -6.020256 1.015651,-9.416036 -9.167608 0.6621734,-9.545452 -8.215183 0.872853,-9.597911 -7.593145 1.025213,-9.633893 -6.998857 1.134898,1.810,4  0
-0.7864037 -11.74568 0.5801411,-1.4253 -11.41908 1.136438,-2.023396 -10.70392 1.478919,-2.435889 -10.00131 1.781947,-2.816413 -9.486609 2.118294,-1.486049 -8.919516 1.216155,-1.645381 -7.735684 1.568451,-1.717188 -7.026949 1.808357,-1.775606 -6.352661 1.993918,-1.073804 -8.734995 1.188244,-1.161293 -7.402011 1.540211,-1.161293 -7.402011 1.540211,-1.23093 -5.790964 2.002216,-0.6837339 -8.849895 1.238469,-0.7058172 -7.622773 1.582666,-0.7429724 -6.811338 1.871469,-0.7852345 -6.093177 2.101811,-0.2844534 -9.211071 1.332235,-0.192791 -8.256998 1.63799,-0.162508 -7.635503 1.888294,-0.1627293 -7.035614 2.107064,-8.800291 -11.74714 0.05686418,-8.21209 -11.1618 0.2751642,-7.751826 -10.20792 0.4767512,-7.443568 -9.349163 0.7194251,-7.108245 -8.804655 0.9970552,-8.302865 -8.652586 0.2772834,-8.253033 -7.424117 0.4627742,-8.251478 -6.674623 0.6569842,-8.265855 -6.033382 0.7944252,-8.691609 -8.573668 0.3741942,-8.683775 -7.16702 0.5471231,-8.68161 -6.292242 0.7916291,-8.698318 -5.530891 0.9836522,-9.052089 -8.772984 0.5030214,-9.085088 -7.500877 0.6759832,-9.083639 -6.705049 0.8431765,-9.085665 -6.025753 0.9839065,-9.410031 -9.19997 0.6514606,-9.541398 -8.241198 0.859302,-9.596473 -7.611003 1.005761,-9.636202 -7.008134 1.108771,1.910,4  0
-0.8682117 -12.01869 1.480436,-1.570518 -11.68033 1.973154,-2.087551 -10.88398 2.282926,-2.469662 -10.18823 2.58668,-2.914355 -9.717972 2.943278,-1.673058 -8.924936 1.939324,-1.838487 -7.744943 2.287287,-1.896853 -6.986454 2.506955,-1.959861 -6.286615 2.676358,-1.2719 -8.738464 1.978144,-1.376217 -7.411552 2.29789,-1.376217 -7.411552 2.29789,-1.489166 -5.774162 2.668212,-0.8711195 -8.843939 2.094947,-0.9066172 -7.605879 2.405967,-0.9289141 -6.806418 2.632212,-0.998054 -6.056979 2.763479,-0.4589815 -9.228436 2.255471,-0.3858833 -8.311121 2.574876,-0.3302832 -7.709495 2.748001,-0.3214746 -7.056425 2.873113,-8.788169 -11.65535 0.1055931,-8.195343 -11.05908 0.36186,-7.732321 -10.09745 0.5778266,-7.424965 -9.242899 0.835773,-7.097368 -8.673899 1.119955,-8.283803 -8.554697 0.3581575,-8.218241 -7.302372 0.5702093,-8.210029 -6.541242 0.7742059,-8.222128 -5.877182 0.9109651,-8.668799 -8.472218 0.4607469,-8.659125 -7.055146 0.6392296,-8.657703 -6.185041 0.8718748,-8.66425 -5.435591 1.050871,-9.030011 -8.660692 0.5980033,-9.046804 -7.347475 0.7894619,-9.04995 -6.530031 0.9791443,-9.042641 -5.823939 1.131609,-9.392487 -9.069599 0.7593117,-9.518125 -8.095465 0.9813308,-9.579536 -7.455993 1.137343,-9.614813 -6.837138 1.248081,2.010,4  0
-1.034739 -11.90694 1.299947,-1.709869 -11.52396 1.681578,-2.298873 -10.71419 1.949484,-2.686742 -10.04836 2.245694,-3.076897 -9.620996 2.576771,-1.788001 -8.814262 1.710986,-1.970944 -7.646373 2.072823,-2.081768 -6.970901 2.276542,-2.186419 -6.334571 2.413317,-1.398597 -8.674932 1.798442,-1.509125 -7.392716 2.175789,-1.509125 -7.392716 2.175789,-1.623925 -5.895172 2.588066,-1.015191 -8.810757 1.962803,-1.032717 -7.624113 2.334266,-1.08368 -6.892076 2.591761,-1.13096 -6.194837 2.778338,-0.6261163 -9.191612 2.159774,-0.5449038 -8.258198 2.506827,-0.5398145 -7.64028 2.745402,-0.5451193 -7.017763 2.936608,-8.752507 -11.60242 0.07271987,-8.169325 -10.99659 0.344511,-7.705323 -10.04113 0.5779327,-7.395304 -9.189878 0.8513133,-7.069911 -8.609228 1.151459,-8.256566 -8.516499 0.3663035,-8.184446 -7.259514 0.6016883,-8.171177 -6.504767 0.8196376,-8.178877 -5.842767 0.9650048,-8.63858 -8.433861 0.4726309,-8.625775 -6.999303 0.6814303,-8.621109 -6.119783 0.9241104,-8.624211 -5.358808 1.101134,-8.999166 -8.618126 0.6149616,-9.013964 -7.283836 0.831346,-9.011355 -6.448609 1.031295,-8.996943 -5.732734 1.187561,-9.364323 -9.022572 0.7841364,-9.494519 -8.019075 1.022087,-9.557693 -7.355052 1.184795,-9.592547 -6.715677 1.297042,2.110,4  0
-1.317058 -11.67344 0.8131727,-2.010635 -11.332 1.227611,-2.600047 -10.56628 1.507504,-2.970955 -9.853699 1.795376,-3.312376 -9.31094 2.099625,-2.16341 -8.77758 1.30662,-2.395072 -7.617774 1.676906,-2.534312 -6.945758 1.904687,-2.659126 -6.314634 2.07176,-1.765741 -8.602858 1.362151,-1.907328 -7.317093 1.75793,-1.907328 -7.317093 1.75793,-2.094908 -5.738564 2.252883,-1.366923 -8.70146 1.499136,-1.42552 -7.510025 1.864541,-1.520899 -6.737335 2.149825,-1.597699 -6.031255 2.372671,-0.9568024 -9.035307 1.655889,-0.9020519 -8.078377 1.976587,-0.9306307 -7.441537 2.23792,-0.9628463 -6.836123 2.445732,-8.72616 -11.39609 0.06801047,-8.103053 -10.82219 0.3387719,-7.621407 -9.855196 0.5608487,-7.302666 -9.012571 0.8229467,-6.95876 -8.462217 1.105823,-8.166495 -8.335827 0.3749952,-8.082924 -7.079519 0.6209911,-8.060937 -6.338226 0.8380186,-8.062244 -5.681552 0.9829295,-8.546944 -8.234053 0.4845139,-8.524613 -6.799383 0.7094665,-8.521412 -5.926433 0.9648181,-8.520837 -5.166162 1.155792,-8.908922 -8.39324 0.6289082,-8.91899 -7.062868 0.8619801,-8.923722 -6.229133 1.079757,-8.907735 -5.511346 1.25922,-9.27769 -8.772318 0.7977442,-9.397912 -7.773515 1.048931,-9.462279 -7.126709 1.225859,-9.491113 -6.513771 1.360636,2.210,4  0
-1.467233 -11.56682 0.7796279,-2.172174 -11.28234 1.183241,-2.749656 -10.45307 1.428452,-3.096394 -9.697245 1.685991,-3.432052 -9.148285 1.954928,-2.327288 -8.680145 1.143113,-2.529583 -7.5431 1.479857,-2.64699 -6.858757 1.695225,-2.753708 -6.203546 1.855793,-1.936913 -8.489269 1.202827,-2.073524 -7.236427 1.544326,-2.073524 -7.236427 1.544326,-2.256626 -5.684929 2.006414,-1.536131 -8.579649 1.348109,-1.595691 -7.38759 1.672915,-1.686381 -6.614373 1.93857,-1.765028 -5.892468 2.156277,-1.116324 -8.923027 1.524267,-1.073681 -7.947711 1.810371,-1.103088 -7.307493 2.056983,-1.131866 -6.687726 2.259408,-8.685266 -11.16994 -0.00443761,-8.071781 -10.63112 0.2576806,-7.585865 -9.689081 0.4801327,-7.261361 -8.860191 0.73974,-6.92353 -8.336761 1.02694,-8.104283 -8.148247 0.3020086,-8.013988 -6.899632 0.5486799,-7.99775 -6.167225 0.7743704,-8.006886 -5.516555 0.9270242,-8.488777 -8.030018 0.4137906,-8.453539 -6.582371 0.6376112,-8.445387 -5.693613 0.8912044,-8.443401 -4.918945 1.092207,-8.85778 -8.186266 0.5567544,-8.85701 -6.830688 0.801108,-8.85835 -5.982275 1.021907,-8.842676 -5.242641 1.210656,-9.234272 -8.571867 0.7237669,-9.351128 -7.578193 0.9710459,-9.418862 -6.930195 1.149497,-9.452217 -6.294873 1.301106,2.310,4  0
-1.698684 -11.35084 0.627507,-2.391677 -11.08819 0.9545771,-2.958 -10.28221 1.168128,-3.291061 -9.523283 1.409609,-3.633684 -8.98665 1.666563,-2.508294 -8.492767 0.8968892,-2.704866 -7.339916 1.180805,-2.824493 -6.692203 1.326465,-2.928612 -6.072649 1.431621,-2.134899 -8.30644 1.003193,-2.264187 -7.017377 1.325082,-2.264187 -7.017377 1.325082,-2.438233 -5.480265 1.701073,-1.756879 -8.41753 1.1901,-1.810838 -7.186948 1.546695,-1.894074 -6.390058 1.801926,-1.957427 -5.66815 2.003739,-1.360461 -8.785479 1.410065,-1.300247 -7.807401 1.724686,-1.314243 -7.15913 1.986113,-1.328892 -6.539902 2.201548,-8.672627 -10.66179 -0.1216868,-8.023685 -10.16858 0.1479975,-7.533095 -9.251545 0.4015319,-7.204726 -8.453873 0.6890973,-6.840486 -7.933365 1.004434,-8.029625 -7.677819 0.2727029,-7.949429 -6.408994 0.5338699,-7.920102 -5.664034 0.7712442,-7.90936 -4.994855 0.9288038,-8.425051 -7.575093 0.3996952,-8.399249 -6.121612 0.6575349,-8.380725 -5.221761 0.9230864,-8.370709 -4.438502 1.130976,-8.79755 -7.729017 0.5474743,-8.811218 -6.382782 0.8110355,-8.798004 -5.530031 1.031284,-8.77313 -4.788053 1.208191,-9.171836 -8.084839 0.7164213,-9.278191 -7.072431 0.9835272,-9.322164 -6.404863 1.150361,-9.334699 -5.754589 1.280094,2.410,4  0
-1.785544 -11.26238 0.5388045,-2.472353 -11.01564 0.8526144,-3.030029 -10.19011 1.052437,-3.347904 -9.421734 1.284441,-3.690264 -8.879953 1.526494,-2.578192 -8.43675 0.8219246,-2.788364 -7.271816 1.108911,-2.920658 -6.625976 1.245862,-3.033825 -6.018322 1.337047,-2.208029 -8.244392 0.9348433,-2.355627 -6.938957 1.271365,-2.355627 -6.938957 1.271365,-2.547196 -5.38269 1.635378,-1.834846 -8.348824 1.124838,-1.895099 -7.107286 1.495899,-1.976767 -6.29343 1.745606,-2.044662 -5.561897 1.948268,-1.445 -8.715984 1.346017,-1.391041 -7.731138 1.671603,-1.406182 -7.069516 1.937991,-1.425251 -6.435359 2.159248,-8.69173 -10.26539 0.1760588,-8.040961 -9.777166 0.4163938,-7.524444 -8.860729 0.6681849,-7.194954 -8.04627 0.9565657,-6.846879 -7.537784 1.271786,-7.984045 -7.213659 0.4887536,-7.887477 -6.005693 0.7125822,-7.85946 -5.239151 0.929307,-7.850857 -4.543663 1.084388,-8.385973 -7.085326 0.6188748,-8.328637 -5.726734 0.820201,-8.313366 -4.845918 1.015951,-8.30299 -4.078001 1.180967,-8.770307 -7.20249 0.7742019,-8.744533 -5.908023 0.9805443,-8.723531 -5.098304 1.141695,-8.687335 -4.374694 1.272882,-9.161274 -7.526323 0.957979,-9.236421 -6.520614 1.132111,-9.272923 -5.865905 1.245884,-9.276048 -5.208182 1.346812,2.510,4  0
-1.746686 -11.33177 0.5186157,-2.424551 -11.10351 0.8925628,-2.991219 -10.29366 1.082223,-3.317281 -9.496809 1.275607,-3.659008 -8.917601 1.46965,-2.543902 -8.543839 0.8669959,-2.7762 -7.398836 1.149374,-2.91784 -6.735738 1.288992,-3.040358 -6.11297 1.395536,-2.168384 -8.321869 0.9326672,-2.329455 -7.033674 1.251094,-2.329455 -7.033674 1.251094,-2.557174 -5.490441 1.630694,-1.795383 -8.409216 1.077247,-1.86318 -7.171318 1.425915,-1.958506 -6.352977 1.682922,-2.051069 -5.641025 1.897844,-1.401969 -8.765877 1.258532,-1.338644 -7.807945 1.568486,-1.360847 -7.151096 1.826572,-1.40629 -6.53489 2.04473,-8.735852 -9.827433 0.01083353,-8.084516 -9.355824 0.2945198,-7.558718 -8.489952 0.5519465,-7.214793 -7.720424 0.84225,-6.850658 -7.195941 1.148822,-8.009 -6.838575 0.378032,-7.903065 -5.630964 0.6023825,-7.872421 -4.916156 0.8058048,-7.861951 -4.270006 0.9429036,-8.398475 -6.702299 0.4797125,-8.337422 -5.347429 0.6667514,-8.322023 -4.511922 0.8986249,-8.310394 -3.791257 1.081066,-8.776536 -6.8165 0.6097126,-8.762495 -5.537328 0.8074841,-8.750212 -4.743567 1.001557,-8.727915 -4.068827 1.148444,-9.169298 -7.137097 0.7655798,-9.249626 -6.161039 0.9782975,-9.287277 -5.503262 1.129164,-9.298389 -4.880213 1.243295,2.610,4  0
-1.735207 -11.35929 0.4990638,-2.414589 -11.11652 0.87894,-2.973902 -10.31772 1.068391,-3.293233 -9.522278 1.261759,-3.625511 -8.944502 1.459572,-2.52489 -8.567347 0.8052806,-2.761232 -7.429003 1.094197,-2.902867 -6.774569 1.240343,-3.024824 -6.153827 1.34881,-2.145427 -8.347366 0.8662699,-2.309747 -7.070918 1.180163,-2.309747 -7.070918 1.180163,-2.532527 -5.531141 1.567584,-1.768341 -8.435928 1.009033,-1.841049 -7.219207 1.345218,-1.934093 -6.411027 1.608465,-2.02925 -5.710552 1.828277,-1.369727 -8.790878 1.191719,-1.300526 -7.848593 1.498813,-1.317821 -7.195764 1.763809,-1.363211 -6.587739 1.987308,-8.75802 -9.681118 0.02835313,-8.117046 -9.210253 0.305594,-7.588299 -8.340174 0.5404937,-7.248983 -7.58168 0.814469,-6.885689 -7.063394 1.101137,-8.036431 -6.676744 0.3255193,-7.908001 -5.492328 0.5401371,-7.864379 -4.791162 0.7373725,-7.841996 -4.151357 0.8789126,-8.435889 -6.538849 0.4215425,-8.38349 -5.234634 0.5830792,-8.375546 -4.448982 0.8047929,-8.370407 -3.780391 0.979696,-8.816963 -6.639276 0.5532424,-8.803395 -5.410696 0.7418634,-8.79929 -4.656781 0.9369506,-8.780212 -4.022357 1.082384,-9.210802 -6.94794 0.7120419,-9.296152 -6.010834 0.9078028,-9.333753 -5.386021 1.056611,-9.336444 -4.786638 1.169039,2.710,4  0
-1.678102 -11.36541 0.467594,-2.344374 -11.15755 0.8750939,-2.900139 -10.35645 1.08203,-3.221629 -9.552992 1.2901,-3.573158 -8.979738 1.503817,-2.467277 -8.597322 0.8408601,-2.699 -7.454509 1.143015,-2.8429 -6.792228 1.304231,-2.975715 -6.173068 1.430698,-2.091922 -8.37052 0.8908445,-2.257828 -7.097097 1.232802,-2.257828 -7.097097 1.232802,-2.49792 -5.550209 1.632354,-1.717394 -8.449728 1.026469,-1.795088 -7.230788 1.383737,-1.899225 -6.415725 1.644321,-2.006272 -5.693647 1.868497,-1.322622 -8.793001 1.200836,-1.261842 -7.844133 1.518698,-1.284466 -7.191679 1.7815,-1.333304 -6.576517 2.009379,-8.779219 -9.405731 -0.02756522,-8.150936 -8.946463 0.250848,-7.655718 -8.030518 0.4830416,-7.337689 -7.271142 0.7546632,-6.975471 -6.735752 1.039347,-8.134641 -6.351329 0.170068,-8.011978 -5.192331 0.3452665,-7.967622 -4.516282 0.5425982,-7.936282 -3.904585 0.6896002,-8.545607 -6.260294 0.2588223,-8.525138 -5.090886 0.4127054,-8.528497 -4.476833 0.6252626,-8.532851 -4.015699 0.7727844,-8.92332 -6.37872 0.4033209,-8.948657 -5.251152 0.5675672,-8.954509 -4.60419 0.7600539,-8.95056 -4.072718 0.8868999,-9.297003 -6.698291 0.5754792,-9.386723 -5.787281 0.7347225,-9.419749 -5.192893 0.8622804,-9.422565 -4.614849 0.9578201,2.810,4  0
-1.657208 -11.37705 0.4356494,-2.3298 -11.16502 0.8658828,-2.896502 -10.36916 1.082755,-3.221119 -9.563534 1.29408,-3.554409 -8.974648 1.509311,-2.463881 -8.621037 0.83559,-2.688454 -7.473815 1.150813,-2.826274 -6.809701 1.324822,-2.95287 -6.172176 1.459505,-2.082173 -8.395428 0.8752042,-2.237354 -7.113639 1.216835,-2.237354 -7.113639 1.216835,-2.462548 -5.5688 1.625399,-1.705196 -8.48118 1.00112,-1.774199 -7.262405 1.354784,-1.872569 -6.46282 1.618541,-1.971134 -5.748917 1.843409,-1.309343 -8.83074 1.166059,-1.236897 -7.895305 1.485806,-1.251353 -7.256536 1.751461,-1.289795 -6.650165 1.974761,-8.832911 -9.222052 -0.2323633,-8.212435 -8.793919 0.1142882,-7.718083 -7.8842 0.3760134,-7.381926 -7.109479 0.649843,-7.01039 -6.538089 0.9381804,-8.193239 -6.231334 0.01235192,-8.075764 -5.059907 0.2073294,-8.050113 -4.374622 0.4571652,-8.040442 -3.778539 0.6474103,-8.604509 -6.137418 0.07744637,-8.601403 -4.969461 0.325083,-8.649146 -4.404546 0.6564977,-8.695891 -4.101614 0.8932049,-8.985472 -6.272119 0.2034244,-9.02645 -5.18238 0.4118724,-9.04114 -4.598535 0.7039496,-9.048754 -4.205638 0.9063278,-9.361503 -6.59748 0.3597555,-9.437782 -5.721117 0.5502501,-9.467126 -5.163844 0.7483063,-9.46712 -4.639485 0.9049733,2.910,4  0
-1.61235 -11.44202 0.5310812,-2.274374 -11.22667 1.003397,-2.83801 -10.43773 1.248185,-3.158394 -9.630381 1.480079,-3.49768 -9.014858 1.713087,-2.409902 -8.673347 0.9897961,-2.636532 -7.523963 1.32461,-2.770456 -6.862274 1.517556,-2.897723 -6.226137 1.663579,-2.025446 -8.437601 1.014008,-2.185545 -7.155077 1.376583,-2.185545 -7.155077 1.376583,-2.4057 -5.598567 1.799693,-1.647579 -8.515474 1.128839,-1.72076 -7.302612 1.49697,-1.818875 -6.499712 1.764928,-1.921558 -5.774273 1.997919,-1.249434 -8.854151 1.287331,-1.193485 -7.909954 1.612245,-1.213411 -7.267396 1.879719,-1.258032 -6.654367 2.104487,-8.997609 -9.025211 -0.4020606,-8.397064 -8.64642 0.06912249,-7.918871 -7.757669 0.350939,-7.586535 -6.968814 0.6101145,-7.251831 -6.334301 0.8689233,-8.423711 -6.100432 -0.06032264,-8.293803 -4.942957 0.1151746,-8.29273 -4.251799 0.3100366,-8.315551 -3.665549 0.4732597,-8.840159 -5.987602 -0.06685683,-8.852424 -4.864793 0.2458745,-8.97983 -4.442724 0.649788,-9.098537 -4.391931 0.9628428,-9.215473 -6.158165 -0.006740361,-9.283831 -5.120462 0.2833977,-9.357028 -4.743865 0.7063556,-9.401521 -4.720973 1.017124,-9.584038 -6.536667 0.0857276,-9.672724 -5.725017 0.3773695,-9.707441 -5.274977 0.7423422,-9.697013 -5.023044 1.041605,3.010,4  0
-1.579726 -11.488 0.5609827,-2.246245 -11.27686 1.020446,-2.817823 -10.47561 1.244595,-3.148359 -9.650164 1.460619,-3.489263 -9.024683 1.679767,-2.397206 -8.716248 0.9749223,-2.632936 -7.570396 1.297293,-2.768437 -6.896057 1.483161,-2.890201 -6.248353 1.627253,-2.013202 -8.470686 0.9977314,-2.180995 -7.187824 1.338031,-2.180995 -7.187824 1.338031,-2.407918 -5.62257 1.738677,-1.636125 -8.538021 1.115571,-1.717747 -7.321014 1.461378,-1.824352 -6.509391 1.730581,-1.926667 -5.782177 1.960816,-1.235929 -8.869535 1.272481,-1.183147 -7.921691 1.578059,-1.201803 -7.273765 1.846834,-1.240024 -6.664827 2.072195,-9.062446 -9.013491 -0.569252,-8.479912 -8.65427 -0.06338078,-8.034294 -7.751992 0.2115105,-7.727065 -6.933441 0.449993,-7.375063 -6.316385 0.688706,-8.522021 -6.135293 -0.2120984,-8.422688 -4.968576 -0.01586491,-8.428656 -4.251474 0.1956052,-8.47223 -3.687353 0.3676839,-8.936125 -6.020945 -0.2485907,-8.967747 -4.867792 0.09152579,-9.08448 -4.453022 0.4960938,-9.199322 -4.499454 0.7957324,-9.304269 -6.181198 -0.2129842,-9.396846 -5.110523 0.1227177,-9.468857 -4.79225 0.5669622,-9.516118 -4.91412 0.8706902,-9.66485 -6.549535 -0.1504665,-9.78186 -5.701486 0.1861461,-9.826556 -5.295791 0.5702852,-9.830376 -5.188028 0.8620598,3.110,4  0
-1.568458 -11.52665 0.6202523,-2.229037 -11.31668 1.064028,-2.79508 -10.51277 1.287306,-3.114756 -9.702641 1.504769,-3.458958 -9.10215 1.721131,-2.39018 -8.73695 1.02685,-2.62031 -7.596792 1.352831,-2.754861 -6.930634 1.538014,-2.877404 -6.282306 1.676212,-2.011043 -8.494173 1.062385,-2.169861 -7.227901 1.418799,-2.169861 -7.227901 1.418799,-2.388855 -5.68551 1.821048,-1.635748 -8.56259 1.191234,-1.712463 -7.356824 1.543215,-1.815022 -6.560772 1.804952,-1.916345 -5.841497 2.028157,-1.236148 -8.887911 1.360368,-1.182542 -7.941133 1.66959,-1.199423 -7.286462 1.932247,-1.235131 -6.665744 2.151242,-9.136732 -9.083794 -0.612213,-8.553967 -8.72617 -0.09096366,-8.118635 -7.815492 0.1964275,-7.842116 -6.988315 0.4328966,-7.502866 -6.387866 0.6585351,-8.662726 -6.184873 -0.2519562,-8.592937 -5.040589 -0.000277102,-8.619188 -4.340457 0.2557134,-8.667629 -3.787499 0.4525123,-9.083492 -6.101846 -0.287801,-9.146567 -4.906662 0.1525332,-9.23378 -4.688385 0.5889508,-9.292331 -4.91237 0.8757271,-9.453086 -6.28317 -0.2475395,-9.553144 -5.169626 0.1446973,-9.594659 -4.988327 0.576178,-9.603883 -5.231132 0.8427126,-9.812284 -6.678808 -0.1780459,-9.942523 -5.794693 0.2050033,-9.957242 -5.462305 0.6027184,-9.926846 -5.477823 0.8760642,3.210,4  0
-1.559205 -11.56799 0.5902811,-2.228074 -11.33163 1.009123,-2.788463 -10.50523 1.219594,-3.102822 -9.68858 1.431106,-3.457378 -9.130659 1.646985,-2.370352 -8.763718 0.9852542,-2.605142 -7.608511 1.307369,-2.738421 -6.937561 1.485956,-2.855124 -6.28952 1.621981,-1.991381 -8.542156 1.028159,-2.152822 -7.261953 1.385049,-2.152822 -7.261953 1.385049,-2.364947 -5.707102 1.801552,-1.614743 -8.624098 1.161284,-1.696739 -7.416045 1.526126,-1.797893 -6.614135 1.788499,-1.892334 -5.891098 2.009447,-1.217094 -8.957859 1.330224,-1.163572 -8.007822 1.652114,-1.177308 -7.361373 1.917491,-1.206706 -6.741117 2.136953,-9.353986 -9.368898 -0.4370514,-8.76155 -8.967438 0.1593207,-8.36215 -8.067371 0.4831538,-8.120929 -7.233188 0.7557766,-7.800175 -6.596145 1.018305,-8.898057 -6.410686 -0.0159291,-8.846303 -5.270372 0.2134493,-8.903236 -4.551095 0.4584571,-8.96664 -3.983753 0.651956,-9.318378 -6.338613 -0.09219164,-9.433542 -5.15389 0.3613491,-9.55321 -5.101436 0.8525357,-9.607691 -5.415826 1.169975,-9.682116 -6.49605 -0.1051011,-9.829396 -5.392112 0.3189214,-9.901963 -5.431051 0.7410631,-9.907855 -5.845457 0.9773216,-10.026 -6.848726 -0.08100691,-10.1826 -5.943473 0.2963224,-10.20431 -5.764595 0.6286402,-10.16944 -5.958041 0.8506763,3.310,4  0
-1.575481 -11.57682 0.6069564,-2.237989 -11.32413 1.018245,-2.790628 -10.4916 1.234845,-3.106294 -9.693249 1.460676,-3.45435 -9.135422 1.698889,-2.383775 -8.755238 0.9857374,-2.618576 -7.602087 1.325849,-2.75216 -6.937963 1.51857,-2.870275 -6.292188 1.66345,-2.00474 -8.545494 1.043344,-2.161337 -7.275491 1.409501,-2.161337 -7.275491 1.409501,-2.374963 -5.731645 1.810274,-1.629157 -8.635719 1.195341,-1.710443 -7.427619 1.567647,-1.814947 -6.631198 1.827307,-1.91051 -5.906301 2.042721,-1.232911 -8.977915 1.382559,-1.180226 -8.021132 1.709115,-1.199109 -7.367195 1.970918,-1.229028 -6.737629 2.184415,-9.379436 -9.514315 -0.366871,-8.792964 -9.110678 0.2405443,-8.410177 -8.16958 0.5587017,-8.195051 -7.305404 0.8301095,-7.878155 -6.6382 1.09679,-8.968913 -6.503974 -0.02103409,-8.948307 -5.37959 0.1947669,-9.022978 -4.660712 0.4529704,-9.096719 -4.093292 0.6612072,-9.387426 -6.456117 -0.09685734,-9.535125 -5.284506 0.3333647,-9.662663 -5.256828 0.8247119,-9.711084 -5.596093 1.131714,-9.747737 -6.644786 -0.1003869,-9.927883 -5.547675 0.3200009,-10.00548 -5.640966 0.7429274,-10.00813 -6.102376 0.9712166,-10.08971 -7.025257 -0.06449196,-10.25933 -6.119005 0.3130029,-10.2857 -5.972871 0.6333145,-10.253 -6.204803 0.8397746,3.410,4  0
-1.598387 -11.59669 0.5709665,-2.251989 -11.34122 0.9855072,-2.800772 -10.50811 1.20792,-3.117681 -9.716106 1.438733,-3.462269 -9.172686 1.681619,-2.39211 -8.789391 0.991758,-2.632554 -7.638774 1.329158,-2.775747 -6.965494 1.524278,-2.907203 -6.31888 1.675701,-2.014215 -8.581081 1.05397,-2.178152 -7.312118 1.431087,-2.178152 -7.312118 1.431087,-2.421067 -5.748062 1.872846,-1.641653 -8.67577 1.207516,-1.724352 -7.466909 1.596366,-1.831519 -6.658022 1.875599,-1.934707 -5.927707 2.109478,-1.250621 -9.023888 1.392363,-1.190279 -8.066778 1.728844,-1.208146 -7.412186 1.995367,-1.241925 -6.786729 2.219383,-9.318937 -9.600372 -0.4284595,-8.711519 -9.209957 0.1850741,-8.328195 -8.276133 0.5432096,-8.108666 -7.442306 0.8586643,-7.801995 -6.757785 1.194536,-8.915474 -6.597333 -0.03672859,-8.891608 -5.512891 0.2105557,-8.963703 -4.803057 0.5404929,-9.040359 -4.239254 0.8097391,-9.342511 -6.567197 -0.08557612,-9.463092 -5.504922 0.3769603,-9.583015 -5.246934 0.9881769,-9.641267 -5.410808 1.420399,-9.716386 -6.766664 -0.06660929,-9.886013 -5.764258 0.3896623,-9.957988 -5.692922 0.9016432,-9.946074 -6.034854 1.214682,-10.0784 -7.147941 -0.003564507,-10.30173 -6.262649 0.4280792,-10.32892 -6.064491 0.7987357,-10.25835 -6.249874 1.049549,3.510,4  0
-1.605805 -11.59664 0.5789847,-2.258637 -11.34402 1.009561,-2.807891 -10.52219 1.2462,-3.128192 -9.732553 1.487948,-3.48127 -9.199106 1.74351,-2.391007 -8.78154 1.029882,-2.627072 -7.631622 1.366336,-2.769492 -6.954916 1.560942,-2.902553 -6.302566 1.713349,-2.010979 -8.580791 1.083747,-2.175582 -7.314028 1.469081,-2.175582 -7.314028 1.469081,-2.421893 -5.753257 1.917752,-1.638818 -8.681377 1.228281,-1.720675 -7.47504 1.614039,-1.832326 -6.667786 1.893725,-1.938818 -5.938931 2.132447,-1.248243 -9.037054 1.406152,-1.190159 -8.083868 1.742852,-1.21002 -7.432495 2.014495,-1.244584 -6.808886 2.248005,-9.262268 -9.51907 -0.7299514,-8.654682 -9.171881 -0.06812698,-8.26744 -8.24795 0.3073652,-8.043242 -7.418476 0.6222349,-7.725649 -6.746822 0.9586122,-8.824911 -6.615736 -0.2527263,-8.782157 -5.536865 0.03691208,-8.850686 -4.813571 0.4070557,-8.933825 -4.241518 0.7079591,-9.264643 -6.579837 -0.3291689,-9.383945 -5.543817 0.1623197,-9.531069 -5.27077 0.7822827,-9.626398 -5.411954 1.218305,-9.644857 -6.758613 -0.3354177,-9.800901 -5.784206 0.1475342,-9.890042 -5.700799 0.6568587,-9.900389 -6.016793 0.9735234,-10.00647 -7.124723 -0.2954792,-10.20973 -6.2934 0.1326563,-10.24849 -6.097604 0.48905,-10.20616 -6.242929 0.7345486,3.610,4  0
-1.567128 -11.57592 0.5889758,-2.226352 -11.36055 1.005241,-2.786017 -10.52641 1.228157,-3.102016 -9.721502 1.449311,-3.467596 -9.197529 1.678573,-2.389314 -8.78063 1.038808,-2.614432 -7.641292 1.370416,-2.746401 -6.968809 1.558614,-2.867512 -6.318307 1.701367,-2.006749 -8.5613 1.089908,-2.163858 -7.308095 1.461205,-2.163858 -7.308095 1.461205,-2.391573 -5.740724 1.892467,-1.626409 -8.652828 1.226993,-1.704951 -7.455743 1.598039,-1.810846 -6.651783 1.851872,-1.911066 -5.918517 2.079363,-1.224164 -8.997723 1.400937,-1.175547 -8.045727 1.720759,-1.195884 -7.398729 1.977344,-1.2328 -6.771005 2.202642,-9.144088 -9.354918 -0.9595726,-8.516641 -9.074211 -0.3209792,-8.142746 -8.185627 0.04077423,-7.958861 -7.360227 0.3511258,-7.666948 -6.664053 0.6927693,-8.667932 -6.532644 -0.5196064,-8.626705 -5.448564 -0.2488061,-8.676751 -4.720937 0.1017143,-8.736794 -4.155967 0.3812333,-9.105947 -6.478526 -0.5857879,-9.217199 -5.45906 -0.1211016,-9.339581 -5.113472 0.4642162,-9.419093 -5.197203 0.883244,-9.488802 -6.646716 -0.5733832,-9.635538 -5.679497 -0.1038682,-9.724986 -5.608272 0.3939794,-9.741783 -5.938587 0.7161167,-9.858386 -6.988611 -0.5157802,-10.04558 -6.102291 -0.1007959,-10.07894 -5.94804 0.2639513,-10.03455 -6.16332 0.5171851,3.710,4  0
-1.574715 -11.60569 0.610183,-2.23124 -11.36731 1.018531,-2.776052 -10.52362 1.231429,-3.085226 -9.710625 1.446861,-3.453173 -9.19141 1.670364,-2.381904 -8.795122 1.035071,-2.610366 -7.660532 1.372272,-2.741342 -6.983089 1.564181,-2.859403 -6.325451 1.71301,-1.998816 -8.578999 1.088404,-2.157078 -7.327726 1.461652,-2.157078 -7.327726 1.461652,-2.380778 -5.767326 1.893642,-1.619102 -8.66881 1.225645,-1.696632 -7.473436 1.596275,-1.801029 -6.677997 1.853634,-1.898666 -5.956705 2.075798,-1.220559 -9.012913 1.399876,-1.166831 -8.062355 1.724855,-1.181791 -7.410367 1.984406,-1.212733 -6.779693 2.203767,-9.107757 -9.285295 -1.009397,-8.477106 -9.021585 -0.3534331,-8.107326 -8.151611 0.01778638,-7.94829 -7.339577 0.3353361,-7.67314 -6.628735 0.6927555,-8.616503 -6.485603 -0.5216563,-8.575038 -5.416729 -0.2234975,-8.624179 -4.705978 0.1436157,-8.680386 -4.157913 0.4402038,-9.061186 -6.430802 -0.5825721,-9.169732 -5.423944 -0.09606928,-9.279927 -5.05558 0.5042378,-9.35226 -5.123224 0.9480164,-9.451195 -6.598066 -0.5627509,-9.588823 -5.623689 -0.08494502,-9.672322 -5.523472 0.419453,-9.683555 -5.832899 0.7626897,-9.829292 -6.939075 -0.4932989,-10.00775 -6.036157 -0.0702098,-10.04124 -5.868732 0.3027006,-9.993545 -6.077297 0.5792223,3.810,4  0
-1.531378 -11.62885 0.613861,-2.191859 -11.39684 1.050465,-2.751171 -10.5752 1.278556,-3.072983 -9.765814 1.502758,-3.435062 -9.228123 1.739452,-2.357253 -8.824249 1.062866,-2.592103 -7.685656 1.409572,-2.725373 -7.003393 1.607949,-2.841989 -6.339157 1.759611,-1.975593 -8.606077 1.105323,-2.134016 -7.352884 1.487084,-2.134016 -7.352884 1.487084,-2.345455 -5.795238 1.924262,-1.595481 -8.695278 1.23701,-1.674554 -7.49487 1.605647,-1.778108 -6.700368 1.872507,-1.873413 -5.976779 2.104888,-1.193421 -9.043987 1.405649,-1.138218 -8.090099 1.730194,-1.152493 -7.442412 1.994188,-1.181495 -6.818864 2.222336,-9.061604 -9.062727 -1.165117,-8.440502 -8.759106 -0.5510198,-8.083747 -7.941076 -0.1693197,-7.953317 -7.165567 0.172678,-7.732763 -6.451411 0.5343801,-8.613155 -6.31878 -0.677518,-8.580222 -5.253891 -0.3856522,-8.608439 -4.52667 -0.02690077,-8.636692 -3.943285 0.244386,-9.054509 -6.256237 -0.7165711,-9.154617 -5.267807 -0.2410424,-9.227591 -4.861043 0.330299,-9.264611 -4.847471 0.7459093,-9.438876 -6.405171 -0.6827162,-9.545093 -5.439138 -0.2446891,-9.59999 -5.319629 0.234923,-9.592447 -5.576408 0.569687,-9.812729 -6.714368 -0.6014636,-9.977718 -5.792285 -0.2253543,-9.986168 -5.6571 0.1135569,-9.91697 -5.880672 0.3681147,3.910,4  0
-1.545156 -11.65803 0.6390226,-2.202854 -11.4085 1.056545,-2.754309 -10.56145 1.282359,-3.073166 -9.752106 1.511162,-3.443268 -9.217051 1.752757,-2.353769 -8.836676 1.097577,-2.585317 -7.686246 1.45276,-2.718981 -6.999257 1.655487,-2.83862 -6.33308 1.812304,-1.971157 -8.628473 1.149783,-2.125534 -7.370555 1.548712,-2.125534 -7.370555 1.548712,-2.350718 -5.791287 2.001137,-1.592145 -8.721193 1.28651,-1.668348 -7.521091 1.666979,-1.780827 -6.721881 1.92805,-1.883622 -5.998117 2.157133,-1.193304 -9.070503 1.456471,-1.132775 -8.109089 1.789015,-1.147751 -7.445642 2.050701,-1.176164 -6.808925 2.276907,-9.084239 -8.942446 -1.301977,-8.449849 -8.695883 -0.6758491,-8.079592 -7.905918 -0.2855809,-7.949502 -7.139032 0.05942893,-7.72588 -6.411904 0.4111102,-8.588801 -6.251954 -0.7898754,-8.567885 -5.191528 -0.477191,-8.598227 -4.49158 -0.1138881,-8.625543 -3.915404 0.161273,-9.029254 -6.179565 -0.8325341,-9.141192 -5.207351 -0.3475091,-9.212421 -4.72273 0.2210767,-9.243113 -4.603714 0.6436085,-9.418478 -6.324897 -0.8012992,-9.546181 -5.380308 -0.359393,-9.59842 -5.192331 0.1009058,-9.581509 -5.361473 0.4285749,-9.799982 -6.637544 -0.7187755,-9.983281 -5.74007 -0.3301453,-9.996126 -5.579168 0.0163641,-9.919858 -5.75674 0.276229,4.010,4  0
-1.536884 -11.67069 0.6413974,-2.191886 -11.43179 1.073009,-2.746998 -10.61116 1.306755,-3.070101 -9.81181 1.537812,-3.430199 -9.271757 1.78255,-2.343835 -8.853912 1.118177,-2.584902 -7.703251 1.464516,-2.726647 -7.015932 1.656553,-2.851625 -6.354977 1.802909,-1.961051 -8.641893 1.161953,-2.128175 -7.366905 1.552132,-2.128175 -7.366905 1.552132,-2.360905 -5.778727 1.987346,-1.582736 -8.735001 1.29159,-1.66479 -7.522874 1.668208,-1.775187 -6.71305 1.930844,-1.876988 -5.98139 2.160015,-1.185093 -9.083305 1.454338,-1.134362 -8.117128 1.775425,-1.154294 -7.464194 2.035301,-1.188287 -6.840684 2.25841,-9.062821 -8.848463 -1.404981,-8.42595 -8.604137 -0.7790542,-8.067217 -7.834973 -0.3902273,-7.947078 -7.088659 -0.05064666,-7.73637 -6.368961 0.3045181,-8.585635 -6.192453 -0.8385465,-8.558928 -5.115415 -0.501684,-8.578584 -4.391527 -0.1090875,-8.588791 -3.803525 0.1922911,-9.027356 -6.124259 -0.8851503,-9.148754 -5.117608 -0.3781017,-9.215178 -4.650011 0.2068431,-9.232018 -4.555367 0.638011,-9.414384 -6.274082 -0.8626828,-9.548947 -5.300191 -0.4225087,-9.600118 -5.092317 0.03722394,-9.58066 -5.240011 0.3683423,-9.790523 -6.589008 -0.7923881,-9.973565 -5.670932 -0.4089534,-9.986275 -5.488618 -0.06178153,-9.908287 -5.642834 0.1985347,4.110,4  0
-1.523398 -11.69664 0.6650313,-2.175168 -11.45948 1.104916,-2.735807 -10.63091 1.337907,-3.061115 -9.829308 1.564833,-3.424138 -9.285112 1.800998,-2.334632 -8.866386 1.126503,-2.566471 -7.715242 1.472126,-2.706794 -7.018412 1.67339,-2.833559 -6.352208 1.831324,-1.952621 -8.657944 1.163604,-2.113738 -7.390111 1.550472,-2.113738 -7.390111 1.550472,-2.342577 -5.801463 2.003303,-1.575537 -8.749908 1.286809,-1.651399 -7.551197 1.660728,-1.757199 -6.747236 1.925216,-1.855521 -6.017714 2.156122,-1.180468 -9.093885 1.446412,-1.12714 -8.139616 1.765199,-1.143357 -7.489685 2.024987,-1.172274 -6.864315 2.246078,-9.047848 -8.690723 -1.520405,-8.399778 -8.477808 -0.8942657,-8.031841 -7.740381 -0.5177782,-7.910691 -7.009288 -0.1937832,-7.722781 -6.296795 0.1301105,-8.553234 -6.073851 -1.000562,-8.521301 -4.995195 -0.6544695,-8.539668 -4.253894 -0.2489681,-8.536612 -3.657675 0.06504357,-8.999677 -5.990762 -1.052413,-9.135728 -4.994113 -0.550585,-9.197618 -4.534711 0.03717649,-9.200768 -4.473638 0.4513295,-9.392796 -6.127795 -1.031069,-9.532157 -5.152197 -0.6021611,-9.569895 -4.947559 -0.1444302,-9.529263 -5.127189 0.1742165,-9.777071 -6.434939 -0.9544999,-9.963873 -5.51945 -0.5788457,-9.964677 -5.346242 -0.2346872,-9.869529 -5.534986 0.009347796,4.210,4  0
-1.523063 -11.72048 0.7079174,-2.18671 -11.47044 1.104048,-2.744523 -10.61743 1.311365,-3.068495 -9.804289 1.524032,-3.440891 -9.263241 1.750524,-2.330136 -8.868807 1.113937,-2.566689 -7.722007 1.453849,-2.707303 -7.037671 1.645983,-2.836048 -6.375947 1.79198,-1.947287 -8.663124 1.172163,-2.097373 -7.403802 1.557654,-2.097373 -7.403802 1.557654,-2.317542 -5.841018 1.996001,-1.569347 -8.76112 1.314133,-1.636941 -7.565177 1.687918,-1.741401 -6.770923 1.955097,-1.841441 -6.053022 2.183337,-1.172458 -9.115711 1.490155,-1.109054 -8.1707 1.815931,-1.122161 -7.522876 2.080154,-1.152059 -6.89723 2.301738,-9.058996 -8.629761 -1.468647,-8.403297 -8.431911 -0.8188037,-8.031521 -7.710613 -0.4262984,-7.900879 -6.981037 -0.08696747,-7.710955 -6.256845 0.258659,-8.544818 -5.99965 -0.9261199,-8.49862 -4.929613 -0.5921207,-8.516942 -4.184762 -0.2029207,-8.522418 -3.591534 0.09123003,-8.991836 -5.918111 -0.9839401,-9.111534 -4.952714 -0.4790502,-9.181284 -4.493518 0.1189119,-9.193958 -4.424978 0.5374182,-9.390958 -6.055606 -0.9665114,-9.515944 -5.101366 -0.513808,-9.559452 -4.953073 -0.0212183,-9.522141 -5.191413 0.309497,-9.780932 -6.357086 -0.8945979,-9.961511 -5.457986 -0.5035076,-9.958026 -5.303567 -0.1427765,-9.853168 -5.514709 0.104542,4.310,4  0
-1.51556 -11.71132 0.7070574,-2.176675 -11.47428 1.120666,-2.74276 -10.62317 1.332774,-3.06929 -9.801783 1.544212,-3.438761 -9.2605 1.767099,-2.332958 -8.871254 1.129651,-2.561767 -7.729967 1.463351,-2.700994 -7.050264 1.653863,-2.831747 -6.389137 1.796692,-1.947891 -8.656216 1.17696,-2.096369 -7.39553 1.55696,-2.096369 -7.39553 1.55696,-2.32299 -5.811719 2.003014,-1.568488 -8.750418 1.307858,-1.636373 -7.560026 1.676695,-1.743866 -6.766823 1.941245,-1.848323 -6.047893 2.170417,-1.170483 -9.101526 1.474487,-1.110282 -8.158348 1.791179,-1.124829 -7.515073 2.049396,-1.157757 -6.891365 2.271705,-9.028682 -8.596924 -1.350228,-8.361055 -8.40107 -0.6808742,-7.980368 -7.664785 -0.2840257,-7.85111 -6.928007 0.06350696,-7.668919 -6.189315 0.4181397,-8.499634 -5.933321 -0.8257487,-8.441972 -4.866849 -0.4793243,-8.460888 -4.130454 -0.05765057,-8.466866 -3.522708 0.2772723,-8.949568 -5.848167 -0.8830608,-9.062112 -4.867074 -0.3655077,-9.127806 -4.371068 0.263315,-9.141798 -4.242676 0.7169456,-9.354286 -5.987012 -0.8626863,-9.475223 -5.005023 -0.39702,-9.507326 -4.797556 0.11113,-9.464015 -4.960336 0.4628152,-9.755415 -6.296001 -0.7866746,-9.92978 -5.387426 -0.3891245,-9.930129 -5.196298 -0.02402747,-9.833849 -5.357183 0.2351519,4.410,4  0
-1.511575 -11.6914 0.6611311,-2.172962 -11.45749 1.061028,-2.73755 -10.61659 1.272415,-3.062567 -9.80324 1.489116,-3.427948 -9.265018 1.717385,-2.331905 -8.860006 1.07691,-2.56766 -7.704087 1.407283,-2.706972 -7.010723 1.594587,-2.830841 -6.346215 1.737915,-1.948393 -8.650263 1.130532,-2.107194 -7.383208 1.506388,-2.107194 -7.383208 1.506388,-2.330246 -5.795918 1.950722,-1.568959 -8.742199 1.265977,-1.645832 -7.546045 1.636753,-1.75395 -6.739139 1.900753,-1.854131 -6.00925 2.131596,-1.172397 -9.088041 1.432879,-1.115175 -8.133808 1.749426,-1.131512 -7.480876 2.008661,-1.16052 -6.853845 2.232376,-9.031608 -8.591852 -1.281076,-8.375129 -8.414824 -0.5661905,-7.998652 -7.689678 -0.1488137,-7.86416 -6.952162 0.1942182,-7.674695 -6.204473 0.5510758,-8.513105 -5.919099 -0.6864954,-8.463884 -4.867347 -0.3362598,-8.479198 -4.1368 0.07906389,-8.477068 -3.556895 0.4035461,-8.965753 -5.83202 -0.7615907,-9.092999 -4.858675 -0.2099646,-9.154544 -4.398651 0.4469048,-9.15771 -4.322364 0.9198096,-9.373293 -5.977974 -0.7631261,-9.501934 -5.024591 -0.2653016,-9.547268 -4.852872 0.2699995,-9.51069 -5.065982 0.6290028,-9.774134 -6.29537 -0.707826,-9.958702 -5.401195 -0.2705493,-9.971054 -5.215734 0.1273019,-9.880153 -5.390213 0.4081118,4.510,4  0
-1.509488 -11.67995 0.6245571,-2.171522 -11.44127 1.014464,-2.737393 -10.59918 1.221107,-3.06864 -9.792917 1.431982,-3.440535 -9.268396 1.65564,-2.318239 -8.854956 1.014861,-2.556307 -7.709275 1.337663,-2.696067 -7.027988 1.517711,-2.820664 -6.368988 1.651032,-1.937442 -8.644743 1.070683,-2.093338 -7.380262 1.439776,-2.093338 -7.380262 1.439776,-2.31368 -5.81067 1.866692,-1.561608 -8.737074 1.208803,-1.633719 -7.541343 1.568608,-1.736173 -6.748901 1.826102,-1.833092 -6.034328 2.0456,-1.168364 -9.079266 1.38064,-1.112113 -8.127092 1.690065,-1.124097 -7.481856 1.942477,-1.150606 -6.862033 2.158202,-9.002803 -8.730335 -1.165136,-8.347106 -8.514246 -0.4286073,-7.97996 -7.775779 0.00165081,-7.858929 -7.057304 0.3672833,-7.693673 -6.330026 0.7350999,-8.489465 -6.044021 -0.4914426,-8.433721 -4.985548 -0.0687027,-8.453226 -4.257276 0.4144083,-8.4447 -3.642938 0.7918347,-8.958843 -5.952594 -0.5648849,-9.09589 -4.946059 0.0312773,-9.148298 -4.461817 0.7192605,-9.13754 -4.346017 1.2161,-9.374537 -6.08889 -0.5643916,-9.53633 -5.087189 -0.05557775,-9.557007 -4.844114 0.4814045,-9.482898 -4.959112 0.8454334,-9.779435 -6.402239 -0.4978443,-9.986925 -5.482827 -0.03987539,-9.982118 -5.286748 0.3577553,-9.864194 -5.448342 0.640311,4.610,4  0
-1.494085 -11.69943 0.6384535,-2.159736 -11.44674 1.032514,-2.727304 -10.61593 1.24299,-3.061506 -9.809668 1.460197,-3.436258 -9.259737 1.69053,-2.315921 -8.868719 1.025421,-2.555663 -7.722906 1.34847,-2.696594 -7.03626 1.536279,-2.820589 -6.373278 1.677536,-1.932377 -8.660383 1.076017,-2.08193 -7.393398 1.439252,-2.08193 -7.393398 1.439252,-2.288076 -5.815433 1.8736,-1.55646 -8.754755 1.209707,-1.623086 -7.562508 1.561026,-1.724406 -6.773574 1.822947,-1.816377 -6.064395 2.046621,-1.164789 -9.1031 1.37752,-1.099432 -8.159897 1.684387,-1.110098 -7.515996 1.945424,-1.133999 -6.899398 2.163731,-9.007879 -8.733406 -1.14962,-8.345497 -8.538597 -0.3865492,-7.972914 -7.814285 0.06065643,-7.850285 -7.092638 0.4313387,-7.68315 -6.378286 0.8043028,-8.478869 -6.075065 -0.3876604,-8.410425 -5.021585 0.0785377,-8.426659 -4.301308 0.5997716,-8.425888 -3.704436 1.009128,-8.950462 -5.968312 -0.4755804,-9.072781 -4.968173 0.1677426,-9.137926 -4.51865 0.8749149,-9.156717 -4.448853 1.384858,-9.370231 -6.092514 -0.4884613,-9.515361 -5.097702 0.05878532,-9.546089 -4.927057 0.5958205,-9.496909 -5.122927 0.9554515,-9.778811 -6.389993 -0.4375039,-9.975168 -5.471927 0.04767954,-9.964808 -5.336153 0.4527068,-9.850737 -5.572057 0.7394428,4.710,4  0
-1.472913 -11.70605 0.6757306,-2.139235 -11.46474 1.107083,-2.710144 -10.62667 1.340414,-3.042063 -9.812305 1.57191,-3.41584 -9.255928 1.817357,-2.296892 -8.875656 1.159711,-2.53295 -7.725509 1.505885,-2.676819 -7.043388 1.698889,-2.809719 -6.386927 1.846175,-1.908215 -8.670065 1.203906,-2.062351 -7.403497 1.600986,-2.062351 -7.403497 1.600986,-2.286893 -5.820346 2.054504,-1.528243 -8.772585 1.329139,-1.596745 -7.575044 1.710884,-1.702941 -6.776165 1.981614,-1.80362 -6.054765 2.215019,-1.132052 -9.127247 1.489473,-1.07285 -8.18008 1.813486,-1.089515 -7.533942 2.07712,-1.121405 -6.91502 2.305218,-8.998209 -8.759062 -1.036807,-8.328849 -8.594198 -0.2280732,-7.952207 -7.893192 0.2582322,-7.830576 -7.171682 0.6585207,-7.677312 -6.449516 1.061198,-8.447196 -6.115602 -0.1492235,-8.391524 -5.080953 0.3970037,-8.421045 -4.374428 0.9639355,-8.432539 -3.789233 1.401061,-8.93259 -5.991692 -0.2459516,-9.064569 -4.986158 0.4807674,-9.118611 -4.588023 1.224513,-9.129384 -4.563688 1.75056,-9.365088 -6.094455 -0.2701089,-9.514071 -5.085657 0.3498173,-9.539602 -5.035694 0.8998809,-9.479439 -5.343164 1.254866,-9.788336 -6.374628 -0.2288613,-9.983305 -5.445725 0.2993102,-9.980133 -5.37689 0.7080989,-9.873581 -5.691504 0.9926788,4.810,4  0
-1.452291 -11.72239 0.6923915,-2.116229 -11.4682 1.117241,-2.684523 -10.65109 1.350456,-3.01866 -9.850416 1.584157,-3.395525 -9.28887 1.839222,-2.276571 -8.884134 1.098865,-2.517062 -7.740719 1.428934,-2.659578 -7.059984 1.628784,-2.788939 -6.402119 1.776468,-1.885556 -8.666544 1.127745,-2.037 -7.407609 1.477903,-2.037 -7.407609 1.477903,-2.235268 -5.829988 1.908333,-1.505651 -8.757761 1.238028,-1.567449 -7.583209 1.56505,-1.665503 -6.798673 1.823691,-1.757317 -6.103921 2.045578,-1.110904 -9.094038 1.387531,-1.049145 -8.164795 1.673073,-1.06279 -7.536607 1.919194,-1.095203 -6.9429 2.125563,-8.974275 -8.816536 -0.9700705,-8.314981 -8.614275 -0.1603438,-7.936495 -7.914749 0.3362527,-7.80792 -7.217905 0.7417204,-7.655059 -6.494771 1.149145,-8.441847 -6.168377 -0.02026671,-8.367862 -5.152701 0.5294178,-8.387182 -4.466283 1.08186,-8.394905 -3.902345 1.506884,-8.928416 -6.050762 -0.1059958,-9.047521 -5.044292 0.6488551,-9.104905 -4.630527 1.394384,-9.122515 -4.605447 1.930913,-9.360359 -6.166773 -0.1280062,-9.509956 -5.157644 0.5104812,-9.548368 -5.029895 1.08027,-9.501974 -5.283981 1.451922,-9.779989 -6.461229 -0.08027852,-9.979802 -5.512923 0.458699,-9.985047 -5.371337 0.895733,-9.88518 -5.63249 1.208159,4.910,4  0
-1.39615 -11.7634 0.6991154,-2.043702 -11.49709 1.142854,-2.610879 -10.71174 1.399701,-2.961198 -9.937431 1.652795,-3.349874 -9.380289 1.930335,-2.202035 -8.922544 1.146813,-2.446391 -7.768942 1.480299,-2.599823 -7.081745 1.681732,-2.742708 -6.416053 1.83601,-1.813498 -8.709518 1.17553,-1.967398 -7.436996 1.5426,-1.967398 -7.436996 1.5426,-2.167555 -5.843494 1.991782,-1.438677 -8.799627 1.286358,-1.503589 -7.624912 1.634368,-1.604664 -6.839187 1.911679,-1.696497 -6.13279 2.143657,-1.052285 -9.134174 1.433975,-0.9963818 -8.207439 1.737496,-1.012762 -7.583028 1.999868,-1.044127 -6.986809 2.217206,-8.961556 -8.933002 -0.8928317,-8.322098 -8.711664 -0.06060237,-7.937559 -8.02066 0.4634889,-7.813342 -7.334047 0.8863095,-7.653504 -6.607719 1.296297,-8.461677 -6.28027 0.1507987,-8.378631 -5.270233 0.7584281,-8.405386 -4.622451 1.372384,-8.429637 -4.092899 1.827516,-8.959062 -6.178786 0.07713938,-9.067253 -5.151687 0.8865585,-9.125076 -4.72341 1.675488,-9.150422 -4.667541 2.252388,-9.403667 -6.313649 0.06895137,-9.542175 -5.306308 0.7282668,-9.575506 -5.04335 1.31242,-9.53339 -5.116199 1.715712,-9.839474 -6.63896 0.1327244,-10.04693 -5.72882 0.6901578,-10.05896 -5.532225 1.143465,-9.955745 -5.674953 1.490135,5.010,4  0
-1.382262 -11.79297 0.7535399,-2.029976 -11.5204 1.186606,-2.588875 -10.72294 1.448526,-2.937661 -9.954298 1.712528,-3.334749 -9.406321 2.0024,-2.184477 -8.93487 1.223635,-2.423556 -7.785245 1.562938,-2.579018 -7.103486 1.769568,-2.72496 -6.445201 1.930642,-1.793599 -8.728966 1.270498,-1.941234 -7.452781 1.649386,-1.941234 -7.452781 1.649386,-2.149697 -5.852294 2.117522,-1.415233 -8.832644 1.395064,-1.481721 -7.646319 1.759185,-1.583874 -6.854517 2.052299,-1.677646 -6.139135 2.29951,-1.026642 -9.188597 1.556233,-0.9703994 -8.255327 1.869857,-0.9867487 -7.627107 2.139196,-1.020662 -7.025365 2.368304,-8.990582 -8.955999 -0.8968988,-8.349413 -8.742783 -0.07338119,-7.96351 -8.052881 0.4591444,-7.832469 -7.357873 0.8872106,-7.668472 -6.654649 1.298756,-8.50673 -6.288067 0.1436468,-8.430029 -5.251325 0.7609166,-8.457842 -4.620574 1.375774,-8.493638 -4.130477 1.819624,-9.00784 -6.202726 0.07209849,-9.110991 -5.127347 0.8904661,-9.168812 -4.660782 1.673105,-9.202892 -4.604763 2.246424,-9.452646 -6.352884 0.07136679,-9.594413 -5.306169 0.7220209,-9.625974 -4.980487 1.297963,-9.58642 -4.999202 1.70429,-9.888636 -6.702636 0.1387368,-10.11057 -5.788681 0.6825393,-10.13003 -5.555103 1.138129,-10.03449 -5.649388 1.489222,5.110,4  0
-1.366024 -11.84104 0.8164141,-2.005958 -11.56169 1.245751,-2.566918 -10.75348 1.504032,-2.926236 -9.971071 1.762678,-3.328766 -9.426544 2.05097,-2.145765 -8.96147 1.263559,-2.380202 -7.810357 1.593822,-2.526438 -7.110013 1.806184,-2.662033 -6.428352 1.974221,-1.753918 -8.751217 1.306389,-1.900342 -7.480663 1.674849,-1.900342 -7.480663 1.674849,-2.100051 -5.88417 2.12675,-1.376142 -8.852383 1.426762,-1.439139 -7.676419 1.782105,-1.540121 -6.888292 2.068656,-1.633006 -6.175859 2.304599,-0.9882617 -9.210972 1.585775,-0.9305544 -8.290752 1.89494,-0.944293 -7.664814 2.158571,-0.9750738 -7.061376 2.384602,-9.04369 -8.974998 -0.7762205,-8.403824 -8.760534 0.1208053,-8.032843 -8.04674 0.7056149,-7.913866 -7.351867 1.166126,-7.774933 -6.666387 1.609498,-8.585668 -6.298975 0.4162712,-8.542375 -5.304442 1.099366,-8.596868 -4.689755 1.753965,-8.650036 -4.261535 2.210809,-9.103087 -6.235366 0.3252813,-9.258514 -5.178205 1.216913,-9.333642 -4.795619 2.035667,-9.370585 -4.858806 2.620688,-9.561469 -6.406984 0.3005701,-9.750587 -5.381502 1.012549,-9.806233 -5.185802 1.587572,-9.777411 -5.367413 1.981171,-9.996301 -6.787024 0.3510709,-10.26242 -5.893393 0.9316585,-10.29653 -5.716991 1.398066,-10.20132 -5.881643 1.751766,5.210,4  0
-1.343068 -11.86028 0.8041937,-1.98322 -11.56666 1.251823,-2.5462 -10.76279 1.525797,-2.905668 -9.981443 1.798962,-3.308239 -9.430834 2.1083,-2.131321 -8.982864 1.28673,-2.37407 -7.817668 1.625774,-2.523915 -7.118707 1.834565,-2.663013 -6.436641 2.000479,-1.737621 -8.780035 1.325697,-1.883562 -7.500873 1.70242,-1.883562 -7.500873 1.70242,-2.072878 -5.902811 2.158375,-1.360289 -8.885876 1.44414,-1.420809 -7.704171 1.810495,-1.519375 -6.909435 2.103277,-1.612891 -6.190189 2.344332,-0.9735274 -9.245871 1.599753,-0.9162292 -8.315908 1.920204,-0.9306097 -7.683884 2.190701,-0.9608312 -7.07335 2.420386,-9.056115 -8.960762 -0.7083912,-8.432756 -8.720465 0.2384709,-8.063093 -8.020874 0.8660233,-7.94348 -7.36577 1.372347,-7.819969 -6.667207 1.873927,-8.646092 -6.279028 0.6058292,-8.603268 -5.27058 1.350138,-8.67372 -4.663414 2.045928,-8.754891 -4.302763 2.529437,-9.162193 -6.251305 0.5102338,-9.319731 -5.167352 1.442611,-9.414753 -4.763845 2.285975,-9.47641 -4.815658 2.907187,-9.616451 -6.443252 0.4827114,-9.806569 -5.406937 1.22764,-9.869003 -5.175035 1.817802,-9.845206 -5.31631 2.230659,-10.04702 -6.829052 0.5300505,-10.31623 -5.935358 1.124424,-10.37258 -5.692848 1.605083,-10.2932 -5.769029 1.974596,5.310,4  0
-1.325941 -11.93619 0.8812855,-1.965992 -11.6122 1.306553,-2.51199 -10.77737 1.580478,-2.877297 -9.996885 1.861093,-3.300529 -9.467146 2.18647,-2.081766 -9.017214 1.333903,-2.332319 -7.854593 1.671125,-2.485259 -7.151153 1.88519,-2.622669 -6.466064 2.05323,-1.692646 -8.826654 1.382296,-1.83464 -7.558998 1.748209,-1.83464 -7.558998 1.748209,-2.015593 -5.939714 2.204944,-1.316624 -8.943075 1.506355,-1.370884 -7.770873 1.85981,-1.467877 -6.974323 2.151647,-1.554996 -6.248558 2.393425,-0.9350405 -9.317509 1.667265,-0.8743753 -8.39292 1.978058,-0.8869529 -7.758312 2.245942,-0.9095173 -7.13634 2.472581,-9.161215 -8.839952 -0.662084,-8.523533 -8.628096 0.3094698,-8.155582 -7.943326 0.9809732,-8.042912 -7.282554 1.534927,-7.961894 -6.606054 2.084918,-8.759897 -6.181879 0.7443191,-8.768776 -5.137764 1.521532,-8.848403 -4.518879 2.211869,-8.932117 -4.172239 2.6787,-9.28357 -6.151277 0.6310519,-9.48459 -5.0561 1.624368,-9.574415 -4.717045 2.459924,-9.634686 -4.865022 3.033126,-9.735699 -6.322927 0.5853734,-9.969715 -5.284664 1.387273,-10.02659 -5.256309 1.93681,-9.997435 -5.605598 2.27548,-10.15024 -6.676084 0.6049324,-10.44978 -5.769339 1.233083,-10.48966 -5.689996 1.683243,-10.39784 -5.953075 1.997608,5.410,4  0
-1.312393 -11.9599 0.9027256,-1.947234 -11.65347 1.36235,-2.495158 -10.8326 1.650216,-2.853067 -10.0534 1.93479,-3.261122 -9.512278 2.259398,-2.066956 -9.04925 1.420335,-2.319368 -7.879934 1.763562,-2.472489 -7.166877 1.985934,-2.608811 -6.482049 2.167201,-1.671009 -8.851706 1.454258,-1.819788 -7.573331 1.824198,-1.819788 -7.573331 1.824198,-2.014403 -5.952272 2.28928,-1.29312 -8.962997 1.56668,-1.347815 -7.77833 1.921837,-1.442956 -6.977899 2.214458,-1.533753 -6.244877 2.464468,-0.9128509 -9.331989 1.718186,-0.8542528 -8.39628 2.026989,-0.8657999 -7.758504 2.289703,-0.8917146 -7.137269 2.517247,-9.169209 -8.827148 -0.586502,-8.536091 -8.571234 0.370513,-8.150312 -7.888473 1.030169,-8.024689 -7.227428 1.579771,-8.004929 -6.605766 2.118207,-8.77826 -6.10622 0.7174867,-8.777142 -5.088821 1.474318,-8.873669 -4.486516 2.174794,-8.969172 -4.183933 2.668656,-9.305607 -6.073152 0.6143528,-9.493339 -4.953107 1.588073,-9.551172 -4.70899 2.441377,-9.575239 -4.962436 3.02688,-9.770034 -6.245203 0.5777032,-9.988153 -5.172731 1.353788,-10.00469 -5.173551 1.929014,-9.926188 -5.56346 2.291363,-10.20306 -6.606075 0.6112708,-10.50154 -5.701813 1.222678,-10.52584 -5.581026 1.676208,-10.39676 -5.811834 1.990754,5.510,4  0
-1.306766 -11.98481 0.9443861,-1.935927 -11.6691 1.395142,-2.475587 -10.82014 1.679368,-2.83346 -10.03786 1.965891,-3.258168 -9.530586 2.298071,-2.05316 -9.048214 1.460163,-2.298955 -7.875349 1.814814,-2.453137 -7.158431 2.041913,-2.590435 -6.464571 2.228586,-1.660183 -8.866537 1.51068,-1.807469 -7.591434 1.900659,-1.807469 -7.591434 1.900659,-1.996287 -5.972467 2.375824,-1.283008 -8.994293 1.64064,-1.340662 -7.802471 2.017663,-1.434303 -7.000684 2.323106,-1.520432 -6.256962 2.577958,-0.9027109 -9.384188 1.808739,-0.8425484 -8.448084 2.138521,-0.8509569 -7.807651 2.41219,-0.8706741 -7.173601 2.650108,-9.195654 -8.825081 -0.2066258,-8.564427 -8.552742 0.7622656,-8.176487 -7.855308 1.435222,-8.045218 -7.188634 2.012947,-7.988538 -6.541828 2.591865,-8.778306 -5.989782 1.135073,-8.78615 -4.974851 1.92921,-8.89484 -4.361911 2.65017,-9.004193 -4.025622 3.132614,-9.312765 -5.969827 1.035903,-9.510773 -4.864077 2.02026,-9.582956 -4.664621 2.862841,-9.617871 -4.901828 3.432304,-9.779016 -6.166693 1.00551,-10.01002 -5.099969 1.80847,-10.0251 -5.128471 2.35611,-9.955182 -5.49904 2.69454,-10.20509 -6.563904 1.04366,-10.5106 -5.63224 1.645015,-10.53862 -5.457225 2.052346,-10.42591 -5.598655 2.331166,5.610,4  0
-1.298287 -12.04124 0.978988,-1.925808 -11.71782 1.453729,-2.465076 -10.87542 1.75833,-2.828551 -10.09049 2.056731,-3.253514 -9.576809 2.403477,-2.046916 -9.100811 1.497771,-2.28002 -7.940784 1.862199,-2.426891 -7.232326 2.100491,-2.562545 -6.54273 2.291003,-1.652481 -8.910702 1.532711,-1.790115 -7.648004 1.925631,-1.790115 -7.648004 1.925631,-1.967931 -6.025184 2.405254,-1.274957 -9.031725 1.650105,-1.325038 -7.858208 2.025743,-1.414661 -7.064161 2.327882,-1.502774 -6.329408 2.577225,-0.895215 -9.417706 1.807812,-0.8264017 -8.492327 2.1361,-0.8269958 -7.84649 2.406508,-0.8420415 -7.202651 2.64052,-9.223619 -8.615606 -0.1629511,-8.60277 -8.444567 0.8755198,-8.226317 -7.76198 1.583505,-8.102715 -7.093497 2.181818,-8.033771 -6.414131 2.771933,-8.818765 -5.842441 1.297849,-8.858685 -4.803689 2.116138,-8.983296 -4.154882 2.836447,-9.089979 -3.685904 3.310938,-9.354952 -5.789379 1.17259,-9.543012 -4.690765 2.2086,-9.60286 -4.466611 3.045761,-9.605012 -4.54429 3.609221,-9.824145 -5.94937 1.111644,-10.04738 -4.948049 1.94094,-10.06685 -5.03856 2.47418,-9.990669 -5.357833 2.805157,-10.25595 -6.317372 1.129941,-10.53399 -5.41996 1.780984,-10.54575 -5.412211 2.197522,-10.42314 -5.655092 2.469734,5.710,4  0
-1.312081 -12.07173 0.9791562,-1.935104 -11.72665 1.441196,-2.458807 -10.86927 1.736953,-2.81711 -10.08771 2.035216,-3.249047 -9.579988 2.382747,-2.02635 -9.114897 1.494926,-2.267532 -7.947006 1.854621,-2.421145 -7.235431 2.08383,-2.563958 -6.547609 2.266085,-1.634486 -8.938787 1.539084,-1.772168 -7.668751 1.928394,-1.772168 -7.668751 1.928394,-1.970399 -6.043857 2.406534,-1.258569 -9.070845 1.664656,-1.308126 -7.887826 2.045963,-1.404194 -7.085817 2.349254,-1.50131 -6.345457 2.602566,-0.8828349 -9.465591 1.828725,-0.8147106 -8.532461 2.162592,-0.8200922 -7.878634 2.437189,-0.8431797 -7.229292 2.67579,-9.244575 -8.542698 -0.1640323,-8.617783 -8.340105 0.8841298,-8.237494 -7.669916 1.596737,-8.106737 -6.985136 2.190916,-8.084365 -6.333836 2.773224,-8.828832 -5.779041 1.326023,-8.865062 -4.749673 2.175871,-8.996589 -4.132286 2.898986,-9.113628 -3.707489 3.369234,-9.372165 -5.72056 1.179775,-9.584232 -4.646945 2.252194,-9.672141 -4.525045 3.109011,-9.707441 -4.69542 3.650892,-9.848312 -5.861957 1.090367,-10.09703 -4.906179 1.927736,-10.12506 -5.085855 2.426091,-10.0667 -5.449758 2.68971,-10.27058 -6.209009 1.079207,-10.56367 -5.335753 1.725119,-10.57816 -5.354143 2.106531,-10.46581 -5.595061 2.320707,5.810,4  0
-1.291027 -12.10731 0.9308181,-1.910802 -11.77291 1.376941,-2.437372 -10.91767 1.665518,-2.785593 -10.13685 1.958736,-3.202466 -9.63817 2.296399,-1.99319 -9.161608 1.453808,-2.216647 -8.002048 1.81845,-2.362002 -7.29806 2.049727,-2.498078 -6.609689 2.2275,-1.607802 -8.990967 1.507699,-1.737731 -7.719112 1.901439,-1.737731 -7.719112 1.901439,-1.919058 -6.10814 2.381231,-1.238479 -9.127375 1.638511,-1.28234 -7.946481 2.020458,-1.369157 -7.154421 2.320687,-1.454657 -6.416513 2.573616,-0.8681469 -9.522894 1.807633,-0.7985106 -8.586521 2.146893,-0.8008299 -7.940791 2.422245,-0.8179727 -7.301908 2.661103,-9.297199 -8.366335 -0.04663348,-8.654479 -8.198311 1.050038,-8.241884 -7.523953 1.782905,-8.103729 -6.803295 2.402078,-8.134537 -6.140346 3.023495,-8.873657 -5.547667 1.42172,-8.885039 -4.487484 2.263999,-9.022624 -3.82527 3.003241,-9.143098 -3.422045 3.480895,-9.424383 -5.495001 1.271216,-9.663257 -4.343561 2.349723,-9.733607 -4.453664 3.238184,-9.736966 -4.936664 3.787663,-9.907161 -5.641347 1.181962,-10.17985 -4.637403 2.064499,-10.19523 -4.992702 2.632066,-10.11078 -5.59043 2.925152,-10.34627 -5.971221 1.168765,-10.65667 -5.082862 1.852152,-10.66475 -5.183948 2.278321,-10.53793 -5.573495 2.525396,5.910,4  0
-1.245278 -12.09996 0.8735756,-1.87637 -11.79033 1.343472,-2.4166 -10.95027 1.634033,-2.773455 -10.17444 1.920501,-3.188185 -9.675648 2.254984,-1.981646 -9.178619 1.399509,-2.207971 -8.017708 1.743248,-2.35627 -7.309303 1.957895,-2.498619 -6.627007 2.128754,-1.586718 -8.999689 1.432863,-1.721543 -7.733715 1.792576,-1.721543 -7.733715 1.792576,-1.90951 -6.13747 2.227793,-1.208895 -9.126667 1.548464,-1.258886 -7.949914 1.901278,-1.340549 -7.151366 2.187736,-1.425632 -6.416448 2.437424,-0.8316169 -9.507072 1.705921,-0.7732677 -8.568901 2.021522,-0.7811489 -7.931866 2.283271,-0.8068514 -7.313444 2.512565,-9.333768 -8.399586 0.380188,-8.701488 -8.279196 1.581386,-8.242593 -7.616455 2.337601,-8.073531 -6.864009 2.991531,-8.144917 -6.209428 3.611856,-8.843285 -5.499979 1.876363,-8.835321 -4.424947 2.870594,-8.984802 -3.798411 3.673477,-9.127341 -3.496219 4.149211,-9.413455 -5.385641 1.681705,-9.698291 -4.145648 2.903247,-9.73908 -4.70313 3.711197,-9.707543 -5.487016 4.06404,-9.914919 -5.501747 1.574931,-10.24382 -4.460594 2.618184,-10.23209 -5.099664 3.178252,-10.09865 -5.866466 3.332065,-10.37224 -5.805927 1.54013,-10.70932 -4.90459 2.291962,-10.70685 -5.110668 2.668894,-10.55648 -5.606606 2.775075,6.010,4 4 0
-1.231044 -12.12365 0.8298044,-1.84953 -11.80153 1.32762,-2.37359 -10.98612 1.633698,-2.715791 -10.22955 1.937917,-3.113617 -9.724152 2.279746,-1.936984 -9.20801 1.391163,-2.168032 -8.045547 1.751348,-2.315061 -7.341776 1.982038,-2.457719 -6.660163 2.16637,-1.548554 -9.039591 1.421196,-1.675671 -7.754594 1.806231,-1.675671 -7.754594 1.806231,-1.859332 -6.155155 2.263831,-1.179993 -9.175219 1.53522,-1.21933 -7.981628 1.907041,-1.298419 -7.184646 2.206931,-1.38658 -6.449546 2.464244,-0.8134556 -9.563526 1.691501,-0.7358274 -8.617353 2.024968,-0.7319345 -7.971963 2.301725,-0.7511244 -7.341761 2.539195,-9.321839 -8.431225 0.720728,-8.691375 -8.301447 1.98803,-8.230269 -7.661054 2.780495,-8.05953 -6.921184 3.446138,-8.109364 -6.215021 4.061981,-8.862038 -5.362314 2.195549,-8.91415 -4.288135 3.239319,-9.068891 -3.755258 4.084339,-9.200559 -3.600893 4.584414,-9.449783 -5.289146 1.962949,-9.76507 -3.985255 3.175653,-9.752914 -4.825052 3.847213,-9.663266 -5.74508 4.060403,-9.946752 -5.471094 1.846994,-10.31286 -4.370196 2.943777,-10.25404 -5.199804 3.449612,-10.08762 -6.031754 3.520842,-10.39146 -5.838493 1.801199,-10.73291 -4.913927 2.594047,-10.69227 -5.241888 2.922469,-10.51678 -5.762551 2.961107,6.110,4 4 0
-1.20718 -12.12891 0.8327914,-1.821956 -11.82961 1.326026,-2.354294 -11.00199 1.617492,-2.703286 -10.23701 1.904034,-3.101836 -9.735718 2.227642,-1.91971 -9.216967 1.381711,-2.148183 -8.055792 1.729022,-2.296969 -7.354864 1.948962,-2.441262 -6.679981 2.123871,-1.530436 -9.041676 1.408877,-1.659625 -7.763896 1.787711,-1.659625 -7.763896 1.787711,-1.853991 -6.167326 2.229837,-1.15926 -9.170921 1.520518,-1.201561 -7.983257 1.887895,-1.283477 -7.179563 2.190027,-1.373503 -6.445297 2.445611,-0.7887869 -9.554026 1.674804,-0.7186279 -8.616978 1.999585,-0.7193604 -7.975321 2.275135,-0.7421193 -7.352279 2.5135,-9.30261 -8.443249 0.52696,-8.649614 -8.296879 1.802192,-8.194775 -7.623586 2.595164,-8.037512 -6.872755 3.24198,-8.118954 -6.221118 3.841809,-8.836673 -5.423463 2.090426,-8.896514 -4.29202 3.17009,-9.048012 -3.762167 4.078238,-9.170466 -3.728779 4.627584,-9.427849 -5.388581 1.836264,-9.759841 -4.079765 3.045132,-9.736229 -4.872304 3.715966,-9.642447 -5.75295 3.970745,-9.931067 -5.593102 1.701134,-10.30897 -4.439764 2.771616,-10.25856 -5.132379 3.279149,-10.11238 -5.884571 3.391194,-10.37664 -5.965205 1.630389,-10.76103 -5.018341 2.419644,-10.73918 -5.243318 2.781173,-10.57419 -5.69132 2.881195,6.210,4 4 0
-1.168988 -12.11651 0.8248231,-1.789014 -11.81222 1.279327,-2.321004 -10.98386 1.54782,-2.670352 -10.21976 1.819697,-3.075513 -9.731844 2.13559,-1.88006 -9.192886 1.303904,-2.103834 -8.036697 1.637611,-2.249264 -7.34295 1.845615,-2.389606 -6.666887 2.016117,-1.491596 -9.022686 1.351284,-1.614942 -7.744218 1.729828,-1.614942 -7.744218 1.729828,-1.798328 -6.168571 2.176131,-1.120201 -9.158253 1.482492,-1.165436 -7.961359 1.848333,-1.249604 -7.166915 2.149087,-1.339068 -6.440313 2.402269,-0.7470417 -9.54875 1.653666,-0.6672907 -8.605536 1.986458,-0.661252 -7.960023 2.270724,-0.6769876 -7.321775 2.515987,-9.252261 -8.423544 0.5242851,-8.622463 -8.314783 1.881834,-8.179174 -7.686573 2.726616,-8.045115 -6.95742 3.422999,-8.145249 -6.295355 4.038682,-8.839428 -5.478056 2.181777,-8.914954 -4.399945 3.363433,-9.052878 -3.897624 4.319573,-9.150259 -3.840618 4.866633,-9.442125 -5.413574 1.924241,-9.784284 -4.172228 3.236889,-9.739885 -5.058904 3.931046,-9.631678 -5.925101 4.141489,-9.961673 -5.603274 1.79834,-10.35424 -4.501747 2.94251,-10.27263 -5.289467 3.437658,-10.10248 -6.035918 3.49801,-10.42995 -5.982814 1.741205,-10.82765 -5.071134 2.551469,-10.77498 -5.386545 2.895089,-10.57748 -5.864122 2.943574,6.310,4 4 0
-1.182384 -12.14352 0.829307,-1.79375 -11.82808 1.274444,-2.31482 -10.98715 1.535607,-2.659743 -10.22453 1.799745,-3.061428 -9.748199 2.103951,-1.864039 -9.210804 1.313804,-2.084063 -8.051683 1.654002,-2.226563 -7.345615 1.868625,-2.360892 -6.662536 2.038361,-1.476905 -9.046339 1.360188,-1.598049 -7.765388 1.738098,-1.598049 -7.765388 1.738098,-1.775031 -6.175338 2.181549,-1.108736 -9.180897 1.488572,-1.146503 -7.98941 1.853525,-1.225427 -7.193632 2.149871,-1.312466 -6.472719 2.394686,-0.7406363 -9.571791 1.656037,-0.6589708 -8.631826 1.984891,-0.6510887 -7.987215 2.260728,-0.666049 -7.357734 2.496694,-9.256404 -8.512291 0.6633964,-8.640438 -8.352793 1.980672,-8.193932 -7.71161 2.817519,-8.031776 -6.992168 3.515296,-8.099709 -6.339122 4.1535,-8.836781 -5.480945 2.257834,-8.915324 -4.329968 3.39466,-9.052382 -3.892629 4.311107,-9.150325 -4.009865 4.835196,-9.433027 -5.441461 2.027457,-9.7595 -4.144468 3.322398,-9.749344 -4.950145 4.085272,-9.663696 -5.858099 4.367397,-9.946022 -5.652156 1.929539,-10.32207 -4.52061 3.057015,-10.28257 -5.234804 3.638296,-10.12924 -6.022761 3.783602,-10.40909 -6.063254 1.891872,-10.80675 -5.139582 2.7182,-10.79663 -5.342332 3.144935,-10.62711 -5.784059 3.266946,6.410,4 4 0
-1.1595 -12.17301 0.8703653,-1.775129 -11.85667 1.346522,-2.298307 -11.02209 1.620785,-2.636836 -10.25152 1.892079,-3.034575 -9.769667 2.199189,-1.845513 -9.227112 1.382885,-2.059289 -8.078928 1.71542,-2.193933 -7.381092 1.924276,-2.322824 -6.706726 2.092113,-1.449368 -9.065735 1.414533,-1.572052 -7.796151 1.780403,-1.572052 -7.796151 1.780403,-1.744796 -6.231246 2.220367,-1.078184 -9.205677 1.530267,-1.117663 -8.016731 1.889305,-1.191894 -7.221975 2.188238,-1.273055 -6.499017 2.44087,-0.7075939 -9.601967 1.687638,-0.6267357 -8.667278 2.009351,-0.6168623 -8.024128 2.284174,-0.6269512 -7.391132 2.526111,-9.177754 -8.507887 0.4847149,-8.541665 -8.373186 1.752664,-8.088367 -7.753439 2.58111,-7.913786 -7.006221 3.277544,-7.953324 -6.342853 3.92624,-8.740352 -5.619832 2.125626,-8.758505 -4.478881 3.207211,-8.853354 -3.955679 4.074448,-8.925082 -3.952402 4.58882,-9.330281 -5.523641 1.917136,-9.611209 -4.133354 3.172369,-9.613192 -4.811317 3.986669,-9.560417 -5.736312 4.350448,-9.843813 -5.688419 1.817323,-10.18131 -4.467977 2.915278,-10.15337 -5.117725 3.536705,-10.02195 -5.938438 3.749824,-10.31642 -6.068387 1.782882,-10.71867 -5.073991 2.619764,-10.70547 -5.267108 3.094105,-10.53525 -5.759223 3.282423,6.510,4 4 0
-1.151202 -12.1861 0.8361799,-1.762866 -11.8736 1.309177,-2.286875 -11.0286 1.579555,-2.626974 -10.25864 1.847804,-3.016781 -9.773777 2.151011,-1.830443 -9.252932 1.359231,-2.026844 -8.094683 1.698788,-2.152099 -7.390899 1.91074,-2.278093 -6.71727 2.079178,-1.440605 -9.092035 1.399009,-1.559854 -7.811704 1.775149,-1.559854 -7.811704 1.775149,-1.744614 -6.252743 2.209301,-1.07422 -9.229073 1.524058,-1.113381 -8.026077 1.89253,-1.187297 -7.234537 2.183187,-1.274631 -6.509138 2.431091,-0.7048292 -9.619329 1.689658,-0.6185393 -8.679268 2.025632,-0.6022778 -8.034771 2.298812,-0.6106453 -7.40422 2.538704,-9.111525 -8.573967 0.4912739,-8.487092 -8.308712 1.630151,-8.036591 -7.660881 2.382467,-7.856517 -6.902687 3.026037,-7.896881 -6.2543 3.620857,-8.687291 -5.561992 1.870647,-8.69243 -4.44592 2.861564,-8.771921 -3.90767 3.674871,-8.824771 -3.862889 4.174272,-9.249583 -5.494493 1.712316,-9.51958 -4.07994 2.860498,-9.486724 -4.672756 3.635129,-9.40963 -5.560022 3.991138,-9.744161 -5.691537 1.656385,-10.07641 -4.430284 2.665632,-10.01065 -5.037549 3.258946,-9.85962 -5.852443 3.459215,-10.2033 -6.102056 1.667215,-10.59964 -5.068099 2.419256,-10.54515 -5.181362 2.843384,-10.3389 -5.647102 3.017513,6.610,4 4 0
-1.159759 -12.13041 0.7792704,-1.772222 -11.84059 1.258042,-2.298892 -11.0138 1.539011,-2.633776 -10.25548 1.817742,-3.012472 -9.772026 2.123498,-1.847572 -9.217014 1.345265,-2.040659 -8.058029 1.694281,-2.163857 -7.360399 1.902672,-2.284389 -6.689132 2.066652,-1.454712 -9.061558 1.384614,-1.57176 -7.787164 1.785001,-1.57176 -7.787164 1.785001,-1.744629 -6.227907 2.228709,-1.085032 -9.205969 1.505515,-1.11744 -8.013905 1.893747,-1.188484 -7.225927 2.186013,-1.268374 -6.506406 2.43573,-0.7139626 -9.603292 1.666663,-0.6236563 -8.667408 2.002979,-0.6039214 -8.027876 2.279432,-0.6078463 -7.396646 2.520731,-9.030065 -8.507431 -0.05015512,-8.397558 -8.237171 0.9905717,-7.944401 -7.562402 1.643294,-7.774992 -6.785572 2.210379,-7.811642 -6.090379 2.709208,-8.566319 -5.634601 1.099185,-8.543126 -4.622202 2.005785,-8.583373 -4.029169 2.754193,-8.604774 -3.775678 3.222511,-9.091263 -5.518719 0.9769485,-9.301191 -4.118898 2.045862,-9.249681 -4.686298 2.823778,-9.186294 -5.522291 3.18582,-9.568885 -5.649614 0.9471783,-9.831405 -4.377864 1.923086,-9.746787 -4.964033 2.546558,-9.60762 -5.793162 2.768088,-10.03557 -5.996774 0.9825604,-10.38054 -4.965042 1.684946,-10.29901 -5.027596 2.107069,-10.08919 -5.515009 2.294535,6.710,4 4 0
-1.159006 -12.09175 0.7998516,-1.770477 -11.79914 1.258514,-2.299138 -10.97206 1.534034,-2.635159 -10.21601 1.811344,-3.015877 -9.731312 2.121438,-1.852386 -9.173075 1.343454,-2.045311 -8.022406 1.688725,-2.174758 -7.329885 1.900395,-2.30153 -6.659695 2.066932,-1.457404 -9.014246 1.389779,-1.571997 -7.749143 1.779594,-1.571997 -7.749143 1.779594,-1.755202 -6.199961 2.222304,-1.085125 -9.156811 1.516429,-1.120067 -7.972839 1.894058,-1.196977 -7.194368 2.186427,-1.278595 -6.487342 2.434237,-0.7103777 -9.549082 1.681921,-0.6270342 -8.616158 2.003418,-0.6098146 -7.979446 2.271405,-0.6127243 -7.352877 2.510718,-8.983668 -8.593004 -0.07580756,-8.365031 -8.24254 0.825434,-7.941211 -7.581842 1.409036,-7.754091 -6.855757 1.913813,-7.708364 -6.174364 2.388033,-8.517286 -5.669965 0.9090111,-8.473761 -4.666639 1.674086,-8.504667 -4.048541 2.358171,-8.531248 -3.799103 2.815087,-9.017506 -5.571239 0.8256742,-9.196978 -4.169944 1.74968,-9.169212 -4.433658 2.497083,-9.132672 -5.141982 2.900523,-9.476563 -5.709203 0.8212252,-9.712478 -4.421275 1.660329,-9.632103 -4.872358 2.228849,-9.508739 -5.675698 2.468886,-9.931376 -6.058496 0.8768605,-10.25134 -4.970003 1.519075,-10.1609 -4.990051 1.912738,-9.958123 -5.500202 2.110808,6.810,4 4 0
-1.14181 -11.99833 0.8162728,-1.748277 -11.68103 1.292359,-2.271427 -10.86408 1.58084,-2.623655 -10.12442 1.864306,-3.01615 -9.660782 2.188651,-1.817958 -9.073589 1.370645,-2.019011 -7.916791 1.717577,-2.147874 -7.220903 1.93009,-2.276921 -6.560199 2.098302,-1.427942 -8.9149 1.406265,-1.546094 -7.631307 1.795331,-1.546094 -7.631307 1.795331,-1.724969 -6.059855 2.251328,-1.060557 -9.06097 1.522223,-1.096788 -7.859704 1.902097,-1.16739 -7.071753 2.193108,-1.251417 -6.344474 2.440427,-0.6901069 -9.462183 1.676698,-0.6004796 -8.527273 2.00777,-0.5770936 -7.896686 2.273584,-0.5819159 -7.270387 2.511937,-8.918573 -8.857386 -0.3538536,-8.288872 -8.547665 0.4347903,-7.903352 -7.770905 0.8995442,-7.759628 -7.003349 1.283649,-7.666198 -6.304283 1.641261,-8.372043 -6.009321 0.4552872,-8.286784 -4.971134 0.9749986,-8.322489 -4.300258 1.508891,-8.356048 -3.826108 1.931757,-8.864511 -5.877521 0.3987441,-8.980912 -4.710957 1.095476,-9.045601 -4.330398 1.88067,-9.080664 -4.433281 2.440009,-9.302466 -6.025661 0.4022201,-9.475714 -4.845354 1.035776,-9.499557 -4.672814 1.654091,-9.443335 -4.929955 2.06642,-9.727777 -6.419027 0.4760508,-9.97455 -5.441555 1.022197,-9.991363 -5.181617 1.466705,-9.89284 -5.306411 1.795265,6.910,4 4 0
-1.149386 -12.00764 0.7350065,-1.765365 -11.69886 1.195554,-2.291926 -10.88201 1.460184,-2.624784 -10.12752 1.721377,-2.999556 -9.640884 2.006307,-1.824619 -9.099197 1.257369,-2.026373 -7.931343 1.601791,-2.159612 -7.22149 1.814314,-2.28636 -6.547304 1.985602,-1.431416 -8.942837 1.299923,-1.549662 -7.646339 1.68726,-1.549662 -7.646339 1.68726,-1.725871 -6.088161 2.133998,-1.06312 -9.079487 1.425814,-1.098444 -7.872353 1.809543,-1.170759 -7.076417 2.108952,-1.253189 -6.353193 2.358055,-0.6961832 -9.469326 1.587615,-0.6006217 -8.531572 1.920415,-0.5804224 -7.896226 2.189405,-0.5866852 -7.273841 2.423057,-8.965933 -8.870125 -0.6599272,-8.316085 -8.573536 0.05529016,-7.915341 -7.810024 0.4801875,-7.753202 -7.050207 0.8436364,-7.610258 -6.335506 1.194419,-8.389147 -6.075429 -0.01265484,-8.276936 -5.041915 0.4443039,-8.29964 -4.376883 0.9666733,-8.331376 -3.869313 1.394637,-8.857609 -5.94749 -0.05517083,-8.953503 -4.838026 0.5942348,-9.022129 -4.443291 1.34727,-9.069626 -4.485658 1.894891,-9.281629 -6.080282 -0.02256799,-9.427075 -4.96164 0.525475,-9.437413 -4.780448 1.094307,-9.389339 -4.987334 1.496134,-9.706143 -6.426794 0.07596093,-9.920371 -5.462493 0.5737026,-9.919091 -5.28258 0.9972854,-9.820749 -5.476406 1.313511,7.010,4 4 0
-1.173321 -12.15259 0.8611873,-1.776978 -11.79435 1.317393,-2.290354 -10.95281 1.587358,-2.607114 -10.19023 1.868443,-2.989219 -9.685343 2.177494,-1.855491 -9.183956 1.352924,-2.060835 -8.050497 1.710465,-2.19118 -7.371143 1.926379,-2.317341 -6.69861 2.093994,-1.459676 -9.048433 1.409666,-1.576978 -7.818214 1.781512,-1.576978 -7.818214 1.781512,-1.759655 -6.368899 2.186478,-1.08779 -9.204693 1.553334,-1.113896 -8.04635 1.917778,-1.184968 -7.312484 2.209419,-1.268706 -6.630825 2.449259,-0.717279 -9.614183 1.739419,-0.6363297 -8.720127 2.078226,-0.6299114 -8.105145 2.35673,-0.6504126 -7.491281 2.594587,-8.944983 -9.039427 -1.019433,-8.314438 -8.747097 -0.3738135,-7.933067 -7.931806 -0.02610111,-7.796452 -7.17666 0.2753834,-7.618343 -6.442127 0.5930339,-8.390153 -6.265773 -0.6184953,-8.270924 -5.223339 -0.3026938,-8.253586 -4.497081 0.1033992,-8.237988 -3.925318 0.4474883,-8.826396 -6.17885 -0.6742066,-8.907725 -5.121116 -0.1900418,-8.963939 -4.672616 0.4570509,-8.988295 -4.652807 0.9392288,-9.225965 -6.318084 -0.6449594,-9.332482 -5.272773 -0.2006236,-9.352481 -5.076183 0.3360766,-9.312052 -5.291131 0.7227486,-9.627406 -6.626323 -0.5626905,-9.802385 -5.73032 -0.1471282,-9.805676 -5.518928 0.2568139,-9.725203 -5.69207 0.569088,7.110,4 4 0
-1.124798 -12.11768 0.8103249,-1.75508 -11.7834 1.280442,-2.279267 -10.92243 1.567794,-2.598454 -10.155 1.872229,-3.00531 -9.639339 2.217848,-1.881218 -9.126146 1.283946,-2.062381 -7.995281 1.623831,-2.180673 -7.337425 1.838428,-2.310812 -6.677902 2.01108,-1.466441 -9.030447 1.338792,-1.577869 -7.882829 1.711024,-1.577869 -7.882829 1.711024,-1.76623 -6.615827 2.161363,-1.082626 -9.210571 1.478639,-1.094565 -8.108175 1.844456,-1.169346 -7.433248 2.156691,-1.260553 -6.804092 2.405773,-0.7070456 -9.626577 1.66523,-0.6353507 -8.752453 1.997909,-0.6390028 -8.157942 2.273163,-0.6666718 -7.561979 2.503059,-8.954804 -9.062151 -1.134991,-8.326969 -8.764835 -0.5205957,-7.934931 -7.951416 -0.1814529,-7.78805 -7.186855 0.1230026,-7.611605 -6.457664 0.431459,-8.397798 -6.330361 -0.7532927,-8.258786 -5.280241 -0.4469503,-8.237666 -4.554343 -0.04660749,-8.227951 -3.97039 0.2881157,-8.827126 -6.234848 -0.7928432,-8.871602 -5.197998 -0.323281,-8.918663 -4.759609 0.3013375,-8.952844 -4.731011 0.7634833,-9.220744 -6.358503 -0.7475218,-9.300679 -5.325481 -0.31225,-9.319267 -5.130192 0.2202396,-9.288342 -5.334917 0.6080236,-9.61964 -6.646533 -0.6489086,-9.773258 -5.749175 -0.2595559,-9.767809 -5.552443 0.1286697,-9.689732 -5.734529 0.437505,7.210,4 4 0
-1.092861 -12.12582 0.7720983,-1.725211 -11.82171 1.284407,-2.245141 -10.9407 1.56386,-2.54359 -10.13377 1.856049,-2.95467 -9.568241 2.199218,-1.852551 -9.130287 1.143914,-2.03341 -8.045116 1.43483,-2.149721 -7.429172 1.653949,-2.275514 -6.781972 1.839449,-1.425063 -9.028509 1.165972,-1.513011 -8.007839 1.486521,-1.513011 -8.007839 1.486521,-1.66585 -7.027812 2.034885,-1.030458 -9.214624 1.269641,-1.029815 -8.26037 1.602399,-1.087461 -7.683114 1.977472,-1.163525 -7.20584 2.268199,-0.6448545 -9.633511 1.433371,-0.6118879 -8.812582 1.749111,-0.6369429 -8.28257 2.055639,-0.6783524 -7.770069 2.323364,-8.962251 -9.154476 -1.216477,-8.323432 -8.874386 -0.6411134,-7.920828 -8.01383 -0.347797,-7.773974 -7.219247 -0.07740843,-7.617336 -6.486042 0.1941738,-8.378226 -6.439668 -1.001255,-8.234076 -5.409893 -0.7789706,-8.214037 -4.683862 -0.4320853,-8.207945 -4.081535 -0.1323296,-8.793437 -6.337501 -1.040733,-8.819404 -5.316043 -0.6501688,-8.868584 -4.917937 -0.05876184,-8.91385 -4.908781 0.3754134,-9.177155 -6.443935 -0.9966217,-9.237432 -5.425712 -0.6159133,-9.256808 -5.24259 -0.08478665,-9.237673 -5.451074 0.3019984,-9.56879 -6.713418 -0.9053441,-9.694911 -5.825478 -0.5428814,-9.688816 -5.621608 -0.1626649,-9.621861 -5.796203 0.1390158,7.310,4 4 0
-1.077033 -12.15284 0.7706276,-1.712409 -11.83758 1.315315,-2.220357 -10.9687 1.620797,-2.503602 -10.16202 1.929821,-2.911064 -9.556545 2.289392,-1.834889 -9.166384 1.21229,-2.020728 -8.080288 1.552418,-2.137152 -7.481678 1.809406,-2.265903 -6.873199 2.021706,-1.404983 -9.064222 1.227606,-1.492038 -8.048395 1.62701,-1.492038 -8.048395 1.62701,-1.655172 -7.159729 2.309809,-1.010099 -9.256027 1.3241,-1.020717 -8.321846 1.716566,-1.088054 -7.761928 2.149291,-1.17969 -7.342144 2.48122,-0.6248512 -9.677277 1.47799,-0.593565 -8.856504 1.830173,-0.6197257 -8.330038 2.172178,-0.6691647 -7.839458 2.470863,-8.963572 -9.198338 -1.188141,-8.318755 -8.93663 -0.5744031,-7.921207 -8.079363 -0.2571253,-7.767344 -7.291389 0.02738011,-7.594977 -6.541543 0.3088247,-8.370125 -6.477896 -0.9239125,-8.22036 -5.461254 -0.6585824,-8.195555 -4.721773 -0.2934021,-8.184971 -4.118103 0.01384842,-8.78441 -6.376659 -0.9718582,-8.822342 -5.319458 -0.5041648,-8.864222 -5.046415 0.1385987,-8.898423 -5.184564 0.5756346,-9.170055 -6.480012 -0.939504,-9.234457 -5.411382 -0.4909449,-9.236179 -5.347558 0.0775429,-9.205825 -5.702829 0.4585869,-9.56207 -6.748952 -0.8585972,-9.687045 -5.871711 -0.4601847,-9.66519 -5.719617 -0.05823827,-9.590269 -5.976342 0.2451911,7.410,4 4 0
-1.017648 -12.20829 0.859728,-1.642818 -11.89566 1.449766,-2.146495 -11.02236 1.775399,-2.422833 -10.21011 2.089591,-2.826556 -9.566414 2.467195,-1.775781 -9.212702 1.354204,-1.949401 -8.157387 1.694775,-2.050051 -7.555833 1.970023,-2.162343 -6.967898 2.206201,-1.336172 -9.098648 1.355218,-1.412152 -8.116192 1.777105,-1.412152 -8.116192 1.777105,-1.506819 -7.315578 2.549198,-0.9293938 -9.293205 1.437326,-0.9380689 -8.373783 1.861224,-0.9830637 -7.880176 2.368829,-1.062148 -7.614439 2.752328,-0.527916 -9.728407 1.573253,-0.4995642 -8.912806 1.957203,-0.5238447 -8.436474 2.341692,-0.5811014 -8.075644 2.673503,-8.939437 -9.301577 -1.241541,-8.30074 -9.019938 -0.6435301,-7.899022 -8.167187 -0.3275926,-7.738322 -7.38565 -0.04659045,-7.563376 -6.625745 0.2278657,-8.340418 -6.583732 -0.9743406,-8.18672 -5.581342 -0.7205147,-8.159193 -4.868446 -0.3515079,-8.146912 -4.277276 -0.03635764,-8.752115 -6.496084 -1.02137,-8.787222 -5.459769 -0.5784916,-8.844043 -5.128788 0.05186796,-8.893903 -5.194894 0.4924022,-9.134235 -6.615531 -0.9887791,-9.205334 -5.576492 -0.5540847,-9.22259 -5.472186 -0.006634831,-9.210303 -5.766334 0.3663332,-9.520382 -6.898735 -0.9136646,-9.646334 -6.036998 -0.521735,-9.631629 -5.867405 -0.1316148,-9.566777 -6.076907 0.1624445,7.510,4 4 0
-0.9645629 -12.20649 0.827139,-1.596879 -11.92379 1.452934,-2.108096 -11.05242 1.801608,-2.378436 -10.23036 2.11979,-2.774505 -9.572371 2.483811,-1.740592 -9.249041 1.426832,-1.921865 -8.18079 1.790385,-2.025331 -7.561405 2.074579,-2.132335 -6.979546 2.319742,-1.297541 -9.121649 1.402305,-1.370749 -8.140387 1.869047,-1.370749 -8.140387 1.869047,-1.43325 -7.493984 2.650347,-0.888052 -9.314018 1.460136,-0.9023094 -8.405338 1.909146,-0.9334688 -7.971771 2.414056,-0.9904561 -7.805816 2.795584,-0.4847002 -9.748461 1.569026,-0.4555926 -8.946569 1.966721,-0.4730978 -8.518211 2.35919,-0.5176535 -8.247484 2.693159,-8.936088 -9.336584 -1.204536,-8.319159 -9.053335 -0.603729,-7.909375 -8.197826 -0.2838978,-7.743773 -7.42506 -0.003000975,-7.568769 -6.683681 0.2778609,-8.353659 -6.614692 -0.8896996,-8.198642 -5.619693 -0.6404508,-8.171946 -4.922054 -0.2752887,-8.16142 -4.326728 0.03464639,-8.764185 -6.523538 -0.9379599,-8.778127 -5.517936 -0.5251405,-8.834061 -5.136039 0.07423425,-8.887109 -5.115379 0.517765,-9.14573 -6.654048 -0.912044,-9.191863 -5.660409 -0.5204175,-9.211704 -5.443899 0.009277225,-9.203689 -5.587086 0.396232,-9.533628 -6.955052 -0.8458279,-9.645874 -6.12939 -0.4708074,-9.642961 -5.898335 -0.08747733,-9.591022 -5.986023 0.2186078,7.610,4 4 0
-0.8882623 -12.17733 0.7838581,-1.498083 -11.93551 1.474998,-1.991729 -11.10544 1.872534,-2.243866 -10.25904 2.208786,-2.622988 -9.552069 2.578871,-1.646991 -9.266872 1.476805,-1.844263 -8.201536 1.868298,-1.910879 -7.578351 2.231071,-1.945601 -7.034326 2.529024,-1.198564 -9.113213 1.412081,-1.282479 -8.103228 1.940307,-1.282479 -8.103228 1.940307,-1.21214 -7.849031 2.841637,-0.7801886 -9.29352 1.425063,-0.7892284 -8.359781 1.907505,-0.7762313 -8.024748 2.467052,-0.7639103 -8.056219 2.875899,-0.3574286 -9.71982 1.485134,-0.2967367 -8.947584 1.911646,-0.2958226 -8.604641 2.351705,-0.312139 -8.519125 2.710252,-8.94247 -9.331219 -1.316797,-8.324717 -9.050394 -0.7029142,-7.908716 -8.219412 -0.3681334,-7.736925 -7.458118 -0.06901741,-7.580767 -6.715137 0.229985,-8.354361 -6.643641 -0.9817848,-8.200455 -5.649374 -0.7197013,-8.178634 -4.956663 -0.345429,-8.1755 -4.378486 -0.02804673,-8.76542 -6.553376 -1.024327,-8.773274 -5.546852 -0.5861062,-8.829747 -5.17172 0.03216779,-8.889817 -5.175909 0.4875464,-9.144587 -6.682573 -0.9905795,-9.188135 -5.684091 -0.5797799,-9.209184 -5.470304 -0.02941382,-9.205877 -5.629884 0.3739617,-9.530818 -6.975652 -0.917529,-9.64789 -6.144491 -0.5238712,-9.647364 -5.919979 -0.1213677,-9.596531 -6.024688 0.1988611,7.710,4 4 0
-0.8982172 -12.14054 0.6784121,-1.499157 -11.91048 1.367935,-1.972532 -11.0472 1.760255,-2.19979 -10.20055 2.094979,-2.582615 -9.529402 2.483027,-1.61885 -9.266533 1.430661,-1.798417 -8.199171 1.853777,-1.850516 -7.575874 2.253326,-1.871901 -7.051603 2.583261,-1.162445 -9.11734 1.372539,-1.218807 -8.026127 1.972887,-1.218807 -8.026127 1.972887,-1.13348 -7.909705 2.991549,-0.7464275 -9.306843 1.388761,-0.7301731 -8.292067 1.908975,-0.7113628 -8.001081 2.498478,-0.6935472 -8.100128 2.922487,-0.3290105 -9.759436 1.451542,-0.2576823 -8.978474 1.906491,-0.2491469 -8.653418 2.370708,-0.2602425 -8.594049 2.757655,-8.933323 -9.353291 -1.28809,-8.313491 -9.09067 -0.6826373,-7.907502 -8.234617 -0.3625329,-7.74194 -7.465523 -0.07652843,-7.588064 -6.734725 0.2116719,-8.361534 -6.651678 -0.9858916,-8.210611 -5.653077 -0.7343557,-8.187652 -4.961847 -0.3566051,-8.182522 -4.386727 -0.0352962,-8.771544 -6.563762 -1.020592,-8.791687 -5.556388 -0.586935,-8.840988 -5.202074 0.0379225,-8.894258 -5.231533 0.4962895,-9.150544 -6.703351 -0.9789191,-9.209359 -5.69318 -0.5746497,-9.223418 -5.480218 -0.02275419,-9.214366 -5.642608 0.3829898,-9.531198 -7.013172 -0.8963234,-9.658325 -6.177113 -0.5108522,-9.659549 -5.951436 -0.1102028,-9.613297 -6.050632 0.2087724,7.810,4 4 0
