TiagoOliveira98/Thesis-Project/Difficulty_1/Motor_Task/Unity_Project/DataLogging/JointData/Logs(1647318323)_dddd_Motor.csv
WRIST,THUMB_CMC,THUMB_MCP,THUMB_IP,THUMB_TIP,INDEX_FINGER_MCP,INDEX_FINGER_PIP,INDEX_FINGER_DIP,INDEX_FINGER_TIP,MIDDLE_FINGER_MCP,MIDDLE_FINGER_PIP,MIDDLE_FINGER_DIP,MIDDLE_FINGER_TIP,RING_FINGER_MCP,RING_FINGER_PIP,RING_FINGER_DIP,RING_FINGER_TIP,PINKY_MCP,PINKY_PIP,PINKY_DIP,PINKY_TIP,WRIST2,THUMB_CMC2,THUMB_MCP2,THUMB_IP2,THUMB_TIP2,INDEX_FINGER_MCP2,INDEX_FINGER_PIP2,INDEX_FINGER_DIP2,INDEX_FINGER_TIP2,MIDDLE_FINGER_MCP2,MIDDLE_FINGER_PIP2,MIDDLE_FINGER_DIP2,MIDDLE_FINGER_TIP2,RING_FINGER_MCP2,RING_FINGER_PIP2,RING_FINGER_DIP2,RING_FINGER_TIP2,PINKY_MCP2,PINKY_PIP2,PINKY_DIP2,PINKY_TIP2,Timestamp,Event
-1.898785 -7.93125 0.0003887641,-2.438887 -7.645392 0.2820405,-2.926267 -7.145822 0.4848421,-3.267195 -6.658729 0.7100052,-3.552658 -6.31014 0.9734088,-2.559874 -5.536861 0.1341966,-2.778827 -4.55241 0.2866499,-2.884172 -3.962133 0.4202802,-2.955054 -3.398225 0.5337983,-2.266841 -5.380523 0.1870872,-2.399698 -4.198562 0.34128,-2.399698 -4.198562 0.34128,-2.478111 -2.842939 0.6565168,-1.975301 -5.416576 0.3012905,-2.021953 -4.309337 0.4593761,-2.067219 -3.60498 0.6454592,-2.113243 -2.989645 0.8053436,-1.673352 -5.635246 0.4534964,-1.59309 -4.736097 0.6149669,-1.557737 -4.161899 0.7756518,-1.539286 -3.621411 0.9148375,-8.024735 -8.051706 0.0009004719,-7.527751 -7.803459 0.2344894,-7.063278 -7.112026 0.4265188,-6.730313 -6.530412 0.6509011,-6.390712 -6.266193 0.9067072,-7.363383 -5.668021 0.2760682,-7.228004 -4.705361 0.4432986,-7.167564 -4.114727 0.5868752,-7.126452 -3.577796 0.6897648,-7.661621 -5.513729 0.350749,-7.555679 -4.403654 0.5127826,-7.490175 -3.689409 0.7135506,-7.443314 -3.046575 0.8755808,-7.962856 -5.58622 0.4522062,-7.894383 -4.551591 0.6241152,-7.838125 -3.894668 0.7747105,-7.781052 -3.313991 0.9013481,-8.27405 -5.849637 0.5744565,-8.304443 -5.040681 0.7566395,-8.305762 -4.534795 0.8933492,-8.29609 -4.042556 0.9984257,0.010,0  0
-1.87198 -7.892076 -0.1088792,-2.416201 -7.632352 0.2219128,-2.906363 -7.157838 0.448285,-3.254424 -6.682391 0.6891776,-3.539501 -6.339595 0.9627559,-2.55582 -5.54309 0.1028309,-2.781556 -4.536947 0.2833376,-2.876664 -3.933152 0.439954,-2.935585 -3.353549 0.5650361,-2.257062 -5.380456 0.1351479,-2.395342 -4.174686 0.3168632,-2.395342 -4.174686 0.3168632,-2.467946 -2.813238 0.6704054,-1.962841 -5.426595 0.2298777,-2.000507 -4.301894 0.419194,-2.039427 -3.596517 0.6406512,-2.084106 -2.979238 0.8198967,-1.658573 -5.659107 0.3615502,-1.594839 -4.792165 0.5514644,-1.576795 -4.25472 0.7246678,-1.581569 -3.745693 0.8654016,-8.013792 -8.035677 -0.005277669,-7.52215 -7.789934 0.2565598,-7.062012 -7.106363 0.4676335,-6.726315 -6.535465 0.705007,-6.376125 -6.266572 0.9755471,-7.352783 -5.658103 0.3114218,-7.217492 -4.695199 0.4925491,-7.15687 -4.103518 0.6430867,-7.115575 -3.569016 0.7469651,-7.650587 -5.504874 0.3815024,-7.54365 -4.391382 0.554207,-7.475165 -3.680577 0.7581779,-7.426854 -3.043031 0.9223983,-7.955125 -5.578599 0.4816416,-7.88701 -4.545356 0.6709651,-7.829794 -3.88642 0.8329592,-7.772497 -3.30198 0.9642296,-8.271464 -5.842842 0.604224,-8.303045 -5.044717 0.7979412,-8.305898 -4.540176 0.9370353,-8.296307 -4.049863 1.042972,0.110,0  0
-1.877185 -7.912433 0.01716375,-2.406301 -7.637522 0.3935699,-2.89717 -7.156259 0.6325149,-3.242843 -6.666725 0.8711558,-3.537323 -6.310348 1.14467,-2.538411 -5.538217 0.287896,-2.745869 -4.562978 0.4673281,-2.833857 -3.982547 0.6283268,-2.899884 -3.416355 0.7557706,-2.241291 -5.364627 0.2951091,-2.375062 -4.193223 0.4782869,-2.375062 -4.193223 0.4782869,-2.458433 -2.838458 0.8391066,-1.952976 -5.385238 0.3628939,-2.012227 -4.285123 0.5447287,-2.064769 -3.589342 0.7462361,-2.121779 -2.978834 0.9150109,-1.65194 -5.583373 0.4727853,-1.595047 -4.680557 0.6611948,-1.570832 -4.099771 0.8342208,-1.566363 -3.555242 0.9833133,-8.035347 -8.028002 -0.006022198,-7.532166 -7.791845 0.2419757,-7.062004 -7.093552 0.4337424,-6.718394 -6.507455 0.6547821,-6.370246 -6.241577 0.9095181,-7.357008 -5.648451 0.2655265,-7.218346 -4.699378 0.4280533,-7.157822 -4.117352 0.5716144,-7.117669 -3.590252 0.6716125,-7.652606 -5.493606 0.3341385,-7.549335 -4.38968 0.486095,-7.485014 -3.687942 0.6777117,-7.438445 -3.050913 0.8304943,-7.954672 -5.564062 0.432279,-7.889402 -4.537632 0.6015703,-7.83447 -3.893682 0.7494217,-7.777394 -3.320714 0.8735087,-8.266162 -5.825302 0.5542347,-8.300376 -5.032033 0.732945,-8.305367 -4.532157 0.8680789,-8.298832 -4.043952 0.9711964,0.210,0  0
-1.909567 -7.888561 -0.05050493,-2.434543 -7.61594 0.3148927,-2.916687 -7.116477 0.5595957,-3.255016 -6.632581 0.817382,-3.53882 -6.279396 1.111852,-2.579629 -5.516244 0.1785416,-2.801594 -4.536201 0.3597269,-2.89403 -3.944705 0.5113635,-2.950449 -3.373226 0.6322216,-2.280455 -5.357905 0.1934928,-2.419642 -4.185835 0.363809,-2.419642 -4.185835 0.363809,-2.491668 -2.821507 0.7105801,-1.986057 -5.399751 0.2774632,-2.035928 -4.296913 0.4497988,-2.082456 -3.593944 0.6530725,-2.128998 -2.974426 0.8266401,-1.67824 -5.623589 0.4018495,-1.613276 -4.727911 0.5734521,-1.590573 -4.166257 0.7476133,-1.584931 -3.628424 0.8953254,-8.029294 -8.027491 -0.05718343,-7.526194 -7.790287 0.1839623,-7.063787 -7.108917 0.3761905,-6.726002 -6.537666 0.6001788,-6.379585 -6.259193 0.8481731,-7.367938 -5.65448 0.2363768,-7.227942 -4.689292 0.4115166,-7.171186 -4.093881 0.5558974,-7.131368 -3.553524 0.6590372,-7.66012 -5.510158 0.3126264,-7.553981 -4.393873 0.4862395,-7.495479 -3.683638 0.6849332,-7.451361 -3.045129 0.8442758,-7.957288 -5.590558 0.4178481,-7.890345 -4.554897 0.6021174,-7.843588 -3.893259 0.7647253,-7.793564 -3.301478 0.89918,-8.265212 -5.863559 0.543151,-8.297643 -5.063863 0.7367892,-8.301865 -4.551973 0.8891668,-8.292405 -4.048978 1.002343,0.310,0  0
-1.919445 -7.892294 -0.03569427,-2.442681 -7.624841 0.324754,-2.923659 -7.106628 0.5548917,-3.259535 -6.603384 0.7977458,-3.547531 -6.244488 1.075764,-2.579093 -5.519037 0.1898015,-2.806201 -4.541478 0.36544,-2.90057 -3.949742 0.5120165,-2.955378 -3.378439 0.6284909,-2.283362 -5.355759 0.2025343,-2.42255 -4.185123 0.3620321,-2.42255 -4.185123 0.3620321,-2.487885 -2.832032 0.6928844,-1.994322 -5.394742 0.2838278,-2.045033 -4.292638 0.4485962,-2.093632 -3.592233 0.644746,-2.140809 -2.974686 0.8146146,-1.693043 -5.619161 0.4068235,-1.632832 -4.732847 0.5738876,-1.617791 -4.182579 0.7435146,-1.618363 -3.659416 0.8857028,-8.034207 -8.037779 -0.01961349,-7.528131 -7.815381 0.2089782,-7.06095 -7.109965 0.385609,-6.732393 -6.528415 0.5969631,-6.39208 -6.256572 0.8328313,-7.3738 -5.654436 0.2162997,-7.240048 -4.69596 0.3605284,-7.182405 -4.105979 0.4894831,-7.13992 -3.57996 0.5897293,-7.670901 -5.501037 0.2938786,-7.565959 -4.391931 0.4374508,-7.502802 -3.684139 0.6257232,-7.454816 -3.058249 0.7811931,-7.969425 -5.573189 0.4020978,-7.899475 -4.537841 0.5611714,-7.843383 -3.874425 0.7182384,-7.783108 -3.286937 0.8535066,-8.279233 -5.838502 0.5304971,-8.317682 -5.040077 0.7050583,-8.322015 -4.53591 0.8509715,-8.311932 -4.040393 0.9642196,0.410,0  0
-1.924673 -7.901287 -0.02896303,-2.462754 -7.619287 0.2920594,-2.953857 -7.092357 0.4969103,-3.301779 -6.583752 0.7166895,-3.592442 -6.238796 0.9693329,-2.573446 -5.513918 0.1553245,-2.791024 -4.538334 0.298035,-2.892059 -3.951245 0.4271573,-2.95791 -3.393788 0.5348811,-2.27727 -5.358127 0.1742357,-2.415768 -4.188401 0.3154211,-2.415768 -4.188401 0.3154211,-2.50074 -2.856349 0.6068766,-1.988293 -5.396907 0.2556742,-2.04737 -4.305174 0.4143249,-2.102134 -3.606876 0.592956,-2.156976 -3.004761 0.7466223,-1.691097 -5.61584 0.378758,-1.641405 -4.738838 0.5458362,-1.634536 -4.190807 0.7070311,-1.644621 -3.681692 0.8423738,-8.028811 -8.036062 -0.04232858,-7.52623 -7.80084 0.1875627,-7.060349 -7.10351 0.3733108,-6.726792 -6.524286 0.5950299,-6.378974 -6.245464 0.8452161,-7.369829 -5.654653 0.2298267,-7.242199 -4.676799 0.3954774,-7.185584 -4.080509 0.5384244,-7.144282 -3.538204 0.643563,-7.664947 -5.511986 0.3161549,-7.56642 -4.404499 0.4751748,-7.502378 -3.698812 0.673622,-7.452928 -3.060962 0.8359001,-7.964512 -5.588003 0.4327634,-7.903152 -4.565452 0.6047487,-7.85363 -3.915387 0.7604311,-7.79966 -3.333712 0.8929403,-8.274057 -5.854108 0.5691524,-8.314672 -5.052946 0.7522563,-8.325214 -4.549675 0.8928525,-8.322606 -4.054623 0.9985898,0.510,0  0
-1.901555 -7.885156 -0.08588788,-2.442948 -7.612792 0.2553964,-2.932103 -7.120544 0.4685409,-3.267095 -6.62467 0.6851103,-3.535021 -6.274076 0.9266188,-2.555336 -5.522697 0.1614354,-2.770731 -4.534854 0.3235697,-2.870058 -3.948846 0.4633744,-2.937444 -3.385231 0.5753116,-2.264239 -5.364569 0.1690543,-2.402242 -4.180007 0.3334178,-2.402242 -4.180007 0.3334178,-2.483903 -2.844726 0.6382356,-1.978418 -5.398981 0.236412,-2.042565 -4.29577 0.4132581,-2.096973 -3.59744 0.5962893,-2.150793 -2.993181 0.7507408,-1.680633 -5.609214 0.3465921,-1.639416 -4.710523 0.5248902,-1.633534 -4.145992 0.6973305,-1.642941 -3.61926 0.8376688,-8.041853 -8.025703 -0.05830849,-7.533851 -7.80845 0.172236,-7.061185 -7.117429 0.3580678,-6.721686 -6.540031 0.5768899,-6.376461 -6.270154 0.8242486,-7.369638 -5.654642 0.2035354,-7.238783 -4.688279 0.3616711,-7.184972 -4.093069 0.4998257,-7.147666 -3.559253 0.6011646,-7.666894 -5.505484 0.2825515,-7.56482 -4.401952 0.4389864,-7.503407 -3.695257 0.6300668,-7.457067 -3.066354 0.7885107,-7.971071 -5.581462 0.3903026,-7.902318 -4.560465 0.5593625,-7.849046 -3.905941 0.7147564,-7.792154 -3.327989 0.8451719,-8.285923 -5.848203 0.518943,-8.320313 -5.052421 0.7045575,-8.3252 -4.5447 0.8497074,-8.31733 -4.048748 0.9619383,0.610,0  0
-1.896418 -7.88908 -0.09297974,-2.434402 -7.598529 0.2761489,-2.915481 -7.084421 0.5142102,-3.251285 -6.580125 0.7560478,-3.539471 -6.228584 1.026885,-2.548903 -5.520147 0.1963131,-2.762081 -4.522036 0.3816269,-2.852292 -3.926508 0.5370216,-2.90787 -3.35045 0.6644143,-2.245574 -5.372617 0.1985711,-2.378417 -4.194426 0.3779926,-2.378417 -4.194426 0.3779926,-2.438703 -2.851605 0.7197469,-1.952347 -5.415949 0.2629265,-2.012805 -4.320487 0.4503043,-2.057986 -3.621516 0.642336,-2.102072 -3.011199 0.8086218,-1.651546 -5.631219 0.3677441,-1.584885 -4.742675 0.552389,-1.560256 -4.185243 0.727549,-1.551858 -3.658453 0.8733429,-8.027264 -8.02603 -0.06849187,-7.525064 -7.799251 0.1660899,-7.054948 -7.109399 0.352835,-6.715798 -6.53655 0.5718465,-6.37609 -6.267976 0.8166897,-7.37248 -5.659256 0.2185174,-7.239542 -4.687589 0.3830866,-7.183953 -4.091628 0.5230334,-7.145272 -3.5605 0.6283425,-7.669911 -5.509737 0.2974741,-7.564548 -4.399321 0.4648775,-7.497358 -3.684571 0.6607628,-7.448018 -3.055585 0.8236613,-7.973524 -5.582874 0.401336,-7.902504 -4.555997 0.5827092,-7.845971 -3.887865 0.7416416,-7.785399 -3.301158 0.8775667,-8.287556 -5.848499 0.5257756,-8.326734 -5.051251 0.7145963,-8.332014 -4.542364 0.8592139,-8.323511 -4.046951 0.974267,0.710,0  0
-1.890907 -7.8878 -0.1008328,-2.416973 -7.638101 0.2289861,-2.894666 -7.115674 0.4351421,-3.223153 -6.605539 0.6512843,-3.506512 -6.227617 0.8935218,-2.560917 -5.535151 0.09748003,-2.779873 -4.549849 0.2717673,-2.874363 -3.944096 0.4207616,-2.928265 -3.362228 0.5410836,-2.262546 -5.37014 0.125329,-2.393558 -4.191976 0.2891761,-2.393558 -4.191976 0.2891761,-2.455748 -2.834287 0.6196806,-1.967858 -5.407173 0.217292,-2.011327 -4.30556 0.3862737,-2.048751 -3.594857 0.5860879,-2.088243 -2.979088 0.7602841,-1.661611 -5.629131 0.3497178,-1.592357 -4.747188 0.5208591,-1.565197 -4.194248 0.6938528,-1.559168 -3.677678 0.8378158,-8.046107 -8.027435 -0.06375583,-7.538701 -7.816252 0.1746816,-7.069365 -7.124714 0.3593098,-6.735521 -6.542804 0.5773134,-6.395174 -6.263704 0.8210137,-7.370287 -5.659544 0.1838362,-7.238936 -4.691581 0.3366247,-7.182724 -4.096112 0.4715834,-7.144324 -3.563464 0.5683524,-7.665434 -5.507585 0.2614911,-7.567531 -4.403012 0.4041276,-7.503251 -3.697929 0.5921065,-7.456188 -3.066267 0.7444473,-7.965787 -5.579801 0.3739209,-7.907113 -4.559602 0.5392334,-7.853552 -3.907293 0.693876,-7.795792 -3.330034 0.8226129,-8.277263 -5.841475 0.5052188,-8.323243 -5.04231 0.6905583,-8.329807 -4.531306 0.8363228,-8.322663 -4.029886 0.9453452,0.810,0  0
-1.899229 -7.913604 -0.07829845,-2.421857 -7.646944 0.2762871,-2.898247 -7.115722 0.4988143,-3.231733 -6.594053 0.7299496,-3.520761 -6.211618 0.9969881,-2.566779 -5.552618 0.1488306,-2.783778 -4.568262 0.3328087,-2.876896 -3.96082 0.4801517,-2.930834 -3.375358 0.5999572,-2.266543 -5.389875 0.1597414,-2.396581 -4.218973 0.3326123,-2.396581 -4.218973 0.3326123,-2.455783 -2.853346 0.6635798,-1.971613 -5.426679 0.2363047,-2.013421 -4.32039 0.4092505,-2.058078 -3.614925 0.6112473,-2.10098 -2.99398 0.7868351,-1.666054 -5.646724 0.3531829,-1.595475 -4.754695 0.5257308,-1.571877 -4.198029 0.7020631,-1.564919 -3.670866 0.8523009,-8.047323 -8.033491 -0.09678469,-7.538715 -7.812757 0.1288885,-7.065765 -7.131423 0.3112129,-6.728544 -6.561422 0.5308089,-6.392603 -6.287733 0.7743928,-7.368868 -5.670972 0.1407503,-7.235268 -4.697156 0.2970501,-7.179208 -4.097777 0.4319727,-7.141195 -3.560817 0.5265391,-7.662924 -5.523458 0.2256514,-7.564813 -4.418777 0.3729524,-7.504466 -3.711206 0.5616187,-7.461999 -3.077083 0.7117574,-7.963053 -5.591882 0.3406684,-7.900609 -4.572213 0.506928,-7.850005 -3.9262 0.6508533,-7.797119 -3.355558 0.7708256,-8.274381 -5.845891 0.476861,-8.313931 -5.041039 0.6581606,-8.320836 -4.529217 0.7932557,-8.315168 -4.027771 0.8945222,0.910,0  0
-1.899044 -7.917574 -0.07305147,-2.424969 -7.659166 0.2907417,-2.905313 -7.141248 0.515515,-3.239898 -6.618472 0.7438279,-3.538116 -6.232777 1.006657,-2.571953 -5.553733 0.1470554,-2.79249 -4.573736 0.3159423,-2.88736 -3.977951 0.4548028,-2.943258 -3.40505 0.5733753,-2.267795 -5.391078 0.1492545,-2.396265 -4.237922 0.3021122,-2.396265 -4.237922 0.3021122,-2.450649 -2.898193 0.6283507,-1.972213 -5.424192 0.2174544,-2.015125 -4.339317 0.3726276,-2.055952 -3.645892 0.5739496,-2.09631 -3.034658 0.7504593,-1.666865 -5.639787 0.3286831,-1.594799 -4.76202 0.4902357,-1.567415 -4.206295 0.6681138,-1.556658 -3.675084 0.8218464,-8.031193 -8.033173 -0.1140181,-7.534625 -7.817413 0.1130925,-7.0686 -7.144433 0.3024962,-6.737484 -6.577955 0.5280742,-6.412169 -6.28576 0.7735043,-7.389138 -5.677986 0.1489575,-7.248898 -4.700836 0.3137284,-7.187345 -4.098886 0.4554704,-7.141323 -3.565891 0.5682489,-7.681484 -5.52699 0.2375364,-7.570554 -4.416513 0.4028607,-7.503317 -3.699546 0.6036291,-7.457158 -3.068548 0.7706039,-7.97948 -5.601495 0.3565298,-7.905627 -4.577889 0.535249,-7.849791 -3.903381 0.7030091,-7.790554 -3.30809 0.8477792,-8.291352 -5.868168 0.4952896,-8.332819 -5.068196 0.6817178,-8.341481 -4.563255 0.8345263,-8.334394 -4.070901 0.9559039,1.010,0  0
-1.90275 -7.939617 -0.07964792,-2.425661 -7.667335 0.2810727,-2.898643 -7.135276 0.5060234,-3.222706 -6.625913 0.7435001,-3.510044 -6.250347 1.017425,-2.572396 -5.563507 0.1133879,-2.785435 -4.581331 0.2866219,-2.876804 -3.98377 0.4333742,-2.930883 -3.405635 0.5516572,-2.267561 -5.413432 0.1307735,-2.391874 -4.275947 0.2810194,-2.391874 -4.275947 0.2810194,-2.437197 -2.961721 0.6003214,-1.970009 -5.46168 0.2172974,-2.008193 -4.39476 0.3822317,-2.042887 -3.708766 0.5871645,-2.080552 -3.102161 0.7587828,-1.663088 -5.68939 0.3489929,-1.59908 -4.831424 0.5229654,-1.577585 -4.296834 0.6970398,-1.576066 -3.78725 0.8431066,-8.064131 -8.037325 -0.1059275,-7.552196 -7.831787 0.1291241,-7.080709 -7.138343 0.3147432,-6.746929 -6.563144 0.5323896,-6.410615 -6.278908 0.7754582,-7.397725 -5.682504 0.1722846,-7.261209 -4.707454 0.3399372,-7.204773 -4.106033 0.4740964,-7.168245 -3.56008 0.5748011,-7.69586 -5.533571 0.2603523,-7.59155 -4.426436 0.4287924,-7.524873 -3.709122 0.6302263,-7.477273 -3.071101 0.7943517,-8.000689 -5.610048 0.3791255,-7.935247 -4.592363 0.5653906,-7.878513 -3.925031 0.7367088,-7.81599 -3.340374 0.8819248,-8.318714 -5.879218 0.5152594,-8.359138 -5.085105 0.7243862,-8.363155 -4.570295 0.8861699,-8.349915 -4.075233 1.008704,1.110,0  0
-1.89709 -7.946057 -0.1259919,-2.428917 -7.661081 0.2317258,-2.907898 -7.144058 0.450479,-3.23344 -6.632459 0.6795829,-3.515085 -6.246204 0.9400377,-2.564426 -5.573917 0.08269523,-2.766742 -4.595708 0.2535677,-2.856939 -4.004913 0.3982949,-2.913804 -3.426832 0.5148475,-2.259143 -5.43344 0.09073298,-2.380679 -4.329635 0.2395477,-2.380679 -4.329635 0.2395477,-2.41812 -3.044524 0.5557727,-1.960343 -5.483449 0.1649385,-1.99923 -4.450543 0.3170083,-2.025493 -3.786405 0.5238152,-2.050263 -3.188026 0.6961706,-1.652482 -5.703803 0.2823569,-1.595854 -4.862989 0.4449098,-1.576404 -4.344673 0.6223367,-1.569216 -3.845604 0.7714524,-8.060666 -8.044212 -0.1073636,-7.553641 -7.821035 0.1368287,-7.088905 -7.140365 0.3429283,-6.754587 -6.577787 0.5791456,-6.419824 -6.285583 0.837622,-7.425683 -5.681894 0.2147009,-7.286407 -4.697628 0.3995751,-7.222183 -4.09365 0.5487987,-7.17568 -3.549344 0.6665495,-7.729798 -5.542493 0.3030163,-7.625074 -4.427944 0.4946529,-7.55594 -3.704706 0.7094904,-7.510189 -3.062612 0.8883526,-8.038449 -5.6335 0.419876,-7.972167 -4.610555 0.6226045,-7.912915 -3.934211 0.802089,-7.849827 -3.336759 0.9530958,-8.358346 -5.917937 0.5560946,-8.397166 -5.112966 0.7719947,-8.399025 -4.598144 0.9359132,-8.38371 -4.098802 1.063011,1.210,0  0
-1.906006 -7.923398 -0.1995463,-2.439084 -7.631578 0.1630921,-2.91959 -7.111757 0.3952398,-3.248234 -6.594463 0.6378459,-3.54121 -6.199554 0.9103394,-2.568433 -5.567955 0.06600395,-2.76692 -4.599691 0.2498293,-2.859329 -4.016908 0.4005694,-2.922682 -3.44258 0.5276648,-2.259661 -5.436218 0.07159555,-2.376777 -4.353574 0.2491497,-2.376777 -4.353574 0.2491497,-2.419133 -3.078017 0.5897159,-1.96176 -5.494752 0.1377639,-1.997576 -4.487548 0.3164108,-2.022236 -3.840412 0.5321376,-2.047688 -3.248989 0.7135028,-1.656723 -5.718053 0.2436222,-1.595404 -4.908934 0.4213125,-1.566882 -4.407827 0.6093245,-1.55328 -3.909614 0.767174,-8.09469 -8.041647 -0.1663688,-7.583804 -7.836023 0.08614689,-7.115394 -7.153214 0.2926219,-6.784627 -6.577828 0.5275308,-6.464262 -6.266521 0.7770249,-7.458089 -5.696296 0.1532032,-7.320159 -4.708292 0.3411438,-7.261129 -4.105255 0.489049,-7.218715 -3.570866 0.6017911,-7.762208 -5.554792 0.2282041,-7.656063 -4.432363 0.4191585,-7.589957 -3.712789 0.6280326,-7.548915 -3.07071 0.8001471,-8.066233 -5.64232 0.3316618,-8.001606 -4.620525 0.5235853,-7.948646 -3.947551 0.6886643,-7.892788 -3.355228 0.8303455,-8.379889 -5.919607 0.4545301,-8.418783 -5.110135 0.6507123,-8.420038 -4.597818 0.8069183,-8.406005 -4.097223 0.9319378,1.310,0  0
-1.88495 -7.926411 -0.2986855,-2.410769 -7.655942 0.08994937,-2.886526 -7.145009 0.3070064,-3.206093 -6.66259 0.5296618,-3.482123 -6.281301 0.7809991,-2.539853 -5.585466 -0.03389499,-2.725746 -4.64632 0.1358062,-2.809264 -4.073928 0.2928061,-2.87183 -3.508152 0.4311756,-2.219082 -5.463348 -0.0453178,-2.338705 -4.448175 0.1009108,-2.338705 -4.448175 0.1009108,-2.405367 -3.269728 0.4302913,-1.917032 -5.536087 0.005794674,-1.936309 -4.588303 0.1697176,-1.952748 -3.996622 0.3926814,-1.975256 -3.462614 0.5753095,-1.619705 -5.773844 0.1052675,-1.568087 -5.005105 0.281861,-1.556151 -4.531105 0.4705296,-1.563198 -4.065803 0.6316017,-8.121763 -8.104666 -0.06544165,-7.60839 -7.871076 0.1897968,-7.15197 -7.192293 0.406365,-6.834303 -6.611564 0.6560149,-6.51203 -6.288887 0.9132437,-7.496872 -5.72593 0.2303291,-7.373636 -4.736291 0.4169803,-7.320133 -4.140329 0.5703546,-7.280699 -3.610849 0.6840007,-7.800499 -5.583623 0.3074654,-7.710067 -4.460321 0.4892602,-7.656329 -3.74237 0.6956911,-7.623022 -3.110277 0.862657,-8.105075 -5.668972 0.4182045,-8.045409 -4.629957 0.5978339,-7.99863 -3.951405 0.7543246,-7.950341 -3.354725 0.8911062,-8.423904 -5.94698 0.551359,-8.462219 -5.114717 0.7352998,-8.466497 -4.588859 0.8850936,-8.460345 -4.083911 0.9998471,1.410,0  0
-1.864994 -7.912015 -0.5369435,-2.373103 -7.668085 -0.138261,-2.848472 -7.16641 0.06754345,-3.168734 -6.712087 0.2808995,-3.431324 -6.377983 0.5249947,-2.52247 -5.615394 -0.3153977,-2.70787 -4.707253 -0.149049,-2.791245 -4.172716 0.02011579,-2.853409 -3.635103 0.1641031,-2.194829 -5.512084 -0.3407156,-2.283811 -4.589945 -0.2127481,-2.283811 -4.589945 -0.2127481,-2.314662 -3.5788 0.08218515,-1.886908 -5.612958 -0.2989766,-1.871547 -4.769864 -0.1478353,-1.863604 -4.272262 0.07660002,-1.8718 -3.862627 0.240748,-1.583735 -5.875696 -0.2018172,-1.511478 -5.230489 -0.02822506,-1.489363 -4.857623 0.157883,-1.494106 -4.502284 0.3076127,-8.173985 -8.145676 0.03138672,-7.657104 -7.889608 0.2894818,-7.198206 -7.209838 0.5028162,-6.892921 -6.618915 0.7501981,-6.57033 -6.29854 1.005356,-7.540156 -5.74428 0.3236652,-7.414207 -4.773263 0.5018252,-7.365106 -4.186761 0.6537952,-7.332883 -3.659547 0.7590031,-7.848806 -5.59477 0.3888932,-7.755676 -4.485182 0.5533428,-7.705922 -3.775198 0.7533613,-7.677176 -3.151409 0.9134403,-8.153549 -5.667948 0.4855723,-8.093984 -4.635791 0.6439357,-8.053047 -3.97047 0.7793587,-8.013549 -3.395175 0.8979653,-8.469534 -5.931661 0.6045898,-8.494501 -5.09757 0.7690886,-8.492263 -4.57607 0.8981316,-8.484133 -4.082742 0.9977375,1.510,0  0
-1.841923 -7.896761 -0.628076,-2.35735 -7.679609 -0.2212033,-2.840719 -7.185221 -0.02034861,-3.166215 -6.72611 0.1829664,-3.428653 -6.372882 0.4051129,-2.506145 -5.637668 -0.4480293,-2.686351 -4.731689 -0.3243807,-2.769017 -4.197971 -0.1775067,-2.828821 -3.665228 -0.04269511,-2.176612 -5.520451 -0.4789789,-2.25827 -4.625259 -0.3782907,-2.25827 -4.625259 -0.3782907,-2.277799 -3.669703 -0.09509069,-1.864534 -5.611492 -0.4407326,-1.843416 -4.790548 -0.307558,-1.833627 -4.342998 -0.07838392,-1.839155 -4.008033 0.08936632,-1.551628 -5.856313 -0.3475209,-1.478361 -5.223158 -0.1975456,-1.458294 -4.885395 -0.02009708,-1.466076 -4.591214 0.1217832,-8.1807 -8.161718 0.08246119,-7.670983 -7.894142 0.3357276,-7.220845 -7.202501 0.5498146,-6.913503 -6.617652 0.8017259,-6.58258 -6.312988 1.072128,-7.568917 -5.733879 0.3888149,-7.443311 -4.754495 0.5548683,-7.393126 -4.164608 0.6982786,-7.359797 -3.634103 0.8038299,-7.879169 -5.596643 0.4646844,-7.785412 -4.492475 0.6312681,-7.734929 -3.788149 0.8349447,-7.704396 -3.169548 1.002636,-8.185888 -5.680295 0.5705628,-8.13047 -4.656032 0.7405162,-8.091093 -3.990737 0.8886876,-8.047259 -3.41463 1.016551,-8.507024 -5.951869 0.697298,-8.532227 -5.115505 0.877566,-8.530763 -4.592958 1.015777,-8.517027 -4.100991 1.123967,1.610,0  0
-1.788592 -7.870788 -0.794354,-2.304881 -7.670722 -0.3756602,-2.768669 -7.209843 -0.1676487,-3.078684 -6.751323 0.03026563,-3.340609 -6.393318 0.2515396,-2.436958 -5.667551 -0.5499831,-2.624499 -4.769133 -0.4028012,-2.705711 -4.236818 -0.2352423,-2.758885 -3.704365 -0.07924634,-2.107375 -5.543266 -0.6043866,-2.179459 -4.667528 -0.4807512,-2.179459 -4.667528 -0.4807512,-2.183977 -3.713978 -0.1718845,-1.79875 -5.640281 -0.5933061,-1.783201 -4.845163 -0.4481328,-1.777139 -4.415048 -0.2172286,-1.783999 -4.089418 -0.03666008,-1.491309 -5.893545 -0.5307382,-1.420707 -5.291996 -0.3610964,-1.405379 -4.959875 -0.1719004,-1.411708 -4.669729 -0.007280648,-8.263867 -8.177824 0.09739925,-7.749528 -7.900211 0.4073829,-7.294127 -7.21265 0.6537533,-6.979189 -6.622388 0.9215918,-6.641661 -6.269754 1.207756,-7.653406 -5.758054 0.4920564,-7.535242 -4.772357 0.6960099,-7.500134 -4.18524 0.8623194,-7.48708 -3.650357 0.9829702,-7.963606 -5.62055 0.5547963,-7.87816 -4.52276 0.7547848,-7.831411 -3.818519 0.9759602,-7.805973 -3.191226 1.15772,-8.269978 -5.707551 0.6488868,-8.225599 -4.683671 0.8516943,-8.185945 -4.015693 1.041101,-8.144184 -3.432575 1.194954,-8.592657 -5.981611 0.7670978,-8.626171 -5.159629 0.9729943,-8.622997 -4.636059 1.130863,-8.607126 -4.137283 1.250744,1.710,0  0
-1.742263 -7.860319 -0.8475797,-2.250891 -7.680175 -0.4357004,-2.703381 -7.210437 -0.2352065,-3.012572 -6.739439 -0.0365414,-3.287565 -6.373786 0.1881386,-2.387619 -5.674533 -0.6233759,-2.567961 -4.79109 -0.4943698,-2.646914 -4.261284 -0.3313206,-2.694856 -3.724021 -0.1701298,-2.058779 -5.548468 -0.6502938,-2.124732 -4.696065 -0.5088222,-2.124732 -4.696065 -0.5088222,-2.118791 -3.779522 -0.1486689,-1.748178 -5.648432 -0.6076843,-1.731127 -4.860377 -0.4391806,-1.723569 -4.444128 -0.1632969,-1.733 -4.149058 0.05178744,-1.436562 -5.904285 -0.5189981,-1.374718 -5.289062 -0.3220176,-1.370669 -4.973066 -0.1123126,-1.393013 -4.729475 0.06337452,-8.295938 -8.207056 0.08618353,-7.78635 -7.914392 0.4000386,-7.342091 -7.229551 0.6455334,-7.03937 -6.630497 0.9064479,-6.703948 -6.276826 1.181459,-7.712172 -5.784376 0.4838146,-7.60957 -4.785983 0.6730944,-7.579125 -4.19683 0.8294429,-7.568574 -3.666034 0.9518524,-8.017395 -5.65026 0.5416776,-7.938892 -4.549011 0.7379006,-7.889789 -3.843009 0.9583495,-7.858387 -3.216194 1.145829,-8.316686 -5.736372 0.6278647,-8.27905 -4.707961 0.8157502,-8.237755 -4.039829 1.006401,-8.190768 -3.454738 1.166696,-8.629445 -6.005584 0.7378761,-8.675579 -5.190388 0.9318656,-8.678135 -4.675944 1.08571,-8.667998 -4.186193 1.204982,1.810,0  0
-1.692198 -7.888956 -1.008939,-2.191759 -7.74928 -0.6254932,-2.646445 -7.275294 -0.4492652,-2.951412 -6.793652 -0.2762493,-3.218145 -6.414017 -0.08529299,-2.331079 -5.751486 -0.9068507,-2.504345 -4.857872 -0.8264806,-2.580921 -4.323799 -0.6959599,-2.620846 -3.818848 -0.5525635,-2.006617 -5.616358 -0.9289525,-2.052709 -4.766943 -0.8352892,-2.052709 -4.766943 -0.8352892,-2.020082 -3.975706 -0.5422814,-1.692639 -5.702224 -0.8774083,-1.659205 -4.909523 -0.7497358,-1.635678 -4.527753 -0.4871246,-1.635266 -4.343824 -0.2969983,-1.374059 -5.946565 -0.7786924,-1.29496 -5.322551 -0.6213814,-1.265775 -5.005778 -0.435225,-1.271686 -4.814388 -0.2765193,-8.374304 -8.25654 0.1373172,-7.862294 -7.971159 0.4528535,-7.406766 -7.278749 0.698925,-7.090517 -6.670463 0.9593308,-6.747074 -6.31701 1.241367,-7.770947 -5.822778 0.5061072,-7.670323 -4.841653 0.7022256,-7.649823 -4.253915 0.8692062,-7.64451 -3.737825 0.9895622,-8.085399 -5.679802 0.5567911,-8.013221 -4.588973 0.7426546,-7.979536 -3.89148 0.9477097,-7.963687 -3.277952 1.126706,-8.391006 -5.758372 0.6357332,-8.35794 -4.736346 0.8249723,-8.32325 -4.082078 0.9906772,-8.284759 -3.513714 1.127643,-8.71194 -6.023317 0.7431533,-8.747828 -5.207227 0.9244959,-8.752282 -4.692394 1.044224,-8.746067 -4.198547 1.142132,1.910,0  0
-1.684688 -7.910619 -1.043746,-2.190685 -7.805921 -0.6094282,-2.643635 -7.37679 -0.3978217,-2.937531 -6.914216 -0.2087188,-3.206678 -6.52041 -0.0001789331,-2.338034 -5.798648 -0.9290956,-2.520413 -4.923221 -0.859571,-2.602036 -4.381341 -0.7253171,-2.63374 -3.874504 -0.57818,-2.012815 -5.64929 -0.9887649,-2.062521 -4.842306 -0.9046578,-2.062521 -4.842306 -0.9046578,-1.984571 -4.198179 -0.5744145,-1.701338 -5.722099 -0.9685574,-1.681111 -4.979869 -0.8522747,-1.656852 -4.697116 -0.5275484,-1.640987 -4.662759 -0.299706,-1.379597 -5.93739 -0.9030348,-1.318409 -5.330862 -0.7566346,-1.292756 -5.079947 -0.5464372,-1.288972 -5.02577 -0.3673958,-8.365866 -8.250179 0.07925282,-7.849254 -7.977201 0.3947209,-7.399903 -7.278696 0.6369084,-7.084774 -6.672169 0.892435,-6.742204 -6.336555 1.174797,-7.770237 -5.827447 0.4418016,-7.666268 -4.835477 0.6343775,-7.640259 -4.256776 0.8093821,-7.631253 -3.752086 0.9243821,-8.079684 -5.688581 0.4896747,-8.011124 -4.57271 0.6689506,-7.980062 -3.874404 0.87387,-7.967317 -3.263883 1.039724,-8.378901 -5.769025 0.5664684,-8.35511 -4.729311 0.7529866,-8.329522 -4.067106 0.9212136,-8.301838 -3.49036 1.055247,-8.691336 -6.036605 0.6692536,-8.742496 -5.218048 0.8553344,-8.757618 -4.703469 0.9786277,-8.763374 -4.207202 1.07076,2.010,0  0
-1.710851 -7.939268 -1.0556,-2.221299 -7.851673 -0.620968,-2.678684 -7.441154 -0.4096985,-2.976931 -6.985086 -0.2193683,-3.258797 -6.595104 -0.01537919,-2.375816 -5.835794 -0.9704602,-2.558277 -4.982939 -0.901193,-2.648712 -4.451042 -0.7684095,-2.686111 -3.940627 -0.6286482,-2.054723 -5.683164 -1.029649,-2.105721 -4.8964 -0.9427894,-2.105721 -4.8964 -0.9427894,-2.018126 -4.308209 -0.5888313,-1.747959 -5.738916 -1.007502,-1.740448 -5.016712 -0.8942509,-1.724848 -4.72237 -0.5754505,-1.707095 -4.65931 -0.3494381,-1.428081 -5.935677 -0.9412809,-1.364183 -5.338149 -0.7963609,-1.341579 -5.118659 -0.586837,-1.329648 -5.088382 -0.4113563,-8.340634 -8.255083 0.1046547,-7.826686 -7.966392 0.4187383,-7.378222 -7.265329 0.6629928,-7.060325 -6.650617 0.9214813,-6.708473 -6.305532 1.21111,-7.752462 -5.823029 0.4853595,-7.652194 -4.833536 0.6847565,-7.626936 -4.25258 0.8641796,-7.616094 -3.735539 0.9831756,-8.060983 -5.688922 0.5367625,-7.990374 -4.574683 0.7211821,-7.960325 -3.875981 0.9272985,-7.947836 -3.261142 1.094399,-8.361689 -5.773042 0.6127608,-8.333701 -4.729606 0.802021,-8.307429 -4.065086 0.9667192,-8.281016 -3.486527 1.098565,-8.677185 -6.042854 0.7165561,-8.720219 -5.213403 0.908386,-8.732012 -4.691369 1.030893,-8.73579 -4.187943 1.119713,2.110,0  0
-1.84419 -7.955446 -1.198367,-2.338521 -7.879373 -0.6864117,-2.771864 -7.468771 -0.3807051,-3.063148 -7.062843 -0.1166022,-3.359715 -6.711064 0.1722447,-2.512586 -5.876365 -0.8894891,-2.699844 -5.055437 -0.6844788,-2.795969 -4.50139 -0.4462681,-2.866133 -3.981291 -0.2349273,-2.18343 -5.754676 -0.9421357,-2.255592 -4.882945 -0.6047025,-2.255592 -4.882945 -0.6047025,-2.225319 -4.687343 -0.04935122,-1.875927 -5.833625 -0.9135664,-1.864869 -5.026109 -0.5791932,-1.863544 -4.918609 -0.1654058,-1.870956 -5.127435 0.06675684,-1.568938 -6.067208 -0.84611,-1.491608 -5.419134 -0.5932199,-1.488987 -5.206892 -0.3157181,-1.504238 -5.243277 -0.1106064,-8.299212 -8.252186 0.1626127,-7.793441 -7.955089 0.4633444,-7.34568 -7.258583 0.6971409,-7.038073 -6.654722 0.9472634,-6.692808 -6.329727 1.224267,-7.721173 -5.80147 0.5328954,-7.617445 -4.827466 0.7254316,-7.584213 -4.245517 0.8932327,-7.563558 -3.719955 1.004309,-8.036202 -5.6664 0.5887184,-7.966946 -4.557538 0.7651215,-7.934697 -3.862715 0.9689249,-7.913752 -3.250822 1.13188,-8.342928 -5.751344 0.6684528,-8.310036 -4.71305 0.8506775,-8.284249 -4.051919 1.014503,-8.250824 -3.475009 1.144558,-8.660359 -6.02297 0.7748746,-8.700034 -5.209982 0.9634674,-8.711751 -4.690123 1.089535,-8.709892 -4.192029 1.182311,2.210,0  0
-1.944496 -8.007429 -1.38965,-2.45097 -8.022219 -0.9396186,-2.896958 -7.58651 -0.6919422,-3.184168 -7.165437 -0.471319,-3.503515 -6.86243 -0.2169125,-2.661877 -6.008893 -1.168152,-2.861651 -5.178919 -0.9887596,-2.97285 -4.612988 -0.7737493,-3.055469 -4.084752 -0.5730171,-2.331976 -5.863796 -1.197272,-2.407426 -4.976573 -0.8741887,-2.407426 -4.976573 -0.8741887,-2.338519 -4.809181 -0.3474897,-2.012736 -5.918743 -1.146298,-2.018231 -5.073122 -0.8220438,-2.00703 -5.010156 -0.4360756,-1.996013 -5.234746 -0.2225008,-1.684489 -6.144815 -1.056109,-1.638726 -5.448141 -0.7923098,-1.652467 -5.37725 -0.5384269,-1.667779 -5.56619 -0.3628265,-8.295717 -8.256145 0.159504,-7.786906 -7.974439 0.4588702,-7.339657 -7.26757 0.6888726,-7.035769 -6.645927 0.9370517,-6.694632 -6.302736 1.208881,-7.704826 -5.809214 0.5030128,-7.602584 -4.833955 0.6818172,-7.573358 -4.251098 0.8533744,-7.557907 -3.732603 0.9687495,-8.014338 -5.668966 0.5589953,-7.948006 -4.556762 0.7153211,-7.915361 -3.855093 0.9180683,-7.898624 -3.235952 1.083303,-8.314527 -5.753359 0.6411216,-8.292265 -4.715776 0.8069518,-8.269403 -4.049602 0.9703958,-8.242785 -3.463197 1.10081,-8.626708 -6.027652 0.7511629,-8.680559 -5.203422 0.9270185,-8.696573 -4.680726 1.05452,-8.702059 -4.177684 1.146232,2.310,0  0
-1.998811 -8.042826 -1.462968,-2.508883 -8.090139 -0.9665828,-2.958574 -7.670198 -0.6954737,-3.251741 -7.275047 -0.4548013,-3.581689 -6.994794 -0.1845664,-2.743124 -6.070428 -1.171254,-2.947107 -5.248682 -0.9678996,-3.060628 -4.688985 -0.7459753,-3.146511 -4.161588 -0.5397722,-2.406339 -5.931373 -1.204415,-2.476296 -5.049743 -0.8246905,-2.476296 -5.049743 -0.8246905,-2.402815 -4.899404 -0.2499826,-2.08075 -5.991731 -1.155846,-2.0867 -5.168165 -0.786326,-2.077869 -5.087658 -0.3588132,-2.068649 -5.285158 -0.1235975,-1.749064 -6.214618 -1.068478,-1.70354 -5.539271 -0.7630272,-1.720118 -5.449358 -0.4755729,-1.739093 -5.615461 -0.2721795,-8.290499 -8.272282 0.1676507,-7.780602 -7.985506 0.4357969,-7.334753 -7.280779 0.6494761,-7.027337 -6.663525 0.8875192,-6.691297 -6.335201 1.150438,-7.705377 -5.809827 0.4778541,-7.609918 -4.830648 0.6468724,-7.580803 -4.250703 0.8094577,-7.564632 -3.737613 0.918434,-8.016182 -5.678644 0.5448774,-7.953218 -4.564511 0.6963243,-7.918428 -3.863666 0.8930932,-7.899736 -3.247066 1.050479,-8.317315 -5.769748 0.6360641,-8.297661 -4.733182 0.7960122,-8.274113 -4.073364 0.9497225,-8.245968 -3.495565 1.071652,-8.62658 -6.050544 0.7523528,-8.68223 -5.22425 0.9218516,-8.700031 -4.701959 1.044057,-8.706015 -4.204031 1.130766,2.410,0  0
-2.142975 -8.193211 -1.439407,-2.657803 -8.226929 -0.9674454,-3.129288 -7.691311 -0.689329,-3.446135 -7.247316 -0.4412113,-3.806093 -6.929359 -0.1439854,-2.918726 -6.231218 -1.057862,-3.13253 -5.421778 -0.7618688,-3.247884 -4.85023 -0.4715935,-3.335997 -4.328885 -0.2077928,-2.576543 -6.100062 -1.050376,-2.67043 -5.223163 -0.5492283,-2.67043 -5.223163 -0.5492283,-2.62452 -5.041765 0.1228999,-2.233554 -6.171571 -0.9728483,-2.261758 -5.362232 -0.4864551,-2.267949 -5.326192 -0.02221084,-2.272068 -5.533999 0.2164754,-1.87881 -6.402278 -0.8630052,-1.840796 -5.74016 -0.4698896,-1.871367 -5.681633 -0.1540042,-1.902828 -5.864091 0.06381369,-8.295209 -8.302526 0.2130317,-7.793518 -8.008921 0.4865005,-7.351311 -7.320825 0.7046171,-7.050593 -6.710182 0.9473364,-6.727656 -6.379079 1.209689,-7.717753 -5.833989 0.5167798,-7.611813 -4.872583 0.675537,-7.57909 -4.298672 0.8301073,-7.560488 -3.792727 0.9388696,-8.027201 -5.69348 0.5791017,-7.960382 -4.58946 0.7233853,-7.923017 -3.886576 0.9201407,-7.90203 -3.276565 1.080783,-8.325951 -5.781919 0.6701847,-8.308702 -4.754886 0.8248917,-8.286687 -4.090199 0.9832099,-8.256472 -3.505291 1.109859,-8.633671 -6.060771 0.784418,-8.694783 -5.24827 0.9509311,-8.710856 -4.730789 1.077394,-8.712625 -4.235412 1.169384,2.510,0  0
-2.262015 -8.305889 -1.360492,-2.785697 -8.34955 -0.9465389,-3.278698 -7.847482 -0.7105176,-3.617527 -7.357669 -0.5031923,-3.978501 -7.044349 -0.2490637,-3.009001 -6.335815 -1.070303,-3.231977 -5.522681 -0.8165742,-3.350801 -4.949413 -0.5460656,-3.451676 -4.413843 -0.288231,-2.668904 -6.171367 -1.047536,-2.783452 -5.294057 -0.5650254,-2.783452 -5.294057 -0.5650254,-2.708652 -5.130439 0.08386898,-2.329539 -6.199606 -0.9678062,-2.377468 -5.399448 -0.4846637,-2.361624 -5.474139 -0.05882716,-2.345741 -5.736969 0.1441957,-1.976311 -6.381549 -0.8585058,-1.963835 -5.755963 -0.4706292,-1.97813 -5.811957 -0.1830419,-1.983341 -6.039884 0.001243353,-8.304327 -8.326691 0.1718622,-7.801327 -8.022448 0.4423666,-7.357957 -7.329727 0.6539907,-7.05063 -6.718935 0.8894318,-6.719845 -6.386695 1.142562,-7.727925 -5.869319 0.4893242,-7.626377 -4.885931 0.6628131,-7.592243 -4.300753 0.8227128,-7.571743 -3.785678 0.9315841,-8.034327 -5.731868 0.5525502,-7.971111 -4.617073 0.714777,-7.93435 -3.91682 0.9214122,-7.915108 -3.298785 1.087788,-8.331142 -5.81694 0.6403088,-8.312806 -4.783792 0.8061778,-8.287181 -4.124446 0.9631658,-8.257691 -3.545507 1.09105,-8.636232 -6.089082 0.7510716,-8.699124 -5.27399 0.929733,-8.716523 -4.75749 1.058424,-8.719431 -4.265743 1.151698,2.610,0  0
-2.322733 -8.340126 -1.538338,-2.860914 -8.399139 -1.07795,-3.364961 -7.894363 -0.8342426,-3.718422 -7.373803 -0.6288637,-4.085212 -7.063269 -0.3845659,-3.200352 -6.485254 -1.211574,-3.443743 -5.680868 -0.9335344,-3.571743 -5.1002 -0.6262678,-3.673876 -4.529609 -0.3444178,-2.855788 -6.285076 -1.235741,-2.963733 -5.414888 -0.7048617,-2.963733 -5.414888 -0.7048617,-2.811597 -5.211446 -0.03892982,-2.507512 -6.275978 -1.193762,-2.535461 -5.521816 -0.6349264,-2.494101 -5.75283 -0.1800847,-2.444817 -6.111804 0.009718776,-2.147257 -6.402106 -1.127922,-2.138195 -5.836463 -0.6667765,-2.151367 -5.970539 -0.3349694,-2.139247 -6.236261 -0.1364685,-8.33688 -8.348082 0.2205392,-7.836091 -8.049484 0.5028602,-7.390157 -7.34736 0.720403,-7.077758 -6.731635 0.9593563,-6.737813 -6.40695 1.22259,-7.751695 -5.878707 0.5399417,-7.64237 -4.906566 0.7138536,-7.609776 -4.333008 0.8769419,-7.593083 -3.826406 0.9860325,-8.063516 -5.739608 0.6021685,-7.997556 -4.62396 0.7691312,-7.963234 -3.918126 0.976871,-7.946869 -3.299237 1.139879,-8.364764 -5.828619 0.6923984,-8.348109 -4.794399 0.8722649,-8.324367 -4.127885 1.035362,-8.296659 -3.53886 1.163635,-8.676031 -6.109827 0.8064355,-8.732625 -5.293954 0.9934443,-8.747417 -4.77342 1.130291,-8.751091 -4.270958 1.227602,2.710,0  0
-2.441275 -8.424702 -1.436033,-2.976131 -8.511442 -0.9171414,-3.477016 -8.012541 -0.6202594,-3.817431 -7.471286 -0.3670282,-4.211501 -7.140558 -0.07435811,-3.352323 -6.566051 -0.9995548,-3.573214 -5.761153 -0.6519413,-3.702042 -5.200592 -0.3072532,-3.814714 -4.641265 -0.01546288,-2.998332 -6.361994 -1.036199,-3.103289 -5.509157 -0.4330134,-3.103289 -5.509157 -0.4330134,-2.986684 -5.352113 0.280273,-2.64252 -6.344205 -1.00402,-2.672623 -5.607389 -0.3909707,-2.633142 -5.902938 0.05186081,-2.589324 -6.263389 0.2311684,-2.273359 -6.467304 -0.9404532,-2.259174 -5.871793 -0.4530954,-2.273167 -6.038999 -0.1247615,-2.265429 -6.311485 0.06347477,-8.367101 -8.373852 0.2795513,-7.864239 -8.064581 0.567598,-7.414566 -7.360998 0.7937289,-7.108037 -6.747468 1.040107,-6.779395 -6.414773 1.305948,-7.784163 -5.886055 0.6028033,-7.684148 -4.906635 0.7689966,-7.658395 -4.3263 0.921894,-7.647079 -3.827213 1.030021,-8.098349 -5.74769 0.6604497,-8.03483 -4.647004 0.8275442,-8.001246 -3.946511 1.032415,-7.985427 -3.33411 1.203264,-8.401521 -5.837468 0.7474356,-8.382445 -4.821441 0.9204373,-8.354496 -4.164514 1.077908,-8.320282 -3.585517 1.206283,-8.716763 -6.119171 0.8603657,-8.776293 -5.315618 1.034077,-8.793848 -4.806217 1.162284,-8.796043 -4.311558 1.26264,2.810,0  0
-2.502272 -8.437651 -1.593588,-3.036247 -8.501184 -1.109006,-3.556428 -8.04809 -0.8516831,-3.930493 -7.552123 -0.6242844,-4.297957 -7.226765 -0.3732975,-3.452723 -6.639194 -1.253481,-3.694447 -5.838251 -0.9667734,-3.850796 -5.272111 -0.6806321,-3.995764 -4.700059 -0.4368753,-3.108044 -6.420112 -1.287638,-3.227984 -5.56188 -0.7306192,-3.227984 -5.56188 -0.7306192,-3.167191 -5.434595 -0.1003585,-2.757628 -6.390493 -1.252705,-2.795015 -5.627761 -0.6569027,-2.781344 -5.984098 -0.2172015,-2.754411 -6.423845 -0.05156338,-2.391544 -6.477663 -1.190032,-2.39196 -5.889133 -0.7200906,-2.422578 -6.061426 -0.3792512,-2.432129 -6.348215 -0.188509,-8.397954 -8.385014 0.1788235,-7.891357 -8.077505 0.4702305,-7.440898 -7.387068 0.7038193,-7.129369 -6.778678 0.9596563,-6.7971 -6.436183 1.236565,-7.809099 -5.925744 0.5292534,-7.717072 -4.92386 0.7282281,-7.695168 -4.339548 0.8978889,-7.68716 -3.825901 1.014625,-8.120979 -5.795256 0.6006942,-8.060665 -4.679065 0.7931879,-8.026689 -3.976314 1.011166,-8.008264 -3.358613 1.187028,-8.424685 -5.887051 0.7019578,-8.406319 -4.85359 0.9054517,-8.376116 -4.196146 1.087848,-8.340405 -3.614391 1.231834,-8.742878 -6.163394 0.8253801,-8.797328 -5.333708 1.032162,-8.811569 -4.805503 1.175387,-8.810037 -4.288429 1.282371,2.910,0  0
-2.547122 -8.465321 -1.544516,-3.089158 -8.525364 -1.074156,-3.615131 -8.065962 -0.8165755,-3.994747 -7.583511 -0.5809273,-4.367978 -7.254717 -0.3099748,-3.509439 -6.646202 -1.216259,-3.755781 -5.855037 -0.9353295,-3.917833 -5.292552 -0.6552197,-4.068666 -4.727893 -0.4198251,-3.160838 -6.435459 -1.238258,-3.279442 -5.580575 -0.6807709,-3.279442 -5.580575 -0.6807709,-3.252007 -5.500177 -0.0375365,-2.808446 -6.421144 -1.190598,-2.839357 -5.650394 -0.5840924,-2.844342 -6.036941 -0.1307938,-2.829883 -6.514511 0.04089117,-2.439815 -6.531894 -1.116737,-2.429475 -5.941975 -0.6462206,-2.471917 -6.100429 -0.3007712,-2.493118 -6.378217 -0.1039948,-8.402518 -8.382898 0.1700569,-7.90406 -8.085732 0.4472733,-7.458615 -7.390508 0.6750011,-7.155635 -6.776955 0.928984,-6.828357 -6.432753 1.200279,-7.827953 -5.922571 0.484356,-7.733622 -4.924972 0.6751481,-7.708699 -4.348354 0.8468069,-7.696803 -3.845218 0.9626133,-8.133925 -5.790306 0.5635357,-8.075892 -4.67801 0.7434928,-8.046149 -3.98748 0.9516883,-8.031781 -3.373851 1.115852,-8.431481 -5.881624 0.6768016,-8.410656 -4.847837 0.8679966,-8.385916 -4.188416 1.048729,-8.355642 -3.597435 1.193765,-8.745571 -6.157623 0.8095531,-8.804567 -5.325776 1.005128,-8.825897 -4.80117 1.147277,-8.834313 -4.283079 1.252437,3.010,0  0
-2.649269 -8.564568 -1.314336,-3.182154 -8.624222 -0.79993,-3.711737 -8.180204 -0.4827186,-4.104704 -7.715002 -0.1877071,-4.484024 -7.428076 0.1353774,-3.6371 -6.710548 -0.8833565,-3.886289 -5.958507 -0.5350482,-4.058125 -5.414026 -0.1944729,-4.218844 -4.868597 0.1020284,-3.287785 -6.495529 -0.880604,-3.407562 -5.624223 -0.1879715,-3.407562 -5.624223 -0.1879715,-3.333293 -5.947208 0.5874637,-2.92505 -6.48448 -0.8154668,-2.946878 -5.706024 -0.1767195,-2.954301 -6.156439 0.2572671,-2.944309 -6.623027 0.4048076,-2.544649 -6.601588 -0.7178875,-2.536313 -6.036309 -0.2168804,-2.586711 -6.330193 0.1014516,-2.608474 -6.666845 0.2666311,-8.414093 -8.409697 0.1851646,-7.916359 -8.117491 0.454619,-7.474739 -7.412784 0.6711674,-7.17371 -6.791099 0.9174551,-6.843364 -6.447067 1.179302,-7.849628 -5.936625 0.4581648,-7.75565 -4.937638 0.6326324,-7.731363 -4.357991 0.7971803,-7.720026 -3.85479 0.9117517,-8.158748 -5.80467 0.5315188,-8.100705 -4.690324 0.7010425,-8.077274 -3.986772 0.9160036,-8.074359 -3.370345 1.087996,-8.456779 -5.899959 0.636232,-8.436961 -4.865609 0.8182837,-8.420653 -4.191955 0.9918566,-8.402821 -3.593557 1.136283,-8.768987 -6.183868 0.7629223,-8.826454 -5.356868 0.9459834,-8.847467 -4.834818 1.083374,-8.858687 -4.321435 1.18569,3.110,0  0
-2.722337 -8.64978 -1.33969,-3.250811 -8.727339 -0.8699396,-3.783562 -8.280764 -0.5759432,-4.190298 -7.835922 -0.2995664,-4.58391 -7.589736 0.005454659,-3.703685 -6.830324 -0.8731999,-3.94583 -6.094123 -0.4987625,-4.134733 -5.534032 -0.1474274,-4.325521 -4.970462 0.1558533,-3.368476 -6.608402 -0.8296427,-3.513383 -5.753644 -0.06846559,-3.513383 -5.753644 -0.06846559,-3.47591 -6.265857 0.689707,-3.004215 -6.595354 -0.731552,-3.056347 -5.83291 -0.02904439,-3.087299 -6.325845 0.3594654,-3.085354 -6.794842 0.4683704,-2.614918 -6.71544 -0.6079091,-2.630642 -6.185032 -0.06206536,-2.704978 -6.515541 0.225831,-2.734753 -6.865858 0.3611555,-8.456394 -8.428576 0.2668397,-7.952617 -8.119461 0.5400568,-7.504456 -7.416069 0.7648158,-7.197681 -6.796331 1.015115,-6.860658 -6.453546 1.280696,-7.871374 -5.94163 0.5620003,-7.774576 -4.961915 0.7380285,-7.749286 -4.384317 0.896695,-7.735406 -3.88198 1.003651,-8.184249 -5.803874 0.6300436,-8.125293 -4.697209 0.8039485,-8.101921 -3.999536 1.013568,-8.096719 -3.385809 1.18086,-8.487423 -5.896602 0.728253,-8.465321 -4.865256 0.909413,-8.448252 -4.204654 1.07969,-8.429373 -3.615512 1.217752,-8.804917 -6.178903 0.8473353,-8.85765 -5.359402 1.026945,-8.874283 -4.845727 1.16019,-8.88322 -4.337219 1.260639,3.210,0  0
-2.766077 -8.669188 -1.433555,-3.290318 -8.763216 -0.9281283,-3.81727 -8.346327 -0.5991094,-4.226004 -7.917455 -0.3036387,-4.625347 -7.645366 0.02539217,-3.746754 -6.92905 -0.7816737,-3.99469 -6.184124 -0.3705773,-4.189749 -5.645153 -0.004519105,-4.38681 -5.095642 0.3066139,-3.407375 -6.707365 -0.7496739,-3.553919 -5.861328 0.03072548,-3.553919 -5.861328 0.03072548,-3.537065 -6.219173 0.8091248,-3.039516 -6.702056 -0.6664302,-3.086673 -5.969993 0.06260324,-3.115424 -6.42504 0.4659204,-3.116018 -6.851635 0.6040148,-2.64778 -6.8325 -0.5595683,-2.645773 -6.27201 0.002141714,-2.716555 -6.551947 0.3102944,-2.746736 -6.874069 0.4791263,-8.453127 -8.446268 0.2962766,-7.961084 -8.123388 0.5794934,-7.519413 -7.426591 0.8067155,-7.215538 -6.80433 1.06161,-6.879083 -6.457332 1.333479,-7.885607 -5.94951 0.59285,-7.795706 -4.975657 0.7726393,-7.77232 -4.394979 0.9390475,-7.755968 -3.886899 1.053054,-8.198137 -5.811574 0.661437,-8.14393 -4.705043 0.838527,-8.119585 -4.000589 1.055081,-8.112506 -3.385123 1.228977,-8.499346 -5.902784 0.7615401,-8.488216 -4.876428 0.9495761,-8.474855 -4.21072 1.123599,-8.455294 -3.61928 1.26308,-8.813068 -6.185716 0.8843911,-8.872362 -5.37397 1.073601,-8.891251 -4.857646 1.206262,-8.898433 -4.347691 1.303504,3.310,0  0
-2.85898 -8.834818 -1.475181,-3.37508 -8.951664 -1.035532,-3.911917 -8.519672 -0.7394462,-4.320927 -8.096817 -0.4675642,-4.728352 -7.834255 -0.1620981,-3.826456 -7.123357 -0.8324921,-4.074236 -6.442543 -0.4235018,-4.293315 -5.914381 -0.06338024,-4.530962 -5.370792 0.2647266,-3.487457 -6.896877 -0.7499803,-3.652419 -6.127998 0.02584589,-3.652419 -6.127998 0.02584589,-3.688532 -6.547431 0.7390016,-3.11241 -6.891812 -0.6215789,-3.210873 -6.233761 0.09107459,-3.249205 -6.720154 0.4150761,-3.254807 -7.08933 0.5237181,-2.712842 -7.02582 -0.4745046,-2.754724 -6.540367 0.09589005,-2.834522 -6.893814 0.3358861,-2.87286 -7.193281 0.4633273,-8.506082 -8.466377 0.287547,-8.003536 -8.148594 0.5817217,-7.554739 -7.446623 0.8066869,-7.250317 -6.810165 1.053491,-6.912979 -6.464216 1.314047,-7.926195 -5.973551 0.6030256,-7.834333 -4.987977 0.7867644,-7.816635 -4.395583 0.9534094,-7.805574 -3.881473 1.068184,-8.244451 -5.835674 0.6585034,-8.194199 -4.713539 0.8393453,-8.178381 -4.006166 1.055421,-8.177667 -3.39204 1.233203,-8.548956 -5.926427 0.7419027,-8.543266 -4.885397 0.9371536,-8.539689 -4.223844 1.105448,-8.526734 -3.640511 1.240806,-8.863964 -6.209615 0.8486,-8.927227 -5.407964 1.035654,-8.95171 -4.900207 1.15925,-8.962422 -4.391503 1.253702,3.410,0  0
-2.880738 -8.881037 -1.376189,-3.386667 -8.985975 -0.9374632,-3.918121 -8.557823 -0.6319593,-4.333632 -8.156605 -0.3455383,-4.750365 -7.91905 -0.03167272,-3.84952 -7.117218 -0.7856264,-4.08438 -6.469669 -0.3442644,-4.317766 -5.943827 0.02945304,-4.574807 -5.415441 0.3530276,-3.505012 -6.898018 -0.6851024,-3.666637 -6.116241 0.1570976,-3.666637 -6.116241 0.1570976,-3.714165 -6.81759 0.8163254,-3.128517 -6.913564 -0.5340661,-3.229721 -6.257547 0.2105526,-3.281412 -6.857216 0.476746,-3.287565 -7.255947 0.5219644,-2.731066 -7.072645 -0.3616788,-2.786459 -6.614851 0.2096061,-2.886164 -7.008626 0.4005053,-2.927245 -7.29092 0.4778807,-8.521762 -8.471676 0.2778187,-8.022423 -8.143534 0.554674,-7.572712 -7.462359 0.7768226,-7.265216 -6.837746 1.023673,-6.935776 -6.493869 1.284781,-7.945923 -5.975259 0.5817535,-7.854791 -4.98347 0.7657964,-7.835375 -4.392316 0.9378148,-7.822991 -3.875616 1.059624,-8.262574 -5.843494 0.6485807,-8.208981 -4.723362 0.8312395,-8.191191 -4.019253 1.054096,-8.190025 -3.404331 1.231637,-8.566346 -5.945459 0.7420722,-8.556193 -4.913076 0.93033,-8.545667 -4.256774 1.097296,-8.526459 -3.676546 1.228901,-8.880216 -6.237499 0.8561242,-8.939169 -5.435596 1.048505,-8.956243 -4.921258 1.173752,-8.960034 -4.411705 1.263402,3.510,0  0
-2.89477 -8.989363 -1.445339,-3.402256 -9.100058 -1.005519,-3.946312 -8.675589 -0.6959713,-4.376503 -8.279676 -0.4044973,-4.80867 -8.074036 -0.08591425,-3.892361 -7.267309 -0.851469,-4.121034 -6.629564 -0.4089217,-4.35009 -6.110771 -0.04393852,-4.611515 -5.588144 0.2853087,-3.545984 -7.036827 -0.7544808,-3.698048 -6.258375 0.07926202,-3.698048 -6.258375 0.07926202,-3.733143 -6.85074 0.7370076,-3.163231 -7.038106 -0.6099702,-3.25731 -6.405184 0.1360083,-3.28651 -7.003122 0.3697623,-3.296106 -7.339736 0.3971249,-2.764927 -7.18494 -0.4463053,-2.810803 -6.776218 0.1218351,-2.88487 -7.201197 0.2783319,-2.924223 -7.433509 0.3373475,-8.519365 -8.457928 0.2800129,-8.02752 -8.132359 0.5642157,-7.582903 -7.444582 0.7947187,-7.272583 -6.818762 1.047055,-6.933979 -6.476734 1.317783,-7.957135 -5.959758 0.6137488,-7.876077 -4.965742 0.8078831,-7.864023 -4.374425 0.9755005,-7.860775 -3.85722 1.089177,-8.271632 -5.833007 0.6844563,-8.221653 -4.719924 0.8758231,-8.207728 -4.021152 1.093864,-8.208923 -3.411758 1.267109,-8.5763 -5.940753 0.7826818,-8.565678 -4.910875 0.9848378,-8.559728 -4.25752 1.158055,-8.545195 -3.67439 1.293195,-8.893683 -6.239399 0.9012097,-8.953498 -5.434022 1.106025,-8.971875 -4.917892 1.238133,-8.978621 -4.402629 1.334052,3.610,0  0
-2.922247 -9.04689 -1.466874,-3.431828 -9.145016 -1.016903,-3.977237 -8.721636 -0.7042532,-4.409678 -8.330484 -0.4180416,-4.839053 -8.122313 -0.1082625,-3.910261 -7.361258 -0.7768193,-4.158296 -6.694514 -0.3222848,-4.383619 -6.17239 0.03816557,-4.641832 -5.638618 0.3656433,-3.561413 -7.134563 -0.6783775,-3.72617 -6.351728 0.1806892,-3.72617 -6.351728 0.1806892,-3.7531 -6.877861 0.8429456,-3.172306 -7.139564 -0.5360228,-3.274488 -6.50121 0.2309681,-3.304615 -7.036361 0.4878755,-3.324196 -7.348707 0.5414338,-2.768694 -7.285975 -0.3722149,-2.802862 -6.834004 0.2077284,-2.868446 -7.181947 0.3944952,-2.904166 -7.381346 0.4874473,-8.528186 -8.455061 0.2508947,-8.033147 -8.135637 0.5285001,-7.584244 -7.434539 0.7485659,-7.272586 -6.806079 0.9916453,-6.930456 -6.473722 1.251484,-7.957602 -5.962202 0.5539417,-7.873282 -4.966095 0.7397405,-7.859493 -4.370754 0.901749,-7.855415 -3.856287 1.010585,-8.272872 -5.833875 0.6184949,-8.219152 -4.720021 0.7966054,-8.205753 -4.021606 1.008207,-8.210218 -3.411788 1.178873,-8.576898 -5.937901 0.7129149,-8.564787 -4.905078 0.9007205,-8.560525 -4.254241 1.06449,-8.549711 -3.674207 1.194531,-8.891283 -6.230264 0.8288927,-8.952667 -5.424675 1.024805,-8.975763 -4.913413 1.15191,-8.987322 -4.401025 1.245224,3.710,0  0
-2.959679 -9.145164 -1.304362,-3.490164 -9.244671 -0.8681171,-4.046679 -8.78896 -0.5650079,-4.473682 -8.373791 -0.2878689,-4.912947 -8.170816 0.006297946,-3.983892 -7.402562 -0.6661515,-4.221704 -6.744487 -0.2020068,-4.445827 -6.229118 0.1604347,-4.708828 -5.699461 0.4828792,-3.625304 -7.172262 -0.5594316,-3.793438 -6.409477 0.3133947,-3.793438 -6.409477 0.3133947,-3.762316 -7.05454 0.9342111,-3.231473 -7.173255 -0.4059922,-3.327795 -6.587241 0.3580681,-3.327463 -7.189513 0.5577281,-3.334864 -7.440254 0.5632765,-2.82725 -7.322285 -0.2317249,-2.881404 -6.911015 0.3244003,-2.930606 -7.342222 0.446627,-2.9521 -7.51976 0.478983,-8.528274 -8.465389 0.2880883,-8.030954 -8.1376 0.5709134,-7.587623 -7.429744 0.7968912,-7.280577 -6.793304 1.044377,-6.936051 -6.447799 1.30969,-7.960845 -5.964758 0.6248868,-7.877673 -4.968605 0.8174565,-7.863205 -4.374284 0.9855851,-7.860142 -3.85398 1.100866,-8.278321 -5.83819 0.6916703,-8.229635 -4.720062 0.8832712,-8.214934 -4.015773 1.103772,-8.217075 -3.402827 1.282846,-8.584019 -5.946978 0.7850628,-8.578865 -4.912958 0.9842978,-8.57419 -4.258758 1.154663,-8.563201 -3.678264 1.290762,-8.901525 -6.243182 0.8985979,-8.960717 -5.435327 1.101356,-8.978067 -4.922437 1.229766,-8.986653 -4.412975 1.321834,3.810,0  0
-2.980821 -9.163246 -1.368639,-3.506716 -9.304485 -0.9929132,-4.075423 -8.872433 -0.699589,-4.52409 -8.460617 -0.4204348,-4.959229 -8.256147 -0.1217699,-4.039654 -7.478235 -0.7624111,-4.28447 -6.840482 -0.3122607,-4.520429 -6.325113 0.05346119,-4.792452 -5.788297 0.3863745,-3.689759 -7.221311 -0.636683,-3.838163 -6.482311 0.1567848,-3.838163 -6.482311 0.1567848,-3.740191 -7.228271 0.6973348,-3.292593 -7.19988 -0.4671888,-3.374131 -6.653149 0.2587798,-3.337831 -7.271955 0.4121875,-3.344889 -7.497628 0.3930514,-2.880458 -7.339855 -0.2829926,-2.924923 -7.000547 0.2593085,-2.943415 -7.42789 0.3494908,-2.961842 -7.559062 0.3519289,-8.549995 -8.468056 0.2570921,-8.051538 -8.152275 0.5311314,-7.599864 -7.456893 0.7497878,-7.288666 -6.820348 0.9934378,-6.953505 -6.464729 1.251813,-7.973638 -5.976945 0.5654097,-7.887651 -4.979526 0.7538471,-7.871053 -4.380651 0.9229436,-7.864689 -3.85919 1.0381,-8.289382 -5.84698 0.6344574,-8.238484 -4.732462 0.8159509,-8.222918 -4.03753 1.03213,-8.227621 -3.428207 1.205792,-8.594318 -5.951378 0.7355601,-8.586205 -4.918603 0.9315452,-8.577106 -4.267864 1.10309,-8.563014 -3.686723 1.239028,-8.911357 -6.24544 0.8532052,-8.976621 -5.435348 1.053648,-8.995507 -4.921201 1.183917,-9.002332 -4.410671 1.277039,3.910,0  0
-2.995756 -9.203604 -1.443445,-3.528112 -9.350082 -1.085271,-4.084347 -8.933849 -0.7768596,-4.52478 -8.534555 -0.4838752,-4.955368 -8.317577 -0.16028,-4.047922 -7.577108 -0.710206,-4.311506 -6.911368 -0.2320304,-4.555704 -6.395822 0.1430261,-4.82952 -5.869756 0.4838923,-3.692698 -7.337469 -0.5787358,-3.843586 -6.555053 0.20337,-3.843586 -6.555053 0.20337,-3.781891 -7.214731 0.7235856,-3.287724 -7.334146 -0.4107857,-3.369373 -6.723525 0.2989255,-3.341629 -7.275138 0.4476188,-3.353411 -7.496556 0.4476421,-2.870115 -7.491225 -0.2328558,-2.888925 -7.066881 0.3117771,-2.899765 -7.386115 0.4319113,-2.917378 -7.473426 0.4727576,-8.558419 -8.486919 0.2870245,-8.056279 -8.165827 0.5609117,-7.608031 -7.464298 0.7776906,-7.300048 -6.82537 1.016208,-6.962339 -6.479934 1.268636,-7.98749 -5.98295 0.5976232,-7.903618 -5.000261 0.7841774,-7.888063 -4.407303 0.9529036,-7.881872 -3.889927 1.073898,-8.306398 -5.85596 0.6616962,-8.256441 -4.746676 0.8482128,-8.244666 -4.050486 1.069973,-8.251554 -3.44209 1.251663,-8.611708 -5.966657 0.7553686,-8.603214 -4.936032 0.9496052,-8.597803 -4.28473 1.118778,-8.586523 -3.704455 1.254947,-8.928856 -6.267377 0.8668017,-8.989903 -5.462723 1.066677,-9.008027 -4.95156 1.198691,-9.015764 -4.441776 1.294241,4.010,0  0
-3.026638 -9.288277 -1.519599,-3.55855 -9.428022 -1.121529,-4.111841 -9.01539 -0.8022702,-4.539576 -8.62748 -0.5053086,-4.96608 -8.385433 -0.1778334,-4.062973 -7.667264 -0.7751416,-4.335703 -7.029592 -0.2807013,-4.585623 -6.538763 0.1008972,-4.867706 -6.031559 0.4433429,-3.706367 -7.439487 -0.6582938,-3.875206 -6.651053 0.1675594,-3.875206 -6.651053 0.1675594,-3.832806 -7.209867 0.7573143,-3.297649 -7.439069 -0.4952447,-3.399673 -6.822496 0.2514987,-3.37576 -7.378839 0.4443067,-3.379602 -7.61844 0.4702802,-2.871471 -7.598258 -0.320653,-2.90547 -7.187511 0.2463797,-2.925467 -7.532606 0.4017106,-2.938415 -7.653398 0.47537,-8.586889 -8.49831 0.2747733,-8.082214 -8.194883 0.5713429,-7.626234 -7.504702 0.7999829,-7.321477 -6.868733 1.046495,-6.999024 -6.518144 1.307429,-8.002689 -6.012308 0.6210442,-7.918445 -5.033313 0.8227373,-7.905925 -4.450346 1.004421,-7.904001 -3.940135 1.132701,-8.324404 -5.876667 0.6813189,-8.274932 -4.773231 0.8770148,-8.264977 -4.085512 1.100592,-8.273404 -3.477581 1.285347,-8.631894 -5.978326 0.7727733,-8.623564 -4.96042 0.9768719,-8.616436 -4.31278 1.148914,-8.603348 -3.739078 1.290796,-8.951876 -6.269462 0.8849959,-9.016098 -5.481859 1.084013,-9.035788 -4.974578 1.211615,-9.041734 -4.467594 1.310811,4.110,0  0
-3.025517 -9.326525 -1.53921,-3.569714 -9.488453 -1.153849,-4.130531 -9.091974 -0.830497,-4.563612 -8.68586 -0.5414703,-4.982941 -8.408939 -0.2193792,-4.07407 -7.779102 -0.6655847,-4.343365 -7.101346 -0.1570672,-4.598639 -6.59839 0.2295243,-4.887841 -6.096007 0.5828933,-3.716059 -7.553452 -0.5506471,-3.876482 -6.758493 0.2534125,-3.876482 -6.758493 0.2534125,-3.857149 -7.05326 0.8467504,-3.300936 -7.54116 -0.4028879,-3.387401 -6.939844 0.3273842,-3.364851 -7.351383 0.5110055,-3.38255 -7.484225 0.5624291,-2.87229 -7.680427 -0.2471564,-2.898597 -7.255096 0.3107682,-2.912091 -7.52757 0.4592696,-2.929129 -7.592481 0.5482537,-8.571953 -8.503933 0.286759,-8.069174 -8.201588 0.5794643,-7.624927 -7.500078 0.8127143,-7.323207 -6.860149 1.062777,-6.989619 -6.513326 1.33415,-8.008615 -6.005279 0.6396272,-7.929063 -5.0256 0.8377718,-7.912584 -4.440509 1.019084,-7.905231 -3.927729 1.145453,-8.330314 -5.878257 0.7026693,-8.283134 -4.769432 0.8915771,-8.27192 -4.072791 1.107704,-8.280152 -3.463546 1.285505,-8.638388 -5.992738 0.796302,-8.631365 -4.969148 0.9936191,-8.625577 -4.313564 1.161985,-8.618334 -3.733678 1.301867,-8.959925 -6.297167 0.9116037,-9.020239 -5.496808 1.112703,-9.038078 -4.975071 1.246159,-9.047576 -4.457386 1.346682,4.210,0  0
-3.001641 -9.398193 -1.202316,-3.552444 -9.577583 -0.8275664,-4.15359 -9.15362 -0.5270186,-4.617138 -8.742477 -0.2390342,-5.04704 -8.483255 0.07231772,-4.122203 -7.731535 -0.5045949,-4.38843 -7.123203 -0.02525783,-4.632947 -6.645542 0.343691,-4.925074 -6.158417 0.6665391,-3.770537 -7.461122 -0.3797183,-3.908486 -6.807287 0.3946564,-3.908486 -6.807287 0.3946564,-3.81461 -7.443606 0.9347717,-3.364592 -7.427152 -0.2151847,-3.40748 -6.987588 0.4929793,-3.361761 -7.5816 0.6159012,-3.393053 -7.737419 0.5953647,-2.947507 -7.563526 -0.03468955,-2.957089 -7.284355 0.5100898,-2.963231 -7.71598 0.5994656,-2.992501 -7.831713 0.6111253,-8.621448 -8.496485 0.2207554,-8.10932 -8.20694 0.5153627,-7.653964 -7.530384 0.752096,-7.346273 -6.901392 1.003143,-7.018772 -6.551042 1.270118,-8.025981 -6.023713 0.5798296,-7.945238 -5.039817 0.7912012,-7.930304 -4.461294 0.971872,-7.923233 -3.950454 1.095043,-8.348955 -5.894101 0.6431684,-8.300573 -4.780495 0.8470728,-8.289151 -4.090251 1.068362,-8.29593 -3.478899 1.247678,-8.66051 -6.004409 0.7380657,-8.656794 -4.981348 0.9471051,-8.653089 -4.33658 1.120746,-8.644292 -3.760944 1.264666,-8.985011 -6.304455 0.8502265,-9.041713 -5.502832 1.058807,-9.05637 -4.982591 1.193182,-9.059835 -4.465746 1.296323,4.310,0  0
-3.019012 -9.495573 -1.415359,-3.611084 -9.620804 -1.11284,-4.203041 -9.180229 -0.787342,-4.666641 -8.777943 -0.4701849,-5.108421 -8.475126 -0.1297405,-4.127537 -7.924091 -0.5602395,-4.397749 -7.209659 -0.01465881,-4.66761 -6.721853 0.3889296,-4.969025 -6.261708 0.7490075,-3.757342 -7.723018 -0.3839391,-3.90136 -6.884664 0.4125025,-3.90136 -6.884664 0.4125025,-3.875889 -7.374305 0.9590006,-3.334171 -7.727605 -0.1800402,-3.388962 -7.071638 0.5423733,-3.378456 -7.503853 0.7057276,-3.405016 -7.665749 0.7323177,-2.896767 -7.880588 0.03146291,-2.907917 -7.383749 0.5910251,-2.933131 -7.637376 0.7312374,-2.962285 -7.719333 0.805522,-8.615139 -8.521734 0.2523138,-8.111458 -8.221609 0.5367646,-7.663498 -7.531591 0.769089,-7.3554 -6.897537 1.018153,-7.019882 -6.55886 1.28619,-8.046812 -6.038414 0.5971256,-7.970881 -5.055294 0.7994424,-7.957363 -4.473207 0.9786544,-7.951541 -3.961294 1.100973,-8.369448 -5.905151 0.6599554,-8.319985 -4.797025 0.8551419,-8.307028 -4.105587 1.068736,-8.312695 -3.501404 1.240678,-8.6801 -6.010154 0.7513667,-8.675559 -4.988608 0.94559,-8.673456 -4.337999 1.104315,-8.66653 -3.763368 1.235378,-9.002062 -6.304039 0.8613537,-9.058531 -5.500684 1.057896,-9.072461 -4.974151 1.17893,-9.077469 -4.45569 1.271778,4.410,0  0
-3.023162 -9.519075 -1.590045,-3.613614 -9.617542 -1.326227,-4.199013 -9.20924 -0.9971642,-4.663105 -8.838001 -0.6647691,-5.084835 -8.560495 -0.3194404,-4.130095 -7.977321 -0.7718211,-4.415968 -7.237691 -0.213719,-4.674812 -6.728978 0.1816587,-4.960819 -6.252336 0.5205572,-3.748207 -7.782699 -0.5924308,-3.862197 -6.844718 0.1600299,-3.862197 -6.844718 0.1600299,-3.815745 -7.677788 0.5432734,-3.324924 -7.792251 -0.3803593,-3.362431 -7.001462 0.311702,-3.346231 -7.583288 0.3918998,-3.395155 -7.87531 0.335261,-2.889872 -7.951923 -0.1633899,-2.880196 -7.37391 0.3435988,-2.910123 -7.686639 0.4226537,-2.971406 -7.818894 0.4278977,-8.629051 -8.519695 0.2714937,-8.128291 -8.209206 0.5571545,-7.675413 -7.519186 0.7936068,-7.3603 -6.89796 1.048723,-7.021113 -6.559043 1.323467,-8.057528 -6.025619 0.6112292,-7.977882 -5.046501 0.807857,-7.963311 -4.470844 0.9800441,-7.956148 -3.968742 1.096084,-8.377623 -5.897617 0.6760323,-8.331665 -4.79417 0.864844,-8.322592 -4.111604 1.075088,-8.329897 -3.506122 1.244473,-8.685519 -6.006441 0.7718896,-8.681749 -4.992095 0.9653767,-8.679112 -4.35231 1.122001,-8.67061 -3.77881 1.249183,-9.005402 -6.303308 0.8868222,-9.065493 -5.503746 1.080979,-9.083687 -4.98711 1.199701,-9.093477 -4.470939 1.289171,4.510,0  0
-2.994194 -9.572611 -1.060309,-3.571415 -9.679642 -0.7535144,-4.181633 -9.251801 -0.4316027,-4.65984 -8.866816 -0.1109075,-5.078142 -8.601934 0.2280374,-4.14331 -7.860342 -0.3344027,-4.423046 -7.220302 0.1927514,-4.676781 -6.769027 0.5689548,-4.951368 -6.32411 0.8766841,-3.759336 -7.60782 -0.1900903,-3.877766 -6.939065 0.5676379,-3.877766 -6.939065 0.5676379,-3.735286 -8.03458 0.880481,-3.324327 -7.587804 -0.003485084,-3.361483 -7.068185 0.676883,-3.332018 -7.852039 0.6895399,-3.357679 -8.175179 0.579398,-2.876035 -7.735851 0.2018533,-2.8965 -7.328646 0.6839615,-2.931172 -7.869879 0.7051475,-2.973274 -8.106949 0.6617876,-8.659013 -8.528315 0.2235382,-8.152864 -8.233938 0.4989761,-7.697645 -7.543848 0.7193123,-7.388074 -6.910118 0.960865,-7.060458 -6.565654 1.216826,-8.076257 -6.046287 0.5205791,-8.000956 -5.069391 0.7060255,-7.986774 -4.493284 0.8729499,-7.980037 -3.993714 0.9889483,-8.393416 -5.915728 0.5885824,-8.352331 -4.814176 0.762706,-8.339594 -4.130392 0.9683002,-8.342493 -3.529403 1.136563,-8.699378 -6.021272 0.688696,-8.701535 -5.006657 0.8699775,-8.700447 -4.363294 1.029978,-8.690513 -3.788324 1.161917,-9.015903 -6.314853 0.8075637,-9.087827 -5.522951 0.9954931,-9.112664 -5.005542 1.120611,-9.122393 -4.485801 1.21789,4.610,0  0
-2.982294 -9.624554 -1.142401,-3.583511 -9.692457 -0.8427052,-4.186508 -9.256336 -0.5066978,-4.660782 -8.887911 -0.1732467,-5.090536 -8.629395 0.1755371,-4.132385 -7.933336 -0.3749502,-4.410612 -7.24997 0.1848313,-4.66877 -6.812307 0.5764446,-4.955276 -6.398437 0.8993349,-3.739745 -7.710106 -0.216225,-3.85994 -6.906701 0.5538315,-3.85994 -6.906701 0.5538315,-3.761658 -8.004009 0.8701365,-3.299894 -7.710721 -0.01451719,-3.339375 -7.062551 0.6680468,-3.320528 -7.820323 0.6713957,-3.357618 -8.161221 0.5560206,-2.8466 -7.871933 0.2060344,-2.855138 -7.343398 0.6823826,-2.894826 -7.840011 0.6938601,-2.946706 -8.092073 0.6458013,-8.650566 -8.54958 0.2618095,-8.144252 -8.243513 0.5641358,-7.696176 -7.552478 0.8077641,-7.389109 -6.921877 1.063409,-7.054081 -6.568866 1.33371,-8.087558 -6.059452 0.6300177,-8.017451 -5.073938 0.8390473,-8.002139 -4.488636 1.019971,-7.992228 -3.975852 1.150405,-8.410427 -5.931741 0.6821688,-8.363574 -4.835462 0.8849829,-8.352183 -4.142904 1.105174,-8.357499 -3.529439 1.293431,-8.71987 -6.04246 0.7639136,-8.712708 -5.035662 0.9638566,-8.708241 -4.382642 1.124929,-8.697626 -3.806008 1.263461,-9.041535 -6.337749 0.8674359,-9.10008 -5.549106 1.052691,-9.114523 -5.03255 1.169149,-9.120718 -4.523675 1.265058,4.710,0  0
-2.929166 -9.606796 -1.374638,-3.550743 -9.720873 -1.042908,-4.168568 -9.365177 -0.6861755,-4.650761 -8.994587 -0.3484223,-5.068062 -8.707033 -0.01155472,-4.094139 -8.100584 -0.4271891,-4.373179 -7.367433 0.1698806,-4.615572 -6.890821 0.5630864,-4.900173 -6.442941 0.8776002,-3.697304 -7.87232 -0.2777551,-3.817293 -7.07987 0.5517304,-3.817293 -7.07987 0.5517304,-3.779591 -7.887076 1.009985,-3.25604 -7.842869 -0.1037712,-3.281479 -7.210227 0.6389897,-3.268196 -7.842686 0.6907785,-3.339352 -8.118933 0.6172106,-2.806466 -7.970323 0.08679569,-2.787357 -7.463657 0.6329558,-2.822701 -7.902944 0.7015998,-2.900901 -8.103382 0.7010472,-8.652788 -8.556379 0.2498451,-8.149673 -8.249643 0.5388352,-7.709761 -7.55919 0.7796632,-7.406956 -6.927076 1.038943,-7.073016 -6.575923 1.320705,-8.094126 -6.059303 0.5884509,-8.026069 -5.067059 0.7819262,-8.015631 -4.480731 0.951737,-8.01363 -3.971171 1.068148,-8.413635 -5.938884 0.6507418,-8.369725 -4.828956 0.8393345,-8.357955 -4.135362 1.044424,-8.362845 -3.5286 1.208208,-8.722768 -6.056997 0.742924,-8.722452 -5.033363 0.9317041,-8.723253 -4.380778 1.094449,-8.717165 -3.800766 1.226984,-9.043027 -6.36507 0.8549836,-9.107757 -5.558279 1.046052,-9.12659 -5.031712 1.170284,-9.135555 -4.509979 1.264767,4.810,0  0
-2.929166 -9.606796 -1.374638,-3.550743 -9.720873 -1.042908,-4.168568 -9.365177 -0.6861755,-4.650761 -8.994587 -0.3484223,-5.068062 -8.707033 -0.01155472,-4.094139 -8.100584 -0.4271891,-4.373179 -7.367433 0.1698806,-4.615572 -6.890821 0.5630864,-4.900173 -6.442941 0.8776002,-3.697304 -7.87232 -0.2777551,-3.817293 -7.07987 0.5517304,-3.817293 -7.07987 0.5517304,-3.779591 -7.887076 1.009985,-3.25604 -7.842869 -0.1037712,-3.281479 -7.210227 0.6389897,-3.268196 -7.842686 0.6907785,-3.339352 -8.118933 0.6172106,-2.806466 -7.970323 0.08679569,-2.787357 -7.463657 0.6329558,-2.822701 -7.902944 0.7015998,-2.900901 -8.103382 0.7010472,-8.643572 -8.557192 0.2524551,-8.145266 -8.251705 0.558078,-7.706426 -7.561144 0.8002906,-7.409168 -6.924475 1.058285,-7.076845 -6.580675 1.334315,-8.089927 -6.063222 0.6071345,-8.024911 -5.068042 0.8130354,-8.017334 -4.485306 0.9918544,-8.016816 -3.969318 1.116229,-8.411128 -5.94012 0.6649893,-8.37145 -4.832355 0.8645571,-8.360929 -4.141744 1.080218,-8.366982 -3.526794 1.252586,-8.720552 -6.051387 0.7570238,-8.725782 -5.027505 0.9552992,-8.733474 -4.375276 1.124885,-8.733132 -3.789134 1.263053,-9.042447 -6.350954 0.8686294,-9.109703 -5.544197 1.061021,-9.135507 -5.017466 1.183497,-9.151388 -4.490308 1.278238,4.910,0  0
-2.929166 -9.606796 -1.374638,-3.550743 -9.720873 -1.042908,-4.168568 -9.365177 -0.6861755,-4.650761 -8.994587 -0.3484223,-5.068062 -8.707033 -0.01155472,-4.094139 -8.100584 -0.4271891,-4.373179 -7.367433 0.1698806,-4.615572 -6.890821 0.5630864,-4.900173 -6.442941 0.8776002,-3.697304 -7.87232 -0.2777551,-3.817293 -7.07987 0.5517304,-3.817293 -7.07987 0.5517304,-3.779591 -7.887076 1.009985,-3.25604 -7.842869 -0.1037712,-3.281479 -7.210227 0.6389897,-3.268196 -7.842686 0.6907785,-3.339352 -8.118933 0.6172106,-2.806466 -7.970323 0.08679569,-2.787357 -7.463657 0.6329558,-2.822701 -7.902944 0.7015998,-2.900901 -8.103382 0.7010472,-8.669818 -8.56916 0.2874065,-8.160408 -8.269083 0.5847737,-7.715163 -7.570489 0.8258166,-7.41431 -6.929748 1.081812,-7.075472 -6.579845 1.352719,-8.103715 -6.072507 0.6478242,-8.036571 -5.081048 0.8511493,-8.025537 -4.501885 1.02408,-8.021067 -3.99185 1.143181,-8.42772 -5.943736 0.7056996,-8.385507 -4.835126 0.9048994,-8.373998 -4.149923 1.114237,-8.376513 -3.543581 1.285152,-8.73799 -6.053659 0.7930418,-8.740241 -5.030864 0.9880352,-8.745346 -4.380796 1.144781,-8.741294 -3.801191 1.278333,-9.057835 -6.350986 0.8995548,-9.121854 -5.549345 1.084647,-9.141539 -5.026886 1.198692,-9.150564 -4.506919 1.289074,5.010,0  0
-1.384828 -8.910934 -1.33185,-2.413536 -8.255608 -1.876265,-3.211295 -8.125834 -1.847026,-3.798211 -8.089521 -1.598873,-4.367023 -7.883212 -1.381701,-3.637525 -8.768036 -0.9415587,-4.226091 -8.322472 -0.3716326,-4.61809 -7.717863 -0.07387805,-4.971853 -7.05743 0.08121717,-3.361577 -8.999102 -0.3626948,-3.831265 -8.259991 0.2538785,-3.831265 -8.259991 0.2538785,-4.005215 -7.219785 0.5999135,-2.934443 -9.043398 0.1966251,-3.236991 -8.114315 0.7748204,-3.187426 -7.65944 0.834354,-3.100518 -7.403979 0.8303457,-2.426361 -8.900837 0.6880683,-2.657153 -8.084566 1.057798,-2.66267 -7.786166 1.084234,-2.618364 -7.613247 1.096683,-8.660367 -8.569178 0.267897,-8.16047 -8.248972 0.5647575,-7.719512 -7.567235 0.8083299,-7.421353 -6.934993 1.071956,-7.091554 -6.584221 1.354729,-8.102613 -6.074359 0.6190249,-8.032358 -5.085796 0.825381,-8.022962 -4.50858 1.009742,-8.020293 -3.994573 1.140698,-8.426213 -5.948074 0.6822124,-8.388645 -4.83879 0.8773392,-8.38048 -4.148144 1.097033,-8.38508 -3.535718 1.273608,-8.735508 -6.058513 0.7771714,-8.743097 -5.038726 0.967881,-8.749901 -4.388494 1.132894,-8.747962 -3.806971 1.269516,-9.055191 -6.356857 0.8924454,-9.123467 -5.55507 1.077996,-9.14948 -5.027768 1.198836,-9.165117 -4.502304 1.289935,5.110,0  0
-2.828491 -9.844862 -1.19089,-3.460493 -9.41923 -1.223534,-3.909073 -8.783566 -0.8464675,-4.277153 -8.263994 -0.4483275,-4.742444 -8.003582 -0.004506469,-3.854079 -8.312458 -0.02667296,-4.104759 -7.273746 0.5887008,-4.365445 -6.938375 0.7168732,-4.61618 -6.720163 0.7570003,-3.524042 -8.204098 0.1719949,-3.499667 -7.071016 0.6483936,-3.499667 -7.071016 0.6483936,-3.570745 -8.22246 0.01319528,-3.154222 -8.198847 0.3852575,-3.086963 -7.144001 0.778754,-3.107997 -7.835813 0.416814,-3.192322 -8.323378 0.09634268,-2.766571 -8.264704 0.6036835,-2.655696 -7.391988 0.7763637,-2.69018 -7.795801 0.6615734,-2.759837 -8.181614 0.5704548,-8.674973 -8.563499 0.2477723,-8.174741 -8.258207 0.5463581,-7.73231 -7.571203 0.787827,-7.429666 -6.936119 1.049287,-7.090976 -6.588525 1.330012,-8.110556 -6.081422 0.5937321,-8.035979 -5.097408 0.7978137,-8.025039 -4.509897 0.9795472,-8.022623 -3.989041 1.104965,-8.42879 -5.947902 0.6529897,-8.385048 -4.835479 0.8479525,-8.37326 -4.142709 1.064038,-8.375545 -3.53207 1.234248,-8.73626 -6.053964 0.7449022,-8.742266 -5.022586 0.9391883,-8.750525 -4.365636 1.1102,-8.749914 -3.777351 1.247629,-9.055313 -6.351442 0.8559399,-9.123641 -5.543161 1.04815,-9.148611 -5.00807 1.175656,-9.161554 -4.475288 1.27265,5.210,0  0
-3.010275 -9.731804 -1.451053,-3.615269 -9.867697 -1.117678,-4.18436 -9.528549 -0.6860088,-4.628464 -9.208517 -0.3016205,-5.070671 -9.04162 0.1070405,-4.046621 -8.608824 0.04877758,-4.319912 -7.692077 0.8151641,-4.603245 -7.072176 1.30516,-4.907372 -6.518978 1.6884,-3.671194 -8.405447 0.1331556,-3.73143 -7.27992 0.797534,-3.73143 -7.27992 0.797534,-3.754601 -7.823497 0.8627226,-3.242067 -8.396723 0.233077,-3.226262 -7.359203 0.9109073,-3.232166 -7.562145 1.01224,-3.300882 -7.791728 1.008708,-2.81558 -8.527241 0.3483356,-2.722513 -7.761607 0.9274154,-2.736891 -7.757724 1.143819,-2.799354 -7.84132 1.260126,-8.691781 -8.557629 0.2375312,-8.184235 -8.256943 0.5380569,-7.734373 -7.576406 0.7788084,-7.429585 -6.947269 1.038957,-7.099173 -6.595275 1.314046,-8.114585 -6.079707 0.581267,-8.036032 -5.098794 0.7872307,-8.02262 -4.519273 0.970597,-8.018206 -4.005222 1.10048,-8.437257 -5.945657 0.6418335,-8.394311 -4.833576 0.8337973,-8.384964 -4.148828 1.046804,-8.390462 -3.547629 1.215932,-8.746866 -6.046638 0.7361746,-8.753424 -5.018051 0.9313394,-8.756222 -4.371061 1.098396,-8.751105 -3.795664 1.233982,-9.066436 -6.337209 0.8500428,-9.134457 -5.531443 1.042432,-9.157058 -5.000399 1.166823,-9.167044 -4.470596 1.261529,5.310,0  0
-2.904106 -9.822479 -1.56794,-3.586941 -9.83963 -1.384193,-4.164133 -9.502483 -0.9950644,-4.647743 -9.251684 -0.6212171,-5.091362 -9.094507 -0.2490568,-4.003594 -8.694565 -0.1442977,-4.335674 -7.728126 0.5468192,-4.602318 -7.114639 0.9487894,-4.873367 -6.608423 1.252176,-3.609417 -8.560949 0.004865766,-3.767827 -7.24127 0.5856097,-3.767827 -7.24127 0.5856097,-3.744187 -7.592074 0.5766282,-3.17314 -8.572758 0.1566664,-3.235928 -7.342021 0.7018037,-3.221531 -7.510183 0.6922371,-3.246361 -7.78334 0.6489253,-2.732317 -8.708529 0.306856,-2.689823 -7.808237 0.7173595,-2.700751 -7.745669 0.7837105,-2.756956 -7.801471 0.8069236,-8.676622 -8.54748 0.2003897,-8.173462 -8.220942 0.5127964,-7.727694 -7.555881 0.7663783,-7.421643 -6.937555 1.036971,-7.091542 -6.587436 1.322067,-8.119231 -6.07789 0.5821142,-8.043303 -5.085138 0.7984028,-8.028442 -4.511592 0.9922255,-8.022573 -4.007574 1.12469,-8.441683 -5.949534 0.6360317,-8.403172 -4.827011 0.8448198,-8.398084 -4.143973 1.067982,-8.406878 -3.542152 1.245422,-8.74989 -6.052145 0.7205532,-8.755069 -5.018355 0.9223403,-8.761448 -4.368028 1.091296,-8.75924 -3.793901 1.229808,-9.067236 -6.341302 0.8271234,-9.13814 -5.543149 1.01323,-9.16536 -5.019269 1.132887,-9.179183 -4.498523 1.227512,5.410,0  0
-2.89532 -9.769587 -1.105936,-3.562103 -9.835838 -0.8406607,-4.170198 -9.487005 -0.4579641,-4.652606 -9.167606 -0.09347558,-5.107108 -8.98534 0.2957063,-3.990272 -8.581848 0.4074166,-4.291963 -7.742839 1.196263,-4.564486 -7.133185 1.650771,-4.85084 -6.54854 1.997323,-3.590845 -8.423582 0.5816545,-3.724448 -7.494279 1.36813,-3.724448 -7.494279 1.36813,-3.747909 -7.847398 1.64226,-3.152735 -8.448624 0.7398773,-3.170299 -7.595478 1.524852,-3.194414 -7.664104 1.742739,-3.253263 -7.759776 1.823452,-2.708754 -8.619133 0.9059999,-2.61101 -7.96698 1.607136,-2.62932 -7.788101 1.953462,-2.692968 -7.665338 2.168701,-8.679543 -8.530912 0.139227,-8.173078 -8.232468 0.4556739,-7.733324 -7.564626 0.7078086,-7.437838 -6.939617 0.9743481,-7.110758 -6.583795 1.255173,-8.121996 -6.073869 0.5171908,-8.04987 -5.088905 0.7350968,-8.039166 -4.512531 0.9303446,-8.037109 -3.993631 1.068243,-8.449079 -5.949649 0.5706333,-8.412196 -4.839988 0.7787995,-8.408192 -4.149814 1.006164,-8.41903 -3.538677 1.188681,-8.759513 -6.057745 0.6571913,-8.774299 -5.027723 0.8622703,-8.787032 -4.372404 1.038363,-8.790945 -3.790067 1.181596,-9.079408 -6.353644 0.7630701,-9.148283 -5.541736 0.9634154,-9.170413 -5.005222 1.090807,-9.180243 -4.474649 1.186095,5.510,0  0
-2.87606 -9.783937 -1.13459,-3.546642 -9.886436 -0.8013419,-4.148943 -9.529324 -0.4051294,-4.62639 -9.238667 -0.04147482,-5.082645 -9.094948 0.3552209,-3.985037 -8.512236 0.3158684,-4.272774 -7.694561 1.080078,-4.534481 -7.140666 1.541181,-4.814392 -6.59364 1.898349,-3.566496 -8.374249 0.4909804,-3.710041 -7.493257 1.390735,-3.710041 -7.493257 1.390735,-3.745119 -7.839227 1.916753,-3.118995 -8.428673 0.6570152,-3.132876 -7.641634 1.520464,-3.172876 -7.708816 1.86109,-3.224547 -7.767637 2.005634,-2.671346 -8.629219 0.8252627,-2.581531 -8.024946 1.552042,-2.616735 -7.836236 1.93899,-2.670959 -7.665565 2.193674,-8.702538 -8.51685 0.06428447,-8.192583 -8.233471 0.3782736,-7.743925 -7.581855 0.6313756,-7.438873 -6.961153 0.8983381,-7.105842 -6.602703 1.184262,-8.125473 -6.082626 0.4498248,-8.051143 -5.091429 0.6726382,-8.042403 -4.514068 0.8646135,-8.041106 -4.003146 0.99133,-8.453442 -5.960304 0.5026029,-8.414989 -4.839248 0.7125782,-8.410691 -4.145387 0.9309409,-8.420001 -3.536429 1.106259,-8.766197 -6.070072 0.5896079,-8.777065 -5.034624 0.7954,-8.786564 -4.384098 0.9630509,-8.785534 -3.811841 1.100325,-9.088147 -6.366409 0.6972831,-9.155357 -5.548791 0.9009994,-9.182312 -5.013622 1.032821,-9.194762 -4.486557 1.128509,5.610,0  0
-2.868864 -9.877672 -1.261581,-3.572637 -9.826345 -1.033739,-4.156568 -9.505388 -0.6122271,-4.6502 -9.300039 -0.2192526,-5.096163 -9.187481 0.1814493,-3.993204 -8.73794 0.2811216,-4.28701 -7.807712 1.05813,-4.542856 -7.181865 1.523945,-4.814623 -6.647785 1.874536,-3.586637 -8.663584 0.457409,-3.709879 -7.433904 1.177366,-3.709879 -7.433904 1.177366,-3.716519 -7.626199 1.328126,-3.140976 -8.719084 0.6323017,-3.153959 -7.57942 1.321437,-3.165743 -7.57728 1.403505,-3.226252 -7.673166 1.400994,-2.697359 -8.879196 0.8075495,-2.623315 -8.038679 1.375352,-2.664835 -7.774145 1.588567,-2.747429 -7.608971 1.718587,-8.700136 -8.530933 0.1086731,-8.186916 -8.236095 0.4450601,-7.741448 -7.573695 0.70689,-7.442524 -6.95486 0.975018,-7.117492 -6.584443 1.25195,-8.137917 -6.092941 0.542605,-8.067179 -5.112707 0.7879824,-8.056819 -4.540124 0.9945945,-8.053503 -4.025597 1.139712,-8.46478 -5.967153 0.5861749,-8.424049 -4.862379 0.8199172,-8.420369 -4.176963 1.058584,-8.428534 -3.562435 1.259529,-8.777782 -6.07468 0.6628388,-8.782732 -5.055985 0.8825325,-8.78845 -4.408403 1.056829,-8.78577 -3.837177 1.206989,-9.103759 -6.368751 0.7615829,-9.166095 -5.559841 0.9620883,-9.185531 -5.030984 1.091061,-9.190999 -4.510866 1.194692,5.710,0  0
-2.908554 -9.822699 -1.316678,-3.580665 -9.861805 -0.9506018,-4.189168 -9.528267 -0.5215873,-4.662768 -9.234606 -0.1446373,-5.126217 -9.081194 0.2443966,-4.001855 -8.751514 0.2664773,-4.275234 -7.8936 1.078918,-4.544069 -7.250486 1.552285,-4.834395 -6.60531 1.917166,-3.579489 -8.628729 0.4149626,-3.727793 -7.688204 1.302863,-3.727793 -7.688204 1.302863,-3.78909 -7.626024 1.80183,-3.131767 -8.655449 0.5415822,-3.143576 -7.784397 1.395429,-3.179064 -7.679845 1.703399,-3.244823 -7.614465 1.848404,-2.675921 -8.7913 0.6772282,-2.590329 -8.13496 1.374447,-2.622167 -7.876583 1.714618,-2.68417 -7.653335 1.936034,-8.694292 -8.520187 0.07680386,-8.187666 -8.229399 0.3987857,-7.739792 -7.566385 0.6552035,-7.440849 -6.955724 0.9248849,-7.112664 -6.596018 1.212947,-8.135943 -6.077856 0.4630353,-8.065401 -5.094007 0.6861366,-8.058115 -4.516438 0.8714423,-8.060205 -4.003291 0.992132,-8.461494 -5.958369 0.5145279,-8.421039 -4.853706 0.7236034,-8.416875 -4.165292 0.9433554,-8.428392 -3.555522 1.119722,-8.774446 -6.071887 0.6009814,-8.778507 -5.049974 0.8055629,-8.784484 -4.4025 0.972661,-8.782644 -3.833646 1.108505,-9.100759 -6.37364 0.710616,-9.168148 -5.561962 0.909632,-9.192896 -5.033351 1.039055,-9.201368 -4.516229 1.138693,5.810,0  0
-2.914626 -9.871981 -1.320341,-3.597426 -9.854141 -0.9639251,-4.204927 -9.544725 -0.4971692,-4.689142 -9.267149 -0.08622396,-5.14965 -9.102177 0.3288205,-3.989384 -8.916975 0.3708117,-4.279236 -7.958575 1.190581,-4.558292 -7.289859 1.671823,-4.853647 -6.667392 2.039393,-3.566912 -8.809446 0.5005087,-3.721201 -7.744157 1.337537,-3.721201 -7.744157 1.337537,-3.801401 -7.434385 1.791043,-3.12451 -8.816711 0.6017634,-3.138687 -7.838819 1.397527,-3.171654 -7.623486 1.674006,-3.241014 -7.50596 1.838199,-2.677646 -8.903498 0.7084292,-2.599785 -8.188526 1.349635,-2.626812 -7.882997 1.653052,-2.686935 -7.650547 1.868572,-8.701035 -8.527929 0.05907839,-8.188579 -8.228764 0.4032489,-7.743621 -7.576543 0.6725407,-7.449093 -6.965178 0.9469855,-7.12474 -6.594797 1.229261,-8.143507 -6.105976 0.4912852,-8.067418 -5.128703 0.7423438,-8.059129 -4.548612 0.9506543,-8.058442 -4.022989 1.094678,-8.472249 -5.976325 0.5275261,-8.433034 -4.875805 0.7673804,-8.433147 -4.185462 1.010304,-8.444478 -3.568354 1.207754,-8.783534 -6.075824 0.594623,-8.791091 -5.050708 0.8147123,-8.806761 -4.395534 0.9957755,-8.813061 -3.820389 1.1455,-9.108992 -6.362535 0.6863101,-9.174231 -5.55277 0.8864366,-9.193821 -5.022277 1.014597,-9.197971 -4.503445 1.11724,5.910,0  0
-2.964804 -9.884451 -1.513478,-3.617064 -9.907393 -1.159517,-4.197721 -9.594364 -0.746613,-4.66923 -9.316835 -0.3934965,-5.130756 -9.194904 -0.03419995,-4.028182 -8.844156 0.0535202,-4.29067 -7.942877 0.8385602,-4.56295 -7.306334 1.277009,-4.858229 -6.692958 1.608991,-3.624667 -8.760168 0.1982651,-3.738329 -7.880317 1.069573,-3.738329 -7.880317 1.069573,-3.81388 -7.531951 1.600433,-3.199182 -8.802853 0.3075018,-3.180064 -8.020332 1.167053,-3.203211 -7.751026 1.510126,-3.275052 -7.481008 1.688052,-2.767276 -8.935425 0.4218407,-2.655354 -8.327379 1.135309,-2.653811 -7.963778 1.501539,-2.692779 -7.585956 1.752361,-8.708535 -8.516035 0.04520556,-8.203852 -8.216293 0.3748741,-7.75562 -7.562095 0.6377755,-7.458938 -6.94716 0.9101746,-7.135883 -6.57965 1.199411,-8.149019 -6.093479 0.4649082,-8.075381 -5.111701 0.6919091,-8.069495 -4.534976 0.8802283,-8.072543 -4.016654 1.011251,-8.476987 -5.967462 0.5065938,-8.432315 -4.868112 0.7196047,-8.429974 -4.177421 0.9452943,-8.440245 -3.564609 1.133666,-8.790318 -6.067864 0.5793663,-8.786232 -5.049568 0.7786762,-8.791514 -4.405859 0.9506523,-8.789604 -3.842723 1.097782,-9.117702 -6.354263 0.675452,-9.178143 -5.548174 0.8672237,-9.202537 -5.028766 0.9939168,-9.212208 -4.520123 1.099883,6.010,0  0
-3.051144 -9.88472 -1.46719,-3.694785 -9.867762 -1.107885,-4.255145 -9.582525 -0.6361144,-4.711249 -9.376703 -0.2187843,-5.161161 -9.267738 0.2197737,-4.035492 -8.966209 0.2766894,-4.281578 -7.998794 1.104047,-4.563412 -7.38072 1.583172,-4.864367 -6.848169 1.948157,-3.611979 -8.889093 0.3715838,-3.728971 -7.759033 1.118543,-3.728971 -7.759033 1.118543,-3.828255 -7.44277 1.406393,-3.17696 -8.929913 0.450303,-3.175735 -7.911718 1.200201,-3.210847 -7.69822 1.409764,-3.278421 -7.552284 1.527883,-2.752349 -9.047417 0.5285374,-2.657262 -8.31831 1.119879,-2.673149 -7.980218 1.37206,-2.72173 -7.68715 1.546466,-8.707046 -8.514526 0.04323653,-8.205535 -8.221113 0.3623558,-7.759288 -7.552015 0.6196924,-7.464702 -6.935291 0.88776,-7.139584 -6.572496 1.168953,-8.160743 -6.085913 0.4395867,-8.091169 -5.105329 0.6590396,-8.08305 -4.526588 0.843349,-8.082895 -4.003757 0.9702761,-8.481376 -5.962525 0.4851814,-8.43857 -4.870748 0.6904454,-8.435875 -4.186934 0.9075312,-8.446328 -3.576013 1.090833,-8.790476 -6.069116 0.5618035,-8.788473 -5.051849 0.7522143,-8.79606 -4.409647 0.9105077,-8.797256 -3.846969 1.048939,-9.113503 -6.362243 0.6619679,-9.17655 -5.547298 0.845262,-9.200083 -5.021558 0.9665882,-9.211756 -4.506559 1.067045,6.110,0  0
-3.035841 -9.968952 -1.596791,-3.692545 -9.940136 -1.180842,-4.253874 -9.614851 -0.731545,-4.701778 -9.358234 -0.3557044,-5.155071 -9.25297 0.02860332,-4.043535 -8.998585 0.0681138,-4.307971 -8.083668 0.8879932,-4.598709 -7.460826 1.385377,-4.89659 -6.855207 1.747024,-3.621555 -8.92771 0.1640911,-3.761667 -7.990636 1.020095,-3.761667 -7.990636 1.020095,-3.879069 -7.407908 1.608132,-3.184949 -8.958881 0.224682,-3.185098 -8.122484 1.070694,-3.209667 -7.786546 1.44837,-3.262439 -7.46256 1.683315,-2.749043 -9.05759 0.2981328,-2.645744 -8.42024 0.9591271,-2.654495 -8.061491 1.300583,-2.681765 -7.710445 1.552596,-8.712852 -8.512903 0.06163399,-8.211127 -8.222433 0.3602368,-7.761167 -7.5526 0.6101282,-7.467002 -6.936786 0.8742266,-7.148289 -6.573888 1.154247,-8.163485 -6.080055 0.4437436,-8.092348 -5.105739 0.6452078,-8.08344 -4.529735 0.818272,-8.081691 -4.011507 0.9419677,-8.485261 -5.954286 0.4952339,-8.44031 -4.870237 0.6852053,-8.435149 -4.183603 0.8965833,-8.444368 -3.574797 1.080785,-8.794421 -6.061683 0.5743822,-8.787305 -5.054687 0.7519929,-8.789382 -4.408889 0.9051927,-8.786327 -3.84683 1.043979,-9.119199 -6.357036 0.6763753,-9.182146 -5.554599 0.8500248,-9.207722 -5.03984 0.966281,-9.220676 -4.536818 1.066542,6.210,0  0
-3.105286 -9.846767 -1.569571,-3.742271 -9.941679 -1.084279,-4.292685 -9.655748 -0.6477401,-4.730106 -9.436562 -0.3159637,-5.155422 -9.369209 0.05910754,-4.100195 -8.786118 0.05232227,-4.316588 -7.944755 0.8736901,-4.606929 -7.3747 1.383518,-4.930388 -6.802749 1.766534,-3.679474 -8.68652 0.1289724,-3.763941 -8.033472 1.12659,-3.763941 -8.033472 1.12659,-3.864991 -7.9073 1.823536,-3.239042 -8.754202 0.1680611,-3.182281 -8.175739 1.189458,-3.188645 -7.99563 1.62288,-3.232719 -7.744001 1.802319,-2.828635 -8.936728 0.2157476,-2.682833 -8.491209 1.049992,-2.659165 -8.217707 1.432361,-2.660642 -7.871105 1.650955,-8.707489 -8.490458 0.004061509,-8.208499 -8.202662 0.3244631,-7.766209 -7.543548 0.5855013,-7.475092 -6.928279 0.8525349,-7.152959 -6.569079 1.1339,-8.169432 -6.079641 0.4226505,-8.097589 -5.091436 0.6493416,-8.090595 -4.518711 0.8353125,-8.090704 -3.994592 0.9671572,-8.495056 -5.951795 0.4632888,-8.4519 -4.848203 0.6741562,-8.449915 -4.159912 0.89333,-8.458733 -3.54964 1.082819,-8.807305 -6.053348 0.5324006,-8.8009 -5.028565 0.7243271,-8.810496 -4.37964 0.8850607,-8.814432 -3.816713 1.031035,-9.13466 -6.343133 0.6229229,-9.192549 -5.530345 0.8070536,-9.214188 -5.008879 0.9278185,-9.223748 -4.50662 1.031228,6.310,0  0
-3.080502 -9.964094 -1.359826,-3.738983 -9.942049 -0.944048,-4.312923 -9.627426 -0.4684594,-4.76876 -9.40354 -0.07778275,-5.223112 -9.346218 0.3126179,-4.112982 -9.009665 0.3860312,-4.353678 -8.119505 1.251149,-4.64407 -7.520895 1.757814,-4.955942 -6.958724 2.121157,-3.680486 -8.955658 0.4959055,-3.808828 -8.047297 1.440042,-3.808828 -8.047297 1.440042,-3.957053 -7.602598 2.034344,-3.225088 -8.997547 0.5642403,-3.219031 -8.166239 1.468937,-3.25164 -7.892393 1.788015,-3.325478 -7.607694 1.956587,-2.773369 -9.097286 0.6468023,-2.706401 -8.336369 1.294788,-2.737612 -7.983617 1.585062,-2.786823 -7.683129 1.790638,-8.698233 -8.507103 -0.01311309,-8.203772 -8.21874 0.3013412,-7.767432 -7.563531 0.5651428,-7.482493 -6.947185 0.8426135,-7.168097 -6.57431 1.134595,-8.173888 -6.092645 0.377312,-8.100141 -5.10835 0.6020882,-8.089483 -4.532091 0.7830366,-8.084762 -4.009805 0.9061386,-8.492194 -5.969515 0.4270071,-8.445458 -4.874271 0.6278237,-8.440695 -4.184474 0.8412727,-8.444324 -3.566418 1.020818,-8.802315 -6.077798 0.5074753,-8.796654 -5.057992 0.694364,-8.808614 -4.406681 0.8539961,-8.806135 -3.830845 0.9958032,-9.128043 -6.377534 0.6115791,-9.201903 -5.559989 0.7966096,-9.237276 -5.035864 0.924817,-9.251911 -4.527194 1.030294,6.410,0  0
-3.139301 -9.917933 -1.538879,-3.780741 -9.935537 -1.07124,-4.335989 -9.624912 -0.5954927,-4.776735 -9.383852 -0.2229691,-5.223934 -9.316208 0.152264,-4.123823 -9.067734 0.2177286,-4.346551 -8.180359 1.092041,-4.645202 -7.555482 1.611752,-4.961267 -6.937154 1.992789,-3.675017 -9.001751 0.3245589,-3.786437 -8.201817 1.346167,-3.786437 -8.201817 1.346167,-3.953817 -7.535423 2.156239,-3.210577 -9.021761 0.3789078,-3.190027 -8.315718 1.38031,-3.220037 -7.951676 1.817587,-3.300306 -7.564716 2.069545,-2.760503 -9.100523 0.4457477,-2.651541 -8.566883 1.211392,-2.657561 -8.194323 1.585155,-2.694666 -7.781381 1.846728,-8.704206 -8.480963 -0.1027653,-8.205944 -8.2146 0.2249505,-7.771899 -7.563234 0.4946694,-7.485337 -6.946664 0.7677881,-7.162119 -6.577871 1.060766,-8.172421 -6.09663 0.3129581,-8.102148 -5.110595 0.5492057,-8.094696 -4.525934 0.7363697,-8.094767 -3.98456 0.8634139,-8.495996 -5.972576 0.3537871,-8.449512 -4.878433 0.5680799,-8.443051 -4.180473 0.7834416,-8.445354 -3.555006 0.9623325,-8.80898 -6.07796 0.4248152,-8.809178 -5.051329 0.6283132,-8.824436 -4.39257 0.799523,-8.823243 -3.812216 0.9427091,-9.136667 -6.37078 0.5192048,-9.198936 -5.541014 0.7219757,-9.225026 -4.997674 0.8577436,-9.231867 -4.474412 0.9624705,6.510,0  0
-3.247172 -9.850338 -1.725412,-3.878729 -9.948986 -1.183273,-4.378508 -9.688978 -0.699314,-4.801219 -9.468357 -0.3419831,-5.229773 -9.392496 0.04386246,-4.156759 -8.999826 0.05081284,-4.349461 -8.128164 0.8623564,-4.638521 -7.49036 1.378854,-4.941674 -6.82419 1.779285,-3.731451 -8.938631 0.09306443,-3.76315 -8.208818 0.9327672,-3.76315 -8.208818 0.9327672,-3.899805 -7.581161 1.549984,-3.31213 -9.010252 0.1063845,-3.217557 -8.413773 1.040196,-3.213281 -8.039143 1.482675,-3.248807 -7.621544 1.735481,-2.927264 -9.161667 0.1371129,-2.749256 -8.736094 0.901561,-2.687042 -8.306377 1.301449,-2.659264 -7.778226 1.573605,-8.722906 -8.461193 -0.2028223,-8.211488 -8.201853 0.124714,-7.772688 -7.55779 0.3940313,-7.480742 -6.937666 0.6633632,-7.159232 -6.553995 0.9549866,-8.185748 -6.106096 0.2302217,-8.106252 -5.102108 0.4731311,-8.093522 -4.521294 0.6609184,-8.091431 -3.990997 0.7842572,-8.509248 -5.985292 0.2690717,-8.460034 -4.871929 0.4924863,-8.452338 -4.170209 0.7064704,-8.453856 -3.544057 0.884129,-8.820991 -6.092199 0.3356495,-8.813715 -5.052328 0.552197,-8.818703 -4.394027 0.7240665,-8.811863 -3.816984 0.8638554,-9.147071 -6.378717 0.4248825,-9.213765 -5.54917 0.6312878,-9.242566 -5.011011 0.7662948,-9.249399 -4.492305 0.871104,6.610,0  0
-3.262571 -9.867453 -1.677312,-3.911285 -9.90202 -1.176589,-4.414268 -9.641624 -0.6815413,-4.836607 -9.4345 -0.2966467,-5.274311 -9.327744 0.1269276,-4.172546 -9.032192 0.1305025,-4.385777 -8.127672 0.9428719,-4.682615 -7.486702 1.458209,-4.978096 -6.866085 1.860223,-3.73254 -9.003897 0.1838028,-3.804781 -8.140024 0.9743706,-3.804781 -8.140024 0.9743706,-3.956228 -7.407993 1.574822,-3.307505 -9.08469 0.2084814,-3.262283 -8.358376 1.077812,-3.274666 -7.939565 1.546993,-3.301844 -7.51172 1.843928,-2.909842 -9.222696 0.2439766,-2.766322 -8.732437 0.982818,-2.72542 -8.267452 1.424303,-2.702739 -7.726636 1.74553,-8.710178 -8.469671 -0.170429,-8.211581 -8.200764 0.1628954,-7.777142 -7.545906 0.4282122,-7.487714 -6.924013 0.6919525,-7.161843 -6.55774 0.975971,-8.187937 -6.113222 0.2910045,-8.112157 -5.11352 0.5409723,-8.100908 -4.532225 0.7319186,-8.099303 -3.996837 0.8562112,-8.513933 -5.986972 0.3224526,-8.466956 -4.872596 0.5543211,-8.463903 -4.17171 0.7711804,-8.467698 -3.548023 0.9526976,-8.827715 -6.091907 0.3799087,-8.816739 -5.050607 0.5979961,-8.827382 -4.382605 0.7614205,-8.82685 -3.799655 0.8984079,-9.154294 -6.38219 0.4602801,-9.21478 -5.548871 0.6647174,-9.241459 -5.012764 0.7957507,-9.249238 -4.498132 0.899285,6.710,0  0
-3.362051 -9.955256 -1.160647,-3.975103 -9.917114 -0.6948704,-4.497456 -9.57589 -0.1769797,-4.934022 -9.28054 0.2033818,-5.347483 -9.153688 0.6161931,-4.172628 -9.496614 0.9238276,-4.395843 -8.694077 1.911471,-4.798021 -8.066357 2.595644,-5.200586 -7.417554 3.102298,-3.743015 -9.448523 1.00077,-3.850924 -8.529245 1.853879,-3.850924 -8.529245 1.853879,-4.188108 -7.280769 2.583447,-3.332809 -9.422867 1.013798,-3.297571 -8.578856 1.93126,-3.329303 -7.958551 2.314974,-3.401772 -7.366262 2.613354,-2.959786 -9.402754 1.031212,-2.822928 -8.85688 1.76845,-2.781009 -8.29558 2.124339,-2.759251 -7.678377 2.409927,-8.71199 -8.467062 -0.169741,-8.209508 -8.195442 0.175138,-7.785931 -7.557647 0.4506857,-7.507158 -6.939327 0.7242536,-7.188686 -6.556106 1.015429,-8.195489 -6.105453 0.2852249,-8.123249 -5.100864 0.5352787,-8.112949 -4.524019 0.7312196,-8.111995 -3.993715 0.8610383,-8.519479 -5.98218 0.3146476,-8.479642 -4.866333 0.5439148,-8.477627 -4.17382 0.7641478,-8.480689 -3.55568 0.9460666,-8.832261 -6.091146 0.3729313,-8.830646 -5.049032 0.5860311,-8.845459 -4.386135 0.7582929,-8.848171 -3.802183 0.9021951,-9.15662 -6.385534 0.4534046,-9.227867 -5.564647 0.6520396,-9.258194 -5.035538 0.7873809,-9.266048 -4.520081 0.8940988,6.810,0  0
-3.362513 -9.820938 -0.651576,-4.007995 -9.664652 -0.156321,-4.478368 -9.195421 0.3408293,-4.788048 -8.687286 0.6647871,-5.030293 -8.271278 1.016556,-4.243884 -9.664841 1.638633,-4.551506 -9.336773 2.659433,-4.910801 -9.111263 3.293059,-5.289698 -8.83828 3.73041,-3.818569 -9.64027 1.695379,-3.931395 -8.793934 2.706202,-3.931395 -8.793934 2.706202,-4.267265 -7.258073 3.589632,-3.369696 -9.541044 1.673586,-3.313818 -8.677162 2.736771,-3.37254 -7.932066 3.153726,-3.445641 -7.303186 3.444889,-2.990627 -9.420454 1.647765,-2.86496 -8.894493 2.447288,-2.874216 -8.294497 2.842515,-2.892677 -7.66861 3.161385,-8.741058 -8.462547 -0.156191,-8.233644 -8.217644 0.1782856,-7.795272 -7.563873 0.4476854,-7.509747 -6.951971 0.7210377,-7.188652 -6.578915 1.009372,-8.198154 -6.097233 0.2651814,-8.120304 -5.108093 0.5118302,-8.108087 -4.53049 0.705395,-8.105662 -4.001709 0.8305784,-8.52204 -5.971534 0.3051114,-8.483562 -4.869037 0.5237126,-8.48087 -4.179291 0.7386107,-8.484256 -3.563524 0.916432,-8.835034 -6.076952 0.3778501,-8.83687 -5.04552 0.5909914,-8.848714 -4.393714 0.7643913,-8.845859 -3.822048 0.9045951,-9.160875 -6.37048 0.4756474,-9.23538 -5.556346 0.6784461,-9.271057 -5.031429 0.8144051,-9.28461 -4.519971 0.9195673,6.910,0  0
-3.168367 -10.15424 -1.416198,-3.881382 -9.965509 -1.120514,-4.419189 -9.532888 -0.6047933,-4.854808 -9.311573 -0.1621528,-5.33374 -9.333656 0.2479043,-4.133111 -9.294302 0.4015747,-4.407082 -8.229935 1.343947,-4.668728 -7.580333 1.890419,-4.940084 -7.171415 2.289542,-3.657344 -9.12628 0.4421195,-3.794653 -7.530143 1.021977,-3.794653 -7.530143 1.021977,-3.817377 -8.133108 0.4107591,-3.173773 -9.021767 0.5153618,-3.256384 -7.558969 1.005639,-3.2695 -7.899271 0.5470114,-3.322991 -8.274794 0.2244889,-2.730717 -8.984003 0.6256679,-2.700433 -7.928998 0.925028,-2.757375 -8.029457 0.7672995,-2.84599 -8.214308 0.6816686,-8.748987 -8.485359 -0.1219912,-8.248577 -8.221542 0.2202434,-7.820333 -7.5705 0.4910167,-7.540292 -6.958233 0.7647069,-7.218833 -6.581522 1.051223,-8.221815 -6.11077 0.3107546,-8.145678 -5.124217 0.5536787,-8.13714 -4.551353 0.746149,-8.136271 -4.025314 0.8692752,-8.545321 -5.984338 0.3461046,-8.509958 -4.866998 0.5631385,-8.508314 -4.173379 0.7790271,-8.51178 -3.560103 0.9561648,-8.856632 -6.091119 0.4137446,-8.856665 -5.046099 0.6234857,-8.867924 -4.383749 0.7967473,-8.867822 -3.805589 0.9399518,-9.180323 -6.388233 0.5048492,-9.250389 -5.560112 0.7080784,-9.280066 -5.026454 0.8491762,-9.290071 -4.511449 0.9561497,7.010,0  0
-3.042361 -10.18187 -1.064677,-3.764713 -9.977657 -0.7098339,-4.389168 -9.679596 -0.1797519,-4.90825 -9.469851 0.2551116,-5.358772 -9.377251 0.6996812,-4.111078 -9.77425 0.9546819,-4.399073 -9.000803 2.095268,-4.757652 -8.348028 2.860145,-5.093197 -7.679288 3.360605,-3.659906 -9.698429 1.075919,-3.78064 -8.435308 1.965741,-3.78064 -8.435308 1.965741,-4.021945 -7.409854 2.147597,-3.189762 -9.604046 1.1898,-3.19116 -8.433041 2.10709,-3.261661 -7.932613 2.325862,-3.368243 -7.571747 2.45865,-2.724741 -9.505096 1.301443,-2.614826 -8.662331 1.99209,-2.643239 -8.177122 2.233741,-2.699254 -7.758903 2.41379,-8.786735 -8.523207 -0.02811928,-8.277059 -8.257708 0.3170859,-7.83806 -7.588571 0.5797823,-7.551436 -6.974178 0.8470523,-7.222702 -6.604948 1.121498,-8.245548 -6.124541 0.3910801,-8.169007 -5.120279 0.6329302,-8.159359 -4.536616 0.824006,-8.15881 -3.999831 0.9467866,-8.567737 -5.992795 0.421711,-8.526146 -4.879657 0.6406312,-8.522529 -4.187429 0.8579524,-8.525265 -3.571134 1.034124,-8.876855 -6.096998 0.4848974,-8.873307 -5.060173 0.6929786,-8.88775 -4.400188 0.8668355,-8.889659 -3.821604 1.010932,-9.196568 -6.394688 0.5724451,-9.263666 -5.580904 0.7731156,-9.288376 -5.0566 0.9120277,-9.293289 -4.546831 1.023102,7.110,0  0
-3.035196 -10.12083 -0.8026693,-3.816757 -9.893969 -0.4270474,-4.4387 -9.541561 0.1020193,-4.932409 -9.25857 0.5343138,-5.392719 -9.042454 0.9830505,-4.169569 -9.856512 1.340826,-4.457609 -9.434292 2.535528,-4.823762 -9.045153 3.196362,-5.202801 -8.490273 3.555007,-3.694744 -9.776516 1.431282,-3.705119 -8.633797 2.375735,-3.705119 -8.633797 2.375735,-3.987049 -7.152339 2.208565,-3.166088 -9.610455 1.551297,-3.078689 -8.519896 2.515221,-3.185568 -7.928571 2.471606,-3.318817 -7.436056 2.364908,-2.652425 -9.430923 1.668346,-2.507561 -8.689295 2.394167,-2.595941 -8.175896 2.582449,-2.718492 -7.68437 2.662069,-8.775078 -8.529165 -0.0004201526,-8.276624 -8.259874 0.3293676,-7.843837 -7.583284 0.5822822,-7.557185 -6.957821 0.8394543,-7.225494 -6.589349 1.112023,-8.248038 -6.11832 0.407086,-8.168781 -5.119558 0.6303908,-8.160329 -4.548677 0.8066123,-8.16177 -4.024033 0.9244684,-8.570262 -5.988321 0.4425074,-8.524138 -4.875116 0.6449596,-8.524241 -4.181617 0.8572639,-8.531475 -3.571491 1.033692,-8.878365 -6.090815 0.5060738,-8.873468 -5.057813 0.7015981,-8.89037 -4.396793 0.8715091,-8.895945 -3.820201 1.01881,-9.199432 -6.385754 0.5944232,-9.263729 -5.571504 0.7876852,-9.289833 -5.052612 0.9220681,-9.297242 -4.553583 1.030958,7.210,0  0
-3.011693 -10.02151 -0.3130574,-3.765958 -9.941305 0.02640104,-4.400934 -9.72122 0.594668,-4.913121 -9.535904 1.077278,-5.393579 -9.531025 1.474801,-4.112869 -9.651052 1.95058,-4.336973 -8.794319 3.040852,-4.664515 -8.384813 3.542315,-4.982034 -8.01421 3.814743,-3.691412 -9.445797 2.016709,-3.423631 -7.907266 2.759683,-3.423631 -7.907266 2.759683,-3.681824 -8.28623 1.953082,-3.179815 -9.302841 2.097389,-2.95299 -7.904154 2.723,-3.041001 -8.233812 2.110864,-3.200357 -8.460716 1.737508,-2.709229 -9.247818 2.213926,-2.466682 -8.205027 2.661651,-2.57397 -8.35516 2.42171,-2.719956 -8.491987 2.282099,-8.787001 -8.552929 0.04539509,-8.287557 -8.260033 0.3677351,-7.85902 -7.594194 0.6180377,-7.581584 -6.972408 0.8777452,-7.263403 -6.612148 1.152238,-8.254779 -6.127229 0.4550384,-8.18601 -5.12219 0.6808384,-8.176786 -4.539536 0.8600887,-8.177549 -4.005544 0.9820268,-8.57773 -6.000732 0.4976669,-8.541637 -4.891718 0.7021281,-8.535369 -4.197608 0.919329,-8.538259 -3.573472 1.096571,-8.88609 -6.104675 0.5698056,-8.889198 -5.079557 0.7655625,-8.898662 -4.427366 0.9382976,-8.897956 -3.851785 1.084072,-9.204495 -6.398876 0.6642795,-9.274062 -5.579573 0.8659011,-9.301411 -5.048135 1.011616,-9.310899 -4.533016 1.127404,7.310,0 0 0
-3.101088 -10.21155 0.4696238,-3.829292 -9.904472 0.839842,-4.383386 -9.454109 1.445046,-4.819878 -9.098776 1.884954,-5.167376 -8.809704 2.333137,-4.133258 -10.11678 3.089814,-4.448725 -9.802479 4.346155,-4.868462 -9.43725 5.123349,-5.272555 -9.035126 5.612438,-3.670783 -10.0468 3.121946,-3.733418 -8.579025 4.005136,-3.733418 -8.579025 4.005136,-4.129255 -7.228313 3.636852,-3.145502 -9.793303 3.161138,-3.118138 -8.310907 4.036721,-3.22275 -7.819026 3.688559,-3.344246 -7.669746 3.466907,-2.655693 -9.546593 3.199925,-2.538745 -8.508123 3.836032,-2.607881 -8.077669 3.833164,-2.718789 -7.845602 3.846651,-8.786069 -8.549433 -0.01736465,-8.283607 -8.260448 0.3142839,-7.859465 -7.598471 0.5735253,-7.576674 -6.976705 0.8373346,-7.250802 -6.599829 1.114625,-8.267438 -6.143188 0.4030151,-8.194004 -5.134728 0.638557,-8.181452 -4.55454 0.8237746,-8.180607 -4.023123 0.9471885,-8.585701 -6.01576 0.4402324,-8.540495 -4.895204 0.6559486,-8.532893 -4.200658 0.8755672,-8.539158 -3.584297 1.053078,-8.890043 -6.120521 0.5072778,-8.886383 -5.081773 0.7110629,-8.896242 -4.420063 0.88643,-8.899377 -3.838836 1.037917,-9.206987 -6.418808 0.597517,-9.272228 -5.597705 0.8035034,-9.294228 -5.067831 0.9523102,-9.299997 -4.555094 1.073276,7.410,0 0 0
-2.995477 -10.39227 -1.072297,-3.740692 -10.21652 -0.8192757,-4.36828 -9.910824 -0.2980995,-4.871093 -9.845186 0.1597103,-5.331765 -9.885906 0.5859104,-4.035625 -9.489199 0.7271463,-4.283499 -8.573317 1.723741,-4.560982 -7.958474 2.284185,-4.854586 -7.439827 2.607175,-3.583329 -9.271624 0.8215027,-3.551079 -7.844671 1.522827,-3.551079 -7.844671 1.522827,-3.581711 -8.503307 1.256484,-3.103466 -9.158667 0.9331728,-3.033407 -7.865608 1.430961,-3.061735 -8.306807 1.14174,-3.140843 -8.662554 0.9442018,-2.647181 -9.161633 1.066974,-2.516352 -8.248894 1.350307,-2.562567 -8.481079 1.210011,-2.650021 -8.664989 1.104199,-8.805336 -8.548738 -0.0236882,-8.296702 -8.26767 0.3102472,-7.865157 -7.609659 0.5762083,-7.57924 -6.993846 0.8496992,-7.255836 -6.610141 1.133145,-8.277725 -6.149333 0.4201841,-8.201542 -5.143493 0.6627685,-8.186975 -4.563917 0.8503507,-8.186322 -4.027484 0.9726517,-8.598191 -6.022211 0.4594747,-8.555737 -4.904293 0.6770245,-8.54972 -4.209907 0.8927492,-8.555655 -3.592252 1.066582,-8.904881 -6.131422 0.527456,-8.900043 -5.093932 0.7336902,-8.908375 -4.430301 0.9087139,-8.910056 -3.842765 1.056111,-9.223195 -6.431077 0.6186386,-9.285861 -5.606554 0.8275734,-9.306886 -5.070286 0.9792475,-9.313173 -4.549369 1.09871,7.510,0 0 0
-2.91208 -10.50826 -1.172039,-3.687835 -10.25225 -1.145155,-4.329954 -9.887751 -0.6424651,-4.861152 -9.76012 -0.2006007,-5.334764 -9.733555 0.2345558,-3.995813 -9.713539 0.5969826,-4.267002 -8.544907 1.468419,-4.539177 -7.83531 1.945327,-4.814395 -7.311508 2.192419,-3.563238 -9.504875 0.7328384,-3.568369 -7.685211 1.05547,-3.568369 -7.685211 1.05547,-3.473787 -8.406137 0.2559264,-3.100842 -9.373863 0.879182,-3.076337 -7.683898 1.045306,-3.047562 -8.073286 0.5922135,-3.066236 -8.520388 0.3730657,-2.65973 -9.335449 1.035558,-2.568222 -8.121326 1.095961,-2.565771 -8.33156 0.8346068,-2.601483 -8.617893 0.6857359,-8.805364 -8.538324 -0.01776827,-8.294846 -8.263222 0.3178629,-7.861569 -7.603042 0.5765521,-7.579788 -6.986539 0.8404717,-7.250455 -6.60796 1.116385,-8.267754 -6.139028 0.4233072,-8.201586 -5.132825 0.6587096,-8.196446 -4.557737 0.8429407,-8.20445 -4.028149 0.9667525,-8.594795 -6.009086 0.4589051,-8.553782 -4.890201 0.6718307,-8.554744 -4.198707 0.8905913,-8.569942 -3.587419 1.071065,-8.90522 -6.113839 0.5216425,-8.900402 -5.075777 0.7212394,-8.914113 -4.417522 0.8901097,-8.924551 -3.841263 1.037319,-9.228652 -6.409343 0.6093563,-9.286273 -5.588184 0.8058389,-9.306104 -5.063106 0.9431409,-9.313907 -4.554641 1.055075,7.610,0 0 0
-3.018036 -10.54359 -0.3728453,-3.726963 -10.21826 -0.07044601,-4.328478 -9.811836 0.4886336,-4.833553 -9.532291 0.9042004,-5.278036 -9.339895 1.301104,-4.032671 -10.26663 1.917392,-4.335405 -9.64854 3.163024,-4.735128 -9.077103 3.906508,-5.117053 -8.48411 4.351427,-3.596235 -10.17167 2.007165,-3.7075 -8.598665 2.828096,-3.7075 -8.598665 2.828096,-3.956385 -7.519611 2.57652,-3.115812 -9.979105 2.115566,-3.133593 -8.40061 2.889824,-3.224722 -7.922854 2.7895,-3.342867 -7.746933 2.729095,-2.648076 -9.78775 2.206532,-2.529202 -8.61171 2.778115,-2.573226 -8.131861 2.871573,-2.647456 -7.874864 2.949376,-8.796597 -8.582472 0.02141904,-8.295714 -8.294371 0.3339719,-7.871413 -7.636751 0.5874748,-7.595683 -7.01218 0.8506561,-7.276675 -6.625598 1.128386,-8.279291 -6.160379 0.427769,-8.207614 -5.154548 0.6422384,-8.199417 -4.57099 0.8149251,-8.203259 -4.041189 0.9307502,-8.606069 -6.034687 0.4673992,-8.564205 -4.913404 0.6575707,-8.558227 -4.221862 0.8631579,-8.564734 -3.615337 1.033325,-8.916509 -6.142694 0.5328265,-8.910691 -5.093372 0.7116234,-8.9177 -4.43637 0.8740611,-8.920065 -3.860607 1.014687,-9.23547 -6.439035 0.6200874,-9.293388 -5.609727 0.8022784,-9.311572 -5.07794 0.9367883,-9.317585 -4.561285 1.045539,7.710,0 0 0
-3.066734 -10.24935 -0.4697219,-3.895105 -10.10197 -0.1863856,-4.543247 -9.706984 0.4165623,-5.040338 -9.529116 0.9363778,-5.423559 -9.644571 1.444934,-4.167783 -9.910492 1.804659,-4.30509 -8.674829 2.801204,-4.592318 -8.269131 3.252733,-4.836132 -8.043646 3.47362,-3.686832 -9.778822 1.852819,-3.426054 -7.682884 2.44657,-3.426054 -7.682884 2.44657,-3.683498 -8.388201 1.519187,-3.133132 -9.634071 1.914936,-2.936721 -7.766099 2.335057,-3.085958 -8.138441 1.647666,-3.266745 -8.559483 1.261673,-2.648266 -9.565098 2.016725,-2.473366 -8.118484 2.239768,-2.616294 -8.362165 1.833274,-2.777297 -8.721952 1.59865,-8.814014 -8.604137 0.03471788,-8.298502 -8.312 0.3684703,-7.869604 -7.643682 0.6261594,-7.58813 -7.02005 0.8905877,-7.259886 -6.638252 1.163154,-8.281239 -6.187059 0.4631239,-8.209771 -5.169249 0.7001806,-8.201527 -4.582925 0.8866546,-8.207414 -4.039302 1.009938,-8.60577 -6.057304 0.4999118,-8.569586 -4.92711 0.7167017,-8.569411 -4.232949 0.9242284,-8.580053 -3.623301 1.092911,-8.913549 -6.164443 0.5678608,-8.914322 -5.10316 0.7730943,-8.926217 -4.436716 0.9439894,-8.931437 -3.852588 1.087098,-9.229599 -6.468217 0.6571578,-9.29521 -5.634696 0.8622949,-9.31533 -5.099014 1.0081,-9.320532 -4.581642 1.124328,7.810,0 0 0
