TiagoOliveira98/Thesis-Project/Difficulty_1/Motor_Task/Unity_Project/DataLogging/JointData/Logs(1644889188)_Tiago_main.csv
WRIST,THUMB_CMC,THUMB_MCP,THUMB_IP,THUMB_TIP,INDEX_FINGER_MCP,INDEX_FINGER_PIP,INDEX_FINGER_DIP,INDEX_FINGER_TIP,MIDDLE_FINGER_MCP,MIDDLE_FINGER_PIP,MIDDLE_FINGER_DIP,MIDDLE_FINGER_TIP,RING_FINGER_MCP,RING_FINGER_PIP,RING_FINGER_DIP,RING_FINGER_TIP,PINKY_MCP,PINKY_PIP,PINKY_DIP,PINKY_TIP,WRIST2,THUMB_CMC2,THUMB_MCP2,THUMB_IP2,THUMB_TIP2,INDEX_FINGER_MCP2,INDEX_FINGER_PIP2,INDEX_FINGER_DIP2,INDEX_FINGER_TIP2,MIDDLE_FINGER_MCP2,MIDDLE_FINGER_PIP2,MIDDLE_FINGER_DIP2,MIDDLE_FINGER_TIP2,RING_FINGER_MCP2,RING_FINGER_PIP2,RING_FINGER_DIP2,RING_FINGER_TIP2,PINKY_MCP2,PINKY_PIP2,PINKY_DIP2,PINKY_TIP2,Timestamp,Event
-1.434572 -8.435438 0.001263244,-2.136916 -8.13479 0.2576845,-2.802681 -7.336347 0.3951145,-3.263216 -6.582334 0.5743719,-3.690971 -6.107396 0.7885932,-2.455849 -5.485003 0.07764049,-2.764265 -4.307701 0.2305992,-2.918211 -3.595682 0.3370783,-3.025903 -2.899623 0.4425378,-2.099356 -5.190416 0.1695997,-2.33713 -3.801595 0.3950944,-2.33713 -3.801595 0.3950944,-2.535898 -2.149915 0.7561522,-1.717786 -5.164657 0.3412046,-1.875766 -3.804648 0.5878094,-1.998609 -2.958304 0.8081091,-2.105537 -2.193168 0.9846638,-1.303926 -5.376878 0.5456839,-1.313804 -4.293512 0.7560713,-1.350514 -3.626729 0.9533856,-1.40341 -2.986809 1.130844,-9.587239 -8.756601 0.000481801,-8.813904 -8.325825 0.1770087,-8.105089 -7.38941 0.3373598,-7.660913 -6.470291 0.5754956,-7.293171 -5.877081 0.8185744,-8.441772 -5.212649 -0.1350697,-8.231554 -3.936424 -0.05461892,-8.137064 -3.122303 0.1145473,-8.067707 -2.432236 0.2527592,-8.851624 -4.93287 -0.0332792,-8.638895 -3.4359 -0.02871051,-8.530516 -2.480642 0.199673,-8.446113 -1.632106 0.3854671,-9.265992 -4.960306 0.1115432,-9.107124 -3.543534 0.1514552,-8.993116 -2.667369 0.3207118,-8.877335 -1.937183 0.4593569,-9.711327 -5.261541 0.2910253,-9.722172 -4.191353 0.3762573,-9.697521 -3.519536 0.4728706,-9.639516 -2.906605 0.543422,0.010, 10
-1.443863 -8.469437 0.05741723,-2.157161 -8.155441 0.2950425,-2.815398 -7.345198 0.4145666,-3.268599 -6.57943 0.5812801,-3.704687 -6.098781 0.780857,-2.45225 -5.491954 0.1032551,-2.764279 -4.310691 0.249654,-2.919785 -3.602994 0.3465555,-3.027225 -2.914055 0.4433457,-2.097753 -5.204711 0.202545,-2.328853 -3.820657 0.4245272,-2.328853 -3.820657 0.4245272,-2.524784 -2.169083 0.7932571,-1.720289 -5.186342 0.3813454,-1.867251 -3.829195 0.6336068,-1.991267 -2.971763 0.8635683,-2.097359 -2.197628 1.048248,-1.313571 -5.413499 0.5896177,-1.313609 -4.340772 0.8072542,-1.348997 -3.669754 1.010218,-1.396008 -3.027279 1.189756,-9.614736 -8.739502 -0.05838529,-8.82679 -8.340464 0.1338707,-8.106844 -7.404049 0.2809887,-7.656475 -6.472417 0.5009167,-7.284937 -5.892821 0.7195494,-8.439476 -5.222902 -0.2128713,-8.230585 -3.907838 -0.1473677,-8.139506 -3.077866 0.01430961,-8.07516 -2.38136 0.1459402,-8.857732 -4.937842 -0.1404755,-8.64112 -3.423062 -0.176602,-8.531528 -2.47298 0.03362253,-8.449477 -1.630355 0.2189485,-9.275208 -4.950925 -0.02473215,-9.112493 -3.531037 -0.02375158,-8.999551 -2.669754 0.1260634,-8.889162 -1.947466 0.2594834,-9.717922 -5.22683 0.1284411,-9.711953 -4.156692 0.1761813,-9.688275 -3.501201 0.245531,-9.635784 -2.901493 0.3076794,0.110, 10
-1.44428 -8.466925 0.05461713,-2.151636 -8.159954 0.300949,-2.810373 -7.342752 0.4384543,-3.268311 -6.584249 0.620707,-3.703871 -6.117696 0.8421058,-2.454044 -5.487759 0.1528675,-2.760936 -4.310277 0.3132351,-2.914385 -3.602886 0.4201415,-3.021084 -2.908354 0.5235912,-2.098073 -5.206168 0.2590783,-2.33482 -3.823761 0.4991923,-2.33482 -3.823761 0.4991923,-2.537639 -2.17607 0.8779944,-1.717311 -5.197875 0.4415181,-1.869049 -3.832571 0.7102378,-1.996675 -2.982001 0.9473718,-2.104491 -2.20757 1.136893,-1.305239 -5.432188 0.6549808,-1.310923 -4.347904 0.8833027,-1.348487 -3.673291 1.096453,-1.396626 -3.02114 1.287492,-9.603168 -8.782385 -0.01401564,-8.827995 -8.364956 0.1879599,-8.115644 -7.439893 0.3651851,-7.662257 -6.522005 0.6139734,-7.297359 -5.915484 0.8614683,-8.446331 -5.254156 -0.1394217,-8.226115 -3.970729 -0.06439897,-8.125365 -3.155086 0.09707464,-8.047317 -2.46393 0.2323233,-8.859133 -4.964525 -0.05307897,-8.638934 -3.449737 -0.05223621,-8.520472 -2.489037 0.1671562,-8.425205 -1.639616 0.3466926,-9.273263 -4.988727 0.07885035,-9.1084 -3.559686 0.1084644,-8.98508 -2.678456 0.2706024,-8.860118 -1.945992 0.4032908,-9.713199 -5.292049 0.2444287,-9.723886 -4.208482 0.3283052,-9.699825 -3.528832 0.4276878,-9.643527 -2.910409 0.5000082,0.210, 10
-1.429485 -8.459833 0.03074267,-2.143079 -8.160591 0.2724986,-2.805794 -7.351993 0.3993911,-3.262098 -6.593653 0.5734671,-3.69871 -6.119802 0.7880374,-2.453693 -5.498235 0.07384303,-2.762061 -4.323569 0.2188224,-2.913512 -3.620725 0.3217028,-3.016933 -2.9309 0.4251784,-2.097801 -5.20593 0.1790446,-2.337086 -3.819346 0.4001134,-2.337086 -3.819346 0.4001134,-2.535803 -2.169052 0.7676194,-1.715677 -5.188447 0.3650154,-1.870888 -3.824565 0.6149575,-1.995343 -2.970117 0.8453518,-2.100637 -2.1969 1.026448,-1.300232 -5.417937 0.5843871,-1.307099 -4.33875 0.7994964,-1.344059 -3.671148 1.002992,-1.39241 -3.025876 1.188363,-9.598662 -8.770346 0.03065402,-8.807915 -8.352764 0.2064626,-8.090012 -7.419376 0.3629645,-7.637554 -6.493967 0.599975,-7.280048 -5.881116 0.835549,-8.437691 -5.218136 -0.1652633,-8.227634 -3.925466 -0.09937893,-8.134978 -3.104088 0.06853185,-8.06609 -2.408959 0.2075714,-8.855392 -4.940601 -0.07485764,-8.644691 -3.434756 -0.1078806,-8.535359 -2.48417 0.1032087,-8.449517 -1.644205 0.2865213,-9.274518 -4.966921 0.06197104,-9.117029 -3.556959 0.06619248,-9.005132 -2.694046 0.2131615,-8.891567 -1.975873 0.3402263,-9.723763 -5.259512 0.2373455,-9.721723 -4.18678 0.2926744,-9.693685 -3.524659 0.3648034,-9.634832 -2.926744 0.4236282,0.310, 10
-1.441943 -8.454086 0.004543733,-2.153792 -8.148508 0.2161349,-2.813183 -7.332929 0.3306552,-3.266094 -6.579647 0.4979382,-3.687178 -6.107906 0.7011918,-2.458892 -5.495569 0.04556027,-2.768256 -4.309489 0.1924883,-2.923892 -3.603609 0.2890452,-3.032896 -2.917372 0.3856283,-2.108239 -5.207893 0.1627734,-2.341391 -3.809613 0.3976597,-2.341391 -3.809613 0.3976597,-2.540664 -2.16208 0.747824,-1.731689 -5.184967 0.359657,-1.886082 -3.809265 0.6188263,-2.011265 -2.959795 0.8377904,-2.118147 -2.194925 1.01036,-1.322418 -5.401994 0.5841627,-1.326272 -4.30529 0.8036836,-1.359262 -3.635763 1.003309,-1.406672 -2.991248 1.177385,-9.612327 -8.782887 -0.05737348,-8.80703 -8.384647 0.09662491,-8.081064 -7.46388 0.2410615,-7.631086 -6.541463 0.4695799,-7.270461 -5.926683 0.6948085,-8.418523 -5.273298 -0.2468941,-8.202581 -3.9728 -0.1800577,-8.110312 -3.153073 -0.009792373,-8.040545 -2.462585 0.1267252,-8.839869 -4.984205 -0.1475393,-8.626388 -3.461396 -0.1835406,-8.518228 -2.515068 0.03013613,-8.433928 -1.677931 0.2128117,-9.261647 -4.998666 -0.002826586,-9.104079 -3.572371 0.003044456,-8.99459 -2.70783 0.1637897,-8.880055 -1.992879 0.3035832,-9.711106 -5.273426 0.1740661,-9.703369 -4.187683 0.2276544,-9.669203 -3.528368 0.302067,-9.602538 -2.944721 0.3648038,0.410, 10
-1.458027 -8.462269 0.05103959,-2.166922 -8.142216 0.2930461,-2.822388 -7.327334 0.4215293,-3.269606 -6.572544 0.6004966,-3.695609 -6.091213 0.8129426,-2.460176 -5.478821 0.1065216,-2.771664 -4.299215 0.2637019,-2.922688 -3.593206 0.3706227,-3.02547 -2.903745 0.4736562,-2.107538 -5.199449 0.2157526,-2.347038 -3.814929 0.4537999,-2.347038 -3.814929 0.4537999,-2.544825 -2.160923 0.8297756,-1.729298 -5.186953 0.4064496,-1.887848 -3.824282 0.6735196,-2.014024 -2.965831 0.9057916,-2.123227 -2.183766 1.088463,-1.318014 -5.418142 0.6274972,-1.326123 -4.332659 0.8559456,-1.364797 -3.658533 1.065365,-1.416442 -3.010136 1.247485,-9.595065 -8.770239 -0.03506359,-8.801063 -8.393826 0.1574868,-8.078562 -7.462287 0.3175586,-7.632059 -6.524312 0.550134,-7.277796 -5.899724 0.7837869,-8.414187 -5.251935 -0.2057498,-8.203487 -3.96183 -0.1469617,-8.106068 -3.144001 0.01264641,-8.030955 -2.461591 0.1405289,-8.832162 -4.963218 -0.1304384,-8.616506 -3.441762 -0.1680554,-8.497464 -2.490013 0.03560716,-8.398336 -1.652194 0.2064098,-9.250232 -4.980314 -0.008718021,-9.087082 -3.551195 -0.00681123,-8.966151 -2.679634 0.1382893,-8.840457 -1.957093 0.263206,-9.693858 -5.269765 0.1486288,-9.698693 -4.187086 0.2045631,-9.67597 -3.5147 0.2825166,-9.616364 -2.910057 0.3424583,0.510, 10
-1.451353 -8.458921 0.05412732,-2.16731 -8.138945 0.3037151,-2.815333 -7.342741 0.4396909,-3.258031 -6.580453 0.6247364,-3.682524 -6.081549 0.8419634,-2.447686 -5.471578 0.1222677,-2.773708 -4.295736 0.2697886,-2.933702 -3.597105 0.3687574,-3.041996 -2.914077 0.4733437,-2.096843 -5.194623 0.2229741,-2.340199 -3.808283 0.4489912,-2.340199 -3.808283 0.4489912,-2.53787 -2.156611 0.8277448,-1.72335 -5.186132 0.4028788,-1.877029 -3.829813 0.6611114,-2.005471 -2.975661 0.9006734,-2.113856 -2.198752 1.093594,-1.317497 -5.422838 0.6120101,-1.320195 -4.349 0.8444742,-1.362648 -3.680628 1.060848,-1.418184 -3.040629 1.242769,-9.614862 -8.773369 -0.02311234,-8.816734 -8.391474 0.1548943,-8.09444 -7.459761 0.3077927,-7.642834 -6.521547 0.5402395,-7.283346 -5.892545 0.7687853,-8.427827 -5.254825 -0.2312257,-8.212734 -3.960867 -0.1780407,-8.115426 -3.136247 -0.01816248,-8.041301 -2.445876 0.1117669,-8.841711 -4.965798 -0.1479447,-8.627483 -3.441428 -0.1961443,-8.510449 -2.487461 0.006191034,-8.416306 -1.6441 0.1824014,-9.256036 -4.975088 -0.014456,-9.097235 -3.547034 -0.02244941,-8.977372 -2.67984 0.1179795,-8.855042 -1.961715 0.2418472,-9.697133 -5.251844 0.1530796,-9.702814 -4.159687 0.1980934,-9.682197 -3.486643 0.2641188,-9.630155 -2.883483 0.3168808,0.610, 10
-1.432321 -8.442839 0.00731024,-2.144799 -8.116272 0.229183,-2.801169 -7.296881 0.355783,-3.25423 -6.542708 0.532486,-3.678511 -6.058321 0.7505888,-2.449498 -5.475154 0.06886582,-2.756755 -4.297136 0.2251541,-2.91092 -3.591287 0.3317107,-3.015982 -2.899467 0.4342517,-2.098316 -5.196805 0.1855643,-2.333524 -3.805673 0.4248382,-2.333524 -3.805673 0.4248382,-2.531202 -2.149008 0.8055665,-1.719651 -5.181712 0.3790613,-1.873315 -3.812933 0.6396934,-1.996607 -2.960749 0.8778909,-2.100387 -2.187372 1.071042,-1.309793 -5.406821 0.6014408,-1.31554 -4.317689 0.8259224,-1.353081 -3.646016 1.038084,-1.406638 -3.00341 1.230044,-9.614492 -8.775681 0.009485054,-8.819586 -8.376387 0.1907311,-8.101116 -7.454918 0.3542446,-7.653131 -6.522872 0.592303,-7.295492 -5.893203 0.8254716,-8.426975 -5.246801 -0.1574821,-8.209038 -3.970167 -0.09834883,-8.109109 -3.156066 0.05551568,-8.032177 -2.473269 0.1794027,-8.843957 -4.957063 -0.07893187,-8.627521 -3.445921 -0.1078543,-8.509302 -2.491694 0.1006011,-8.413083 -1.645129 0.2770194,-9.260665 -4.973979 0.04362665,-9.100905 -3.555426 0.04622546,-8.981271 -2.684576 0.1858367,-8.858809 -1.96925 0.3068107,-9.702522 -5.264732 0.2011597,-9.704875 -4.184148 0.2506136,-9.6763 -3.513898 0.3224831,-9.616588 -2.920617 0.376083,0.710, 10
-1.428951 -8.46069 0.04624207,-2.137969 -8.1485 0.2887253,-2.797583 -7.337608 0.4239778,-3.257393 -6.591449 0.6071119,-3.690697 -6.120296 0.8282334,-2.44661 -5.485021 0.119701,-2.756737 -4.302461 0.2852879,-2.910918 -3.586268 0.3986931,-3.015182 -2.88657 0.510352,-2.093496 -5.203159 0.2271546,-2.33604 -3.814403 0.4668886,-2.33604 -3.814403 0.4668886,-2.541257 -2.155448 0.8474489,-1.713293 -5.187747 0.4124089,-1.872705 -3.825139 0.67897,-2.000257 -2.970635 0.9190927,-2.108778 -2.194555 1.109855,-1.301122 -5.415098 0.6287397,-1.313984 -4.327917 0.8603323,-1.355486 -3.654127 1.076824,-1.408592 -3.008375 1.269191,-9.609318 -8.781099 0.03996698,-8.816422 -8.378586 0.2051575,-8.101022 -7.44503 0.3567937,-7.6588 -6.509168 0.5901442,-7.298904 -5.89969 0.8183312,-8.432015 -5.232454 -0.1503373,-8.22298 -3.934647 -0.08611366,-8.132549 -3.114782 0.0776884,-8.066785 -2.423469 0.2105862,-8.851075 -4.951362 -0.05850074,-8.638449 -3.436175 -0.08763018,-8.528409 -2.48933 0.1197847,-8.444675 -1.647403 0.2986853,-9.270463 -4.971718 0.07825741,-9.11455 -3.554438 0.08780716,-9.000546 -2.689207 0.2365484,-8.885799 -1.96712 0.3621525,-9.718042 -5.259426 0.2534679,-9.717311 -4.184112 0.3056439,-9.689889 -3.52292 0.3767067,-9.630814 -2.925996 0.4362417,0.810, 10
-1.44364 -8.458189 0.002329674,-2.155893 -8.135134 0.2255674,-2.811382 -7.333742 0.3562892,-3.270897 -6.590461 0.5375909,-3.699347 -6.122592 0.7541236,-2.451976 -5.490039 0.06760279,-2.761669 -4.303587 0.2296105,-2.912259 -3.588242 0.3414289,-3.012081 -2.89011 0.4497873,-2.098982 -5.211525 0.1815622,-2.340446 -3.813776 0.4246598,-2.340446 -3.813776 0.4246598,-2.537466 -2.152002 0.7970383,-1.72021 -5.195686 0.3738835,-1.878492 -3.825222 0.6394833,-2.00252 -2.966152 0.8711298,-2.107396 -2.189632 1.055585,-1.309969 -5.419323 0.5917268,-1.317852 -4.326675 0.8188893,-1.357585 -3.652981 1.027175,-1.41061 -3.007532 1.208181,-9.614503 -8.805658 0.07179752,-8.818192 -8.382105 0.2373201,-8.098658 -7.451688 0.3946375,-7.644404 -6.535549 0.6346629,-7.28573 -5.92001 0.8677151,-8.444342 -5.242557 -0.1273429,-8.230339 -3.944289 -0.06968226,-8.134201 -3.12284 0.09044592,-8.062984 -2.430381 0.2257669,-8.858679 -4.966294 -0.03053156,-8.647363 -3.452628 -0.0580624,-8.535132 -2.499105 0.1569146,-8.445694 -1.659487 0.3372835,-9.275656 -4.992209 0.1132985,-9.117105 -3.569501 0.1211104,-8.998014 -2.693638 0.2791921,-8.878377 -1.974322 0.4134013,-9.722467 -5.289632 0.2934245,-9.724535 -4.20271 0.3512751,-9.692707 -3.533453 0.4352927,-9.631052 -2.937525 0.5040395,0.910, 10
-1.424432 -8.506102 0.04525221,-2.134046 -8.183121 0.3285219,-2.7982 -7.384267 0.4930339,-3.260799 -6.631349 0.690421,-3.704763 -6.144847 0.9263967,-2.439208 -5.53486 0.2028824,-2.749297 -4.331888 0.3882276,-2.9052 -3.605674 0.5222036,-3.013882 -2.896923 0.6471293,-2.077582 -5.250957 0.2929494,-2.319222 -3.848171 0.5582016,-2.319222 -3.848171 0.5582016,-2.523286 -2.155561 0.9749535,-1.693332 -5.23765 0.4594809,-1.849901 -3.855434 0.7426264,-1.977123 -2.987493 1.000022,-2.08566 -2.199035 1.204998,-1.281148 -5.470132 0.6588984,-1.293986 -4.368795 0.9013485,-1.335258 -3.68291 1.124621,-1.387583 -3.017116 1.324496,-9.634799 -8.785162 0.01639002,-8.849361 -8.392488 0.2463388,-8.126967 -7.467657 0.434718,-7.678019 -6.527048 0.6918924,-7.309883 -5.88902 0.9394098,-8.453601 -5.256404 -0.09526384,-8.231789 -3.962295 -0.009438911,-8.130042 -3.133447 0.1575418,-8.051383 -2.435323 0.2944737,-8.872999 -4.961951 -0.02161717,-8.655409 -3.435155 -0.02455202,-8.539315 -2.475025 0.1902824,-8.44482 -1.624457 0.3666935,-9.291631 -4.980371 0.1055067,-9.127958 -3.53869 0.134964,-9.006669 -2.664884 0.2997801,-8.881633 -1.930612 0.4351885,-9.737937 -5.276634 0.2685621,-9.742827 -4.196256 0.3514948,-9.71346 -3.526235 0.4475865,-9.649013 -2.917381 0.5220647,1.010, 10
-1.413818 -8.500891 0.05354109,-2.115968 -8.175943 0.2945118,-2.774693 -7.370209 0.4404119,-3.23735 -6.634738 0.6184042,-3.674194 -6.182875 0.8358788,-2.42111 -5.526561 0.2246915,-2.732269 -4.316101 0.3968165,-2.894432 -3.59038 0.5194004,-3.009275 -2.887008 0.6418843,-2.059058 -5.244052 0.3305272,-2.296297 -3.826448 0.6045188,-2.296297 -3.826448 0.6045188,-2.498899 -2.129685 1.015909,-1.673388 -5.229009 0.5033892,-1.833901 -3.844514 0.7902467,-1.957844 -2.988826 1.037763,-2.063657 -2.215094 1.239739,-1.260963 -5.449092 0.70604,-1.268565 -4.348293 0.9528048,-1.302365 -3.669868 1.169151,-1.353519 -3.012323 1.365084,-9.627472 -8.82033 0.02153442,-8.82997 -8.415016 0.2064398,-8.109568 -7.479052 0.3679649,-7.65623 -6.549299 0.6056734,-7.285172 -5.954099 0.8379694,-8.453246 -5.285411 -0.1126816,-8.234035 -3.967894 -0.0312187,-8.131891 -3.127937 0.1442577,-8.055343 -2.426957 0.2868466,-8.873479 -4.994137 -0.02098857,-8.653271 -3.448702 -0.02693653,-8.53613 -2.481454 0.2033427,-8.447698 -1.628047 0.3942107,-9.296806 -5.01309 0.1149944,-9.128646 -3.556926 0.142169,-9.007391 -2.669096 0.3111174,-8.886808 -1.926892 0.4553795,-9.749856 -5.306322 0.2842509,-9.752461 -4.20462 0.3614234,-9.723499 -3.531135 0.4571512,-9.661384 -2.915666 0.5382033,1.110, 10
-1.336924 -8.566853 0.257584,-2.030696 -8.285658 0.6372418,-2.702273 -7.502403 0.8344433,-3.157684 -6.752552 1.027324,-3.589602 -6.301242 1.250954,-2.350743 -5.563968 0.5929176,-2.638416 -4.338638 0.7851316,-2.793797 -3.60184 0.9301673,-2.905829 -2.903475 1.075393,-1.968541 -5.255188 0.6125605,-2.192855 -3.806217 0.8703345,-2.192855 -3.806217 0.8703345,-2.382169 -2.094302 1.261254,-1.577553 -5.236829 0.7002776,-1.731938 -3.841388 0.9657113,-1.851508 -2.973633 1.202484,-1.957103 -2.211965 1.394886,-1.161808 -5.464607 0.8348965,-1.170063 -4.386271 1.058774,-1.190184 -3.719923 1.260945,-1.22829 -3.086023 1.448957,-9.618613 -9.000736 0.1597842,-8.802059 -8.598246 0.3404151,-8.090987 -7.687805 0.4966443,-7.640079 -6.766164 0.732501,-7.255652 -6.196033 0.9558095,-8.442398 -5.437051 0.07600753,-8.194123 -4.085935 0.1673123,-8.073388 -3.235476 0.3497724,-7.982903 -2.514823 0.4933188,-8.866084 -5.133844 0.1711671,-8.651503 -3.540431 0.1791555,-8.525723 -2.560256 0.4249789,-8.43207 -1.709866 0.6229243,-9.289816 -5.14267 0.3079236,-9.124065 -3.64393 0.3483912,-9.002597 -2.736082 0.5240384,-8.885378 -1.984441 0.6735829,-9.740116 -5.427686 0.4745973,-9.742662 -4.290012 0.550841,-9.711991 -3.582401 0.6478801,-9.653425 -2.944382 0.7318941,1.210, 10
-1.230176 -8.640619 0.5052107,-1.934546 -8.321598 0.8968815,-2.604635 -7.555101 1.11013,-3.055459 -6.827213 1.322084,-3.486553 -6.41657 1.57315,-2.240497 -5.554889 0.8324,-2.524262 -4.292187 1.017306,-2.663727 -3.536438 1.162857,-2.755702 -2.819376 1.30392,-1.838953 -5.252034 0.8570864,-2.065287 -3.756678 1.105117,-2.065287 -3.756678 1.105117,-2.230381 -2.01353 1.490404,-1.432531 -5.243819 0.9492522,-1.57031 -3.803747 1.209773,-1.781372 -2.952083 1.45106,-1.882539 -2.182257 1.625564,-1.090974 -5.499196 1.134377,-1.089041 -4.39358 1.361829,-1.103361 -3.709504 1.558552,-1.136016 -3.058227 1.740541,-9.620171 -9.120806 0.2395017,-8.791603 -8.733578 0.4084521,-8.072115 -7.816213 0.5552965,-7.616329 -6.883934 0.7829387,-7.217226 -6.326488 0.9987358,-8.40623 -5.543155 0.141481,-8.15463 -4.159433 0.2256821,-8.029554 -3.297513 0.3963692,-7.934304 -2.569736 0.5296418,-8.839293 -5.236372 0.2451986,-8.623799 -3.614604 0.2465459,-8.489962 -2.624576 0.4820802,-8.393512 -1.769454 0.6713345,-9.273538 -5.245026 0.3916712,-9.102377 -3.732474 0.4261741,-8.975086 -2.825075 0.5921848,-8.857985 -2.076796 0.7353544,-9.736052 -5.527402 0.5674988,-9.725647 -4.367376 0.6468044,-9.688116 -3.643545 0.7426607,-9.623974 -2.991606 0.8205332,1.310, 10
-1.200522 -8.669065 0.6518731,-1.889874 -8.32588 1.147985,-2.52972 -7.571798 1.435687,-2.949751 -6.812678 1.716436,-3.353543 -6.307104 2.047422,-2.177733 -5.535444 1.083203,-2.472694 -4.254858 1.315827,-2.607966 -3.489652 1.510336,-2.698187 -2.750441 1.683541,-1.77523 -5.238937 1.067062,-1.993937 -3.722223 1.339779,-1.993937 -3.722223 1.339779,-2.135155 -1.951446 1.767382,-1.374383 -5.241132 1.1288,-1.496697 -3.789096 1.403792,-1.587594 -2.889907 1.673204,-1.677475 -2.093959 1.894081,-0.9502268 -5.48603 1.250253,-0.9353518 -4.364863 1.482557,-0.9327736 -3.662622 1.70666,-0.9603443 -2.979902 1.913388,-9.643649 -9.324976 0.511116,-8.813572 -8.955235 0.7079554,-8.070244 -8.016636 0.8734627,-7.598417 -7.064844 1.115966,-7.186943 -6.547199 1.359356,-8.388476 -5.703031 0.5071314,-8.115555 -4.317995 0.6326805,-7.984657 -3.446289 0.8365067,-7.88807 -2.695186 0.9913445,-8.833534 -5.36848 0.609865,-8.589731 -3.730723 0.6584234,-8.44302 -2.71088 0.9117233,-8.343163 -1.828053 1.121142,-9.282482 -5.365854 0.7552027,-9.09471 -3.829714 0.82166,-8.953494 -2.901512 0.9950573,-8.833614 -2.128759 1.142677,-9.761192 -5.66067 0.9273863,-9.748564 -4.475142 1.021264,-9.710938 -3.750462 1.119842,-9.651643 -3.079119 1.209876,1.410, 10
-1.107398 -8.764225 0.9003169,-1.806135 -8.315298 1.570587,-2.379572 -7.568311 1.992182,-2.687826 -6.774143 2.39674,-3.068691 -6.148998 2.868313,-2.068493 -5.560982 1.647403,-2.368722 -4.240751 2.026285,-2.497217 -3.430126 2.313662,-2.585282 -2.629747 2.558313,-1.620636 -5.300006 1.612445,-1.829332 -3.781797 2.048185,-1.829332 -3.781797 2.048185,-1.971338 -1.977414 2.664462,-1.193933 -5.358152 1.681407,-1.285444 -3.915871 2.08616,-1.361399 -3.003376 2.458589,-1.443111 -2.143758 2.76594,-0.7489328 -5.672456 1.800996,-0.7194815 -4.548084 2.162242,-0.7130051 -3.825511 2.467039,-0.7389755 -3.091849 2.734239,-9.738817 -9.442165 0.6825467,-8.890441 -9.093151 0.9281481,-8.129356 -8.143288 1.132488,-7.652046 -7.191661 1.411229,-7.22605 -6.672804 1.68754,-8.449571 -5.79002 0.7929167,-8.170502 -4.382562 0.9373104,-8.036375 -3.491206 1.143252,-7.938094 -2.721098 1.305415,-8.905798 -5.443563 0.8713234,-8.664602 -3.769575 0.9573422,-8.508882 -2.734077 1.217343,-8.401857 -1.839912 1.434947,-9.365135 -5.429354 0.990914,-9.186636 -3.848821 1.085347,-9.044246 -2.89393 1.262469,-8.923744 -2.098164 1.407759,-9.853407 -5.71931 1.134371,-9.840672 -4.482168 1.240665,-9.808065 -3.713645 1.348111,-9.754262 -2.992455 1.438596,1.510, 10
-0.9553814 -8.83675 0.7593656,-1.656123 -8.441898 1.473048,-2.185195 -7.568458 1.85034,-2.371537 -6.662361 2.210052,-2.623657 -5.865817 2.623203,-1.953691 -5.570667 1.280374,-2.200995 -4.29785 1.598547,-2.314494 -3.529446 1.882814,-2.380835 -2.763624 2.125218,-1.470592 -5.372176 1.2251,-1.572383 -4.060542 1.695749,-1.572383 -4.060542 1.695749,-1.516204 -2.982336 2.34186,-1.031179 -5.426017 1.282728,-1.079891 -4.171573 1.7039,-1.068629 -3.509284 2.172084,-1.05367 -3.063226 2.459925,-0.5781555 -5.686651 1.397139,-0.5663538 -4.632894 1.78319,-0.5447922 -4.020442 2.097925,-0.5309496 -3.487125 2.324843,-9.781821 -9.520765 0.8024268,-8.934581 -9.138342 1.065459,-8.17328 -8.200773 1.287908,-7.691593 -7.256761 1.586101,-7.264116 -6.738985 1.888571,-8.494989 -5.823657 0.8875223,-8.223409 -4.404864 1.038206,-8.090695 -3.520592 1.248041,-7.984634 -2.746649 1.407649,-8.950403 -5.486121 0.975898,-8.728396 -3.812084 1.066902,-8.580751 -2.794315 1.329487,-8.470695 -1.904349 1.539987,-9.409724 -5.484307 1.112321,-9.256549 -3.899473 1.228308,-9.120303 -2.952182 1.426614,-8.993653 -2.147729 1.573178,-9.899323 -5.785159 1.273134,-9.913 -4.540403 1.414058,-9.888976 -3.758473 1.545424,-9.836459 -3.013541 1.639056,1.610, 10
-0.9221787 -8.815468 0.615411,-1.541366 -8.477816 1.506746,-2.004279 -7.643812 2.032495,-2.153801 -6.709166 2.429689,-2.3318 -5.871036 2.871447,-1.904274 -5.712256 1.744438,-2.088616 -4.494977 2.257371,-2.150511 -3.632985 2.65676,-2.138542 -2.78166 2.974589,-1.414737 -5.496501 1.584169,-1.410073 -4.383165 2.331624,-1.410073 -4.383165 2.331624,-1.281204 -4.437138 3.021319,-0.945416 -5.545038 1.505753,-0.9063573 -4.636757 2.220688,-0.8952093 -5.0473 2.587386,-0.8969584 -5.478519 2.720712,-0.4651251 -5.795659 1.491282,-0.4640651 -5.019845 2.112013,-0.5082197 -5.246413 2.449596,-0.5536261 -5.554043 2.64925,-9.92497 -9.654219 0.8548076,-9.060949 -9.25351 1.097,-8.283255 -8.308586 1.309843,-7.787536 -7.361004 1.605975,-7.357944 -6.839323 1.922229,-8.606739 -5.942327 0.8545951,-8.332462 -4.574373 0.9734777,-8.215956 -3.724571 1.171187,-8.122421 -2.963119 1.318731,-9.071386 -5.606131 0.9444417,-8.857985 -3.996314 0.9709778,-8.735976 -3.04401 1.198918,-8.639448 -2.206794 1.37522,-9.535728 -5.588109 1.089773,-9.387898 -4.039157 1.157379,-9.27447 -3.135477 1.330139,-9.161756 -2.370848 1.453346,-10.02858 -5.853426 1.256559,-10.03831 -4.611202 1.361974,-10.02017 -3.837039 1.458463,-9.965987 -3.106681 1.512258,1.710, 7
-0.9922628 -8.743498 -1.155188,-1.519075 -8.617262 -0.2492086,-1.908681 -7.786531 0.1683033,-1.869862 -6.899044 0.5135944,-1.765135 -6.115366 0.8754647,-1.729553 -6.083122 0.001484632,-1.799696 -5.070818 0.6430956,-1.813044 -4.257822 1.093832,-1.800001 -3.476197 1.464369,-1.222199 -5.934553 -0.1675141,-1.03487 -5.750446 0.8438509,-1.03487 -5.750446 0.8438509,-1.027102 -7.894028 0.9594679,-0.7358522 -6.042289 -0.217856,-0.6095538 -6.100505 0.8168318,-0.6707883 -7.320268 0.9012945,-0.8131294 -8.239086 0.6795739,-0.3210287 -6.320299 -0.2246762,-0.1976576 -6.220469 0.6036521,-0.3129053 -7.122282 0.6650397,-0.4990983 -7.805002 0.517921,-10.02666 -9.709343 0.6070684,-9.172309 -9.320776 0.808144,-8.37886 -8.398235 0.9935185,-7.868565 -7.497327 1.264533,-7.430513 -6.948329 1.56425,-8.699818 -6.031905 0.4282792,-8.40395 -4.706024 0.5021577,-8.284842 -3.903371 0.6637293,-8.198502 -3.162011 0.7870086,-9.158667 -5.736362 0.5362527,-8.967103 -4.30591 0.4992388,-8.896258 -3.515593 0.6764,-8.852144 -2.862464 0.8060677,-9.613386 -5.724485 0.7121021,-9.492758 -4.338697 0.7445675,-9.412792 -3.546245 0.8937169,-9.336537 -2.905815 0.9962927,-10.10067 -5.981199 0.9248424,-10.11335 -4.89436 1.005894,-10.10975 -4.231206 1.084122,-10.06672 -3.628603 1.12013,1.810, 6
-0.9912586 -8.889174 -0.7049116,-1.50175 -8.697201 0.2150785,-1.849039 -7.965927 0.7047231,-1.755593 -7.132654 1.12726,-1.619195 -6.325624 1.590035,-1.653604 -6.189386 0.5463151,-1.688993 -5.318479 1.232071,-1.675281 -4.518571 1.682159,-1.656773 -3.695514 2.043732,-1.145525 -5.973876 0.3817302,-0.9540539 -6.175939 1.370262,-0.9540539 -6.175939 1.370262,-1.026311 -8.358583 1.434088,-0.6542273 -6.080899 0.3433478,-0.5393772 -6.492439 1.393142,-0.6467037 -7.704573 1.465133,-0.7934842 -8.584728 1.215959,-0.2303534 -6.412464 0.363023,-0.1225233 -6.559155 1.154264,-0.2761884 -7.452659 1.201799,-0.4730616 -8.115328 1.054137,-10.01157 -9.630484 0.2135871,-9.17822 -9.298134 0.4310382,-8.404381 -8.417547 0.606073,-7.919057 -7.548065 0.8719857,-7.515547 -6.957276 1.154032,-8.725174 -6.043517 0.02354889,-8.423524 -4.733987 0.09470955,-8.298491 -3.929239 0.2607634,-8.198733 -3.196143 0.3791923,-9.182323 -5.764392 0.1282112,-9.005687 -4.375802 0.08522634,-8.933778 -3.607018 0.2586634,-8.880878 -3.002713 0.3841082,-9.635503 -5.769578 0.3115433,-9.530569 -4.442607 0.342326,-9.455035 -3.678824 0.4996347,-9.374126 -3.084083 0.6112539,-10.11991 -6.038318 0.5335937,-10.15178 -5.006092 0.6213375,-10.14659 -4.382499 0.7077718,-10.09192 -3.829433 0.7544867,1.910, 6
-0.9756722 -8.735373 -1.026046,-1.458209 -8.600189 0.04078829,-1.718552 -8.032803 0.6440842,-1.575276 -7.414596 1.097585,-1.362256 -6.612561 1.594455,-1.502481 -6.25772 0.547691,-1.525579 -5.353115 1.367039,-1.481928 -4.70095 1.97216,-1.411701 -4.055486 2.439869,-0.9759998 -6.034402 0.3319665,-0.8719316 -6.495708 1.32315,-0.8719316 -6.495708 1.32315,-0.9300804 -8.6264 1.394503,-0.5004201 -6.19771 0.2151352,-0.4860458 -6.817651 1.222434,-0.6181526 -7.994403 1.305098,-0.7797074 -8.804987 1.162264,-0.1246004 -6.528057 0.18783,-0.09018707 -6.795434 0.969756,-0.267653 -7.718206 1.034279,-0.474226 -8.367264 0.9840046,-9.958328 -9.549791 -0.2347176,-9.169611 -9.240637 0.04655838,-8.437116 -8.334179 0.232188,-7.942724 -7.507513 0.4806505,-7.531301 -6.959631 0.7544348,-8.735273 -6.034961 -0.276755,-8.432344 -4.767347 -0.1596854,-8.312813 -3.955358 0.08331209,-8.205641 -3.207685 0.2694848,-9.205074 -5.798145 -0.1821283,-9.065228 -4.539232 -0.1219066,-8.998361 -3.974319 0.1332446,-8.936859 -3.613763 0.3158427,-9.672635 -5.828652 -0.02152035,-9.615197 -4.645025 0.06453198,-9.529915 -4.024209 0.2638785,-9.430535 -3.606105 0.4017057,-10.16024 -6.10574 0.1936904,-10.20482 -5.168739 0.3053378,-10.19532 -4.592681 0.4124218,-10.12552 -4.103001 0.4881244,2.010, 6
-0.995903 -8.882074 -0.9063775,-1.457363 -8.685146 0.1213554,-1.675909 -8.213736 0.795046,-1.491557 -7.801723 1.298626,-1.231133 -7.160331 1.85487,-1.392045 -6.374835 0.8061699,-1.411249 -5.738357 1.636919,-1.35377 -5.165152 2.282445,-1.24187 -4.555375 2.824691,-0.8668404 -6.230792 0.6109921,-0.7781482 -6.718565 1.569371,-0.7781482 -6.718565 1.569371,-0.901042 -8.616873 1.962624,-0.3984971 -6.451843 0.4903709,-0.3749247 -7.26112 1.455287,-0.5641413 -8.367626 1.57497,-0.7434092 -9.12888 1.482491,-0.02716398 -6.863706 0.4519116,0.02323198 -7.167189 1.099906,-0.2037868 -7.987621 1.071873,-0.4075546 -8.573603 0.9967399,-10.03089 -9.324217 -0.8272424,-9.249035 -9.095045 -0.3676513,-8.590345 -8.278898 -0.0621956,-8.129596 -7.473331 0.2494956,-7.707739 -6.916341 0.555747,-8.829824 -5.989284 -0.7102886,-8.533238 -4.787818 -0.4826286,-8.433774 -3.964607 -0.1644633,-8.363244 -3.27745 0.08383477,-9.300024 -5.744548 -0.6546105,-9.137822 -4.325775 -0.2016079,-9.165081 -4.31705 0.3388782,-9.214431 -4.744124 0.6356804,-9.766876 -5.805934 -0.5287986,-9.69842 -4.507778 -0.1277249,-9.701677 -4.534267 0.2883413,-9.719396 -4.984383 0.4983153,-10.26238 -6.117389 -0.3595992,-10.27917 -5.016366 0.05127794,-10.23919 -4.840665 0.3459667,-10.18176 -5.109035 0.5012193,2.110, 3
-0.9414272 -8.94899 -1.223954,-1.40849 -8.75161 -0.1538929,-1.632848 -8.336313 0.5738138,-1.450916 -7.999176 1.096494,-1.175025 -7.444858 1.651624,-1.379202 -6.498868 0.4849147,-1.363338 -5.910552 1.299136,-1.293452 -5.346393 1.856871,-1.177125 -4.700361 2.348657,-0.8522911 -6.395656 0.2844706,-0.7899966 -6.478687 1.393088,-0.7899966 -6.478687 1.393088,-0.8065648 -7.63276 2.209329,-0.366044 -6.562937 0.1415564,-0.3302174 -7.343184 1.201328,-0.541851 -8.466825 1.242552,-0.7646198 -9.256544 1.052314,0.02708769 -7.003145 0.0741241,0.04339647 -7.374111 0.7544558,-0.190877 -8.189661 0.6757801,-0.410265 -8.784563 0.5298154,-10.12907 -9.289478 -1.152134,-9.345319 -9.011702 -0.5605615,-8.702106 -8.207253 -0.177617,-8.252153 -7.412497 0.1885769,-7.828812 -6.81499 0.5436554,-8.924129 -6.031562 -0.8280538,-8.655347 -4.827636 -0.4582177,-8.540725 -3.977752 -0.08933043,-8.453353 -3.24937 0.1770798,-9.380776 -5.823274 -0.7873658,-9.273402 -4.343004 -0.07696867,-9.289454 -4.701635 0.5164449,-9.308489 -5.292364 0.7462484,-9.853375 -5.893162 -0.6587125,-9.822673 -4.620158 0.009880304,-9.8248 -5.220475 0.5009096,-9.83567 -5.980333 0.6444163,-10.37626 -6.202911 -0.5042357,-10.39369 -5.178813 0.1158255,-10.33592 -5.402844 0.4953014,-10.29092 -5.918199 0.6356019,2.210, 3
-0.9046941 -9.044559 -1.856562,-1.338709 -8.898119 -0.7863137,-1.551775 -8.504398 -0.08931506,-1.371138 -8.159801 0.3915936,-1.055295 -7.650754 0.9013904,-1.272429 -6.750259 -0.1473056,-1.266223 -6.122649 0.6900519,-1.139623 -5.608855 1.23858,-0.9531875 -5.107605 1.670916,-0.7806187 -6.701707 -0.3533791,-0.6365819 -6.608848 0.7465688,-0.6365819 -6.608848 0.7465688,-0.528657 -7.811121 1.65839,-0.3314018 -6.896237 -0.4881598,-0.2176113 -7.519817 0.6053325,-0.4039221 -8.573774 0.7438833,-0.5975146 -9.342449 0.6239825,0.02821302 -7.324377 -0.5678164,0.138876 -7.502307 0.1698281,-0.05151844 -8.258364 0.1746291,-0.2471099 -8.843668 0.08010519,-10.20552 -9.332373 -2.121995,-9.455969 -9.089174 -1.523335,-8.854889 -8.291542 -1.171949,-8.484535 -7.464474 -0.8381343,-8.152054 -6.798494 -0.5184309,-9.059883 -6.313448 -1.731298,-8.782656 -5.086023 -1.186285,-8.658468 -4.328034 -0.7362103,-8.581317 -3.629541 -0.4540905,-9.483253 -6.152894 -1.699189,-9.377378 -4.889948 -0.8372558,-9.42294 -5.927615 -0.3003312,-9.488193 -6.885232 -0.1578834,-9.938287 -6.168787 -1.569985,-9.920489 -5.115993 -0.7416531,-9.882393 -6.22604 -0.2941684,-9.872767 -7.216872 -0.2561454,-10.44152 -6.403536 -1.428866,-10.44762 -5.526084 -0.648075,-10.34681 -6.191033 -0.2557197,-10.26663 -6.97072 -0.1759735,2.310, 3
-0.8837738 -9.202375 -1.319439,-1.33992 -9.027708 -0.1636434,-1.533621 -8.673157 0.5952272,-1.328157 -8.439846 1.112649,-1.002044 -7.956621 1.666891,-1.249474 -6.869082 0.5858852,-1.232252 -6.346706 1.507396,-1.097364 -5.871776 2.127442,-0.8782411 -5.34272 2.604145,-0.7301545 -6.777769 0.3361238,-0.5749655 -6.932917 1.455129,-0.5749655 -6.932917 1.455129,-0.4696026 -8.030767 2.339955,-0.2592373 -6.99649 0.1716636,-0.1726694 -7.874053 1.259398,-0.4295673 -8.889133 1.303949,-0.6359591 -9.516098 1.127901,0.1085539 -7.472171 0.0600971,0.2076693 -7.861609 0.7748154,-0.0512228 -8.603756 0.7290713,-0.2778997 -9.103638 0.6024916,-10.20194 -9.378397 -2.707564,-9.490678 -9.137394 -2.000196,-8.909143 -8.473856 -1.55871,-8.5914 -7.728509 -1.172287,-8.365204 -6.980209 -0.7769682,-9.032426 -6.559792 -2.172154,-8.745054 -5.354194 -1.527187,-8.623619 -4.672513 -0.9984362,-8.536921 -4.074609 -0.6778231,-9.486491 -6.385443 -2.191273,-9.34658 -5.376479 -1.148437,-9.40301 -6.620677 -0.6657345,-9.45936 -7.65343 -0.6415768,-9.966828 -6.387168 -2.082949,-9.912618 -5.551749 -1.14462,-9.891958 -6.738455 -0.7881743,-9.868912 -7.640412 -0.856033,-10.48174 -6.555728 -1.942514,-10.46238 -5.712567 -1.143271,-10.36226 -6.452987 -0.7834957,-10.2781 -7.197185 -0.7473381,2.410, 3
-0.3954496 -9.473225 -1.362335,-1.062722 -9.407726 -0.471478,-1.458789 -8.957924 0.2164185,-1.278253 -8.470438 0.73102,-0.9112387 -7.957901 1.141877,-1.277803 -7.062442 0.1625254,-1.149306 -6.134443 0.9769399,-0.9893994 -5.715839 1.503942,-0.7275772 -5.502351 1.826824,-0.7530527 -6.918802 0.02159929,-0.5776896 -6.636535 1.00655,-0.5776896 -6.636535 1.00655,-0.7375388 -8.297987 1.304999,-0.260705 -7.120832 -0.06030178,-0.1315026 -7.180418 0.747591,-0.2263546 -7.980712 0.7082779,-0.3315272 -8.457672 0.5280935,0.1658735 -7.485219 -0.05739903,0.2544041 -7.197313 0.5299107,0.1700735 -7.773374 0.5608294,0.07416439 -8.155939 0.4377056,-10.15205 -9.426977 -2.804208,-9.488736 -9.174526 -2.090843,-8.922989 -8.557722 -1.574742,-8.635774 -7.859209 -1.111846,-8.568461 -7.140371 -0.6275865,-9.03818 -6.630773 -2.233516,-8.729676 -5.451295 -1.585586,-8.585661 -4.800786 -1.047245,-8.467592 -4.222748 -0.710795,-9.496078 -6.458034 -2.239161,-9.332592 -5.526248 -1.188596,-9.390749 -6.797993 -0.7320324,-9.440504 -7.795781 -0.726808,-9.977568 -6.465751 -2.110458,-9.891238 -5.684936 -1.199626,-9.876048 -6.85362 -0.8690076,-9.860476 -7.698244 -0.9541316,-10.48717 -6.63798 -1.942897,-10.45483 -5.80578 -1.207333,-10.36129 -6.543141 -0.8818147,-10.29006 -7.253744 -0.849501,2.510, 3
-0.6442852 -9.564804 -1.609338,-1.129898 -9.47489 -0.5353628,-1.377573 -9.033567 0.2141184,-1.232321 -8.680956 0.7361052,-0.9014521 -8.297466 1.270109,-1.227724 -7.240499 0.1657883,-1.137742 -6.59111 0.8910561,-0.9715929 -6.13956 1.434683,-0.7587852 -5.698765 1.900819,-0.6986666 -7.175621 -0.04410291,-0.4301524 -6.938024 0.8579836,-0.4301524 -6.938024 0.8579836,-0.460381 -8.284771 1.549519,-0.2276921 -7.397607 -0.1761128,0.0138278 -7.615226 0.6923945,-0.1748605 -8.512108 0.7568295,-0.36373 -9.023241 0.6847305,0.1668634 -7.793544 -0.2289799,0.3903451 -7.60091 0.4393041,0.1945748 -8.16923 0.4955091,-0.006959438 -8.513203 0.4524548,-10.11403 -9.39827 -3.321613,-9.46984 -9.14966 -2.606344,-8.846993 -8.626213 -2.020561,-8.641867 -7.961377 -1.494434,-8.905109 -7.415963 -1.012024,-9.042614 -6.779437 -2.677082,-8.743523 -5.650204 -1.960085,-8.577864 -5.078422 -1.403792,-8.431744 -4.59563 -1.054502,-9.523167 -6.59375 -2.645647,-9.356198 -5.757055 -1.526575,-9.416188 -7.04042 -1.14609,-9.491635 -8.044737 -1.184927,-10.01694 -6.606226 -2.464997,-9.915657 -5.923931 -1.524549,-9.898476 -7.100557 -1.294394,-9.908234 -7.939834 -1.430234,-10.53345 -6.761751 -2.24523,-10.47664 -6.027475 -1.552525,-10.3882 -6.792224 -1.291481,-10.32983 -7.463686 -1.281879,2.610, 2
-0.628438 -9.558142 -1.833264,-1.148265 -9.385601 -0.6296079,-1.370133 -9.092264 0.1530242,-1.179727 -8.967644 0.6681095,-0.7920475 -8.696136 1.148307,-1.156909 -7.383576 0.1144747,-1.087665 -6.882582 0.9706267,-0.9281454 -6.487844 1.559831,-0.7096896 -5.994297 2.062982,-0.6020918 -7.340778 -0.1355288,-0.3978481 -7.47161 1.019457,-0.3978481 -7.47161 1.019457,-0.4148116 -8.836702 1.783712,-0.1205025 -7.58302 -0.2959342,0.03742027 -8.206144 0.8043276,-0.2207451 -9.108919 0.8592509,-0.4429717 -9.618816 0.6951131,0.2507286 -8.018497 -0.3711634,0.4672542 -7.964946 0.3809539,0.2485256 -8.482344 0.4528302,0.02986288 -8.855518 0.3886665,-10.10319 -9.367842 -3.888559,-9.474497 -9.2757 -3.141595,-8.839343 -8.75754 -2.519745,-8.659177 -8.120266 -1.98921,-8.967663 -7.657369 -1.518851,-9.081436 -6.952104 -3.078873,-8.771343 -5.845638 -2.34822,-8.579555 -5.276117 -1.808745,-8.400924 -4.778108 -1.459791,-9.569266 -6.763719 -3.065526,-9.403744 -5.921218 -1.883786,-9.446762 -7.218042 -1.625938,-9.525173 -8.172808 -1.764445,-10.07374 -6.801563 -2.897667,-9.994389 -6.106765 -1.897621,-9.962179 -7.296573 -1.761426,-9.973002 -8.079607 -1.957169,-10.58413 -6.968254 -2.693515,-10.5661 -6.222948 -2.000412,-10.46195 -7.002336 -1.798377,-10.3909 -7.621146 -1.82361,2.710, 2
-0.5104647 -8.559608 -5.721324,-1.066909 -8.653545 -4.665547,-1.319103 -8.531195 -3.915653,-1.163015 -8.342262 -3.37797,-0.7198963 -8.105904 -2.892469,-1.176928 -8.296061 -3.879995,-1.04992 -7.945917 -3.020317,-0.9086752 -7.381274 -2.41965,-0.7041931 -6.901622 -1.975516,-0.6514297 -8.374578 -4.055341,-0.3847904 -8.163 -2.859066,-0.3847904 -8.163 -2.859066,-0.4232621 -8.750055 -1.838899,-0.1798916 -8.427265 -4.198196,0.08679247 -8.319407 -3.077604,-0.03368282 -8.538387 -2.644102,-0.1912441 -8.780855 -2.540194,0.2274065 -8.441034 -4.26199,0.4729338 -8.080753 -3.504197,0.312748 -8.026876 -3.116234,0.1217322 -8.070051 -2.918758,-10.09893 -9.404047 -3.949508,-9.490938 -9.360445 -3.209795,-8.843284 -8.817829 -2.625025,-8.675156 -8.15661 -2.134096,-9.004202 -7.673814 -1.706027,-9.081383 -7.013441 -3.185634,-8.789802 -5.955003 -2.467406,-8.602513 -5.396186 -1.924635,-8.418106 -4.913765 -1.556506,-9.572834 -6.804649 -3.166267,-9.414789 -5.992451 -1.994784,-9.454499 -7.279321 -1.745247,-9.532574 -8.241253 -1.886253,-10.082 -6.843683 -2.990251,-10.00612 -6.196817 -1.954404,-9.978688 -7.393467 -1.819967,-9.988813 -8.184544 -2.024369,-10.59165 -7.007843 -2.777647,-10.57487 -6.298234 -2.06285,-10.47822 -7.087917 -1.884544,-10.40801 -7.703609 -1.936967,2.810, 3
-0.3809552 -9.772291 -2.52266,-1.020545 -9.703453 -1.534467,-1.359772 -9.314997 -0.82013,-1.210624 -9.045214 -0.3421062,-0.7630816 -8.748743 0.09164107,-1.193411 -7.801607 -0.7065428,-1.030754 -7.216613 -0.02512777,-0.8639054 -6.824476 0.4799145,-0.6524 -6.562498 0.9216448,-0.6262407 -7.759902 -0.9015119,-0.3843164 -7.327081 -0.07460582,-0.3843164 -7.327081 -0.07460582,-0.4932184 -8.553514 0.4720982,-0.1195316 -7.972509 -1.050715,0.06519556 -8.000998 -0.2828997,-0.1405783 -8.794573 -0.2830325,-0.3128309 -9.310114 -0.3738648,0.3220263 -8.318413 -1.112111,0.4599171 -7.995889 -0.4974369,0.2711668 -8.506207 -0.3713635,0.1121149 -8.864233 -0.3650702,-10.08634 -9.432497 -3.677477,-9.508931 -9.448149 -2.865326,-8.901018 -8.91201 -2.249272,-8.742333 -8.269428 -1.740865,-9.05007 -7.762022 -1.256876,-9.109612 -7.036928 -2.74423,-8.83619 -6.066528 -1.996182,-8.657721 -5.530389 -1.470829,-8.46666 -5.048426 -1.129989,-9.600838 -6.789725 -2.7484,-9.466228 -6.08323 -1.593681,-9.465752 -7.360279 -1.339485,-9.504771 -8.330328 -1.477793,-10.12242 -6.840954 -2.603172,-10.05498 -6.324561 -1.536866,-10.00159 -7.532779 -1.340572,-9.993676 -8.356785 -1.50482,-10.62642 -7.033395 -2.421337,-10.62899 -6.416841 -1.657206,-10.50749 -7.222667 -1.455349,-10.41375 -7.88949 -1.49315,2.910, 2
-0.5311575 -9.953175 -2.199163,-1.110882 -9.784786 -1.189283,-1.40462 -9.373072 -0.3900155,-1.24786 -9.057419 0.1325719,-0.7662616 -8.736176 0.5798564,-1.198 -8.13649 -0.05439734,-1.092603 -7.573653 0.6899831,-0.9254837 -7.07201 1.185191,-0.7034035 -6.674016 1.641543,-0.6247978 -8.093006 -0.2607113,-0.3365641 -7.698768 0.5484705,-0.3365641 -7.698768 0.5484705,-0.4339018 -8.534861 1.037264,-0.122324 -8.279795 -0.4272015,0.1129098 -8.250313 0.3068233,-0.1159143 -8.841154 0.1734924,-0.2872 -9.208118 0.04504395,0.2847505 -8.603741 -0.5021099,0.462616 -8.33271 0.0625844,0.2404685 -8.705664 0.09615254,0.07164478 -8.953722 0.07667947,-10.06757 -9.45558 -3.68443,-9.527608 -9.505659 -2.829726,-8.944873 -9.014517 -2.187757,-8.804534 -8.394564 -1.663947,-9.130856 -7.848296 -1.159849,-9.127399 -7.087511 -2.693104,-8.864496 -6.114688 -1.92633,-8.713151 -5.562664 -1.399536,-8.554702 -5.053004 -1.055199,-9.626601 -6.82084 -2.717066,-9.503967 -6.138177 -1.536216,-9.491619 -7.440948 -1.29119,-9.523839 -8.427523 -1.453183,-10.15874 -6.873668 -2.596806,-10.10986 -6.394884 -1.500677,-10.04361 -7.638796 -1.30158,-10.02596 -8.475151 -1.469298,-10.66568 -7.065986 -2.433096,-10.6821 -6.492072 -1.633446,-10.55376 -7.322584 -1.439867,-10.45343 -7.98307 -1.497176,3.010, 2
-0.5401831 -8.596428 -4.417506,-1.107526 -8.58655 -3.382751,-1.389003 -8.503181 -2.539166,-1.244792 -8.26396 -1.913919,-0.7489371 -7.937173 -1.368913,-1.240682 -9.087872 -2.273152,-1.043817 -8.986452 -1.442044,-0.9031496 -8.392067 -0.943297,-0.6967573 -7.88097 -0.5453106,-0.6767206 -9.169193 -2.449036,-0.3400726 -8.880295 -1.423698,-0.3400726 -8.880295 -1.423698,-0.3059139 -8.811277 -0.6757005,-0.1750641 -9.101357 -2.595775,0.1110668 -8.767231 -1.72,-0.01213741 -8.729397 -1.660092,-0.1424584 -8.807377 -1.697397,0.2451735 -8.957605 -2.636892,0.4473095 -8.539665 -2.033196,0.278492 -8.45895 -1.869698,0.1298761 -8.485825 -1.784974,-10.07235 -9.481407 -3.598485,-9.542355 -9.546152 -2.751734,-8.960906 -9.045179 -2.125605,-8.829804 -8.408289 -1.625445,-9.171933 -7.846838 -1.143127,-9.142022 -7.111279 -2.591127,-8.882444 -6.150412 -1.814174,-8.735054 -5.583814 -1.261831,-8.576473 -5.049806 -0.8904823,-9.641516 -6.824983 -2.613627,-9.524451 -6.187967 -1.444927,-9.504609 -7.464568 -1.188648,-9.527767 -8.444429 -1.326983,-10.17191 -6.882764 -2.492741,-10.13967 -6.468434 -1.402038,-10.06996 -7.707835 -1.184617,-10.03895 -8.54775 -1.329737,-10.67424 -7.08065 -2.329559,-10.69848 -6.574632 -1.525722,-10.56265 -7.412969 -1.332044,-10.44942 -8.067451 -1.377716,3.110, 4
-0.4315166 -10.55054 -0.9670094,-1.041673 -10.48783 -0.1210248,-1.446767 -10.01645 0.6531172,-1.356885 -9.569641 1.266204,-0.9191151 -9.18759 1.826676,-1.212038 -8.186197 0.8312668,-1.169473 -7.391918 1.588934,-1.01338 -7.04812 2.086142,-0.7905636 -6.932704 2.458181,-0.6448097 -8.028778 0.7175075,-0.3902674 -7.919002 1.496575,-0.3902674 -7.919002 1.496575,-0.5838952 -9.09569 2.062909,-0.1345339 -8.243658 0.6461599,0.06133413 -8.558428 1.321011,-0.1309595 -9.230787 1.331984,-0.2899041 -9.551611 1.333507,0.2927475 -8.632313 0.6556628,0.4651256 -8.569372 1.146012,0.2587347 -9.082907 1.248801,0.08864546 -9.332035 1.312162,-10.10828 -9.589729 -3.633612,-9.60428 -9.696938 -2.793799,-9.028853 -9.161243 -2.205209,-8.888315 -8.476305 -1.743403,-9.21967 -7.885534 -1.312076,-9.207109 -7.218922 -2.66547,-8.931786 -6.219602 -1.910162,-8.783161 -5.620693 -1.375948,-8.624461 -5.04183 -0.9963931,-9.696137 -6.926925 -2.687925,-9.568414 -6.28647 -1.535538,-9.569532 -7.564992 -1.305187,-9.60524 -8.545589 -1.476248,-10.2181 -6.978916 -2.560217,-10.19647 -6.556745 -1.460823,-10.13704 -7.801831 -1.225844,-10.10242 -8.657133 -1.37138,-10.71349 -7.172197 -2.401806,-10.74026 -6.713726 -1.57317,-10.60291 -7.56376 -1.369042,-10.48284 -8.230038 -1.423455,3.210, 2
-0.4823513 -10.59704 -1.334158,-1.058401 -10.54523 -0.3860871,-1.422933 -10.17122 0.3956956,-1.409193 -9.96339 0.9931693,-1.114779 -9.577829 1.603803,-1.369148 -8.298342 0.4622111,-1.32334 -7.663778 1.226063,-1.190929 -7.208666 1.782392,-0.9831738 -6.854728 2.237835,-0.7651997 -8.19035 0.3225737,-0.5633631 -8.029518 1.242586,-0.5633631 -8.029518 1.242586,-0.7118645 -9.263803 1.944148,-0.2025719 -8.411318 0.2689548,-0.05278254 -8.913939 1.065606,-0.3543072 -9.833593 0.9943781,-0.550993 -10.29713 0.9021018,0.2630262 -8.824696 0.2984259,0.3620811 -8.790407 0.8323989,0.1169105 -9.379297 0.8323052,-0.04301834 -9.676012 0.8118756,-10.16334 -9.796803 -3.612686,-9.639783 -9.891169 -2.810094,-9.053707 -9.312828 -2.206948,-8.926135 -8.620737 -1.715507,-9.271536 -8.068228 -1.257137,-9.284363 -7.379123 -2.690195,-9.008633 -6.29973 -1.920328,-8.847713 -5.698045 -1.379068,-8.68763 -5.137722 -0.989309,-9.782008 -7.121605 -2.671041,-9.627252 -6.433698 -1.48363,-9.600089 -7.754558 -1.264687,-9.637324 -8.744719 -1.439716,-10.30582 -7.1923 -2.492396,-10.24929 -6.709669 -1.357335,-10.16467 -7.990579 -1.132707,-10.14085 -8.855589 -1.291417,-10.80691 -7.398001 -2.289501,-10.804 -6.901319 -1.453364,-10.64933 -7.760215 -1.260959,-10.54025 -8.415874 -1.318816,3.310, 2
-0.541172 -10.76478 -0.6832286,-1.145603 -10.68882 0.291548,-1.550396 -10.2098 1.109631,-1.464653 -9.963615 1.72251,-1.033344 -9.584648 2.280882,-1.41121 -8.38833 1.24446,-1.364636 -7.87544 2.150693,-1.239362 -7.357228 2.699574,-1.060978 -6.73126 3.13056,-0.7828999 -8.223625 1.113193,-0.646523 -8.433487 2.189379,-0.646523 -8.433487 2.189379,-0.9132423 -9.525896 2.708638,-0.1929321 -8.445044 1.08231,-0.1107578 -9.183943 1.975454,-0.4359241 -10.02682 1.771588,-0.6222763 -10.2879 1.544802,0.293551 -8.898079 1.145155,0.3297682 -9.160482 1.693475,0.01860237 -9.722069 1.572481,-0.1680851 -9.928669 1.45554,-10.17706 -10.00369 -3.331828,-9.656331 -10.0876 -2.471636,-9.071497 -9.478271 -1.845416,-8.952177 -8.763483 -1.346505,-9.300744 -8.188921 -0.8793877,-9.319637 -7.515586 -2.311182,-9.0557 -6.422404 -1.491792,-8.905373 -5.79354 -0.9095033,-8.753325 -5.204343 -0.485535,-9.827006 -7.265762 -2.31407,-9.693636 -6.553225 -1.078157,-9.654583 -7.916916 -0.84998,-9.677852 -8.949097 -1.022007,-10.3599 -7.349518 -2.155707,-10.33046 -6.865376 -0.9878432,-10.23475 -8.186409 -0.7587131,-10.19672 -9.076889 -0.9177891,-10.86418 -7.569762 -1.965111,-10.88626 -7.066513 -1.108785,-10.72715 -7.957414 -0.9193522,-10.60593 -8.631304 -0.9797937,3.410, 2
-0.5884013 -11.02678 0.6242141,-1.164754 -10.88419 1.624749,-1.589858 -10.30121 2.377722,-1.469718 -9.929453 2.950896,-1.042074 -9.475378 3.525451,-1.375047 -8.200951 2.444484,-1.345831 -7.810887 3.395275,-1.235241 -7.346457 3.9889,-1.079466 -6.701684 4.45207,-0.7594833 -7.964759 2.300111,-0.662919 -8.540028 3.343874,-0.662919 -8.540028 3.343874,-0.9421921 -10.18037 3.66659,-0.1856551 -8.231541 2.28032,-0.1308975 -9.138273 3.273539,-0.413332 -10.22632 3.104886,-0.6006894 -10.66668 2.848413,0.304224 -8.801081 2.352509,0.3344822 -8.938517 2.930943,0.05611944 -9.610241 2.784233,-0.1321125 -9.931284 2.638394,-10.17418 -10.09292 -3.593491,-9.635352 -10.15902 -2.732903,-9.051178 -9.539513 -2.114975,-8.944324 -8.798004 -1.624605,-9.315481 -8.238869 -1.191445,-9.300329 -7.656223 -2.589796,-9.043019 -6.487846 -1.821472,-8.905527 -5.806932 -1.300978,-8.778786 -5.150817 -0.9186934,-9.806433 -7.431644 -2.592098,-9.693354 -6.630682 -1.342871,-9.683617 -7.978367 -1.135528,-9.720274 -8.996674 -1.349497,-10.34062 -7.512531 -2.43917,-10.34282 -6.891378 -1.247877,-10.26053 -8.196754 -1.028545,-10.21592 -9.102903 -1.214092,-10.85093 -7.719676 -2.254056,-10.91275 -7.093797 -1.383475,-10.77042 -7.956234 -1.176318,-10.64508 -8.658842 -1.233646,3.510, 2
-0.5828915 -11.10967 0.6357586,-1.158504 -10.97793 1.640933,-1.548901 -10.41136 2.439772,-1.430327 -9.988768 3.076403,-1.029553 -9.410795 3.726188,-1.290217 -8.273041 2.496014,-1.314366 -7.754013 3.460898,-1.22858 -7.21215 4.06718,-1.070125 -6.556467 4.542565,-0.669735 -8.066931 2.359751,-0.6158996 -8.594172 3.491699,-0.6158996 -8.594172 3.491699,-0.8419394 -10.20974 3.900266,-0.1009679 -8.341757 2.322882,-0.1160865 -9.318853 3.337579,-0.4102802 -10.42118 3.213119,-0.5919685 -10.88119 2.956671,0.3668981 -8.905838 2.373705,0.3323212 -9.375824 2.959061,0.01902294 -10.18243 2.77712,-0.1900759 -10.53545 2.576256,-10.18536 -10.28232 -3.607293,-9.604654 -10.29942 -2.769438,-9.002851 -9.607792 -2.144793,-8.91127 -8.822447 -1.63323,-9.266342 -8.246794 -1.171346,-9.295918 -7.730262 -2.750788,-9.024014 -6.406978 -2.065401,-8.8719 -5.674675 -1.592875,-8.741054 -5.012279 -1.223408,-9.814794 -7.580795 -2.734498,-9.653911 -6.656794 -1.509414,-9.621911 -8.029903 -1.296715,-9.661896 -9.071625 -1.494538,-10.35638 -7.68449 -2.557287,-10.28395 -6.963069 -1.414888,-10.17725 -8.283148 -1.22448,-10.14292 -9.180328 -1.419251,-10.88161 -7.890151 -2.338514,-10.86697 -7.175908 -1.53725,-10.70035 -8.032486 -1.364004,-10.58917 -8.706425 -1.428037,3.610, 2
-0.6021681 -11.16764 0.421486,-1.16183 -10.97486 1.475,-1.524991 -10.4096 2.264616,-1.403865 -9.968683 2.873867,-1.038477 -9.368298 3.502617,-1.252752 -8.33366 2.289529,-1.282089 -7.770099 3.230137,-1.195144 -7.19137 3.853483,-1.053751 -6.515375 4.362792,-0.6485167 -8.190935 2.139314,-0.6230302 -8.559502 3.294052,-0.6230302 -8.559502 3.294052,-0.759902 -10.19029 3.870623,-0.08908987 -8.463514 2.080168,-0.1290379 -9.35475 3.145626,-0.3673849 -10.50806 3.136725,-0.5347505 -11.11972 2.951708,0.3803883 -9.012451 2.108296,0.3282309 -9.393873 2.759938,0.05056381 -10.23822 2.632589,-0.1429114 -10.70165 2.474052,-10.20883 -10.38858 -3.270361,-9.596273 -10.367 -2.432144,-8.959978 -9.600096 -1.799644,-8.869353 -8.794645 -1.276141,-9.247547 -8.270975 -0.813543,-9.311064 -7.699466 -2.43519,-9.041041 -6.347702 -1.767172,-8.873343 -5.582088 -1.283048,-8.722107 -4.911267 -0.8903655,-9.841227 -7.58216 -2.405855,-9.682765 -6.699453 -1.197926,-9.658005 -8.045944 -0.9650134,-9.699932 -9.093639 -1.139486,-10.37939 -7.714654 -2.213826,-10.31231 -7.007396 -1.09087,-10.19911 -8.279165 -0.8954357,-10.14727 -9.169781 -1.080799,-10.89904 -7.961109 -1.976969,-10.88844 -7.261188 -1.185088,-10.72473 -8.084311 -0.9917635,-10.60882 -8.747875 -1.042557,3.710, 2
-0.4827528 -11.5152 0.7637634,-1.097064 -11.2429 1.677255,-1.554694 -10.57621 2.352648,-1.50211 -10.06478 2.91142,-1.107089 -9.514961 3.505896,-1.161427 -8.565411 2.478796,-1.257406 -7.93184 3.322809,-1.218 -7.315765 3.934328,-1.146299 -6.634764 4.435329,-0.5446644 -8.36425 2.364724,-0.5861993 -9.027948 3.301211,-0.5861993 -9.027948 3.301211,-0.7111835 -11.02194 3.607828,0.005639076 -8.659489 2.337931,-0.1237917 -9.509903 3.258006,-0.3122501 -10.65268 3.359316,-0.468523 -11.45119 3.278439,0.4631734 -9.222174 2.375825,0.3828487 -9.465097 2.983243,0.1229811 -10.32218 2.958606,-0.07696915 -10.91624 2.871079,-10.27982 -10.7027 -2.922791,-9.613927 -10.5604 -2.109598,-8.96821 -9.705454 -1.474169,-8.85895 -8.867167 -0.9282676,-9.222988 -8.377163 -0.4526803,-9.34816 -7.833463 -2.180901,-9.082987 -6.368694 -1.530712,-8.916386 -5.554076 -1.054716,-8.764956 -4.846094 -0.6613462,-9.885544 -7.772879 -2.136958,-9.736207 -6.786916 -0.9020154,-9.71971 -8.188429 -0.6679072,-9.75856 -9.273371 -0.8600874,-10.42512 -7.919828 -1.917573,-10.33931 -7.048961 -0.802243,-10.2339 -8.357943 -0.6328719,-10.19031 -9.27224 -0.8543272,-10.95789 -8.198067 -1.662417,-10.93672 -7.365119 -0.867743,-10.78229 -8.18848 -0.6633911,-10.67855 -8.849138 -0.7239964,3.810, 2
-0.2718 -11.67422 -2.394206,-0.9059448 -11.51969 -1.69193,-1.342739 -10.87997 -1.048248,-1.404553 -10.31521 -0.5416991,-1.177438 -10.07655 -0.04465961,-0.9636321 -9.491308 -0.9282057,-0.9275303 -8.43281 -0.3734236,-0.9213266 -7.837994 -0.01321244,-0.9356589 -7.295076 0.2758119,-0.4139509 -9.428545 -1.027196,-0.3464088 -9.305843 -0.184824,-0.3464088 -9.305843 -0.184824,-0.5058198 -11.00653 -0.1632812,0.09864521 -9.693844 -1.08735,0.08985996 -9.547161 -0.317039,-0.02982044 -10.42484 -0.3529103,-0.1071043 -11.04482 -0.4633654,0.543179 -10.03272 -1.086111,0.5280647 -9.490175 -0.6210184,0.3644891 -10.01006 -0.6178629,0.2766628 -10.45972 -0.6701902,-10.40759 -10.93873 -2.633667,-9.724783 -10.6264 -1.916526,-9.0933 -9.769075 -1.310693,-8.969179 -8.925892 -0.7564801,-9.339747 -8.432581 -0.2744614,-9.470489 -7.922596 -2.059991,-9.209223 -6.476291 -1.451769,-9.055109 -5.619969 -0.9653898,-8.932813 -4.866421 -0.5833465,-10.00325 -7.895616 -1.967218,-9.842272 -6.865703 -0.7921764,-9.8137 -8.237671 -0.4907454,-9.854229 -9.342606 -0.620216,-10.52548 -8.057964 -1.712119,-10.4168 -7.180331 -0.6490554,-10.30325 -8.437435 -0.4337634,-10.27275 -9.358633 -0.6197466,-11.05652 -8.385025 -1.428674,-11.01908 -7.531478 -0.6956685,-10.85663 -8.310593 -0.4930314,-10.76379 -8.974228 -0.5429066,3.910, 2
1.235429 -13.78959 -3.48001,0.300642 -14.00487 -3.59244,-0.1900616 -13.79426 -3.724047,-0.4949293 -13.5449 -3.84321,-0.7844076 -13.30799 -3.980229,-0.1526747 -12.02183 -4.113127,-0.6935158 -11.73248 -4.437216,-0.9876294 -11.81015 -4.553253,-1.190885 -11.93294 -4.582903,0.1146917 -11.86634 -4.142343,-0.4463272 -11.74178 -4.571251,-0.4463272 -11.74178 -4.571251,-0.78613 -12.29385 -4.602295,0.3598228 -11.85163 -4.168231,-0.093647 -11.81325 -4.528184,-0.1724787 -12.21156 -4.430436,-0.1224604 -12.59918 -4.328711,0.5692616 -11.84001 -4.203307,0.1838379 -11.83191 -4.445074,0.08479357 -12.08206 -4.389026,0.1069293 -12.33878 -4.342969,-10.61991 -11.05011 -2.457542,-9.945913 -10.68139 -1.679302,-9.367781 -9.803202 -1.07009,-9.255836 -8.921097 -0.501622,-9.609273 -8.374506 -0.007047772,-9.719176 -7.951946 -1.940906,-9.501619 -6.523031 -1.324561,-9.361274 -5.662632 -0.8464537,-9.249662 -4.886991 -0.4927068,-10.23222 -7.936405 -1.873243,-10.09585 -6.841268 -0.714308,-10.04665 -8.206877 -0.4014751,-10.06222 -9.242266 -0.5224428,-10.73206 -8.103767 -1.648865,-10.65332 -7.206974 -0.5963254,-10.52669 -8.483038 -0.3614913,-10.48987 -9.365625 -0.5529592,-11.24259 -8.429375 -1.379201,-11.19412 -7.614784 -0.6614906,-11.02897 -8.412849 -0.4644164,-10.94691 -9.040024 -0.5215837,4.010, 2
1.235429 -13.78959 -3.48001,0.300642 -14.00487 -3.59244,-0.1900616 -13.79426 -3.724047,-0.4949293 -13.5449 -3.84321,-0.7844076 -13.30799 -3.980229,-0.1526747 -12.02183 -4.113127,-0.6935158 -11.73248 -4.437216,-0.9876294 -11.81015 -4.553253,-1.190885 -11.93294 -4.582903,0.1146917 -11.86634 -4.142343,-0.4463272 -11.74178 -4.571251,-0.4463272 -11.74178 -4.571251,-0.78613 -12.29385 -4.602295,0.3598228 -11.85163 -4.168231,-0.093647 -11.81325 -4.528184,-0.1724787 -12.21156 -4.430436,-0.1224604 -12.59918 -4.328711,0.5692616 -11.84001 -4.203307,0.1838379 -11.83191 -4.445074,0.08479357 -12.08206 -4.389026,0.1069293 -12.33878 -4.342969,-10.70501 -11.11454 -2.527614,-10.03118 -10.69021 -1.770224,-9.46065 -9.790493 -1.186812,-9.354113 -8.871584 -0.6490484,-9.711753 -8.344168 -0.1758436,-9.837974 -8.004717 -2.056717,-9.630193 -6.533924 -1.45013,-9.505183 -5.685485 -0.9707383,-9.416327 -4.924675 -0.6205882,-10.34789 -8.008635 -1.993543,-10.23205 -6.858794 -0.8481245,-10.17213 -8.246059 -0.5406264,-10.17802 -9.326704 -0.6731783,-10.84413 -8.179792 -1.771632,-10.79081 -7.202199 -0.7416617,-10.65703 -8.475571 -0.5209521,-10.61191 -9.376682 -0.7214662,-11.34584 -8.509218 -1.511064,-11.31491 -7.624385 -0.8113474,-11.15792 -8.405752 -0.6177944,-11.07676 -9.049313 -0.6823257,4.110, 2
1.235429 -13.78959 -3.48001,0.300642 -14.00487 -3.59244,-0.1900616 -13.79426 -3.724047,-0.4949293 -13.5449 -3.84321,-0.7844076 -13.30799 -3.980229,-0.1526747 -12.02183 -4.113127,-0.6935158 -11.73248 -4.437216,-0.9876294 -11.81015 -4.553253,-1.190885 -11.93294 -4.582903,0.1146917 -11.86634 -4.142343,-0.4463272 -11.74178 -4.571251,-0.4463272 -11.74178 -4.571251,-0.78613 -12.29385 -4.602295,0.3598228 -11.85163 -4.168231,-0.093647 -11.81325 -4.528184,-0.1724787 -12.21156 -4.430436,-0.1224604 -12.59918 -4.328711,0.5692616 -11.84001 -4.203307,0.1838379 -11.83191 -4.445074,0.08479357 -12.08206 -4.389026,0.1069293 -12.33878 -4.342969,-10.77244 -11.22604 -2.285356,-10.09198 -10.67951 -1.589769,-9.557302 -9.773251 -0.9945126,-9.456309 -8.860802 -0.4276421,-9.803758 -8.367384 0.09215319,-9.920611 -8.0305 -1.845787,-9.702503 -6.499949 -1.286776,-9.592123 -5.643034 -0.826539,-9.514937 -4.888706 -0.4930412,-10.42897 -8.045811 -1.763981,-10.32756 -6.904358 -0.6712432,-10.24671 -8.274208 -0.2921269,-10.22645 -9.376656 -0.3489751,-10.92188 -8.238428 -1.53108,-10.88632 -7.17947 -0.5716093,-10.73921 -8.398767 -0.3129507,-10.67586 -9.334591 -0.4521761,-11.42031 -8.616211 -1.266902,-11.44538 -7.633926 -0.5885768,-11.26496 -8.307127 -0.3615975,-11.13894 -8.988308 -0.3867128,4.210, 2
1.235429 -13.78959 -3.48001,0.300642 -14.00487 -3.59244,-0.1900616 -13.79426 -3.724047,-0.4949293 -13.5449 -3.84321,-0.7844076 -13.30799 -3.980229,-0.1526747 -12.02183 -4.113127,-0.6935158 -11.73248 -4.437216,-0.9876294 -11.81015 -4.553253,-1.190885 -11.93294 -4.582903,0.1146917 -11.86634 -4.142343,-0.4463272 -11.74178 -4.571251,-0.4463272 -11.74178 -4.571251,-0.78613 -12.29385 -4.602295,0.3598228 -11.85163 -4.168231,-0.093647 -11.81325 -4.528184,-0.1724787 -12.21156 -4.430436,-0.1224604 -12.59918 -4.328711,0.5692616 -11.84001 -4.203307,0.1838379 -11.83191 -4.445074,0.08479357 -12.08206 -4.389026,0.1069293 -12.33878 -4.342969,-10.78951 -11.35942 -1.897751,-10.08729 -10.74992 -1.217178,-9.541552 -9.799612 -0.6326615,-9.449985 -8.854923 -0.07808173,-9.810462 -8.335917 0.4277585,-9.916574 -8.023212 -1.554178,-9.703417 -6.529136 -1.013275,-9.594215 -5.708818 -0.5638974,-9.503843 -4.968305 -0.248906,-10.42599 -8.056974 -1.456071,-10.31814 -6.919027 -0.3740578,-10.23816 -8.305378 0.02539635,-10.21972 -9.39856 -0.01622021,-10.90857 -8.258406 -1.206102,-10.86655 -7.209141 -0.2446616,-10.7212 -8.457186 0.02470827,-10.67196 -9.391672 -0.1142728,-11.40623 -8.649006 -0.9140062,-11.40789 -7.690948 -0.2417331,-11.22753 -8.400202 -0.02723169,-11.12184 -9.084219 -0.07014275,4.310, 2
1.235429 -13.78959 -3.48001,0.300642 -14.00487 -3.59244,-0.1900616 -13.79426 -3.724047,-0.4949293 -13.5449 -3.84321,-0.7844076 -13.30799 -3.980229,-0.1526747 -12.02183 -4.113127,-0.6935158 -11.73248 -4.437216,-0.9876294 -11.81015 -4.553253,-1.190885 -11.93294 -4.582903,0.1146917 -11.86634 -4.142343,-0.4463272 -11.74178 -4.571251,-0.4463272 -11.74178 -4.571251,-0.78613 -12.29385 -4.602295,0.3598228 -11.85163 -4.168231,-0.093647 -11.81325 -4.528184,-0.1724787 -12.21156 -4.430436,-0.1224604 -12.59918 -4.328711,0.5692616 -11.84001 -4.203307,0.1838379 -11.83191 -4.445074,0.08479357 -12.08206 -4.389026,0.1069293 -12.33878 -4.342969,-10.76239 -11.4137 -1.775787,-10.05172 -10.79162 -1.080359,-9.500132 -9.861197 -0.4947685,-9.397215 -8.924896 0.04880214,-9.753154 -8.380621 0.5508147,-9.85748 -8.040228 -1.414616,-9.666801 -6.550373 -0.8663502,-9.582708 -5.747476 -0.4104571,-9.499983 -5.028643 -0.09495294,-10.37407 -8.077888 -1.340169,-10.30654 -6.963682 -0.2657717,-10.22197 -8.338507 0.1520046,-10.17637 -9.411459 0.1329433,-10.85933 -8.287218 -1.118624,-10.85023 -7.277434 -0.1769502,-10.70658 -8.520052 0.1095361,-10.63504 -9.43277 -0.00897646,-11.35311 -8.669416 -0.8471811,-11.3867 -7.668142 -0.1857314,-11.21645 -8.344969 0.03402972,-11.09933 -9.02858 -0.002838254,4.410, 2
1.235429 -13.78959 -3.48001,0.300642 -14.00487 -3.59244,-0.1900616 -13.79426 -3.724047,-0.4949293 -13.5449 -3.84321,-0.7844076 -13.30799 -3.980229,-0.1526747 -12.02183 -4.113127,-0.6935158 -11.73248 -4.437216,-0.9876294 -11.81015 -4.553253,-1.190885 -11.93294 -4.582903,0.1146917 -11.86634 -4.142343,-0.4463272 -11.74178 -4.571251,-0.4463272 -11.74178 -4.571251,-0.78613 -12.29385 -4.602295,0.3598228 -11.85163 -4.168231,-0.093647 -11.81325 -4.528184,-0.1724787 -12.21156 -4.430436,-0.1224604 -12.59918 -4.328711,0.5692616 -11.84001 -4.203307,0.1838379 -11.83191 -4.445074,0.08479357 -12.08206 -4.389026,0.1069293 -12.33878 -4.342969,-10.67038 -11.55604 -1.86431,-9.947588 -10.93208 -1.258823,-9.36237 -10.03985 -0.7071605,-9.244474 -9.114807 -0.1798313,-9.617274 -8.584749 0.2950238,-9.729425 -8.23106 -1.589815,-9.524884 -6.738975 -1.063792,-9.432789 -5.934211 -0.6080137,-9.335709 -5.21152 -0.3022209,-10.24243 -8.24408 -1.48359,-10.1483 -7.120772 -0.4628443,-10.08343 -8.485249 -0.06168652,-10.05084 -9.554661 -0.06740642,-10.72325 -8.42078 -1.23223,-10.69043 -7.422412 -0.3530045,-10.56937 -8.678234 -0.07047987,-10.50084 -9.60652 -0.1655838,-11.22493 -8.774902 -0.931664,-11.25105 -7.731187 -0.3248532,-11.07932 -8.424582 -0.118039,-10.96332 -9.14695 -0.1484928,4.510, 2
1.235429 -13.78959 -3.48001,0.300642 -14.00487 -3.59244,-0.1900616 -13.79426 -3.724047,-0.4949293 -13.5449 -3.84321,-0.7844076 -13.30799 -3.980229,-0.1526747 -12.02183 -4.113127,-0.6935158 -11.73248 -4.437216,-0.9876294 -11.81015 -4.553253,-1.190885 -11.93294 -4.582903,0.1146917 -11.86634 -4.142343,-0.4463272 -11.74178 -4.571251,-0.4463272 -11.74178 -4.571251,-0.78613 -12.29385 -4.602295,0.3598228 -11.85163 -4.168231,-0.093647 -11.81325 -4.528184,-0.1724787 -12.21156 -4.430436,-0.1224604 -12.59918 -4.328711,0.5692616 -11.84001 -4.203307,0.1838379 -11.83191 -4.445074,0.08479357 -12.08206 -4.389026,0.1069293 -12.33878 -4.342969,-10.53729 -11.60487 -2.241862,-9.811539 -11.07689 -1.749421,-9.189979 -10.21831 -1.237192,-9.073463 -9.315313 -0.7428266,-9.491985 -8.815437 -0.324927,-9.58243 -8.446465 -1.954141,-9.347739 -6.976387 -1.416945,-9.201884 -6.304563 -0.93699,-9.062243 -5.771532 -0.5815227,-10.09304 -8.411442 -1.808085,-9.969167 -7.308425 -0.8235729,-9.888746 -8.646894 -0.4212062,-9.876646 -9.753119 -0.3704605,-10.58065 -8.575006 -1.516854,-10.50922 -7.631057 -0.656438,-10.38754 -8.883432 -0.4121748,-10.35179 -9.823235 -0.4820206,-11.09322 -8.917896 -1.183794,-11.089 -7.969985 -0.5644634,-10.9114 -8.731758 -0.3602266,-10.80676 -9.449081 -0.3749779,4.610, 2
1.235429 -13.78959 -3.48001,0.300642 -14.00487 -3.59244,-0.1900616 -13.79426 -3.724047,-0.4949293 -13.5449 -3.84321,-0.7844076 -13.30799 -3.980229,-0.1526747 -12.02183 -4.113127,-0.6935158 -11.73248 -4.437216,-0.9876294 -11.81015 -4.553253,-1.190885 -11.93294 -4.582903,0.1146917 -11.86634 -4.142343,-0.4463272 -11.74178 -4.571251,-0.4463272 -11.74178 -4.571251,-0.78613 -12.29385 -4.602295,0.3598228 -11.85163 -4.168231,-0.093647 -11.81325 -4.528184,-0.1724787 -12.21156 -4.430436,-0.1224604 -12.59918 -4.328711,0.5692616 -11.84001 -4.203307,0.1838379 -11.83191 -4.445074,0.08479357 -12.08206 -4.389026,0.1069293 -12.33878 -4.342969,-10.47197 -11.63328 -2.331554,-9.761349 -11.13 -1.823278,-9.126528 -10.30205 -1.320635,-8.988881 -9.429604 -0.8366035,-9.391876 -8.898304 -0.4199878,-9.527567 -8.519405 -1.991906,-9.30746 -7.054891 -1.439775,-9.140271 -6.42596 -0.9570776,-8.977479 -5.935173 -0.6130162,-10.02489 -8.470943 -1.865459,-9.866655 -7.40122 -0.8886791,-9.808266 -8.731735 -0.4916288,-9.825039 -9.838959 -0.4694237,-10.51173 -8.617256 -1.592107,-10.41758 -7.70955 -0.756662,-10.31356 -8.947235 -0.500953,-10.28861 -9.898003 -0.5647795,-11.03075 -8.933559 -1.2794,-11.00976 -7.991786 -0.6477,-10.83411 -8.753857 -0.4116257,-10.7285 -9.50985 -0.4092695,4.710, 2
1.235429 -13.78959 -3.48001,0.300642 -14.00487 -3.59244,-0.1900616 -13.79426 -3.724047,-0.4949293 -13.5449 -3.84321,-0.7844076 -13.30799 -3.980229,-0.1526747 -12.02183 -4.113127,-0.6935158 -11.73248 -4.437216,-0.9876294 -11.81015 -4.553253,-1.190885 -11.93294 -4.582903,0.1146917 -11.86634 -4.142343,-0.4463272 -11.74178 -4.571251,-0.4463272 -11.74178 -4.571251,-0.78613 -12.29385 -4.602295,0.3598228 -11.85163 -4.168231,-0.093647 -11.81325 -4.528184,-0.1724787 -12.21156 -4.430436,-0.1224604 -12.59918 -4.328711,0.5692616 -11.84001 -4.203307,0.1838379 -11.83191 -4.445074,0.08479357 -12.08206 -4.389026,0.1069293 -12.33878 -4.342969,-10.41774 -11.64907 -2.520235,-9.692267 -11.17018 -1.979444,-9.053927 -10.31568 -1.471377,-8.923717 -9.429096 -0.9824612,-9.292342 -8.964754 -0.5564831,-9.456301 -8.578465 -2.174512,-9.232627 -7.11576 -1.621359,-9.045888 -6.458796 -1.1686,-8.86669 -5.943092 -0.8722358,-9.969148 -8.542246 -2.052764,-9.801534 -7.479944 -1.03941,-9.739901 -8.839842 -0.6992153,-9.760454 -9.962517 -0.7501793,-10.46424 -8.688715 -1.771115,-10.36111 -7.799592 -0.8758335,-10.25499 -9.040026 -0.6576656,-10.24024 -9.996582 -0.7701806,-10.97826 -8.986197 -1.46068,-10.95766 -8.03989 -0.7946333,-10.78354 -8.803553 -0.575099,-10.68238 -9.551641 -0.5929635,4.810, 2
1.235429 -13.78959 -3.48001,0.300642 -14.00487 -3.59244,-0.1900616 -13.79426 -3.724047,-0.4949293 -13.5449 -3.84321,-0.7844076 -13.30799 -3.980229,-0.1526747 -12.02183 -4.113127,-0.6935158 -11.73248 -4.437216,-0.9876294 -11.81015 -4.553253,-1.190885 -11.93294 -4.582903,0.1146917 -11.86634 -4.142343,-0.4463272 -11.74178 -4.571251,-0.4463272 -11.74178 -4.571251,-0.78613 -12.29385 -4.602295,0.3598228 -11.85163 -4.168231,-0.093647 -11.81325 -4.528184,-0.1724787 -12.21156 -4.430436,-0.1224604 -12.59918 -4.328711,0.5692616 -11.84001 -4.203307,0.1838379 -11.83191 -4.445074,0.08479357 -12.08206 -4.389026,0.1069293 -12.33878 -4.342969,-10.33978 -11.69009 -2.633368,-9.621153 -11.25902 -2.146979,-8.976662 -10.43708 -1.655344,-8.836297 -9.575718 -1.164021,-9.200575 -9.095016 -0.7272912,-9.382443 -8.646759 -2.355734,-9.164914 -7.205151 -1.803452,-8.975248 -6.566352 -1.345819,-8.779433 -6.043072 -1.038338,-9.886395 -8.611765 -2.201383,-9.682304 -7.546905 -1.185653,-9.616422 -8.921284 -0.8402883,-9.644779 -10.008 -0.8960698,-10.38353 -8.761353 -1.888635,-10.24437 -7.881515 -0.9975263,-10.13724 -9.151819 -0.7830119,-10.12919 -10.0894 -0.8994793,-10.91033 -9.060894 -1.541158,-10.86341 -8.132435 -0.8846151,-10.67759 -8.911123 -0.6661733,-10.57978 -9.657297 -0.6841441,4.910, 2
1.235429 -13.78959 -3.48001,0.300642 -14.00487 -3.59244,-0.1900616 -13.79426 -3.724047,-0.4949293 -13.5449 -3.84321,-0.7844076 -13.30799 -3.980229,-0.1526747 -12.02183 -4.113127,-0.6935158 -11.73248 -4.437216,-0.9876294 -11.81015 -4.553253,-1.190885 -11.93294 -4.582903,0.1146917 -11.86634 -4.142343,-0.4463272 -11.74178 -4.571251,-0.4463272 -11.74178 -4.571251,-0.78613 -12.29385 -4.602295,0.3598228 -11.85163 -4.168231,-0.093647 -11.81325 -4.528184,-0.1724787 -12.21156 -4.430436,-0.1224604 -12.59918 -4.328711,0.5692616 -11.84001 -4.203307,0.1838379 -11.83191 -4.445074,0.08479357 -12.08206 -4.389026,0.1069293 -12.33878 -4.342969,-10.3114 -11.67667 -2.71223,-9.591066 -11.25203 -2.242919,-8.941167 -10.46265 -1.769511,-8.799961 -9.627314 -1.299623,-9.162559 -9.110647 -0.8805696,-9.347951 -8.669891 -2.439254,-9.126682 -7.252317 -1.885481,-8.936939 -6.609588 -1.405387,-8.746503 -6.093067 -1.06965,-9.852438 -8.621977 -2.281774,-9.646044 -7.576801 -1.288128,-9.583971 -8.929049 -0.9286705,-9.61374 -10.04691 -0.9499422,-10.34695 -8.763462 -1.96973,-10.20956 -7.893066 -1.095117,-10.10209 -9.138954 -0.8579015,-10.0864 -10.10284 -0.9491637,-10.87081 -9.063858 -1.629015,-10.81541 -8.179123 -0.9577384,-10.63103 -8.957314 -0.7136887,-10.52542 -9.71369 -0.7069262,5.010, 2
1.235429 -13.78959 -3.48001,0.300642 -14.00487 -3.59244,-0.1900616 -13.79426 -3.724047,-0.4949293 -13.5449 -3.84321,-0.7844076 -13.30799 -3.980229,-0.1526747 -12.02183 -4.113127,-0.6935158 -11.73248 -4.437216,-0.9876294 -11.81015 -4.553253,-1.190885 -11.93294 -4.582903,0.1146917 -11.86634 -4.142343,-0.4463272 -11.74178 -4.571251,-0.4463272 -11.74178 -4.571251,-0.78613 -12.29385 -4.602295,0.3598228 -11.85163 -4.168231,-0.093647 -11.81325 -4.528184,-0.1724787 -12.21156 -4.430436,-0.1224604 -12.59918 -4.328711,0.5692616 -11.84001 -4.203307,0.1838379 -11.83191 -4.445074,0.08479357 -12.08206 -4.389026,0.1069293 -12.33878 -4.342969,-10.28841 -11.69873 -2.754013,-9.580083 -11.24416 -2.205133,-8.950616 -10.45856 -1.680418,-8.810543 -9.640524 -1.180278,-9.137091 -9.116636 -0.7241218,-9.308847 -8.728531 -2.334265,-9.087318 -7.356067 -1.753101,-8.905845 -6.645322 -1.257847,-8.720289 -6.050478 -0.9039258,-9.829422 -8.676811 -2.197219,-9.650651 -7.614178 -1.16973,-9.585316 -8.954611 -0.8468156,-9.596207 -10.07553 -0.9005123,-10.33641 -8.828096 -1.907581,-10.20968 -7.927575 -0.9984895,-10.09178 -9.151855 -0.7792211,-10.07257 -10.10565 -0.9024167,-10.86522 -9.136425 -1.588307,-10.82192 -8.214798 -0.8991599,-10.63754 -8.946787 -0.6821253,-10.53469 -9.663851 -0.6981211,5.110, 2
1.235429 -13.78959 -3.48001,0.300642 -14.00487 -3.59244,-0.1900616 -13.79426 -3.724047,-0.4949293 -13.5449 -3.84321,-0.7844076 -13.30799 -3.980229,-0.1526747 -12.02183 -4.113127,-0.6935158 -11.73248 -4.437216,-0.9876294 -11.81015 -4.553253,-1.190885 -11.93294 -4.582903,0.1146917 -11.86634 -4.142343,-0.4463272 -11.74178 -4.571251,-0.4463272 -11.74178 -4.571251,-0.78613 -12.29385 -4.602295,0.3598228 -11.85163 -4.168231,-0.093647 -11.81325 -4.528184,-0.1724787 -12.21156 -4.430436,-0.1224604 -12.59918 -4.328711,0.5692616 -11.84001 -4.203307,0.1838379 -11.83191 -4.445074,0.08479357 -12.08206 -4.389026,0.1069293 -12.33878 -4.342969,-10.3103 -11.73161 -2.888796,-9.605519 -11.29859 -2.36307,-8.979417 -10.49143 -1.840992,-8.839501 -9.686312 -1.340331,-9.173114 -9.225946 -0.8866587,-9.356632 -8.789167 -2.452355,-9.133722 -7.402179 -1.90057,-8.943718 -6.662411 -1.435843,-8.753181 -6.044191 -1.094293,-9.871503 -8.752846 -2.297642,-9.682014 -7.691411 -1.291821,-9.608397 -9.00458 -0.9878267,-9.62266 -10.1067 -1.044403,-10.3724 -8.910168 -1.999947,-10.24015 -8.006207 -1.095658,-10.11148 -9.209663 -0.8856549,-10.08722 -10.16522 -1.009495,-10.89082 -9.219036 -1.677044,-10.8554 -8.306496 -0.995634,-10.66325 -9.025679 -0.786566,-10.54927 -9.741968 -0.7943687,5.210, 2
1.235429 -13.78959 -3.48001,0.300642 -14.00487 -3.59244,-0.1900616 -13.79426 -3.724047,-0.4949293 -13.5449 -3.84321,-0.7844076 -13.30799 -3.980229,-0.1526747 -12.02183 -4.113127,-0.6935158 -11.73248 -4.437216,-0.9876294 -11.81015 -4.553253,-1.190885 -11.93294 -4.582903,0.1146917 -11.86634 -4.142343,-0.4463272 -11.74178 -4.571251,-0.4463272 -11.74178 -4.571251,-0.78613 -12.29385 -4.602295,0.3598228 -11.85163 -4.168231,-0.093647 -11.81325 -4.528184,-0.1724787 -12.21156 -4.430436,-0.1224604 -12.59918 -4.328711,0.5692616 -11.84001 -4.203307,0.1838379 -11.83191 -4.445074,0.08479357 -12.08206 -4.389026,0.1069293 -12.33878 -4.342969,-10.30002 -11.73953 -2.957304,-9.604056 -11.31984 -2.419595,-8.98358 -10.50656 -1.907872,-8.85773 -9.683428 -1.424822,-9.188341 -9.213352 -0.9860444,-9.372637 -8.807774 -2.535872,-9.152928 -7.408194 -1.981883,-8.962804 -6.681341 -1.511093,-8.772259 -6.081684 -1.169964,-9.884 -8.77161 -2.397166,-9.695511 -7.707368 -1.385928,-9.621606 -9.034761 -1.077795,-9.638028 -10.15363 -1.140403,-10.38176 -8.927507 -2.113812,-10.2526 -8.02499 -1.208439,-10.12745 -9.239634 -0.9963244,-10.10307 -10.20115 -1.123235,-10.89938 -9.236929 -1.80342,-10.86378 -8.31583 -1.118559,-10.67344 -9.040005 -0.9107919,-10.56146 -9.760771 -0.9293611,5.310, 2
1.235429 -13.78959 -3.48001,0.300642 -14.00487 -3.59244,-0.1900616 -13.79426 -3.724047,-0.4949293 -13.5449 -3.84321,-0.7844076 -13.30799 -3.980229,-0.1526747 -12.02183 -4.113127,-0.6935158 -11.73248 -4.437216,-0.9876294 -11.81015 -4.553253,-1.190885 -11.93294 -4.582903,0.1146917 -11.86634 -4.142343,-0.4463272 -11.74178 -4.571251,-0.4463272 -11.74178 -4.571251,-0.78613 -12.29385 -4.602295,0.3598228 -11.85163 -4.168231,-0.093647 -11.81325 -4.528184,-0.1724787 -12.21156 -4.430436,-0.1224604 -12.59918 -4.328711,0.5692616 -11.84001 -4.203307,0.1838379 -11.83191 -4.445074,0.08479357 -12.08206 -4.389026,0.1069293 -12.33878 -4.342969,-10.29504 -11.73222 -2.884306,-9.605783 -11.30852 -2.311334,-8.979951 -10.53603 -1.755058,-8.839726 -9.750137 -1.232508,-9.182875 -9.273335 -0.7603811,-9.364899 -8.788136 -2.397233,-9.155619 -7.410739 -1.853138,-8.977763 -6.687294 -1.389826,-8.792108 -6.093255 -1.036598,-9.886227 -8.754242 -2.26197,-9.701959 -7.756069 -1.251804,-9.62965 -9.069715 -0.9298679,-9.636486 -10.1878 -0.977332,-10.38774 -8.924379 -1.987999,-10.26026 -8.088491 -1.090204,-10.1367 -9.285213 -0.8691155,-10.10217 -10.24029 -0.9820734,-10.90462 -9.238588 -1.681003,-10.87034 -8.367144 -1.000968,-10.68198 -9.097227 -0.7912019,-10.56422 -9.813402 -0.8033453,5.410, 2
1.235429 -13.78959 -3.48001,0.300642 -14.00487 -3.59244,-0.1900616 -13.79426 -3.724047,-0.4949293 -13.5449 -3.84321,-0.7844076 -13.30799 -3.980229,-0.1526747 -12.02183 -4.113127,-0.6935158 -11.73248 -4.437216,-0.9876294 -11.81015 -4.553253,-1.190885 -11.93294 -4.582903,0.1146917 -11.86634 -4.142343,-0.4463272 -11.74178 -4.571251,-0.4463272 -11.74178 -4.571251,-0.78613 -12.29385 -4.602295,0.3598228 -11.85163 -4.168231,-0.093647 -11.81325 -4.528184,-0.1724787 -12.21156 -4.430436,-0.1224604 -12.59918 -4.328711,0.5692616 -11.84001 -4.203307,0.1838379 -11.83191 -4.445074,0.08479357 -12.08206 -4.389026,0.1069293 -12.33878 -4.342969,-10.29656 -11.74613 -2.986282,-9.615004 -11.3369 -2.399074,-8.989552 -10.58141 -1.827431,-8.847319 -9.797226 -1.294482,-9.193845 -9.324223 -0.8150392,-9.386588 -8.84436 -2.453656,-9.166784 -7.45453 -1.8592,-8.981183 -6.736331 -1.366352,-8.79285 -6.142901 -1.000906,-9.903533 -8.804277 -2.326067,-9.7199 -7.795862 -1.269957,-9.646279 -9.104399 -0.9475722,-9.654814 -10.19894 -1.008692,-10.40173 -8.974792 -2.055247,-10.27575 -8.128326 -1.122637,-10.1502 -9.32008 -0.9142458,-10.11968 -10.26027 -1.0466,-10.91221 -9.292183 -1.752721,-10.87775 -8.418518 -1.051221,-10.68287 -9.143587 -0.8457675,-10.5606 -9.855999 -0.8748772,5.510, 2
1.235429 -13.78959 -3.48001,0.300642 -14.00487 -3.59244,-0.1900616 -13.79426 -3.724047,-0.4949293 -13.5449 -3.84321,-0.7844076 -13.30799 -3.980229,-0.1526747 -12.02183 -4.113127,-0.6935158 -11.73248 -4.437216,-0.9876294 -11.81015 -4.553253,-1.190885 -11.93294 -4.582903,0.1146917 -11.86634 -4.142343,-0.4463272 -11.74178 -4.571251,-0.4463272 -11.74178 -4.571251,-0.78613 -12.29385 -4.602295,0.3598228 -11.85163 -4.168231,-0.093647 -11.81325 -4.528184,-0.1724787 -12.21156 -4.430436,-0.1224604 -12.59918 -4.328711,0.5692616 -11.84001 -4.203307,0.1838379 -11.83191 -4.445074,0.08479357 -12.08206 -4.389026,0.1069293 -12.33878 -4.342969,-10.31886 -11.76321 -3.017617,-9.637686 -11.35437 -2.464561,-9.009748 -10.56604 -1.920149,-8.877389 -9.782137 -1.404242,-9.215821 -9.327812 -0.944721,-9.403742 -8.861395 -2.503755,-9.177853 -7.464969 -1.926493,-8.992034 -6.723924 -1.456544,-8.804303 -6.112361 -1.098699,-9.920956 -8.830341 -2.361552,-9.718361 -7.820701 -1.336094,-9.64878 -9.12602 -1.049901,-9.659531 -10.23012 -1.133646,-10.41941 -8.998739 -2.077612,-10.27702 -8.164204 -1.165922,-10.15106 -9.357092 -0.9682782,-10.11837 -10.30485 -1.097294,-10.93044 -9.311377 -1.766408,-10.8785 -8.458454 -1.078082,-10.68267 -9.20178 -0.8710802,-10.56078 -9.916298 -0.8833957,5.610, 2
1.235429 -13.78959 -3.48001,0.300642 -14.00487 -3.59244,-0.1900616 -13.79426 -3.724047,-0.4949293 -13.5449 -3.84321,-0.7844076 -13.30799 -3.980229,-0.1526747 -12.02183 -4.113127,-0.6935158 -11.73248 -4.437216,-0.9876294 -11.81015 -4.553253,-1.190885 -11.93294 -4.582903,0.1146917 -11.86634 -4.142343,-0.4463272 -11.74178 -4.571251,-0.4463272 -11.74178 -4.571251,-0.78613 -12.29385 -4.602295,0.3598228 -11.85163 -4.168231,-0.093647 -11.81325 -4.528184,-0.1724787 -12.21156 -4.430436,-0.1224604 -12.59918 -4.328711,0.5692616 -11.84001 -4.203307,0.1838379 -11.83191 -4.445074,0.08479357 -12.08206 -4.389026,0.1069293 -12.33878 -4.342969,-10.31272 -11.78039 -2.956314,-9.62781 -11.35865 -2.385586,-9.003183 -10.58449 -1.829304,-8.874637 -9.794231 -1.301762,-9.217585 -9.33954 -0.8319585,-9.388474 -8.86368 -2.455774,-9.171665 -7.468318 -1.881824,-8.990469 -6.737281 -1.419609,-8.804258 -6.128664 -1.083375,-9.907085 -8.825424 -2.32345,-9.71591 -7.85993 -1.280658,-9.652858 -9.170324 -0.9889662,-9.668562 -10.24855 -1.077652,-10.40681 -8.995836 -2.043937,-10.2739 -8.188456 -1.125369,-10.15988 -9.376244 -0.9449282,-10.13743 -10.30034 -1.090178,-10.9227 -9.309315 -1.732529,-10.88393 -8.421654 -1.051059,-10.6955 -9.143219 -0.8606853,-10.58198 -9.8552 -0.8941324,5.710, 2
1.235429 -13.78959 -3.48001,0.300642 -14.00487 -3.59244,-0.1900616 -13.79426 -3.724047,-0.4949293 -13.5449 -3.84321,-0.7844076 -13.30799 -3.980229,-0.1526747 -12.02183 -4.113127,-0.6935158 -11.73248 -4.437216,-0.9876294 -11.81015 -4.553253,-1.190885 -11.93294 -4.582903,0.1146917 -11.86634 -4.142343,-0.4463272 -11.74178 -4.571251,-0.4463272 -11.74178 -4.571251,-0.78613 -12.29385 -4.602295,0.3598228 -11.85163 -4.168231,-0.093647 -11.81325 -4.528184,-0.1724787 -12.21156 -4.430436,-0.1224604 -12.59918 -4.328711,0.5692616 -11.84001 -4.203307,0.1838379 -11.83191 -4.445074,0.08479357 -12.08206 -4.389026,0.1069293 -12.33878 -4.342969,-10.28876 -11.78454 -2.849703,-9.602743 -11.36955 -2.281048,-8.980851 -10.60235 -1.713418,-8.855272 -9.8433 -1.168567,-9.216801 -9.398184 -0.6779573,-9.380819 -8.825207 -2.357197,-9.169136 -7.450634 -1.755132,-8.983262 -6.758823 -1.26192,-8.796276 -6.187884 -0.9076028,-9.899289 -8.796616 -2.213809,-9.721637 -7.803933 -1.153077,-9.617488 -9.132029 -0.8129995,-9.603666 -10.23462 -0.8669987,-10.39716 -8.994104 -1.920596,-10.27402 -8.175144 -0.9811757,-10.12149 -9.379885 -0.771606,-10.07805 -10.33029 -0.9019974,-10.90484 -9.339033 -1.597794,-10.87782 -8.471617 -0.8884177,-10.66264 -9.198532 -0.6900382,-10.52592 -9.92161 -0.7306032,5.810, 2
1.235429 -13.78959 -3.48001,0.300642 -14.00487 -3.59244,-0.1900616 -13.79426 -3.724047,-0.4949293 -13.5449 -3.84321,-0.7844076 -13.30799 -3.980229,-0.1526747 -12.02183 -4.113127,-0.6935158 -11.73248 -4.437216,-0.9876294 -11.81015 -4.553253,-1.190885 -11.93294 -4.582903,0.1146917 -11.86634 -4.142343,-0.4463272 -11.74178 -4.571251,-0.4463272 -11.74178 -4.571251,-0.78613 -12.29385 -4.602295,0.3598228 -11.85163 -4.168231,-0.093647 -11.81325 -4.528184,-0.1724787 -12.21156 -4.430436,-0.1224604 -12.59918 -4.328711,0.5692616 -11.84001 -4.203307,0.1838379 -11.83191 -4.445074,0.08479357 -12.08206 -4.389026,0.1069293 -12.33878 -4.342969,-10.28684 -11.7954 -2.925185,-9.60316 -11.38654 -2.387459,-8.967469 -10.61932 -1.85362,-8.849721 -9.849503 -1.341934,-9.210299 -9.410154 -0.8833607,-9.365163 -8.869709 -2.443375,-9.1571 -7.469545 -1.878127,-8.974536 -6.772911 -1.423285,-8.784626 -6.201835 -1.085457,-9.884652 -8.82881 -2.301756,-9.690279 -7.870793 -1.283905,-9.607077 -9.20756 -1.006354,-9.609034 -10.31243 -1.094078,-10.38865 -9.009672 -2.011671,-10.24939 -8.217793 -1.106315,-10.11923 -9.444839 -0.9364295,-10.08935 -10.39283 -1.068016,-10.90941 -9.327991 -1.692297,-10.8679 -8.446079 -1.012545,-10.66401 -9.196686 -0.8253454,-10.53821 -9.921892 -0.8624486,5.910, 2
1.235429 -13.78959 -3.48001,0.300642 -14.00487 -3.59244,-0.1900616 -13.79426 -3.724047,-0.4949293 -13.5449 -3.84321,-0.7844076 -13.30799 -3.980229,-0.1526747 -12.02183 -4.113127,-0.6935158 -11.73248 -4.437216,-0.9876294 -11.81015 -4.553253,-1.190885 -11.93294 -4.582903,0.1146917 -11.86634 -4.142343,-0.4463272 -11.74178 -4.571251,-0.4463272 -11.74178 -4.571251,-0.78613 -12.29385 -4.602295,0.3598228 -11.85163 -4.168231,-0.093647 -11.81325 -4.528184,-0.1724787 -12.21156 -4.430436,-0.1224604 -12.59918 -4.328711,0.5692616 -11.84001 -4.203307,0.1838379 -11.83191 -4.445074,0.08479357 -12.08206 -4.389026,0.1069293 -12.33878 -4.342969,-10.26871 -11.81933 -2.950499,-9.593507 -11.41768 -2.400029,-8.957664 -10.65171 -1.848953,-8.827162 -9.890987 -1.322508,-9.191173 -9.440475 -0.8540398,-9.367414 -8.899899 -2.447477,-9.147911 -7.50044 -1.843904,-8.948456 -6.809653 -1.354972,-8.745334 -6.244293 -0.9936001,-9.887913 -8.862745 -2.302029,-9.682478 -7.886995 -1.245568,-9.591018 -9.23275 -0.9583048,-9.590756 -10.34272 -1.048879,-10.39101 -9.04423 -2.006718,-10.24172 -8.235765 -1.072975,-10.10078 -9.467592 -0.9010583,-10.06465 -10.41917 -1.044611,-10.90687 -9.365618 -1.680378,-10.85704 -8.501154 -0.9822676,-10.64611 -9.2663 -0.7941555,-10.51406 -9.995121 -0.8336402,6.010, 2
1.235429 -13.78959 -3.48001,0.300642 -14.00487 -3.59244,-0.1900616 -13.79426 -3.724047,-0.4949293 -13.5449 -3.84321,-0.7844076 -13.30799 -3.980229,-0.1526747 -12.02183 -4.113127,-0.6935158 -11.73248 -4.437216,-0.9876294 -11.81015 -4.553253,-1.190885 -11.93294 -4.582903,0.1146917 -11.86634 -4.142343,-0.4463272 -11.74178 -4.571251,-0.4463272 -11.74178 -4.571251,-0.78613 -12.29385 -4.602295,0.3598228 -11.85163 -4.168231,-0.093647 -11.81325 -4.528184,-0.1724787 -12.21156 -4.430436,-0.1224604 -12.59918 -4.328711,0.5692616 -11.84001 -4.203307,0.1838379 -11.83191 -4.445074,0.08479357 -12.08206 -4.389026,0.1069293 -12.33878 -4.342969,-10.27016 -11.86157 -2.821758,-9.598596 -11.46438 -2.293667,-8.951761 -10.68069 -1.763789,-8.815264 -9.915905 -1.248316,-9.190499 -9.486944 -0.7813479,-9.350863 -8.909285 -2.344721,-9.123739 -7.503572 -1.738578,-8.928741 -6.809297 -1.257528,-8.72486 -6.247243 -0.9050065,-9.872088 -8.865625 -2.190377,-9.658019 -7.91674 -1.129122,-9.568895 -9.272423 -0.8454207,-9.570175 -10.39258 -0.9453764,-10.38128 -9.053137 -1.886734,-10.2252 -8.287821 -0.9320402,-10.08574 -9.536766 -0.7720557,-10.04289 -10.49567 -0.9187676,-10.90095 -9.380907 -1.55394,-10.83922 -8.560223 -0.8391277,-10.62559 -9.342064 -0.652208,-10.48871 -10.0696 -0.6967667,6.110, 2
1.235429 -13.78959 -3.48001,0.300642 -14.00487 -3.59244,-0.1900616 -13.79426 -3.724047,-0.4949293 -13.5449 -3.84321,-0.7844076 -13.30799 -3.980229,-0.1526747 -12.02183 -4.113127,-0.6935158 -11.73248 -4.437216,-0.9876294 -11.81015 -4.553253,-1.190885 -11.93294 -4.582903,0.1146917 -11.86634 -4.142343,-0.4463272 -11.74178 -4.571251,-0.4463272 -11.74178 -4.571251,-0.78613 -12.29385 -4.602295,0.3598228 -11.85163 -4.168231,-0.093647 -11.81325 -4.528184,-0.1724787 -12.21156 -4.430436,-0.1224604 -12.59918 -4.328711,0.5692616 -11.84001 -4.203307,0.1838379 -11.83191 -4.445074,0.08479357 -12.08206 -4.389026,0.1069293 -12.33878 -4.342969,-10.26251 -11.9178 -2.74467,-9.581476 -11.51065 -2.246742,-8.934193 -10.74096 -1.717103,-8.80058 -10.00328 -1.196066,-9.17163 -9.548265 -0.7228438,-9.340267 -8.942614 -2.291967,-9.117753 -7.537094 -1.714118,-8.902076 -6.874423 -1.249297,-8.679651 -6.345528 -0.9032891,-9.85778 -8.899548 -2.115687,-9.625449 -7.963322 -1.08117,-9.536539 -9.320044 -0.8112756,-9.539378 -10.41491 -0.9092392,-10.36383 -9.091413 -1.792215,-10.1849 -8.309072 -0.8848996,-10.0476 -9.557085 -0.7395817,-10.01468 -10.50846 -0.8819242,-10.88623 -9.428974 -1.439589,-10.80262 -8.615591 -0.7557832,-10.58699 -9.407074 -0.5773276,-10.45919 -10.14084 -0.6220576,6.210, 2
1.235429 -13.78959 -3.48001,0.300642 -14.00487 -3.59244,-0.1900616 -13.79426 -3.724047,-0.4949293 -13.5449 -3.84321,-0.7844076 -13.30799 -3.980229,-0.1526747 -12.02183 -4.113127,-0.6935158 -11.73248 -4.437216,-0.9876294 -11.81015 -4.553253,-1.190885 -11.93294 -4.582903,0.1146917 -11.86634 -4.142343,-0.4463272 -11.74178 -4.571251,-0.4463272 -11.74178 -4.571251,-0.78613 -12.29385 -4.602295,0.3598228 -11.85163 -4.168231,-0.093647 -11.81325 -4.528184,-0.1724787 -12.21156 -4.430436,-0.1224604 -12.59918 -4.328711,0.5692616 -11.84001 -4.203307,0.1838379 -11.83191 -4.445074,0.08479357 -12.08206 -4.389026,0.1069293 -12.33878 -4.342969,-10.24526 -11.932 -2.582215,-9.557396 -11.5073 -2.060092,-8.910764 -10.73698 -1.530845,-8.777447 -9.980829 -1.008311,-9.159117 -9.531071 -0.5331639,-9.321454 -8.916643 -2.165612,-9.086643 -7.553119 -1.573765,-8.876124 -6.886659 -1.091325,-8.657495 -6.340762 -0.7354419,-9.838134 -8.857109 -1.999698,-9.603648 -7.95434 -0.9552634,-9.521669 -9.307775 -0.6562637,-9.527759 -10.41678 -0.7447312,-10.34612 -9.045092 -1.679499,-10.16162 -8.316557 -0.7392679,-10.03139 -9.558577 -0.5667962,-10.00066 -10.52808 -0.7111583,-10.86822 -9.386894 -1.32944,-10.78506 -8.618221 -0.624404,-10.56956 -9.396908 -0.4326643,-10.43695 -10.13918 -0.4768826,6.310, 2
1.235429 -13.78959 -3.48001,0.300642 -14.00487 -3.59244,-0.1900616 -13.79426 -3.724047,-0.4949293 -13.5449 -3.84321,-0.7844076 -13.30799 -3.980229,-0.1526747 -12.02183 -4.113127,-0.6935158 -11.73248 -4.437216,-0.9876294 -11.81015 -4.553253,-1.190885 -11.93294 -4.582903,0.1146917 -11.86634 -4.142343,-0.4463272 -11.74178 -4.571251,-0.4463272 -11.74178 -4.571251,-0.78613 -12.29385 -4.602295,0.3598228 -11.85163 -4.168231,-0.093647 -11.81325 -4.528184,-0.1724787 -12.21156 -4.430436,-0.1224604 -12.59918 -4.328711,0.5692616 -11.84001 -4.203307,0.1838379 -11.83191 -4.445074,0.08479357 -12.08206 -4.389026,0.1069293 -12.33878 -4.342969,-10.22115 -11.92643 -2.594924,-9.545045 -11.52587 -2.066317,-8.888529 -10.77262 -1.537166,-8.737805 -10.02082 -1.017591,-9.116063 -9.552038 -0.5505756,-9.308189 -8.921043 -2.155923,-9.063785 -7.556079 -1.577684,-8.851502 -6.868173 -1.103978,-8.630356 -6.30795 -0.7429656,-9.827748 -8.857031 -1.993857,-9.572886 -7.974817 -0.9614335,-9.49154 -9.339588 -0.6759938,-9.502981 -10.46835 -0.7661844,-10.33766 -9.037899 -1.682605,-10.13786 -8.337233 -0.7555068,-10.00865 -9.59206 -0.5788084,-9.979377 -10.57071 -0.7126356,-10.85857 -9.373873 -1.343192,-10.75605 -8.633518 -0.6342267,-10.54053 -9.433151 -0.434085,-10.40767 -10.18026 -0.4689623,6.410, 2
1.235429 -13.78959 -3.48001,0.300642 -14.00487 -3.59244,-0.1900616 -13.79426 -3.724047,-0.4949293 -13.5449 -3.84321,-0.7844076 -13.30799 -3.980229,-0.1526747 -12.02183 -4.113127,-0.6935158 -11.73248 -4.437216,-0.9876294 -11.81015 -4.553253,-1.190885 -11.93294 -4.582903,0.1146917 -11.86634 -4.142343,-0.4463272 -11.74178 -4.571251,-0.4463272 -11.74178 -4.571251,-0.78613 -12.29385 -4.602295,0.3598228 -11.85163 -4.168231,-0.093647 -11.81325 -4.528184,-0.1724787 -12.21156 -4.430436,-0.1224604 -12.59918 -4.328711,0.5692616 -11.84001 -4.203307,0.1838379 -11.83191 -4.445074,0.08479357 -12.08206 -4.389026,0.1069293 -12.33878 -4.342969,-10.20154 -11.99445 -2.376678,-9.541792 -11.54495 -1.818084,-8.895591 -10.78157 -1.276405,-8.744857 -10.03856 -0.7392868,-9.120122 -9.573759 -0.2454369,-9.290559 -8.913891 -1.917467,-9.053133 -7.579921 -1.329484,-8.852079 -6.915823 -0.8641849,-8.63146 -6.368223 -0.5176191,-9.814394 -8.862247 -1.765446,-9.562235 -8.023176 -0.7085291,-9.486129 -9.392094 -0.4222523,-9.495328 -10.51043 -0.5405264,-10.32608 -9.063013 -1.461119,-10.13634 -8.383631 -0.523461,-10.01006 -9.634733 -0.3603196,-9.976748 -10.60012 -0.5249768,-10.84947 -9.430079 -1.127395,-10.75173 -8.716209 -0.4166266,-10.53938 -9.503195 -0.2212875,-10.40979 -10.22198 -0.2764866,6.510, 2
1.235429 -13.78959 -3.48001,0.300642 -14.00487 -3.59244,-0.1900616 -13.79426 -3.724047,-0.4949293 -13.5449 -3.84321,-0.7844076 -13.30799 -3.980229,-0.1526747 -12.02183 -4.113127,-0.6935158 -11.73248 -4.437216,-0.9876294 -11.81015 -4.553253,-1.190885 -11.93294 -4.582903,0.1146917 -11.86634 -4.142343,-0.4463272 -11.74178 -4.571251,-0.4463272 -11.74178 -4.571251,-0.78613 -12.29385 -4.602295,0.3598228 -11.85163 -4.168231,-0.093647 -11.81325 -4.528184,-0.1724787 -12.21156 -4.430436,-0.1224604 -12.59918 -4.328711,0.5692616 -11.84001 -4.203307,0.1838379 -11.83191 -4.445074,0.08479357 -12.08206 -4.389026,0.1069293 -12.33878 -4.342969,-10.21185 -12.00576 -2.415785,-9.543583 -11.54538 -1.845678,-8.905877 -10.78538 -1.280314,-8.756117 -10.06594 -0.7237021,-9.125674 -9.592871 -0.2196547,-9.303368 -8.935322 -1.909025,-9.064235 -7.584898 -1.306671,-8.850595 -6.915718 -0.8367258,-8.619515 -6.365035 -0.4819292,-9.826717 -8.896185 -1.749006,-9.57803 -8.017715 -0.663334,-9.499361 -9.396685 -0.381024,-9.504725 -10.52533 -0.4982607,-10.33604 -9.10486 -1.436844,-10.15215 -8.374495 -0.4722661,-10.02106 -9.626312 -0.3150541,-9.988927 -10.59195 -0.4890352,-10.85528 -9.473053 -1.097178,-10.77607 -8.69776 -0.366942,-10.56137 -9.48102 -0.1782209,-10.43042 -10.20302 -0.2336348,6.610, 2
1.235429 -13.78959 -3.48001,0.300642 -14.00487 -3.59244,-0.1900616 -13.79426 -3.724047,-0.4949293 -13.5449 -3.84321,-0.7844076 -13.30799 -3.980229,-0.1526747 -12.02183 -4.113127,-0.6935158 -11.73248 -4.437216,-0.9876294 -11.81015 -4.553253,-1.190885 -11.93294 -4.582903,0.1146917 -11.86634 -4.142343,-0.4463272 -11.74178 -4.571251,-0.4463272 -11.74178 -4.571251,-0.78613 -12.29385 -4.602295,0.3598228 -11.85163 -4.168231,-0.093647 -11.81325 -4.528184,-0.1724787 -12.21156 -4.430436,-0.1224604 -12.59918 -4.328711,0.5692616 -11.84001 -4.203307,0.1838379 -11.83191 -4.445074,0.08479357 -12.08206 -4.389026,0.1069293 -12.33878 -4.342969,-10.20995 -11.99935 -2.54213,-9.53575 -11.57265 -1.974882,-8.893295 -10.82073 -1.405255,-8.745984 -10.08111 -0.8511428,-9.11752 -9.60738 -0.352066,-9.30142 -8.961622 -2.054434,-9.068727 -7.58675 -1.441876,-8.849723 -6.915172 -0.957075,-8.622185 -6.358255 -0.6022711,-9.822514 -8.922697 -1.896693,-9.588157 -8.002205 -0.8056974,-9.511232 -9.391922 -0.5144532,-9.523872 -10.50521 -0.6230198,-10.33257 -9.11824 -1.588218,-10.16242 -8.366693 -0.6251391,-10.03193 -9.631308 -0.4667296,-10.00628 -10.58608 -0.635204,-10.8552 -9.465088 -1.247843,-10.78415 -8.676403 -0.5226879,-10.5728 -9.47324 -0.3337674,-10.45091 -10.20553 -0.3879392,6.710, 2
1.235429 -13.78959 -3.48001,0.300642 -14.00487 -3.59244,-0.1900616 -13.79426 -3.724047,-0.4949293 -13.5449 -3.84321,-0.7844076 -13.30799 -3.980229,-0.1526747 -12.02183 -4.113127,-0.6935158 -11.73248 -4.437216,-0.9876294 -11.81015 -4.553253,-1.190885 -11.93294 -4.582903,0.1146917 -11.86634 -4.142343,-0.4463272 -11.74178 -4.571251,-0.4463272 -11.74178 -4.571251,-0.78613 -12.29385 -4.602295,0.3598228 -11.85163 -4.168231,-0.093647 -11.81325 -4.528184,-0.1724787 -12.21156 -4.430436,-0.1224604 -12.59918 -4.328711,0.5692616 -11.84001 -4.203307,0.1838379 -11.83191 -4.445074,0.08479357 -12.08206 -4.389026,0.1069293 -12.33878 -4.342969,-10.19131 -12.05823 -2.340382,-9.523235 -11.59567 -1.785386,-8.878983 -10.81932 -1.254122,-8.730498 -10.06127 -0.7301335,-9.100462 -9.583403 -0.2457964,-9.286327 -8.970078 -1.900244,-9.039536 -7.627794 -1.327199,-8.825726 -6.949274 -0.8566151,-8.596511 -6.395547 -0.4964917,-9.80582 -8.910898 -1.751704,-9.547006 -8.026258 -0.7170079,-9.476781 -9.404993 -0.4430562,-9.496484 -10.55091 -0.5538852,-10.3173 -9.093149 -1.450575,-10.11826 -8.377504 -0.5135401,-9.995927 -9.646988 -0.3458203,-9.97101 -10.63407 -0.5044088,-10.84312 -9.435207 -1.119081,-10.73186 -8.703638 -0.4040242,-10.52557 -9.512138 -0.2035625,-10.40516 -10.25168 -0.2434349,6.810, 2
1.235429 -13.78959 -3.48001,0.300642 -14.00487 -3.59244,-0.1900616 -13.79426 -3.724047,-0.4949293 -13.5449 -3.84321,-0.7844076 -13.30799 -3.980229,-0.1526747 -12.02183 -4.113127,-0.6935158 -11.73248 -4.437216,-0.9876294 -11.81015 -4.553253,-1.190885 -11.93294 -4.582903,0.1146917 -11.86634 -4.142343,-0.4463272 -11.74178 -4.571251,-0.4463272 -11.74178 -4.571251,-0.78613 -12.29385 -4.602295,0.3598228 -11.85163 -4.168231,-0.093647 -11.81325 -4.528184,-0.1724787 -12.21156 -4.430436,-0.1224604 -12.59918 -4.328711,0.5692616 -11.84001 -4.203307,0.1838379 -11.83191 -4.445074,0.08479357 -12.08206 -4.389026,0.1069293 -12.33878 -4.342969,-10.17926 -12.02695 -2.289814,-9.515325 -11.60374 -1.733114,-8.86279 -10.85011 -1.187734,-8.71232 -10.12086 -0.6496724,-9.097841 -9.627489 -0.1612905,-9.278751 -8.940149 -1.812159,-9.030055 -7.594619 -1.203018,-8.810385 -6.924182 -0.7139938,-8.575121 -6.38791 -0.3453866,-9.801746 -8.873865 -1.649556,-9.537312 -8.009928 -0.5990725,-9.449402 -9.401724 -0.3103086,-9.463666 -10.54712 -0.3980489,-10.3155 -9.075281 -1.333103,-10.1184 -8.400404 -0.3652532,-9.990254 -9.693495 -0.1946086,-9.969025 -10.68869 -0.3502809,-10.83914 -9.449665 -0.9896359,-10.73419 -8.753187 -0.2376963,-10.51689 -9.574877 -0.04528129,-10.39161 -10.31802 -0.1022066,6.910, 2
1.235429 -13.78959 -3.48001,0.300642 -14.00487 -3.59244,-0.1900616 -13.79426 -3.724047,-0.4949293 -13.5449 -3.84321,-0.7844076 -13.30799 -3.980229,-0.1526747 -12.02183 -4.113127,-0.6935158 -11.73248 -4.437216,-0.9876294 -11.81015 -4.553253,-1.190885 -11.93294 -4.582903,0.1146917 -11.86634 -4.142343,-0.4463272 -11.74178 -4.571251,-0.4463272 -11.74178 -4.571251,-0.78613 -12.29385 -4.602295,0.3598228 -11.85163 -4.168231,-0.093647 -11.81325 -4.528184,-0.1724787 -12.21156 -4.430436,-0.1224604 -12.59918 -4.328711,0.5692616 -11.84001 -4.203307,0.1838379 -11.83191 -4.445074,0.08479357 -12.08206 -4.389026,0.1069293 -12.33878 -4.342969,-10.19042 -12.11101 -2.257812,-9.528038 -11.67882 -1.696954,-8.8725 -10.90113 -1.154264,-8.703696 -10.16043 -0.619405,-9.07378 -9.673634 -0.1326641,-9.271445 -9.003284 -1.775251,-9.031434 -7.675651 -1.167016,-8.814811 -7.015417 -0.6813498,-8.57539 -6.480917 -0.3185786,-9.799462 -8.950686 -1.61507,-9.547647 -8.101238 -0.5596275,-9.466732 -9.473824 -0.2798843,-9.474685 -10.58354 -0.3895072,-10.31072 -9.158176 -1.302594,-10.12221 -8.47226 -0.3380535,-9.990255 -9.741018 -0.1829652,-9.959717 -10.69561 -0.3570712,-10.8342 -9.53039 -0.9632698,-10.73729 -8.815878 -0.2266971,-10.52332 -9.6264 -0.03291929,-10.39932 -10.34251 -0.08056962,7.010, 2
1.235429 -13.78959 -3.48001,0.300642 -14.00487 -3.59244,-0.1900616 -13.79426 -3.724047,-0.4949293 -13.5449 -3.84321,-0.7844076 -13.30799 -3.980229,-0.1526747 -12.02183 -4.113127,-0.6935158 -11.73248 -4.437216,-0.9876294 -11.81015 -4.553253,-1.190885 -11.93294 -4.582903,0.1146917 -11.86634 -4.142343,-0.4463272 -11.74178 -4.571251,-0.4463272 -11.74178 -4.571251,-0.78613 -12.29385 -4.602295,0.3598228 -11.85163 -4.168231,-0.093647 -11.81325 -4.528184,-0.1724787 -12.21156 -4.430436,-0.1224604 -12.59918 -4.328711,0.5692616 -11.84001 -4.203307,0.1838379 -11.83191 -4.445074,0.08479357 -12.08206 -4.389026,0.1069293 -12.33878 -4.342969,-10.20868 -12.14489 -2.18373,-9.530647 -11.6996 -1.607021,-8.891239 -10.91153 -1.063663,-8.742951 -10.14964 -0.5299559,-9.121761 -9.6651 -0.04123175,-9.278537 -9.02706 -1.720956,-9.04043 -7.732849 -1.127098,-8.832844 -7.061967 -0.6459676,-8.604733 -6.517595 -0.2864857,-9.804219 -8.958826 -1.5698,-9.5664 -8.122942 -0.5384024,-9.495373 -9.474642 -0.2460941,-9.507946 -10.59771 -0.3382788,-10.31656 -9.158634 -1.266901,-10.14208 -8.478764 -0.3158087,-10.01634 -9.730036 -0.1382688,-9.983068 -10.69709 -0.2972829,-10.84437 -9.531256 -0.9323246,-10.76013 -8.80891 -0.2076443,-10.54906 -9.603148 -0.007922292,-10.41667 -10.32356 -0.04458654,7.110, 2
1.235429 -13.78959 -3.48001,0.300642 -14.00487 -3.59244,-0.1900616 -13.79426 -3.724047,-0.4949293 -13.5449 -3.84321,-0.7844076 -13.30799 -3.980229,-0.1526747 -12.02183 -4.113127,-0.6935158 -11.73248 -4.437216,-0.9876294 -11.81015 -4.553253,-1.190885 -11.93294 -4.582903,0.1146917 -11.86634 -4.142343,-0.4463272 -11.74178 -4.571251,-0.4463272 -11.74178 -4.571251,-0.78613 -12.29385 -4.602295,0.3598228 -11.85163 -4.168231,-0.093647 -11.81325 -4.528184,-0.1724787 -12.21156 -4.430436,-0.1224604 -12.59918 -4.328711,0.5692616 -11.84001 -4.203307,0.1838379 -11.83191 -4.445074,0.08479357 -12.08206 -4.389026,0.1069293 -12.33878 -4.342969,-10.20723 -12.12656 -2.293789,-9.528599 -11.67036 -1.713143,-8.887844 -10.91558 -1.149686,-8.73596 -10.17686 -0.5925286,-9.107574 -9.694227 -0.08202064,-9.279592 -9.035784 -1.814166,-9.038849 -7.718017 -1.187793,-8.826118 -7.040673 -0.6914799,-8.600843 -6.494569 -0.3291662,-9.808039 -8.975483 -1.662876,-9.568076 -8.123779 -0.5857997,-9.488994 -9.493263 -0.2807919,-9.500595 -10.63811 -0.3703202,-10.32471 -9.174803 -1.355876,-10.14104 -8.501854 -0.3755677,-10.01142 -9.759373 -0.1851777,-9.979993 -10.74383 -0.34281,-10.85113 -9.540079 -1.019429,-10.75829 -8.812052 -0.2756101,-10.5435 -9.609003 -0.07244766,-10.4087 -10.34692 -0.1169249,7.210, 2
1.235429 -13.78959 -3.48001,0.300642 -14.00487 -3.59244,-0.1900616 -13.79426 -3.724047,-0.4949293 -13.5449 -3.84321,-0.7844076 -13.30799 -3.980229,-0.1526747 -12.02183 -4.113127,-0.6935158 -11.73248 -4.437216,-0.9876294 -11.81015 -4.553253,-1.190885 -11.93294 -4.582903,0.1146917 -11.86634 -4.142343,-0.4463272 -11.74178 -4.571251,-0.4463272 -11.74178 -4.571251,-0.78613 -12.29385 -4.602295,0.3598228 -11.85163 -4.168231,-0.093647 -11.81325 -4.528184,-0.1724787 -12.21156 -4.430436,-0.1224604 -12.59918 -4.328711,0.5692616 -11.84001 -4.203307,0.1838379 -11.83191 -4.445074,0.08479357 -12.08206 -4.389026,0.1069293 -12.33878 -4.342969,-10.19644 -12.16588 -2.364851,-9.52883 -11.72646 -1.824626,-8.88363 -10.95116 -1.275863,-8.738907 -10.20915 -0.7316751,-9.125986 -9.759199 -0.2432442,-9.298647 -9.082647 -1.908028,-9.051459 -7.734291 -1.288167,-8.828976 -7.076627 -0.7959427,-8.593645 -6.540686 -0.4302043,-9.823961 -9.031212 -1.739715,-9.573497 -8.160374 -0.6666842,-9.490085 -9.541965 -0.3739697,-9.4981 -10.66802 -0.4832709,-10.33591 -9.238956 -1.414624,-10.14554 -8.526133 -0.4466912,-10.0126 -9.792004 -0.2808225,-9.985388 -10.77155 -0.4528173,-10.85859 -9.611729 -1.06393,-10.77 -8.86937 -0.3259633,-10.55675 -9.675591 -0.1390922,-10.43264 -10.42204 -0.1994367,7.310, 2
1.235429 -13.78959 -3.48001,0.300642 -14.00487 -3.59244,-0.1900616 -13.79426 -3.724047,-0.4949293 -13.5449 -3.84321,-0.7844076 -13.30799 -3.980229,-0.1526747 -12.02183 -4.113127,-0.6935158 -11.73248 -4.437216,-0.9876294 -11.81015 -4.553253,-1.190885 -11.93294 -4.582903,0.1146917 -11.86634 -4.142343,-0.4463272 -11.74178 -4.571251,-0.4463272 -11.74178 -4.571251,-0.78613 -12.29385 -4.602295,0.3598228 -11.85163 -4.168231,-0.093647 -11.81325 -4.528184,-0.1724787 -12.21156 -4.430436,-0.1224604 -12.59918 -4.328711,0.5692616 -11.84001 -4.203307,0.1838379 -11.83191 -4.445074,0.08479357 -12.08206 -4.389026,0.1069293 -12.33878 -4.342969,-10.19351 -12.18573 -2.121306,-9.537844 -11.74798 -1.540441,-8.892389 -10.97528 -0.9796662,-8.738776 -10.25114 -0.4336967,-9.118895 -9.788511 0.06436121,-9.292814 -9.060474 -1.582852,-9.044623 -7.736808 -0.9629861,-8.835255 -7.067604 -0.4818252,-8.598783 -6.523059 -0.1165563,-9.822378 -8.991621 -1.436862,-9.566274 -8.171347 -0.3525184,-9.490806 -9.555742 -0.0780946,-9.498887 -10.69488 -0.208376,-10.33806 -9.199762 -1.129601,-10.15105 -8.539249 -0.144774,-10.02615 -9.809814 0.01312578,-9.992748 -10.78751 -0.1677191,-10.86288 -9.583281 -0.8008934,-10.77946 -8.900961 -0.0406276,-10.56375 -9.70084 0.1610044,-10.42632 -10.42164 0.107205,7.410, 2
1.235429 -13.78959 -3.48001,0.300642 -14.00487 -3.59244,-0.1900616 -13.79426 -3.724047,-0.4949293 -13.5449 -3.84321,-0.7844076 -13.30799 -3.980229,-0.1526747 -12.02183 -4.113127,-0.6935158 -11.73248 -4.437216,-0.9876294 -11.81015 -4.553253,-1.190885 -11.93294 -4.582903,0.1146917 -11.86634 -4.142343,-0.4463272 -11.74178 -4.571251,-0.4463272 -11.74178 -4.571251,-0.78613 -12.29385 -4.602295,0.3598228 -11.85163 -4.168231,-0.093647 -11.81325 -4.528184,-0.1724787 -12.21156 -4.430436,-0.1224604 -12.59918 -4.328711,0.5692616 -11.84001 -4.203307,0.1838379 -11.83191 -4.445074,0.08479357 -12.08206 -4.389026,0.1069293 -12.33878 -4.342969,-10.17898 -12.19789 -1.877239,-9.525954 -11.79781 -1.314327,-8.866196 -11.03465 -0.7626048,-8.704268 -10.31231 -0.2254376,-9.088522 -9.83614 0.2753638,-9.275577 -9.026472 -1.345021,-9.024457 -7.746368 -0.7240934,-8.820864 -7.101094 -0.2376658,-8.582931 -6.568394 0.1258389,-9.814563 -8.93025 -1.197887,-9.541324 -8.207701 -0.183408,-9.463984 -9.596991 0.07555914,-9.473241 -10.71238 -0.05191731,-10.33545 -9.139147 -0.8952097,-10.12872 -8.601791 0.04125321,-10.0084 -9.897736 0.1881417,-9.97548 -10.87043 0.02412736,-10.86468 -9.527214 -0.5684198,-10.7508 -8.945606 0.1723503,-10.53312 -9.790117 0.3674954,-10.39839 -10.52192 0.3083028,7.510, 2
1.235429 -13.78959 -3.48001,0.300642 -14.00487 -3.59244,-0.1900616 -13.79426 -3.724047,-0.4949293 -13.5449 -3.84321,-0.7844076 -13.30799 -3.980229,-0.1526747 -12.02183 -4.113127,-0.6935158 -11.73248 -4.437216,-0.9876294 -11.81015 -4.553253,-1.190885 -11.93294 -4.582903,0.1146917 -11.86634 -4.142343,-0.4463272 -11.74178 -4.571251,-0.4463272 -11.74178 -4.571251,-0.78613 -12.29385 -4.602295,0.3598228 -11.85163 -4.168231,-0.093647 -11.81325 -4.528184,-0.1724787 -12.21156 -4.430436,-0.1224604 -12.59918 -4.328711,0.5692616 -11.84001 -4.203307,0.1838379 -11.83191 -4.445074,0.08479357 -12.08206 -4.389026,0.1069293 -12.33878 -4.342969,-10.16614 -12.24104 -1.90647,-9.508608 -11.8281 -1.310168,-8.850203 -11.05789 -0.7551464,-8.695585 -10.31781 -0.2267085,-9.09612 -9.852577 0.2532886,-9.259982 -9.086996 -1.325052,-8.999033 -7.792359 -0.6804454,-8.792052 -7.147151 -0.1884799,-8.555866 -6.615309 0.1829153,-9.794712 -8.990902 -1.189059,-9.519509 -8.234531 -0.1236883,-9.445158 -9.633926 0.1457134,-9.460718 -10.77114 0.01484001,-10.31811 -9.196228 -0.8911692,-10.11602 -8.615202 0.07718527,-9.996801 -9.910089 0.2297703,-9.969316 -10.88709 0.0528661,-10.85238 -9.590971 -0.5688654,-10.74741 -8.995947 0.197714,-10.52996 -9.832644 0.4048799,-10.39586 -10.55385 0.3492376,7.610, 2
1.235429 -13.78959 -3.48001,0.300642 -14.00487 -3.59244,-0.1900616 -13.79426 -3.724047,-0.4949293 -13.5449 -3.84321,-0.7844076 -13.30799 -3.980229,-0.1526747 -12.02183 -4.113127,-0.6935158 -11.73248 -4.437216,-0.9876294 -11.81015 -4.553253,-1.190885 -11.93294 -4.582903,0.1146917 -11.86634 -4.142343,-0.4463272 -11.74178 -4.571251,-0.4463272 -11.74178 -4.571251,-0.78613 -12.29385 -4.602295,0.3598228 -11.85163 -4.168231,-0.093647 -11.81325 -4.528184,-0.1724787 -12.21156 -4.430436,-0.1224604 -12.59918 -4.328711,0.5692616 -11.84001 -4.203307,0.1838379 -11.83191 -4.445074,0.08479357 -12.08206 -4.389026,0.1069293 -12.33878 -4.342969,-10.16518 -12.24966 -1.813887,-9.508183 -11.85581 -1.255181,-8.846267 -11.08683 -0.7170413,-8.682853 -10.3536 -0.1949871,-9.072168 -9.873825 0.2919458,-9.253123 -9.078558 -1.288493,-8.991646 -7.806589 -0.6674234,-8.783537 -7.155498 -0.1630257,-8.541143 -6.623257 0.2228569,-9.78834 -8.963902 -1.139057,-9.51638 -8.233644 -0.122449,-9.436919 -9.622425 0.1553394,-9.444351 -10.75329 0.054178,-10.31092 -9.16363 -0.8302491,-10.1043 -8.626513 0.1082731,-9.983685 -9.926027 0.2645179,-9.948883 -10.90492 0.1111156,-10.84134 -9.560913 -0.4998633,-10.72387 -9.017372 0.2458044,-10.50816 -9.87216 0.4384452,-10.37312 -10.59526 0.3827139,7.710, 2
