TiagoOliveira98/Thesis-Project/Difficulty_1/Motor_Task/Unity_Project/DataLogging/JointData/Logs(1647358492)_ggggg_Motor.csv
WRIST,THUMB_CMC,THUMB_MCP,THUMB_IP,THUMB_TIP,INDEX_FINGER_MCP,INDEX_FINGER_PIP,INDEX_FINGER_DIP,INDEX_FINGER_TIP,MIDDLE_FINGER_MCP,MIDDLE_FINGER_PIP,MIDDLE_FINGER_DIP,MIDDLE_FINGER_TIP,RING_FINGER_MCP,RING_FINGER_PIP,RING_FINGER_DIP,RING_FINGER_TIP,PINKY_MCP,PINKY_PIP,PINKY_DIP,PINKY_TIP,WRIST2,THUMB_CMC2,THUMB_MCP2,THUMB_IP2,THUMB_TIP2,INDEX_FINGER_MCP2,INDEX_FINGER_PIP2,INDEX_FINGER_DIP2,INDEX_FINGER_TIP2,MIDDLE_FINGER_MCP2,MIDDLE_FINGER_PIP2,MIDDLE_FINGER_DIP2,MIDDLE_FINGER_TIP2,RING_FINGER_MCP2,RING_FINGER_PIP2,RING_FINGER_DIP2,RING_FINGER_TIP2,PINKY_MCP2,PINKY_PIP2,PINKY_DIP2,PINKY_TIP2,Timestamp,Event
-2.659598 -7.877676 0.0003849319,-3.21315 -7.635673 0.2261962,-3.718494 -7.062602 0.3498235,-4.121916 -6.515515 0.4832991,-4.483601 -6.31547 0.6395136,-3.42563 -5.437382 0.09196506,-3.62097 -4.499435 0.226728,-3.703245 -3.906181 0.3525042,-3.758441 -3.33226 0.4926836,-3.124799 -5.221967 0.159383,-3.265293 -4.097135 0.3270168,-3.265293 -4.097135 0.3270168,-3.368481 -2.764196 0.664501,-2.813934 -5.229196 0.2748228,-2.892138 -4.144228 0.4397931,-2.956463 -3.485507 0.5946289,-3.013672 -2.884606 0.7290277,-2.481363 -5.448226 0.4318317,-2.418317 -4.623406 0.6033838,-2.386887 -4.098773 0.7381819,-2.361216 -3.571752 0.8525723,-8.509323 -7.894191 0.0006691883,-7.949864 -7.619993 0.1905669,-7.448962 -6.984874 0.3473885,-7.064587 -6.428096 0.5539131,-6.700417 -6.23277 0.7756984,-7.749487 -5.35244 0.0178869,-7.578193 -4.394676 0.1019046,-7.505106 -3.779129 0.2326112,-7.451264 -3.234752 0.3379678,-8.061195 -5.141073 0.07843475,-7.904612 -3.983774 0.1442546,-7.813521 -3.246617 0.3147779,-7.747436 -2.605216 0.4529529,-8.372839 -5.162525 0.1691256,-8.261812 -4.09965 0.2341091,-8.18 -3.435664 0.3331512,-8.10716 -2.872144 0.4042312,-8.696393 -5.38628 0.2945715,-8.703392 -4.589042 0.4004063,-8.68347 -4.089798 0.4835758,-8.661816 -3.631277 0.5341947,0.010,31  0
-2.670774 -7.870608 0.0007423306,-3.222586 -7.61717 0.2075402,-3.72164 -7.032524 0.3147833,-4.123274 -6.482368 0.4369228,-4.480247 -6.295326 0.5864333,-3.422622 -5.420739 0.05714852,-3.622391 -4.487596 0.1912187,-3.704507 -3.892326 0.3153105,-3.756729 -3.317053 0.4506036,-3.120911 -5.210817 0.1347815,-3.263079 -4.086568 0.2979344,-3.263079 -4.086568 0.2979344,-3.356506 -2.75791 0.6144705,-2.808331 -5.227138 0.2629047,-2.886185 -4.138784 0.4269507,-2.948628 -3.47849 0.5728918,-2.999073 -2.878547 0.6988316,-2.470836 -5.455579 0.4330818,-2.405849 -4.62033 0.5976688,-2.370262 -4.089547 0.7268747,-2.335804 -3.555818 0.8401296,-8.512349 -7.894788 0.02671493,-7.954435 -7.624315 0.2064461,-7.453248 -6.981922 0.3551097,-7.071566 -6.41901 0.5541599,-6.704244 -6.238029 0.7751401,-7.746557 -5.347126 0.02498111,-7.575812 -4.397347 0.1004905,-7.506844 -3.778665 0.2270433,-7.458253 -3.234067 0.3304162,-8.060427 -5.134294 0.08636642,-7.895329 -3.987297 0.1456337,-7.806965 -3.251989 0.3062935,-7.746473 -2.614786 0.434794,-8.373459 -5.149665 0.1775598,-8.259587 -4.099864 0.2366685,-8.183588 -3.444299 0.3234531,-8.114911 -2.887943 0.3846115,-8.698127 -5.368986 0.3033636,-8.701303 -4.578411 0.4044282,-8.682791 -4.088171 0.4844654,-8.658965 -3.638321 0.5320603,0.110,31  0
-2.662538 -7.883424 -0.05060689,-3.222114 -7.623178 0.1327801,-3.720633 -7.048277 0.2246985,-4.111759 -6.493621 0.3342088,-4.456951 -6.27054 0.4687911,-3.408773 -5.440084 -0.02837211,-3.618025 -4.496902 0.09844674,-3.705023 -3.899499 0.212837,-3.757351 -3.323251 0.3444048,-3.1105 -5.237194 0.06272709,-3.248837 -4.094139 0.2341065,-3.248837 -4.094139 0.2341065,-3.339223 -2.750849 0.5575504,-2.802688 -5.250532 0.2058903,-2.879422 -4.141102 0.3714948,-2.94472 -3.470158 0.5208777,-2.995142 -2.865994 0.6529539,-2.471754 -5.473976 0.3854751,-2.401736 -4.615727 0.5569517,-2.368175 -4.069641 0.6971793,-2.337467 -3.529499 0.8168828,-8.51005 -7.880619 -0.009436238,-7.943141 -7.590726 0.1288063,-7.446799 -6.987532 0.2650324,-7.062305 -6.448463 0.4560778,-6.696444 -6.27875 0.6718971,-7.741003 -5.334726 -0.06877027,-7.573667 -4.377401 -0.01748631,-7.503304 -3.757322 0.1008392,-7.44885 -3.213001 0.2051075,-8.055154 -5.130455 0.00193835,-7.892881 -3.980159 0.03651594,-7.805592 -3.246376 0.192009,-7.74234 -2.610872 0.3233224,-8.371095 -5.151563 0.1002303,-8.252264 -4.095626 0.1273736,-8.176346 -3.441684 0.2090351,-8.105133 -2.888071 0.2735533,-8.698955 -5.370462 0.230345,-8.694162 -4.573144 0.3005224,-8.667983 -4.081159 0.3750476,-8.633305 -3.63228 0.424196,0.210,31  0
-2.791362 -7.654615 -0.8652428,-3.360415 -7.546113 -0.7258255,-3.833576 -6.997922 -0.6701807,-4.183786 -6.521669 -0.6233808,-4.496225 -6.267665 -0.5428099,-3.505634 -5.431608 -0.7593636,-3.640675 -4.522815 -0.6894389,-3.719485 -3.843627 -0.5846673,-3.779402 -3.220239 -0.4029622,-3.223272 -5.244312 -0.7102031,-3.348672 -4.227615 -0.5805587,-3.348672 -4.227615 -0.5805587,-3.403621 -2.831825 -0.2779666,-2.943139 -5.238693 -0.6388536,-3.056564 -4.233101 -0.5366315,-3.109099 -3.530827 -0.429657,-3.152494 -2.933887 -0.3177579,-2.672365 -5.384218 -0.5670429,-2.762197 -4.527894 -0.4117304,-2.817621 -3.929274 -0.3479973,-2.855865 -3.351884 -0.2940898,-8.514607 -7.89318 0.007625563,-7.955912 -7.618335 0.2117148,-7.455445 -7.006559 0.3765542,-7.073534 -6.451198 0.5885901,-6.709554 -6.235603 0.8194002,-7.745123 -5.34522 0.02828164,-7.580569 -4.380821 0.1099077,-7.513572 -3.767883 0.2462744,-7.459079 -3.226287 0.3607949,-8.056625 -5.139875 0.09294532,-7.903931 -3.990396 0.1544486,-7.813604 -3.261263 0.3295075,-7.744227 -2.628698 0.4777128,-8.371166 -5.169277 0.1938964,-8.27023 -4.112531 0.258676,-8.188031 -3.472547 0.3686439,-8.107696 -2.932862 0.4551924,-8.698829 -5.398272 0.3302646,-8.71292 -4.607986 0.4368697,-8.68993 -4.11832 0.5284884,-8.655348 -3.673318 0.5859329,0.310,31  0
-2.763668 -7.627807 -0.8500731,-3.303277 -7.499612 -0.6447335,-3.74826 -6.970376 -0.5550768,-4.09284 -6.470399 -0.4682283,-4.437988 -6.261652 -0.3462734,-3.395882 -5.42523 -0.6810541,-3.582707 -4.460695 -0.5874665,-3.690993 -3.861619 -0.4888004,-3.772623 -3.302721 -0.3818549,-3.099764 -5.203693 -0.6209434,-3.232764 -4.08776 -0.4770983,-3.232764 -4.08776 -0.4770983,-3.337431 -2.734997 -0.1966462,-2.796975 -5.218674 -0.5407873,-2.87363 -4.155345 -0.4020945,-2.943106 -3.472847 -0.2596826,-3.002483 -2.877693 -0.1283773,-2.490943 -5.448099 -0.4223419,-2.41461 -4.59655 -0.2453756,-2.381685 -4.044509 -0.09605318,-2.359412 -3.520464 0.01368469,-8.509692 -7.878248 0.004019306,-7.948805 -7.600231 0.1945858,-7.452755 -6.986095 0.3597074,-7.071383 -6.44333 0.5747458,-6.704711 -6.25404 0.8128331,-7.740147 -5.327991 0.01144525,-7.579279 -4.368919 0.09072635,-7.514797 -3.754618 0.2251729,-7.46281 -3.211114 0.3402703,-8.055635 -5.124989 0.07721949,-7.901415 -3.973516 0.1364952,-7.814522 -3.243234 0.3056086,-7.747892 -2.6088 0.4512693,-8.373197 -5.150172 0.175656,-8.266195 -4.090477 0.2353564,-8.189189 -3.448246 0.3364073,-8.114751 -2.903968 0.4172097,-8.702866 -5.374637 0.310103,-8.699821 -4.579595 0.4086508,-8.671047 -4.081956 0.4939854,-8.63253 -3.626045 0.5544211,0.410,31  0
-2.761241 -7.626204 -0.7801958,-3.296911 -7.518121 -0.5593989,-3.753185 -6.964179 -0.4824135,-4.100164 -6.458368 -0.4188337,-4.446341 -6.253803 -0.3298385,-3.438275 -5.426649 -0.5509859,-3.6182 -4.482234 -0.428503,-3.706486 -3.878246 -0.3099459,-3.768956 -3.30763 -0.1793243,-3.136423 -5.193494 -0.4945978,-3.267619 -4.108394 -0.3063482,-3.267619 -4.108394 -0.3063482,-3.356071 -2.746622 0.005947769,-2.822791 -5.205438 -0.4239247,-2.905041 -4.163265 -0.2409039,-2.970224 -3.489265 -0.07469779,-3.021878 -2.887792 0.06726658,-2.502048 -5.444875 -0.3224995,-2.436551 -4.602565 -0.09371299,-2.408273 -4.060853 0.07973796,-2.385324 -3.536941 0.19283,-8.527691 -7.906117 -0.003277928,-7.967531 -7.625823 0.1730113,-7.462969 -7.012975 0.3283749,-7.07743 -6.468454 0.5393128,-6.712692 -6.260201 0.7682614,-7.756973 -5.362754 -0.006157498,-7.589761 -4.394948 0.07160852,-7.521227 -3.776795 0.2015676,-7.466215 -3.229186 0.3178457,-8.068697 -5.155735 0.06791247,-7.912058 -3.993365 0.1286741,-7.823078 -3.259122 0.3029747,-7.756938 -2.616178 0.4529676,-8.382933 -5.179929 0.1744165,-8.272052 -4.11082 0.2326117,-8.189898 -3.458768 0.3408595,-8.111117 -2.902578 0.4299384,-8.709936 -5.399736 0.3138825,-8.704382 -4.599285 0.4140167,-8.671535 -4.102977 0.5078682,-8.630116 -3.646225 0.5735457,0.510,31  0
-2.717595 -7.724723 -0.7803324,-3.302487 -7.624101 -0.6341954,-3.800697 -7.049963 -0.5749357,-4.154501 -6.569441 -0.5156918,-4.468355 -6.32023 -0.4260003,-3.461115 -5.476844 -0.6505018,-3.601217 -4.556113 -0.5802088,-3.683031 -3.864807 -0.4611472,-3.747198 -3.238373 -0.2734684,-3.183308 -5.300058 -0.5719931,-3.310201 -4.242567 -0.4264963,-3.310201 -4.242567 -0.4264963,-3.374039 -2.83672 -0.09753227,-2.899964 -5.304613 -0.4737597,-3.016699 -4.272525 -0.3396245,-3.071726 -3.553697 -0.2169017,-3.110842 -2.928813 -0.09334677,-2.631282 -5.474441 -0.3751571,-2.720327 -4.642299 -0.1992885,-2.77627 -4.046813 -0.1249728,-2.800076 -3.454209 -0.07472974,-8.517833 -7.927978 0.03821976,-7.959163 -7.636726 0.2070661,-7.462998 -7.009893 0.3552479,-7.082992 -6.461311 0.5609433,-6.726034 -6.263301 0.784085,-7.772693 -5.358405 0.0201019,-7.60852 -4.394445 0.091287,-7.539253 -3.780429 0.2201148,-7.481989 -3.236039 0.3323414,-8.082963 -5.161408 0.09867679,-7.92536 -4.005136 0.1554114,-7.83166 -3.269285 0.3305501,-7.762259 -2.627161 0.4790496,-8.394354 -5.195413 0.2099497,-8.287354 -4.12804 0.2668999,-8.204108 -3.469104 0.3728034,-8.126061 -2.906366 0.4572451,-8.716952 -5.432407 0.3540887,-8.72595 -4.628089 0.4564822,-8.703068 -4.123472 0.549832,-8.672145 -3.656396 0.6120635,0.610,31  0
-2.693916 -7.713905 -0.5617326,-3.227491 -7.577566 -0.3326878,-3.681756 -7.02737 -0.2369518,-4.020311 -6.506466 -0.1386711,-4.370294 -6.276403 -0.006692529,-3.36659 -5.454608 -0.3799562,-3.561792 -4.492555 -0.2651125,-3.656733 -3.88026 -0.1580323,-3.721581 -3.304855 -0.04030252,-3.067327 -5.21277 -0.3201824,-3.200435 -4.113281 -0.1560058,-3.200435 -4.113281 -0.1560058,-3.281549 -2.741478 0.1190621,-2.760985 -5.226968 -0.2351954,-2.837875 -4.166267 -0.08420476,-2.897388 -3.492446 0.07092041,-2.94327 -2.888674 0.2008736,-2.445225 -5.472727 -0.1091725,-2.375928 -4.61914 0.08910835,-2.345592 -4.067968 0.2548728,-2.319493 -3.548768 0.3596151,-8.5397 -7.930264 0.04059869,-7.982995 -7.652189 0.250128,-7.484336 -7.018274 0.4223318,-7.100555 -6.462297 0.6469355,-6.745197 -6.243026 0.8784084,-7.79343 -5.366164 0.06069069,-7.628982 -4.40441 0.151798,-7.563339 -3.784894 0.2883197,-7.512626 -3.236606 0.402592,-8.102887 -5.163951 0.1255088,-7.951407 -4.008636 0.2038665,-7.859211 -3.26934 0.3838859,-7.790635 -2.622484 0.5365209,-8.414661 -5.192373 0.2281325,-8.314066 -4.126658 0.3004805,-8.23015 -3.464526 0.412506,-8.149212 -2.894893 0.4944174,-8.738404 -5.424221 0.365163,-8.752814 -4.622575 0.4830988,-8.734818 -4.122887 0.5756959,-8.707777 -3.661199 0.632134,0.710,31  0
-2.80111 -7.792877 -0.5200739,-3.325857 -7.657205 -0.4434028,-3.758914 -7.031612 -0.4284408,-4.105463 -6.52079 -0.4021158,-4.400086 -6.293577 -0.3424947,-3.419405 -5.439151 -0.458425,-3.553984 -4.489858 -0.3820391,-3.61667 -3.83761 -0.2499491,-3.66531 -3.243021 -0.06848034,-3.132965 -5.265174 -0.4029331,-3.22925 -4.182303 -0.2764493,-3.22925 -4.182303 -0.2764493,-3.300913 -2.823783 -0.0273329,-2.838034 -5.305555 -0.3205169,-2.919992 -4.221389 -0.2056692,-2.949862 -3.527273 -0.1139868,-2.984305 -2.929746 0.004135013,-2.561754 -5.531032 -0.243419,-2.575872 -4.633694 -0.06551018,-2.608057 -4.060402 0.004730821,-2.639449 -3.542885 0.05116022,-8.569727 -7.929692 0.05398251,-8.01168 -7.650352 0.2429383,-7.510283 -7.011329 0.4095435,-7.130278 -6.449652 0.6275601,-6.770812 -6.240772 0.8638198,-7.821136 -5.366317 0.07839593,-7.663295 -4.416528 0.1629823,-7.601264 -3.80734 0.2968037,-7.549268 -3.267831 0.4119381,-8.132212 -5.159997 0.1499152,-7.9852 -3.996198 0.2210352,-7.897882 -3.252006 0.3946411,-7.829745 -2.606747 0.5408369,-8.443428 -5.188 0.2527592,-8.343027 -4.111997 0.3214478,-8.261871 -3.440493 0.4274302,-8.182107 -2.867336 0.5096928,-8.764706 -5.423196 0.3903784,-8.77546 -4.622516 0.5078268,-8.75453 -4.126693 0.5948282,-8.72734 -3.679741 0.6502778,0.810,31  0
-2.606956 -7.838348 -0.4761131,-3.149973 -7.625669 -0.1934841,-3.627766 -7.065107 -0.0420616,-3.991938 -6.522082 0.1157336,-4.332474 -6.273604 0.3138974,-3.308971 -5.531894 -0.3169508,-3.521906 -4.557813 -0.1406844,-3.618309 -3.941849 0.002687216,-3.672648 -3.355377 0.1400566,-3.011322 -5.314172 -0.2695177,-3.130896 -4.147683 -0.07670674,-3.130896 -4.147683 -0.07670674,-3.219065 -2.78696 0.2447855,-2.712714 -5.321449 -0.1607521,-2.76712 -4.201494 0.01478598,-2.823296 -3.511617 0.1849848,-2.878463 -2.887562 0.3391543,-2.39663 -5.540203 -0.01731971,-2.320628 -4.663314 0.1705757,-2.285035 -4.106834 0.3288985,-2.261189 -3.559041 0.4574552,-8.576193 -7.947345 0.06681249,-8.019804 -7.652462 0.2794042,-7.528097 -7.021639 0.4644825,-7.146298 -6.462771 0.6922613,-6.787983 -6.239595 0.9331484,-7.823975 -5.361467 0.1330178,-7.680678 -4.387844 0.2395606,-7.622814 -3.776816 0.3845764,-7.571319 -3.241515 0.5029355,-8.142012 -5.174695 0.1940159,-8.003901 -4.004404 0.2877144,-7.923769 -3.270234 0.4678022,-7.862674 -2.626946 0.6190988,-8.45932 -5.226087 0.286693,-8.363785 -4.148831 0.3724925,-8.287715 -3.484116 0.4887593,-8.212839 -2.911769 0.5766243,-8.784348 -5.481477 0.4144283,-8.794353 -4.687086 0.5350941,-8.77424 -4.17826 0.6346551,-8.744675 -3.694428 0.7034294,0.910,31  0
-2.594624 -7.872394 -0.3256432,-3.15139 -7.64042 -0.04859135,-3.63596 -7.079284 0.08677956,-3.986027 -6.528575 0.2271469,-4.315755 -6.277123 0.3985624,-3.312225 -5.51335 -0.1864793,-3.518465 -4.549222 -0.03049719,-3.601855 -3.944894 0.1098064,-3.647442 -3.35219 0.2525517,-3.005271 -5.304254 -0.1355699,-3.131659 -4.154689 0.04464,-3.131659 -4.154689 0.04464,-3.2175 -2.793577 0.3882018,-2.703087 -5.324401 -0.02506465,-2.76449 -4.216856 0.1456495,-2.821018 -3.525245 0.3171462,-2.87364 -2.914686 0.4760054,-2.383227 -5.551712 0.1237203,-2.314856 -4.673072 0.3084785,-2.283926 -4.110252 0.4779063,-2.266514 -3.561149 0.6211662,-8.599619 -7.946355 0.08336667,-8.04247 -7.664451 0.2855622,-7.539341 -7.022257 0.4580253,-7.157123 -6.455536 0.6823006,-6.808031 -6.22017 0.9135855,-7.852798 -5.365474 0.105656,-7.702842 -4.398963 0.1956432,-7.642641 -3.784878 0.330078,-7.591916 -3.24731 0.4441207,-8.167165 -5.166954 0.1673267,-8.022429 -4.006417 0.2452286,-7.932565 -3.263016 0.4241119,-7.86383 -2.612524 0.5779259,-8.480026 -5.205328 0.2619072,-8.375249 -4.134033 0.3290641,-8.291271 -3.461847 0.4334823,-8.210366 -2.877579 0.5192495,-8.801012 -5.450813 0.3911704,-8.808888 -4.657161 0.4993082,-8.786064 -4.159749 0.5874122,-8.757697 -3.695966 0.6504958,1.010,31  0
-2.501489 -7.974489 -0.009335093,-3.042217 -7.674819 0.2768593,-3.496506 -7.059238 0.4202587,-3.826958 -6.51094 0.5767606,-4.166389 -6.330327 0.7769419,-3.20581 -5.510992 0.1297723,-3.417609 -4.556837 0.3024576,-3.5007 -3.944433 0.4458113,-3.543846 -3.332685 0.5859535,-2.902418 -5.313406 0.1847372,-3.031427 -4.177591 0.3837326,-3.031427 -4.177591 0.3837326,-3.109909 -2.808225 0.7363672,-2.60112 -5.345418 0.3047644,-2.671698 -4.250721 0.4912908,-2.723429 -3.554004 0.68244,-2.77042 -2.922519 0.845221,-2.278273 -5.58583 0.4635807,-2.219157 -4.712011 0.6754169,-2.185618 -4.15348 0.846163,-2.163162 -3.613182 0.9846634,-8.737394 -7.937334 0.01451717,-8.163884 -7.678281 0.2150149,-7.653569 -7.032937 0.4123945,-7.282266 -6.450796 0.6683546,-6.925457 -6.184034 0.9370099,-7.983172 -5.376066 0.05217174,-7.820082 -4.394254 0.1762273,-7.767493 -3.759691 0.3221398,-7.731807 -3.203796 0.4554502,-8.300609 -5.179624 0.1263486,-8.151947 -3.994346 0.2208942,-8.089374 -3.245787 0.3683567,-8.035361 -2.604745 0.483599,-8.611674 -5.233821 0.2317179,-8.506893 -4.133475 0.3394648,-8.449463 -3.431274 0.4603422,-8.372368 -2.825761 0.5485336,-8.938066 -5.501519 0.3725856,-8.897391 -4.704099 0.5408822,-8.853928 -4.220617 0.645259,-8.788321 -3.822331 0.7063534,1.110,31  0
-2.450063 -7.995677 0.006508666,-2.988645 -7.689844 0.3079253,-3.446381 -7.075073 0.4673524,-3.787786 -6.523237 0.6299592,-4.131598 -6.349857 0.837107,-3.162596 -5.536109 0.1921452,-3.378462 -4.572319 0.3673545,-3.457189 -3.956999 0.5109677,-3.497926 -3.341556 0.6540157,-2.86001 -5.334461 0.2388189,-3.000586 -4.182405 0.4507248,-3.000586 -4.182405 0.4507248,-3.08214 -2.80566 0.809361,-2.556517 -5.366765 0.3487507,-2.631599 -4.25237 0.5474508,-2.686034 -3.551195 0.7472749,-2.736588 -2.909778 0.9151883,-2.228343 -5.610168 0.5005351,-2.172189 -4.732883 0.7261266,-2.138697 -4.170423 0.9049456,-2.114501 -3.617039 1.05446,-8.795135 -7.918774 0.05993618,-8.213181 -7.712589 0.2350114,-7.698009 -7.057767 0.4303503,-7.339602 -6.436267 0.6786963,-6.994998 -6.136779 0.950768,-8.022846 -5.367536 0.05050037,-7.868147 -4.394382 0.1501428,-7.81074 -3.756011 0.3067654,-7.771259 -3.203125 0.4409913,-8.33786 -5.150053 0.138487,-8.211761 -3.971318 0.1889727,-8.14146 -3.211121 0.3418213,-8.086915 -2.572644 0.4744135,-8.650684 -5.169298 0.2641725,-8.576095 -4.045591 0.3150049,-8.513559 -3.343198 0.4445604,-8.436546 -2.746141 0.5400798,-8.98339 -5.386638 0.4171865,-9.000418 -4.504158 0.5217474,-8.990864 -3.915761 0.6178849,-8.96407 -3.388422 0.6815783,1.210,31  0
-2.400487 -8.005901 0.0701719,-2.936663 -7.684883 0.3174063,-3.396721 -7.041494 0.4593496,-3.745331 -6.468829 0.6130037,-4.100008 -6.262765 0.8132746,-3.11442 -5.512369 0.228242,-3.326132 -4.553602 0.3935088,-3.409849 -3.942078 0.5261626,-3.45131 -3.326064 0.6630047,-2.808756 -5.325578 0.2979766,-2.943447 -4.182313 0.4999208,-2.943447 -4.182313 0.4999208,-3.004296 -2.816406 0.8401386,-2.504883 -5.371212 0.4246437,-2.564909 -4.265911 0.6132227,-2.613482 -3.573807 0.8022904,-2.646586 -2.937894 0.9665622,-2.177286 -5.62795 0.5878416,-2.109807 -4.751815 0.7927106,-2.067171 -4.193238 0.9594849,-2.026325 -3.641824 1.09716,-8.863131 -7.981283 0.1121636,-8.279094 -7.731651 0.3360447,-7.76819 -7.043903 0.5398947,-7.384113 -6.405868 0.7937571,-6.984958 -6.119112 1.076407,-8.104659 -5.396877 0.1945716,-7.968425 -4.392871 0.3178128,-7.915458 -3.747203 0.4728434,-7.884337 -3.177279 0.6006469,-8.433059 -5.196426 0.2694036,-8.307656 -4.002109 0.3494325,-8.23388 -3.229739 0.5253336,-8.180227 -2.57913 0.6798854,-8.753715 -5.226459 0.3771233,-8.691963 -4.093182 0.4770047,-8.638128 -3.376991 0.6198008,-8.575296 -2.769244 0.7205247,-9.088782 -5.444803 0.5130998,-9.094252 -4.51089 0.6746845,-9.075251 -3.906171 0.7841439,-9.040098 -3.351751 0.8465212,1.310,31  0
-2.362831 -8.036091 0.03518064,-2.886008 -7.718187 0.2728307,-3.343934 -7.096464 0.4208562,-3.683487 -6.531292 0.5875775,-4.019051 -6.278381 0.8053441,-3.054699 -5.537333 0.1905135,-3.267014 -4.563478 0.3653571,-3.355198 -3.951224 0.5077155,-3.398519 -3.334487 0.648263,-2.750204 -5.363725 0.2737158,-2.884386 -4.205479 0.4873913,-2.884386 -4.205479 0.4873913,-2.945761 -2.832343 0.8328239,-2.445673 -5.417387 0.4157686,-2.506577 -4.299861 0.6138001,-2.556972 -3.604019 0.8126792,-2.588835 -2.96397 0.9803165,-2.117957 -5.679018 0.5904925,-2.052744 -4.80076 0.8015385,-2.01466 -4.239698 0.9798986,-1.978373 -3.684192 1.124575,-8.928429 -7.995533 0.06103966,-8.348756 -7.715283 0.2679529,-7.843994 -7.050121 0.4874833,-7.472949 -6.439119 0.7630858,-7.09745 -6.149484 1.0615,-8.188913 -5.415689 0.1483142,-8.047324 -4.429155 0.2882499,-7.993772 -3.788566 0.4563864,-7.962461 -3.216539 0.6019891,-8.512769 -5.22414 0.2322063,-8.391644 -4.029026 0.3324158,-8.332753 -3.258621 0.5158159,-8.292359 -2.601837 0.6712033,-8.827259 -5.257539 0.347877,-8.765779 -4.126051 0.4532315,-8.717772 -3.407541 0.6002187,-8.657032 -2.799114 0.7030201,-9.156697 -5.473861 0.4924721,-9.144338 -4.572586 0.6512039,-9.109583 -3.980684 0.7652881,-9.056949 -3.440148 0.8219617,1.410,31  0
-2.572087 -7.86296 -0.7984474,-3.058759 -7.645971 -0.4603988,-3.50232 -7.101663 -0.2484586,-3.847054 -6.626636 -0.08034092,-4.105885 -6.244909 0.1263537,-3.1661 -5.595313 -0.3237202,-3.291325 -4.624647 -0.0808984,-3.3584 -3.890293 0.1726762,-3.410181 -3.227602 0.4359392,-2.938782 -5.459674 -0.3463779,-3.012127 -4.4066 -0.09598821,-3.012127 -4.4066 -0.09598821,-3.015358 -2.968806 0.3569009,-2.726254 -5.537784 -0.3260079,-2.793857 -4.519625 -0.1194238,-2.805552 -3.802337 0.06186318,-2.795265 -3.1954 0.2086778,-2.540747 -5.761777 -0.3021415,-2.572711 -4.981846 -0.05847698,-2.577095 -4.40555 0.04050785,-2.554586 -3.842429 0.1169958,-8.95383 -8.007801 -0.004743316,-8.373447 -7.730539 0.2259847,-7.868254 -7.049391 0.4411554,-7.491712 -6.427377 0.7069665,-7.10031 -6.144221 0.9918198,-8.209061 -5.439682 0.1187085,-8.071406 -4.435001 0.2759325,-8.021692 -3.789866 0.4456221,-7.991823 -3.211067 0.5879737,-8.535141 -5.257889 0.195729,-8.417304 -4.049454 0.3261768,-8.366454 -3.273818 0.5208116,-8.334609 -2.610982 0.6826393,-8.849365 -5.298563 0.3061157,-8.791813 -4.158514 0.4467958,-8.748561 -3.440036 0.5990973,-8.692142 -2.832263 0.698423,-9.176849 -5.523466 0.4462422,-9.157344 -4.62496 0.6403275,-9.123017 -4.040617 0.7593135,-9.070614 -3.498048 0.8150408,1.510,31  0
-2.409248 -7.759984 -0.733283,-2.945979 -7.610856 -0.4350298,-3.393629 -7.062135 -0.2552208,-3.704694 -6.569431 -0.0871551,-4.002867 -6.286591 0.1186528,-3.095413 -5.526 -0.3319029,-3.27367 -4.566972 -0.1322824,-3.335016 -3.917992 0.06314021,-3.363365 -3.297552 0.2489448,-2.78279 -5.340423 -0.271546,-2.884645 -4.230726 -0.01745576,-2.884645 -4.230726 -0.01745576,-2.904036 -2.820867 0.3552942,-2.466036 -5.392007 -0.1863339,-2.52321 -4.322437 0.05461645,-2.569001 -3.633393 0.2543931,-2.600192 -3.018116 0.4322125,-2.144613 -5.645568 -0.08677316,-2.099475 -4.79088 0.185393,-2.079072 -4.222627 0.370802,-2.065757 -3.652984 0.5054972,-9.021584 -8.081631 -0.06286146,-8.4471 -7.793151 0.17772,-7.943341 -7.128483 0.4077874,-7.572737 -6.536222 0.6904045,-7.199121 -6.235725 0.9971958,-8.28414 -5.534482 0.1122027,-8.140054 -4.516992 0.2959191,-8.085694 -3.862855 0.485119,-8.056886 -3.27139 0.6376379,-8.606707 -5.352735 0.1942608,-8.490121 -4.120544 0.3523072,-8.438982 -3.333895 0.5643167,-8.417268 -2.672203 0.7332836,-8.919136 -5.403409 0.3068084,-8.859256 -4.239901 0.4648982,-8.805691 -3.509632 0.6276382,-8.752005 -2.900361 0.7411431,-9.245696 -5.645048 0.4470451,-9.240472 -4.734966 0.6561663,-9.198123 -4.15233 0.7929609,-9.145642 -3.617346 0.8636075,1.610,31  0
-2.409248 -7.759984 -0.733283,-2.945979 -7.610856 -0.4350298,-3.393629 -7.062135 -0.2552208,-3.704694 -6.569431 -0.0871551,-4.002867 -6.286591 0.1186528,-3.095413 -5.526 -0.3319029,-3.27367 -4.566972 -0.1322824,-3.335016 -3.917992 0.06314021,-3.363365 -3.297552 0.2489448,-2.78279 -5.340423 -0.271546,-2.884645 -4.230726 -0.01745576,-2.884645 -4.230726 -0.01745576,-2.904036 -2.820867 0.3552942,-2.466036 -5.392007 -0.1863339,-2.52321 -4.322437 0.05461645,-2.569001 -3.633393 0.2543931,-2.600192 -3.018116 0.4322125,-2.144613 -5.645568 -0.08677316,-2.099475 -4.79088 0.185393,-2.079072 -4.222627 0.370802,-2.065757 -3.652984 0.5054972,-9.03795 -8.181618 0.05730971,-8.457463 -7.911351 0.3420789,-7.961493 -7.262901 0.5758944,-7.605749 -6.637784 0.8403169,-7.244238 -6.313427 1.118258,-8.311745 -5.623882 0.2639123,-8.158937 -4.59303 0.4439642,-8.107311 -3.954087 0.6302757,-8.084701 -3.3815 0.7764703,-8.639052 -5.415155 0.310987,-8.530307 -4.187192 0.4627368,-8.496071 -3.432338 0.6664761,-8.496811 -2.804916 0.8297315,-8.952584 -5.451272 0.393801,-8.879601 -4.29728 0.5400526,-8.838038 -3.577593 0.6963175,-8.808486 -2.972238 0.8079169,-9.285078 -5.6861 0.5043193,-9.289788 -4.792144 0.6861757,-9.262486 -4.220379 0.823342,-9.233031 -3.682693 0.9130303,1.710,31  0
-2.623913 -8.167402 -0.813716,-3.123898 -7.774092 -0.3253475,-3.511253 -7.14958 -0.129326,-3.859529 -6.673308 -0.04694647,-4.147681 -6.317071 0.02979708,-3.246315 -5.855734 -0.2082428,-3.375147 -4.767663 -0.0450331,-3.422974 -3.981201 0.1445974,-3.451921 -3.320938 0.3611987,-3.0874 -5.776729 -0.4092935,-3.148817 -4.638689 -0.2352839,-3.148817 -4.638689 -0.2352839,-3.09186 -3.171242 0.272033,-2.951667 -5.805698 -0.6043646,-3.002172 -4.794897 -0.5055441,-3.019044 -4.097568 -0.304549,-2.989604 -3.531479 -0.1335336,-2.855108 -5.933282 -0.7989424,-2.892107 -5.193985 -0.6951772,-2.867819 -4.7213 -0.6315721,-2.810622 -4.282979 -0.568324,-9.035657 -8.223692 0.1022188,-8.451753 -7.921937 0.3788192,-7.96312 -7.292041 0.6159138,-7.612461 -6.675649 0.8839839,-7.252542 -6.35012 1.16305,-8.300145 -5.643936 0.2991908,-8.13747 -4.628034 0.4804856,-8.084364 -3.998547 0.6671569,-8.061677 -3.425273 0.8103617,-8.632257 -5.444386 0.350738,-8.52715 -4.239402 0.4895906,-8.507193 -3.510408 0.6909678,-8.523423 -2.907346 0.8509383,-8.950011 -5.487257 0.4396247,-8.884976 -4.355589 0.576809,-8.864269 -3.648577 0.7353649,-8.858636 -3.054136 0.8507912,-9.289214 -5.72948 0.5587955,-9.29443 -4.838995 0.7252198,-9.273462 -4.265577 0.8570091,-9.251438 -3.724691 0.9404877,1.810,31  0
-2.619306 -8.259054 -0.4308449,-3.107232 -7.858045 0.005149186,-3.530563 -7.241069 0.222584,-3.89386 -6.742372 0.336691,-4.171274 -6.367443 0.479095,-3.308516 -5.940231 0.2767031,-3.388783 -4.840705 0.5451699,-3.389835 -4.008699 0.8199875,-3.394535 -3.278166 1.097683,-3.122316 -5.801123 0.1616119,-3.157204 -4.677074 0.4248703,-3.157204 -4.677074 0.4248703,-3.060168 -3.125548 1.046354,-2.958783 -5.817785 0.05410194,-2.977193 -4.807716 0.2393677,-2.974597 -4.046388 0.458813,-2.949806 -3.434066 0.6547005,-2.829735 -5.953198 -0.05480212,-2.846467 -5.17486 0.1248226,-2.811195 -4.619392 0.1925855,-2.758763 -4.110805 0.2535628,-9.003371 -8.252794 0.07904693,-8.417307 -7.983152 0.3283992,-7.932193 -7.330523 0.5314298,-7.600996 -6.708795 0.7722785,-7.258026 -6.377793 1.020645,-8.268914 -5.663736 0.134656,-8.117682 -4.673864 0.2843231,-8.081913 -4.069941 0.4684544,-8.072624 -3.511615 0.6170059,-8.604532 -5.470569 0.1886038,-8.530076 -4.363153 0.2844561,-8.547858 -3.729082 0.4718863,-8.599344 -3.2275 0.6302633,-8.917953 -5.489843 0.2914724,-8.872799 -4.434524 0.3884903,-8.88432 -3.814278 0.5535541,-8.905926 -3.297126 0.6869119,-9.246292 -5.687479 0.4261736,-9.235298 -4.854478 0.5435804,-9.224594 -4.321434 0.6491978,-9.212255 -3.821448 0.7320481,1.910,31  0
-2.412731 -7.951777 -0.3674541,-2.970408 -7.719942 -0.2659078,-3.454388 -7.110155 -0.1955618,-3.789 -6.593727 -0.1300851,-4.082519 -6.353487 -0.03507262,-3.129146 -5.611356 -0.1546482,-3.293631 -4.662015 -0.05570143,-3.384617 -3.983656 0.09607896,-3.455504 -3.368646 0.282289,-2.84685 -5.417158 -0.01377001,-2.959092 -4.309022 0.2208551,-2.959092 -4.309022 0.2208551,-2.977331 -2.854415 0.6614764,-2.55584 -5.417796 0.1207967,-2.618296 -4.334178 0.3461741,-2.660736 -3.626814 0.5402889,-2.692018 -2.968778 0.7095847,-2.26581 -5.60012 0.2454764,-2.285264 -4.765492 0.4770316,-2.294549 -4.180395 0.5744773,-2.284064 -3.560666 0.6641484,-9.009689 -8.246231 -0.02461641,-8.445761 -7.972026 0.2468882,-7.953496 -7.311601 0.4717698,-7.592048 -6.71136 0.7282461,-7.228854 -6.376832 0.9987444,-8.268983 -5.679888 0.08039246,-8.09471 -4.735111 0.2552038,-8.056187 -4.129789 0.4519065,-8.041406 -3.577668 0.5975584,-8.601494 -5.497879 0.1353497,-8.523378 -4.485324 0.280353,-8.546406 -3.941376 0.4567972,-8.601487 -3.554317 0.5889426,-8.919142 -5.527631 0.2339919,-8.893208 -4.551574 0.3715627,-8.898203 -3.997759 0.5367119,-8.912124 -3.563888 0.6494683,-9.251569 -5.738716 0.3768426,-9.246698 -4.960485 0.5320624,-9.246597 -4.453149 0.6481357,-9.23538 -3.989287 0.7365876,2.010,31  0
-2.413437 -7.986281 -0.433565,-2.978854 -7.741374 -0.2700893,-3.452572 -7.13599 -0.1623934,-3.800808 -6.624709 -0.0745773,-4.112875 -6.367027 0.04308918,-3.135557 -5.656367 -0.1174045,-3.29271 -4.696826 0.01054925,-3.378256 -3.986227 0.1835763,-3.436516 -3.346345 0.4087033,-2.863488 -5.483706 -0.01601505,-2.971233 -4.365249 0.2300417,-2.971233 -4.365249 0.2300417,-2.975448 -2.887395 0.6813645,-2.577013 -5.486696 0.07697153,-2.662311 -4.392797 0.2705587,-2.705348 -3.680968 0.4385375,-2.72514 -3.025967 0.6024092,-2.299514 -5.660291 0.1690054,-2.357379 -4.790806 0.3662435,-2.366834 -4.181464 0.4333051,-2.339238 -3.553953 0.5007103,-9.027241 -8.193169 -0.4321498,-8.476646 -7.995362 -0.02602166,-8.006813 -7.34725 0.2061963,-7.635401 -6.754152 0.4107919,-7.27406 -6.441788 0.6007432,-8.321472 -5.701012 -0.2527137,-8.153649 -4.743276 -0.1262376,-8.11797 -4.117654 0.02958712,-8.104316 -3.607663 0.1656076,-8.677503 -5.554677 -0.2663385,-8.642649 -4.514221 0.04974273,-8.656856 -4.424222 0.3972954,-8.667446 -4.677751 0.6110857,-9.003771 -5.644819 -0.2264743,-9.024862 -4.691271 0.05354911,-9.015497 -4.55124 0.3907537,-8.997467 -4.720994 0.5782998,-9.332286 -5.924613 -0.1561618,-9.379004 -5.222028 0.09540969,-9.381186 -4.866802 0.3353006,-9.363975 -4.717 0.4994655,2.110,31  0
-2.558898 -8.144558 -0.2539497,-3.095074 -7.753497 -0.1604498,-3.54835 -7.118224 -0.1116269,-3.894712 -6.627843 -0.05474786,-4.162261 -6.38286 0.03122783,-3.210876 -5.6811 -0.1281897,-3.316137 -4.672773 0.007188141,-3.356179 -3.929427 0.1994758,-3.387062 -3.27169 0.4299917,-2.976737 -5.560108 -0.02252167,-3.043744 -4.44737 0.1367362,-3.043744 -4.44737 0.1367362,-3.020896 -2.995986 0.5648885,-2.749137 -5.613025 0.1090977,-2.797622 -4.543497 0.269677,-2.809028 -3.785198 0.4358569,-2.806431 -3.132601 0.569194,-2.541619 -5.813666 0.2222175,-2.586901 -4.952978 0.4070852,-2.580954 -4.335031 0.4523433,-2.54866 -3.724564 0.4828889,-9.08473 -8.248653 -0.4136759,-8.540169 -8.038397 -0.007867306,-8.08335 -7.374355 0.2227067,-7.708053 -6.757496 0.4293054,-7.331941 -6.42534 0.6250193,-8.383539 -5.778383 -0.2243533,-8.208751 -4.79266 -0.05595064,-8.194904 -4.155784 0.1323203,-8.202941 -3.665805 0.3116762,-8.737607 -5.604417 -0.2489549,-8.738271 -4.483808 0.1013175,-8.783134 -4.547676 0.4367535,-8.804313 -4.923807 0.6108221,-9.073089 -5.666276 -0.220767,-9.11942 -4.622751 0.1099823,-9.150319 -4.665817 0.4446864,-9.153072 -5.025501 0.591189,-9.399825 -5.920564 -0.1717777,-9.46356 -5.146042 0.1010329,-9.46662 -4.864294 0.3092843,-9.448224 -4.852523 0.4242209,2.210,31  0
-2.41237 -8.053207 -0.04996836,-2.970734 -7.742034 0.1344356,-3.428704 -7.112426 0.2390786,-3.748311 -6.580621 0.3561811,-4.043511 -6.317722 0.4975271,-3.070515 -5.596773 0.1767449,-3.266559 -4.612586 0.3422652,-3.341286 -3.97895 0.5197791,-3.379895 -3.361327 0.6889763,-2.763922 -5.410606 0.2830518,-2.880753 -4.275032 0.5155244,-2.880753 -4.275032 0.5155244,-2.933404 -2.840705 0.93445,-2.450784 -5.468593 0.414739,-2.503164 -4.367059 0.6463261,-2.558979 -3.669441 0.8746815,-2.599339 -3.034855 1.063879,-2.126034 -5.744286 0.5547761,-2.048786 -4.877023 0.8156421,-2.01814 -4.299787 1.001588,-1.998771 -3.722971 1.1328,-9.081352 -8.252289 -0.3443635,-8.532023 -8.022799 0.04075509,-8.088887 -7.367637 0.2901111,-7.738846 -6.756757 0.5303354,-7.357454 -6.419567 0.7786586,-8.397436 -5.754808 -0.1542353,-8.23772 -4.777891 0.05613521,-8.230161 -4.139228 0.3066811,-8.24579 -3.652295 0.5247232,-8.761568 -5.587852 -0.1334186,-8.763811 -4.4508 0.2539124,-8.796957 -4.473974 0.6361579,-8.809748 -4.84939 0.8427546,-9.103187 -5.674636 -0.05288529,-9.151559 -4.611967 0.3168851,-9.176025 -4.610427 0.6753289,-9.175835 -4.951681 0.8327109,-9.43624 -5.970964 0.04805481,-9.515714 -5.180543 0.3675388,-9.524533 -4.885919 0.6038924,-9.507371 -4.882991 0.728881,2.310,31  0
-2.342256 -7.997774 -0.6431633,-2.894851 -7.803589 -0.3758752,-3.383059 -7.17733 -0.2366585,-3.699154 -6.621671 -0.1322683,-3.968012 -6.242261 -0.019768,-3.023827 -5.715735 -0.2202949,-3.18154 -4.77744 -0.04346889,-3.23901 -4.107248 0.1457011,-3.268499 -3.459783 0.3587507,-2.717846 -5.549272 -0.1971001,-2.806134 -4.492304 0.05714357,-2.806134 -4.492304 0.05714357,-2.780042 -3.080071 0.5273978,-2.41749 -5.579615 -0.1616577,-2.466754 -4.550196 0.05969828,-2.469065 -3.868118 0.2733729,-2.473552 -3.227178 0.4704821,-2.119267 -5.782129 -0.1213011,-2.119451 -4.962874 0.1392989,-2.101024 -4.404383 0.2865945,-2.079405 -3.831407 0.4084737,-9.100618 -8.210371 -0.3775385,-8.528534 -7.980463 -0.04485747,-8.077591 -7.310182 0.2039355,-7.738837 -6.710662 0.469045,-7.368773 -6.329425 0.7444456,-8.407365 -5.688866 -0.2502612,-8.263241 -4.710096 -0.1019318,-8.232028 -4.08255 0.1337834,-8.216686 -3.559552 0.3468752,-8.771874 -5.556656 -0.1658877,-8.776984 -4.501098 0.1728456,-8.810052 -4.218639 0.6380026,-8.838737 -4.315006 0.9706755,-9.115446 -5.652547 -0.03449368,-9.163924 -4.662408 0.2855795,-9.162926 -4.312876 0.7169695,-9.138441 -4.305493 0.9880797,-9.461436 -5.95365 0.1238783,-9.501046 -5.171274 0.4155694,-9.476126 -4.734266 0.7142035,-9.408088 -4.488902 0.9315442,2.410,31  0
-2.342256 -7.997774 -0.6431633,-2.894851 -7.803589 -0.3758752,-3.383059 -7.17733 -0.2366585,-3.699154 -6.621671 -0.1322683,-3.968012 -6.242261 -0.019768,-3.023827 -5.715735 -0.2202949,-3.18154 -4.77744 -0.04346889,-3.23901 -4.107248 0.1457011,-3.268499 -3.459783 0.3587507,-2.717846 -5.549272 -0.1971001,-2.806134 -4.492304 0.05714357,-2.806134 -4.492304 0.05714357,-2.780042 -3.080071 0.5273978,-2.41749 -5.579615 -0.1616577,-2.466754 -4.550196 0.05969828,-2.469065 -3.868118 0.2733729,-2.473552 -3.227178 0.4704821,-2.119267 -5.782129 -0.1213011,-2.119451 -4.962874 0.1392989,-2.101024 -4.404383 0.2865945,-2.079405 -3.831407 0.4084737,-9.095737 -8.178331 -0.4859081,-8.518244 -7.961555 -0.1562436,-8.061271 -7.303984 0.07374966,-7.719913 -6.712091 0.3218737,-7.352534 -6.330099 0.5878788,-8.405466 -5.68738 -0.3742491,-8.260129 -4.722579 -0.237828,-8.221809 -4.090259 0.001538903,-8.20165 -3.566679 0.2210346,-8.769051 -5.553886 -0.2975835,-8.756119 -4.520015 -0.001221359,-8.78131 -4.155242 0.4491096,-8.811119 -4.176233 0.7742703,-9.109385 -5.651954 -0.171318,-9.147694 -4.686979 0.1164757,-9.132175 -4.292678 0.5343517,-9.097684 -4.23739 0.8070843,-9.453096 -5.953824 -0.01655763,-9.502379 -5.20224 0.2680496,-9.479847 -4.781156 0.5636487,-9.412697 -4.547555 0.7757434,2.510,31  0
-2.099449 -8.567553 0.4662562,-2.64435 -8.23167 0.8643715,-3.089153 -7.50351 1.047464,-3.35614 -6.812373 1.206788,-3.641212 -6.339229 1.385136,-2.763701 -5.977077 0.8986363,-2.959135 -4.961709 1.096394,-3.005757 -4.315815 1.325008,-3.000942 -3.668201 1.537469,-2.431508 -5.782159 0.8696263,-2.517296 -4.668232 1.092663,-2.517296 -4.668232 1.092663,-2.460645 -3.264175 1.581359,-2.106327 -5.832849 0.8735214,-2.10629 -4.78125 1.093103,-2.080852 -4.139385 1.36254,-2.040098 -3.491376 1.598507,-1.779499 -6.091955 0.9072021,-1.67804 -5.257464 1.177968,-1.619453 -4.740321 1.361347,-1.562094 -4.202765 1.494841,-9.09765 -8.174892 -0.4346409,-8.52257 -7.977155 -0.06194615,-8.071706 -7.33285 0.1980082,-7.721454 -6.757482 0.4708155,-7.368564 -6.337128 0.7681108,-8.428247 -5.658126 -0.2899047,-8.283968 -4.708447 -0.1157073,-8.25003 -4.101236 0.1482424,-8.239467 -3.620945 0.388873,-8.791438 -5.534699 -0.2261629,-8.766871 -4.558496 0.08233386,-8.804601 -4.128044 0.5497252,-8.871871 -4.085347 0.9096746,-9.145561 -5.664093 -0.1006575,-9.174854 -4.744752 0.2108906,-9.181896 -4.360943 0.6493114,-9.193478 -4.317268 0.9508358,-9.508928 -6.012515 0.05244786,-9.573014 -5.274621 0.3855177,-9.572343 -4.874927 0.7142795,-9.535076 -4.670864 0.9711102,2.610,31  0
-2.099449 -8.567553 0.4662562,-2.64435 -8.23167 0.8643715,-3.089153 -7.50351 1.047464,-3.35614 -6.812373 1.206788,-3.641212 -6.339229 1.385136,-2.763701 -5.977077 0.8986363,-2.959135 -4.961709 1.096394,-3.005757 -4.315815 1.325008,-3.000942 -3.668201 1.537469,-2.431508 -5.782159 0.8696263,-2.517296 -4.668232 1.092663,-2.517296 -4.668232 1.092663,-2.460645 -3.264175 1.581359,-2.106327 -5.832849 0.8735214,-2.10629 -4.78125 1.093103,-2.080852 -4.139385 1.36254,-2.040098 -3.491376 1.598507,-1.779499 -6.091955 0.9072021,-1.67804 -5.257464 1.177968,-1.619453 -4.740321 1.361347,-1.562094 -4.202765 1.494841,-9.10405 -8.206503 -0.430818,-8.530891 -7.998482 -0.0389201,-8.087224 -7.353593 0.2292224,-7.741749 -6.785596 0.5012716,-7.396681 -6.364756 0.7983937,-8.449439 -5.679058 -0.2372628,-8.31039 -4.717453 -0.04050785,-8.279298 -4.113637 0.2348823,-8.273382 -3.640742 0.4748499,-8.812053 -5.567253 -0.1804179,-8.794148 -4.58823 0.1603029,-8.842432 -4.187505 0.6481531,-8.914729 -4.176973 1.014709,-9.160563 -5.70961 -0.06269559,-9.199196 -4.787975 0.2664251,-9.212461 -4.43317 0.7205774,-9.225163 -4.422196 1.024654,-9.514129 -6.068435 0.08165199,-9.592604 -5.333822 0.425476,-9.599486 -4.929123 0.7757753,-9.567825 -4.712728 1.046233,2.710,31  0
-2.099449 -8.567553 0.4662562,-2.64435 -8.23167 0.8643715,-3.089153 -7.50351 1.047464,-3.35614 -6.812373 1.206788,-3.641212 -6.339229 1.385136,-2.763701 -5.977077 0.8986363,-2.959135 -4.961709 1.096394,-3.005757 -4.315815 1.325008,-3.000942 -3.668201 1.537469,-2.431508 -5.782159 0.8696263,-2.517296 -4.668232 1.092663,-2.517296 -4.668232 1.092663,-2.460645 -3.264175 1.581359,-2.106327 -5.832849 0.8735214,-2.10629 -4.78125 1.093103,-2.080852 -4.139385 1.36254,-2.040098 -3.491376 1.598507,-1.779499 -6.091955 0.9072021,-1.67804 -5.257464 1.177968,-1.619453 -4.740321 1.361347,-1.562094 -4.202765 1.494841,-9.087736 -8.237921 -0.4035236,-8.527708 -8.024811 -0.01947328,-8.084511 -7.366687 0.232733,-7.740017 -6.788129 0.4864199,-7.396312 -6.363746 0.7588773,-8.456207 -5.707228 -0.2345343,-8.308905 -4.737804 -0.07216686,-8.270338 -4.121452 0.1604967,-8.250402 -3.627986 0.3760533,-8.827846 -5.584301 -0.1885606,-8.818525 -4.588808 0.09958166,-8.859695 -4.168101 0.5325493,-8.918254 -4.128305 0.8649688,-9.181132 -5.723963 -0.08056816,-9.22573 -4.791449 0.2047433,-9.226474 -4.410892 0.6220886,-9.220021 -4.365917 0.9077697,-9.532416 -6.087637 0.05175444,-9.615184 -5.376474 0.3644567,-9.628995 -4.962119 0.6926092,-9.596449 -4.715172 0.9452989,2.810,31  0
-2.099449 -8.567553 0.4662562,-2.64435 -8.23167 0.8643715,-3.089153 -7.50351 1.047464,-3.35614 -6.812373 1.206788,-3.641212 -6.339229 1.385136,-2.763701 -5.977077 0.8986363,-2.959135 -4.961709 1.096394,-3.005757 -4.315815 1.325008,-3.000942 -3.668201 1.537469,-2.431508 -5.782159 0.8696263,-2.517296 -4.668232 1.092663,-2.517296 -4.668232 1.092663,-2.460645 -3.264175 1.581359,-2.106327 -5.832849 0.8735214,-2.10629 -4.78125 1.093103,-2.080852 -4.139385 1.36254,-2.040098 -3.491376 1.598507,-1.779499 -6.091955 0.9072021,-1.67804 -5.257464 1.177968,-1.619453 -4.740321 1.361347,-1.562094 -4.202765 1.494841,-9.08715 -8.266647 -0.4169567,-8.533521 -8.042891 -0.02890721,-8.093534 -7.381666 0.2201763,-7.752392 -6.79591 0.4663753,-7.40303 -6.376577 0.7380748,-8.468509 -5.73715 -0.2179191,-8.320688 -4.769163 -0.03601822,-8.27822 -4.147113 0.21568,-8.259647 -3.646896 0.436271,-8.839281 -5.617982 -0.1760358,-8.828813 -4.618145 0.1259791,-8.874921 -4.1956 0.5697309,-8.936336 -4.156883 0.9081504,-9.189429 -5.751915 -0.07360315,-9.240269 -4.812805 0.2195173,-9.250736 -4.432134 0.6475366,-9.25161 -4.394506 0.937932,-9.535827 -6.100383 0.05398357,-9.622627 -5.370334 0.3654797,-9.638375 -4.958775 0.6955252,-9.606323 -4.729904 0.9462448,2.910,31  0
-2.099449 -8.567553 0.4662562,-2.64435 -8.23167 0.8643715,-3.089153 -7.50351 1.047464,-3.35614 -6.812373 1.206788,-3.641212 -6.339229 1.385136,-2.763701 -5.977077 0.8986363,-2.959135 -4.961709 1.096394,-3.005757 -4.315815 1.325008,-3.000942 -3.668201 1.537469,-2.431508 -5.782159 0.8696263,-2.517296 -4.668232 1.092663,-2.517296 -4.668232 1.092663,-2.460645 -3.264175 1.581359,-2.106327 -5.832849 0.8735214,-2.10629 -4.78125 1.093103,-2.080852 -4.139385 1.36254,-2.040098 -3.491376 1.598507,-1.779499 -6.091955 0.9072021,-1.67804 -5.257464 1.177968,-1.619453 -4.740321 1.361347,-1.562094 -4.202765 1.494841,-9.108967 -8.232372 -0.5132913,-8.554259 -8.031536 -0.1009369,-8.108392 -7.373012 0.1654376,-7.759173 -6.805946 0.4236639,-7.403641 -6.394216 0.7071019,-8.477933 -5.733423 -0.2576958,-8.322367 -4.758186 -0.05747226,-8.281981 -4.136117 0.2107084,-8.266049 -3.628 0.4441311,-8.846245 -5.61883 -0.2150796,-8.825183 -4.629829 0.1086496,-8.888771 -4.224346 0.5618509,-8.972587 -4.182127 0.9096241,-9.197649 -5.761056 -0.1134771,-9.239253 -4.831244 0.2092204,-9.270253 -4.453495 0.647139,-9.300879 -4.393974 0.9470874,-9.546453 -6.127231 0.01106465,-9.617481 -5.409306 0.3524407,-9.639548 -4.996208 0.6970538,-9.627716 -4.74788 0.9628639,3.010,31  0
-1.859442 -8.683014 -0.5770632,-2.179973 -8.445618 0.2255298,-2.441314 -7.744533 0.5510997,-2.628281 -6.998682 0.7505432,-2.726351 -6.378046 0.9790044,-2.274458 -6.44302 0.3704793,-2.257399 -5.465824 0.7442771,-2.210417 -4.934717 0.9929183,-2.148648 -4.566518 1.142418,-2.041871 -6.24183 0.08495754,-1.880798 -5.319212 0.5610003,-1.880798 -5.319212 0.5610003,-1.66082 -5.707508 1.051983,-1.847965 -6.286081 -0.14421,-1.696215 -5.549715 0.2967191,-1.55008 -5.771858 0.6092167,-1.487172 -6.188733 0.7502245,-1.716491 -6.505054 -0.3478554,-1.657382 -5.880983 0.06408161,-1.546345 -5.86683 0.3163847,-1.523542 -6.045749 0.4824955,-9.116918 -8.208866 -0.5448364,-8.56469 -8.027874 -0.1427826,-8.114925 -7.388649 0.1164766,-7.758419 -6.80863 0.3687098,-7.407211 -6.393819 0.6375474,-8.475369 -5.735197 -0.3356046,-8.321813 -4.758293 -0.1390287,-8.28058 -4.132244 0.1422871,-8.268109 -3.640348 0.385885,-8.83451 -5.600655 -0.3027895,-8.810569 -4.576059 0.01738399,-8.87396 -4.191898 0.4741517,-8.966779 -4.200721 0.823869,-9.182745 -5.727277 -0.2051214,-9.220519 -4.760259 0.1062403,-9.251018 -4.403804 0.5312294,-9.289489 -4.38496 0.8162462,-9.534246 -6.082109 -0.08374307,-9.607041 -5.335935 0.2414923,-9.624106 -4.934973 0.5739068,-9.615147 -4.725738 0.8259946,3.110,31  0
-1.379212 -8.822643 -0.4657356,-1.855536 -8.647095 0.4121552,-2.172407 -7.96874 0.8253025,-2.241141 -7.177885 1.13157,-2.391194 -6.54264 1.474823,-1.960885 -6.55046 0.5633528,-1.96398 -5.710319 1.112328,-1.907711 -5.189626 1.489513,-1.825852 -4.760276 1.75738,-1.560323 -6.396358 0.3551055,-1.419054 -5.48954 1.158563,-1.419054 -5.48954 1.158563,-1.269493 -6.761035 1.675868,-1.199682 -6.452297 0.235858,-1.026076 -5.742576 0.9815242,-0.9990091 -6.456247 1.23074,-1.033868 -7.051948 1.215621,-0.8545237 -6.701269 0.1593823,-0.6898317 -6.146997 0.799299,-0.7129507 -6.561319 1.047285,-0.788723 -6.985502 1.093279,-9.140434 -8.251669 -0.5822752,-8.584937 -8.04212 -0.1767568,-8.133328 -7.413206 0.08442318,-7.77387 -6.834812 0.3332894,-7.419648 -6.414081 0.6041181,-8.489547 -5.79323 -0.3263221,-8.338526 -4.802057 -0.1211136,-8.299232 -4.160825 0.1450791,-8.290721 -3.659936 0.3699993,-8.851541 -5.659109 -0.2994968,-8.830952 -4.630183 0.009175181,-8.89744 -4.235889 0.4351559,-8.991942 -4.229881 0.7629604,-9.200953 -5.781043 -0.2097438,-9.247211 -4.816095 0.1032616,-9.285394 -4.468379 0.5177717,-9.328941 -4.46458 0.7928948,-9.548388 -6.128007 -0.09694818,-9.631611 -5.395807 0.2227876,-9.660579 -4.992103 0.5507121,-9.662376 -4.781667 0.802129,3.210,31  0
-1.318802 -8.830301 -0.6133627,-1.809189 -8.732239 0.3565125,-2.140605 -8.098846 0.8270444,-2.198792 -7.286848 1.171439,-2.377404 -6.617246 1.54104,-1.945619 -6.600048 0.3607857,-1.945862 -5.780561 0.9211066,-1.856095 -5.288419 1.339489,-1.757216 -4.86052 1.611724,-1.533111 -6.422546 0.1180288,-1.389254 -5.55356 0.9809412,-1.389254 -5.55356 0.9809412,-1.234908 -7.039342 1.614143,-1.163844 -6.454583 -0.02281296,-0.9944339 -5.795963 0.7418946,-0.9557962 -6.635561 1.062333,-0.9851041 -7.282514 1.077504,-0.8185396 -6.641677 -0.1166991,-0.615169 -6.130918 0.5323391,-0.6366839 -6.63776 0.8068341,-0.7292614 -7.128553 0.8577394,-9.134688 -8.250824 -0.6209564,-8.584618 -8.043785 -0.2047117,-8.133101 -7.406905 0.05074835,-7.776919 -6.831604 0.2902271,-7.418468 -6.427063 0.546141,-8.500467 -5.79029 -0.3803859,-8.34637 -4.803613 -0.1900741,-8.306559 -4.164493 0.07061899,-8.297411 -3.65191 0.293817,-8.866756 -5.664436 -0.364645,-8.843003 -4.637189 -0.0518499,-8.911963 -4.259059 0.3788738,-9.004548 -4.26485 0.6969039,-9.213511 -5.789932 -0.2865952,-9.255204 -4.827476 0.02109343,-9.29305 -4.491003 0.4361206,-9.333381 -4.485385 0.7073464,-9.556783 -6.13235 -0.1827798,-9.639554 -5.412898 0.1274347,-9.668413 -5.018804 0.4553668,-9.665661 -4.799413 0.7035964,3.310,31  0
-1.307247 -8.880033 -0.6892672,-1.790675 -8.770668 0.2527504,-2.107245 -8.145082 0.7265606,-2.162649 -7.328231 1.081484,-2.362509 -6.645498 1.466559,-1.939783 -6.650205 0.2312387,-1.923016 -5.844587 0.8003238,-1.821648 -5.380214 1.226657,-1.721065 -4.970365 1.498161,-1.523813 -6.484161 0.005099475,-1.38463 -5.638061 0.8833001,-1.38463 -5.638061 0.8833001,-1.216393 -7.130592 1.501767,-1.149583 -6.534488 -0.117577,-0.9766712 -5.891901 0.6666324,-0.9340067 -6.757588 0.9854695,-0.9624414 -7.395189 0.9885709,-0.8009396 -6.739677 -0.1921456,-0.5847559 -6.265933 0.4460374,-0.6079245 -6.78748 0.6948179,-0.6989956 -7.248163 0.7255973,-9.161257 -8.25255 -0.6620756,-8.602371 -8.075085 -0.2517655,-8.148278 -7.437335 -0.009124637,-7.787157 -6.848749 0.2172139,-7.431734 -6.433884 0.4657552,-8.506142 -5.812873 -0.436222,-8.35087 -4.818079 -0.2543107,-8.312311 -4.166803 0.003649056,-8.306541 -3.64435 0.2243993,-8.868204 -5.678838 -0.4258329,-8.845431 -4.657627 -0.1491328,-8.920163 -4.25624 0.2606795,-9.027004 -4.231721 0.5832802,-9.215555 -5.797316 -0.3521907,-9.254982 -4.832173 -0.06356782,-9.306759 -4.486606 0.3496838,-9.370962 -4.481119 0.6305568,-9.562166 -6.137329 -0.2536884,-9.633806 -5.39637 0.05090916,-9.661733 -5.003685 0.3800582,-9.668427 -4.811786 0.6332136,3.410,31  0
-1.305606 -8.967117 -0.6440157,-1.775902 -8.859335 0.296043,-2.092358 -8.211266 0.7633413,-2.14501 -7.405807 1.120267,-2.333368 -6.762545 1.51803,-1.914618 -6.735352 0.3504153,-1.903138 -5.940082 0.9287434,-1.805953 -5.468759 1.353473,-1.700911 -5.061414 1.639442,-1.498493 -6.580191 0.1301685,-1.328057 -5.761872 1.014693,-1.328057 -5.761872 1.014693,-1.201414 -7.218517 1.669004,-1.12506 -6.632209 0.008519173,-0.9227228 -5.996007 0.782774,-0.9031458 -6.81729 1.104906,-0.9528046 -7.468393 1.117097,-0.7778196 -6.842199 -0.06736648,-0.5407529 -6.358192 0.5696226,-0.5663214 -6.830818 0.8397272,-0.6698914 -7.288819 0.89079,-9.14299 -8.295029 -0.5589494,-8.592102 -8.09268 -0.1557966,-8.137814 -7.430482 0.08789492,-7.784346 -6.841968 0.3166402,-7.431233 -6.430178 0.563395,-8.510893 -5.819002 -0.3148721,-8.369388 -4.829843 -0.1315689,-8.323679 -4.178771 0.1196877,-8.305623 -3.652124 0.3298609,-8.87902 -5.691152 -0.2943264,-8.871018 -4.677316 0.006920278,-8.912305 -4.289876 0.4189135,-8.970342 -4.274171 0.723202,-9.222698 -5.811063 -0.2143732,-9.276334 -4.864018 0.07910234,-9.294446 -4.496288 0.47752,-9.306328 -4.456478 0.740662,-9.557981 -6.144289 -0.1096088,-9.648769 -5.429398 0.1898635,-9.674896 -5.025482 0.5017148,-9.657738 -4.796352 0.7392929,3.510,31  0
-1.271552 -9.042244 -0.6040791,-1.752946 -8.943928 0.3593519,-2.074622 -8.311449 0.8396012,-2.12043 -7.505182 1.201812,-2.309714 -6.842519 1.60698,-1.911623 -6.805429 0.3913271,-1.877601 -6.018933 0.9861436,-1.765351 -5.564588 1.433054,-1.656582 -5.194355 1.716509,-1.48606 -6.643182 0.1641551,-1.31642 -5.818471 1.08075,-1.31642 -5.818471 1.08075,-1.17618 -7.287979 1.776921,-1.104603 -6.693782 0.04048687,-0.9075441 -6.057531 0.8529181,-0.8755589 -6.896616 1.198239,-0.9185038 -7.558061 1.217484,-0.7510114 -6.89853 -0.0395692,-0.5212803 -6.443521 0.6380509,-0.5414591 -6.927192 0.9306774,-0.6403093 -7.387714 1.005158,-9.173637 -8.284588 -0.5633658,-8.610876 -8.088005 -0.133426,-8.153259 -7.448059 0.1212785,-7.791443 -6.855226 0.3554226,-7.443802 -6.431852 0.6101042,-8.516478 -5.821523 -0.2979004,-8.362619 -4.838268 -0.1045339,-8.325523 -4.192903 0.160888,-8.321302 -3.680377 0.3883224,-8.880851 -5.685457 -0.2952757,-8.853087 -4.65999 -0.001168847,-8.929358 -4.277389 0.4303114,-9.036698 -4.285285 0.7627522,-9.230612 -5.805828 -0.2315597,-9.266985 -4.843007 0.0695684,-9.31295 -4.516937 0.500069,-9.368945 -4.535032 0.7887994,-9.57778 -6.147916 -0.1429215,-9.653529 -5.417346 0.1697052,-9.681789 -5.025135 0.5099617,-9.685534 -4.83109 0.7738652,3.610,31  0
-1.2727 -9.016565 -0.6733193,-1.744255 -8.951113 0.3029246,-2.059794 -8.329575 0.8047504,-2.112638 -7.526099 1.185558,-2.30943 -6.874437 1.622769,-1.892197 -6.813787 0.349138,-1.872863 -6.055084 0.9887991,-1.771434 -5.6282 1.449992,-1.688127 -5.263549 1.724505,-1.468657 -6.645451 0.1215004,-1.314307 -5.816707 1.071797,-1.314307 -5.816707 1.071797,-1.175788 -7.334632 1.732064,-1.086709 -6.689985 -0.002968073,-0.9022288 -6.092456 0.837221,-0.8766575 -6.973152 1.162987,-0.9201717 -7.60507 1.16932,-0.7320147 -6.880111 -0.08066028,-0.5090113 -6.432643 0.6019948,-0.5427685 -6.963544 0.8678532,-0.6453996 -7.42084 0.9153214,-9.152334 -8.272137 -0.6222163,-8.602126 -8.077215 -0.2178986,-8.149393 -7.445713 0.03604096,-7.791247 -6.859833 0.2765188,-7.436838 -6.457441 0.5391188,-8.523781 -5.819154 -0.3781698,-8.366866 -4.831556 -0.1878514,-8.327682 -4.188047 0.07638448,-8.325717 -3.673414 0.2984802,-8.883835 -5.687185 -0.3558199,-8.855543 -4.655149 -0.04924458,-8.93002 -4.28211 0.3724999,-9.038794 -4.291753 0.6889538,-9.226977 -5.806934 -0.2691625,-9.261477 -4.840106 0.04032534,-9.308146 -4.520978 0.4545084,-9.368455 -4.542827 0.7263929,-9.570763 -6.146329 -0.1598156,-9.646317 -5.39693 0.1559235,-9.674929 -5.016876 0.4826572,-9.684766 -4.836638 0.7309278,3.710,31  0
-1.268859 -8.99728 -0.6791947,-1.750395 -8.914701 0.3024659,-2.066777 -8.295261 0.812286,-2.121119 -7.492052 1.197059,-2.328773 -6.856361 1.639829,-1.891243 -6.809186 0.3807203,-1.879758 -6.058166 1.034517,-1.7828 -5.629289 1.508092,-1.704318 -5.261458 1.793699,-1.467583 -6.641067 0.153029,-1.322186 -5.813367 1.100936,-1.322186 -5.813367 1.100936,-1.175325 -7.327917 1.778147,-1.08362 -6.689917 0.02745199,-0.9018836 -6.081767 0.8717284,-0.8717022 -6.954113 1.198289,-0.9093904 -7.595747 1.212262,-0.7242966 -6.887389 -0.05108309,-0.500248 -6.42303 0.6422174,-0.5326991 -6.949177 0.9143258,-0.6348333 -7.40769 0.9715008,-9.151424 -8.287333 -0.5931429,-8.591715 -8.093887 -0.1740032,-8.138537 -7.457008 0.08409017,-7.781998 -6.864565 0.3221935,-7.425274 -6.448425 0.5783942,-8.510127 -5.824954 -0.3422358,-8.358957 -4.835184 -0.1518269,-8.320842 -4.190694 0.121904,-8.317384 -3.68247 0.3520185,-8.871861 -5.694953 -0.3286296,-8.848894 -4.653975 -0.0229845,-8.924734 -4.277631 0.4110446,-9.034495 -4.292714 0.7400736,-9.216228 -5.81896 -0.2526703,-9.257022 -4.839853 0.05270207,-9.304194 -4.512541 0.4701014,-9.369014 -4.525044 0.7437215,-9.559839 -6.166185 -0.1542569,-9.635744 -5.415197 0.1546543,-9.667572 -5.015897 0.4814574,-9.685802 -4.80843 0.7298429,3.810,31  0
-1.243561 -8.92404 -0.8114049,-1.744457 -8.878048 0.1745335,-2.075867 -8.292755 0.7096364,-2.14765 -7.481624 1.108251,-2.371733 -6.822042 1.559109,-1.896178 -6.826061 0.3231076,-1.915876 -6.066865 1.003114,-1.824224 -5.632585 1.487485,-1.745458 -5.279551 1.779242,-1.468166 -6.643317 0.1070542,-1.351863 -5.795009 1.073511,-1.351863 -5.795009 1.073511,-1.185661 -7.26445 1.737111,-1.078995 -6.675716 -0.009778023,-0.9143391 -6.051961 0.8648478,-0.8776932 -6.917581 1.175457,-0.9024544 -7.564151 1.172463,-0.7142086 -6.861557 -0.08290964,-0.5002422 -6.391544 0.632939,-0.5282488 -6.903202 0.9065787,-0.6178188 -7.357128 0.9694593,-9.182332 -8.280865 -0.5672879,-8.606467 -8.117678 -0.1569797,-8.136639 -7.47491 0.08616942,-7.774354 -6.878945 0.3148317,-7.422108 -6.463143 0.5669738,-8.494098 -5.823716 -0.3365385,-8.337342 -4.841241 -0.14844,-8.299234 -4.202068 0.13463,-8.298931 -3.716323 0.3763859,-8.856506 -5.684445 -0.322823,-8.826948 -4.654453 -0.02412045,-8.91474 -4.296669 0.4218796,-9.035522 -4.343072 0.7598026,-9.204348 -5.799024 -0.2433414,-9.2341 -4.837175 0.0593757,-9.289442 -4.521186 0.4846473,-9.360743 -4.559271 0.7634515,-9.551431 -6.135414 -0.1421353,-9.625889 -5.388337 0.173207,-9.660002 -4.998851 0.5055103,-9.678262 -4.816007 0.7567167,3.910,31  0
-1.223528 -8.833776 -0.8287414,-1.719416 -8.798397 0.1557384,-2.065493 -8.207907 0.6769873,-2.155529 -7.423265 1.074275,-2.377964 -6.764183 1.527637,-1.870083 -6.733512 0.2943852,-1.897844 -6.01259 0.9625636,-1.810915 -5.589521 1.432249,-1.729792 -5.250569 1.721154,-1.444034 -6.555291 0.0828889,-1.334713 -5.734703 1.064103,-1.334713 -5.734703 1.064103,-1.161932 -7.259028 1.722043,-1.051826 -6.593931 -0.0274837,-0.891129 -6.003625 0.8840933,-0.8479147 -6.89859 1.214655,-0.8635588 -7.584967 1.211244,-0.6763544 -6.786899 -0.09063143,-0.4869633 -6.375228 0.6477056,-0.5191355 -6.915699 0.9500194,-0.6091185 -7.394472 1.020485,-9.161184 -8.292067 -0.5629272,-8.604751 -8.108934 -0.166434,-8.143088 -7.469785 0.08014894,-7.788261 -6.876426 0.3158815,-7.434558 -6.46852 0.5760872,-8.506635 -5.832971 -0.3080554,-8.351953 -4.837606 -0.1260878,-8.317585 -4.196302 0.1343019,-8.320978 -3.699552 0.3534662,-8.863784 -5.693952 -0.2885369,-8.844194 -4.665929 -0.001047194,-8.926565 -4.293833 0.4061672,-9.03962 -4.299144 0.7190702,-9.202229 -5.805275 -0.2066922,-9.244205 -4.845245 0.07727426,-9.289718 -4.506885 0.4664507,-9.348783 -4.491689 0.7255609,-9.540993 -6.137376 -0.1007731,-9.622021 -5.391271 0.196698,-9.657743 -4.994527 0.5024787,-9.680106 -4.77705 0.7307452,4.010,31  0
-1.20721 -8.778076 -0.8677155,-1.71763 -8.758041 0.1442357,-2.069164 -8.174055 0.6824915,-2.157696 -7.387067 1.08992,-2.372518 -6.713522 1.548631,-1.863168 -6.716001 0.315827,-1.889447 -5.995153 0.9963099,-1.80088 -5.559381 1.475237,-1.717921 -5.212114 1.773631,-1.435074 -6.534555 0.09723133,-1.324024 -5.727446 1.087235,-1.324024 -5.727446 1.087235,-1.151034 -7.219635 1.761262,-1.036465 -6.560529 -0.01953983,-0.8792238 -5.987599 0.8884962,-0.8309598 -6.871849 1.203537,-0.845129 -7.555108 1.197145,-0.655056 -6.73661 -0.08508515,-0.4682746 -6.325065 0.6526461,-0.4969473 -6.870807 0.9442089,-0.5886106 -7.363848 1.012286,-9.137095 -8.34968 -0.5459325,-8.591127 -8.131245 -0.1479638,-8.139372 -7.46294 0.09991539,-7.788237 -6.875462 0.3361674,-7.430781 -6.453129 0.587118,-8.518636 -5.872399 -0.2590482,-8.369928 -4.86882 -0.05081344,-8.327799 -4.219911 0.1954374,-8.309126 -3.683178 0.3892326,-8.890423 -5.745861 -0.2319319,-8.882748 -4.711488 0.06918204,-8.945809 -4.317884 0.4476153,-9.017693 -4.272368 0.7243448,-9.236125 -5.873977 -0.1492403,-9.288918 -4.9108 0.1425067,-9.330244 -4.523859 0.5265596,-9.358046 -4.432722 0.7812573,-9.572488 -6.223337 -0.04147011,-9.654998 -5.503183 0.2514775,-9.689195 -5.076898 0.5563406,-9.684152 -4.791163 0.7905215,4.110,31  0
-1.212898 -8.77718 -0.7658583,-1.728491 -8.754223 0.2665631,-2.073235 -8.160383 0.8060826,-2.155728 -7.349732 1.194524,-2.385975 -6.681552 1.63557,-1.864099 -6.730812 0.5191454,-1.893888 -5.988504 1.215109,-1.813681 -5.533306 1.706808,-1.737825 -5.179816 2.013707,-1.430472 -6.539161 0.2848746,-1.32489 -5.663711 1.263428,-1.32489 -5.663711 1.263428,-1.125231 -7.094074 1.958638,-1.028651 -6.560259 0.1483791,-0.8660808 -5.934232 1.049613,-0.8145514 -6.782714 1.388773,-0.8176923 -7.472034 1.406075,-0.6431379 -6.734371 0.0601514,-0.4418154 -6.259071 0.814744,-0.4658561 -6.774098 1.129102,-0.5523739 -7.277688 1.227318,-9.157917 -8.331963 -0.5659193,-8.602708 -8.1283 -0.1507989,-8.150146 -7.470534 0.09566665,-7.802958 -6.863698 0.3284741,-7.442408 -6.439397 0.5745279,-8.528459 -5.869481 -0.2851199,-8.380992 -4.877566 -0.09122816,-8.338219 -4.227852 0.1511407,-8.323348 -3.685709 0.3431729,-8.898091 -5.733775 -0.2639744,-8.887227 -4.702443 0.04203153,-8.944752 -4.317188 0.4450768,-9.022327 -4.276269 0.7462143,-9.239831 -5.844108 -0.1825829,-9.289562 -4.875001 0.1114572,-9.322006 -4.50114 0.5121926,-9.352201 -4.429807 0.7819228,-9.576338 -6.171195 -0.07379577,-9.654805 -5.43036 0.2100428,-9.67776 -5.01078 0.5179765,-9.668599 -4.742693 0.7646545,4.210,31  0
-1.201663 -8.782696 -0.7073979,-1.714605 -8.753122 0.3013151,-2.072589 -8.161255 0.8394336,-2.157894 -7.348341 1.235523,-2.385465 -6.685583 1.684871,-1.863974 -6.720569 0.5412388,-1.903824 -5.98468 1.227595,-1.8198 -5.536281 1.714487,-1.738565 -5.187341 2.015876,-1.4294 -6.517898 0.3231839,-1.324772 -5.665974 1.305091,-1.324772 -5.665974 1.305091,-1.126539 -7.150518 2.011361,-1.02082 -6.538146 0.2021064,-0.861721 -5.929058 1.087773,-0.8083725 -6.792358 1.415826,-0.8132081 -7.476902 1.434294,-0.625062 -6.715126 0.12922,-0.423521 -6.246222 0.8606915,-0.4501019 -6.774206 1.163113,-0.5418921 -7.270048 1.257927,-9.178545 -8.301552 -0.5959645,-8.624591 -8.12184 -0.2155119,-8.163394 -7.482139 0.01841819,-7.809671 -6.887765 0.2473872,-7.461419 -6.474731 0.4919016,-8.538663 -5.845041 -0.3902771,-8.386006 -4.849069 -0.2235407,-8.342238 -4.190038 0.02255231,-8.332487 -3.674416 0.2231168,-8.895922 -5.706922 -0.3671073,-8.88692 -4.684545 -0.1049193,-8.947954 -4.310896 0.2829292,-9.038149 -4.306869 0.5778021,-9.23028 -5.811819 -0.2813588,-9.282486 -4.85814 -0.01935387,-9.315495 -4.511083 0.3515683,-9.357562 -4.486112 0.5968143,-9.561669 -6.132325 -0.171748,-9.646688 -5.389106 0.09759498,-9.675864 -4.99976 0.3828653,-9.684246 -4.786658 0.5973755,4.310,31  0
-1.17205 -8.744637 -0.6790035,-1.706637 -8.760002 0.3783534,-2.05689 -8.201023 0.96526,-2.150185 -7.385931 1.389098,-2.398804 -6.746344 1.873494,-1.83904 -6.787399 0.7827935,-1.878911 -6.06052 1.56335,-1.813688 -5.606995 2.115575,-1.751587 -5.263144 2.442758,-1.398102 -6.574064 0.5544692,-1.294437 -5.703788 1.589382,-1.294437 -5.703788 1.589382,-1.11906 -7.038647 2.329674,-0.9824638 -6.599226 0.4174269,-0.8120909 -5.980424 1.355293,-0.7811632 -6.795749 1.668827,-0.7935281 -7.453325 1.680379,-0.5819063 -6.797771 0.3267494,-0.3644457 -6.311813 1.1024,-0.3956881 -6.806432 1.408784,-0.4909611 -7.296504 1.513166,-9.190613 -8.291513 -0.6143946,-8.635975 -8.116344 -0.2058522,-8.178195 -7.486731 0.03912783,-7.83089 -6.884815 0.2722096,-7.48643 -6.475255 0.517429,-8.548424 -5.848785 -0.3745128,-8.398695 -4.850884 -0.1897199,-8.364316 -4.195146 0.07742882,-8.363976 -3.690155 0.2964201,-8.903806 -5.70494 -0.3609937,-8.891535 -4.671188 -0.07820606,-8.968674 -4.332967 0.3327444,-9.073508 -4.375946 0.6399999,-9.237771 -5.801307 -0.2829709,-9.285971 -4.839284 -0.008226275,-9.332359 -4.520559 0.3654906,-9.38959 -4.525582 0.6097494,-9.571425 -6.112146 -0.180068,-9.660564 -5.369975 0.09299421,-9.70026 -4.978336 0.3761622,-9.725191 -4.760385 0.5891824,4.410,31  0
-1.164867 -8.784035 -0.4562751,-1.698531 -8.77372 0.6026862,-2.054249 -8.204655 1.192772,-2.151779 -7.381905 1.629399,-2.397439 -6.716062 2.141497,-1.833053 -6.741533 0.9888186,-1.863384 -6.028681 1.768409,-1.794088 -5.590923 2.339429,-1.72344 -5.291828 2.692539,-1.389364 -6.530866 0.7601619,-1.263538 -5.702101 1.793297,-1.263538 -5.702101 1.793297,-1.10494 -7.076426 2.577978,-0.9697618 -6.56328 0.6260469,-0.7827826 -5.993892 1.557422,-0.7562099 -6.839479 1.870519,-0.7753372 -7.496063 1.890092,-0.5681524 -6.771283 0.5387446,-0.3430557 -6.315124 1.300396,-0.3768878 -6.845879 1.592691,-0.4761629 -7.334911 1.688023,-9.178423 -8.307858 -0.5423865,-8.632829 -8.118589 -0.1249648,-8.180873 -7.472829 0.13521,-7.83472 -6.879104 0.3766044,-7.477478 -6.453392 0.6398551,-8.55428 -5.838576 -0.2678889,-8.406154 -4.861936 -0.07443735,-8.36607 -4.214609 0.1937636,-8.357856 -3.694199 0.4115807,-8.918164 -5.700889 -0.2582394,-8.904605 -4.685878 0.0272069,-8.965333 -4.316894 0.4336812,-9.049956 -4.308712 0.7413464,-9.25639 -5.815607 -0.1874639,-9.300332 -4.859144 0.08808804,-9.33099 -4.50605 0.4658546,-9.36634 -4.465942 0.7183682,-9.592451 -6.145153 -0.0915333,-9.672131 -5.405728 0.1763758,-9.698994 -4.994305 0.4626328,-9.699974 -4.742389 0.6870059,4.510,31  0
-1.147708 -8.899233 -0.2752933,-1.686984 -8.89263 0.8064306,-2.054769 -8.319998 1.431454,-2.150735 -7.497158 1.906302,-2.379077 -6.810461 2.448593,-1.818811 -6.808105 1.208246,-1.849789 -6.084118 2.046234,-1.775764 -5.680267 2.662259,-1.691289 -5.445789 3.045103,-1.360667 -6.613174 0.9911616,-1.220778 -5.787778 2.077422,-1.220778 -5.787778 2.077422,-1.058939 -7.202301 2.88936,-0.9312315 -6.666473 0.872877,-0.7258492 -6.071294 1.842334,-0.6981688 -6.944116 2.136859,-0.7280669 -7.615856 2.136937,-0.5217867 -6.906852 0.8080988,-0.2785206 -6.407606 1.575399,-0.309577 -6.944863 1.870058,-0.4123783 -7.433818 1.963797,-9.196492 -8.309069 -0.6126372,-8.637667 -8.124182 -0.2156306,-8.177123 -7.480444 0.02311164,-7.826215 -6.88271 0.2529209,-7.474024 -6.468193 0.5054066,-8.550678 -5.857294 -0.3802722,-8.400457 -4.868504 -0.2079978,-8.356385 -4.210877 0.0444954,-8.344047 -3.67094 0.2499872,-8.9124 -5.72157 -0.3607659,-8.896904 -4.696821 -0.100159,-8.95085 -4.31628 0.2904078,-9.034502 -4.285517 0.5839864,-9.250699 -5.828249 -0.2802421,-9.293553 -4.870647 -0.02516353,-9.317298 -4.510551 0.3462327,-9.350446 -4.456281 0.594505,-9.587019 -6.147254 -0.1745927,-9.665262 -5.410328 0.07625872,-9.688933 -4.995296 0.3472111,-9.690285 -4.735778 0.5603291,4.610,31  0
-1.130212 -8.954079 -0.202162,-1.676646 -8.949085 0.880784,-2.048362 -8.383074 1.528509,-2.150865 -7.579313 2.032821,-2.384624 -6.884634 2.618741,-1.7906 -6.854538 1.317457,-1.811803 -6.152753 2.232883,-1.739285 -5.781198 2.88021,-1.673846 -5.59933 3.240416,-1.320736 -6.663587 1.102733,-1.175997 -5.883575 2.262332,-1.175997 -5.883575 2.262332,-1.081963 -7.372623 2.990444,-0.8833184 -6.741564 0.9896172,-0.6828814 -6.163164 2.030966,-0.6890841 -7.057397 2.281786,-0.7510386 -7.68753 2.231192,-0.4774761 -7.007442 0.9247922,-0.2374811 -6.486471 1.719046,-0.2814827 -7.015673 1.984386,-0.3966379 -7.475084 2.032582,-9.211485 -8.271322 -0.6365107,-8.636978 -8.128946 -0.2129337,-8.170291 -7.497356 0.0321486,-7.820964 -6.896598 0.2587603,-7.47761 -6.472005 0.4985296,-8.539688 -5.849555 -0.38971,-8.387774 -4.873592 -0.209778,-8.360978 -4.216272 0.05843234,-8.368226 -3.693899 0.2786262,-8.896115 -5.692997 -0.3986793,-8.874843 -4.669988 -0.1251353,-8.961098 -4.322225 0.2859385,-9.075642 -4.342406 0.59847,-9.233308 -5.774011 -0.3451264,-9.273976 -4.815509 -0.07330108,-9.331271 -4.503566 0.3120416,-9.405118 -4.514884 0.5626166,-9.571895 -6.063049 -0.2674915,-9.648546 -5.315156 -0.002894402,-9.685037 -4.936193 0.2785107,-9.713636 -4.743095 0.4911826,4.710,31  0
-1.091983 -8.945713 -0.2141362,-1.653682 -8.980688 0.8800701,-2.041087 -8.410679 1.538947,-2.148252 -7.598856 2.044731,-2.385069 -6.911768 2.619586,-1.773207 -6.905818 1.366132,-1.796428 -6.226156 2.302478,-1.726044 -5.846295 2.933154,-1.670021 -5.629322 3.273006,-1.295699 -6.695196 1.150192,-1.142265 -5.968041 2.344091,-1.142265 -5.968041 2.344091,-1.1008 -7.42073 3.016492,-0.8495197 -6.759901 1.028889,-0.6428146 -6.236059 2.091625,-0.6677971 -7.144265 2.281609,-0.7457671 -7.724086 2.177485,-0.4379392 -7.011981 0.9605922,-0.1980023 -6.497726 1.750328,-0.2596359 -7.048416 1.970025,-0.3910656 -7.489197 1.969012,-9.177876 -8.322662 -0.6177246,-8.617537 -8.138121 -0.1997609,-8.169157 -7.490438 0.05609065,-7.82941 -6.899513 0.3000162,-7.470837 -6.470287 0.5632026,-8.544393 -5.868787 -0.3356883,-8.397228 -4.885885 -0.1264258,-8.35056 -4.246234 0.1291299,-8.331108 -3.700001 0.3210905,-8.910292 -5.740495 -0.3135723,-8.898942 -4.727487 -0.009491026,-8.954778 -4.325677 0.3914804,-9.03179 -4.233568 0.6904435,-9.248622 -5.849508 -0.2318318,-9.30187 -4.899801 0.0560196,-9.337976 -4.493673 0.4486177,-9.37229 -4.360385 0.7143232,-9.583674 -6.166614 -0.1226187,-9.661736 -5.438986 0.1444659,-9.686674 -5.001798 0.4345521,-9.680793 -4.684478 0.6655021,4.810,31  0
-1.114553 -9.173405 0.1196262,-1.679472 -9.073103 1.176389,-2.050032 -8.455494 1.798666,-2.156283 -7.614718 2.30923,-2.394341 -6.8919 2.889792,-1.786245 -6.857141 1.459632,-1.788825 -6.101001 2.395978,-1.705132 -5.768702 3.056391,-1.635455 -5.669034 3.412495,-1.310031 -6.697375 1.264669,-1.150968 -5.908947 2.456817,-1.150968 -5.908947 2.456817,-1.078158 -7.496847 3.217083,-0.8663249 -6.800161 1.181514,-0.6535726 -6.155616 2.250041,-0.6566668 -7.116167 2.512578,-0.7361956 -7.77541 2.449059,-0.4548388 -7.082261 1.146178,-0.1966147 -6.49776 1.94587,-0.2278032 -7.053768 2.199496,-0.3479223 -7.525726 2.217263,-9.185977 -8.288334 -0.5720715,-8.637262 -8.122276 -0.153725,-8.184156 -7.47723 0.0994761,-7.840566 -6.881952 0.3395765,-7.49407 -6.467257 0.601431,-8.561529 -5.826999 -0.3025244,-8.411159 -4.851417 -0.1065647,-8.365657 -4.198143 0.1596017,-8.353266 -3.682706 0.3738907,-8.922454 -5.690728 -0.283771,-8.914268 -4.676667 0.006945968,-8.970938 -4.306548 0.4198123,-9.054263 -4.31264 0.726874,-9.260471 -5.799547 -0.1992928,-9.31094 -4.847307 0.08730233,-9.335823 -4.503385 0.4852045,-9.368219 -4.490325 0.7517774,-9.59578 -6.122787 -0.09063125,-9.684592 -5.385166 0.1965324,-9.712974 -4.980673 0.4996359,-9.717972 -4.755792 0.7379749,4.910,31  0
-1.104166 -9.114235 -0.1030177,-1.675566 -9.067562 1.02785,-2.046953 -8.475592 1.679722,-2.144438 -7.642038 2.19795,-2.381833 -6.907674 2.786882,-1.789764 -6.91543 1.325012,-1.812979 -6.162496 2.32208,-1.72629 -5.819446 3.016413,-1.653773 -5.674772 3.378626,-1.306385 -6.739929 1.104398,-1.166746 -5.903596 2.366523,-1.166746 -5.903596 2.366523,-1.063248 -7.510147 3.128033,-0.8629389 -6.829498 1.001122,-0.6532812 -6.177675 2.153241,-0.6525173 -7.159442 2.450395,-0.7244339 -7.830185 2.373513,-0.4557686 -7.103796 0.9463921,-0.1922669 -6.543907 1.820875,-0.2233276 -7.104481 2.113004,-0.3396292 -7.593572 2.144308,-9.220264 -8.27314 -0.6758391,-8.662072 -8.108019 -0.2329284,-8.198266 -7.492275 0.02340609,-7.848663 -6.894456 0.2561852,-7.495747 -6.480163 0.5026257,-8.575621 -5.858311 -0.3765896,-8.427665 -4.865525 -0.1841888,-8.390401 -4.214456 0.07882345,-8.382834 -3.685104 0.2881991,-8.933333 -5.708224 -0.3859545,-8.918616 -4.686174 -0.1041036,-8.992697 -4.316482 0.300486,-9.092404 -4.30186 0.6085502,-9.265972 -5.800649 -0.3341087,-9.31185 -4.845329 -0.05880529,-9.357481 -4.506038 0.3251975,-9.414186 -4.475886 0.580542,-9.597672 -6.1065 -0.2552787,-9.679284 -5.374484 0.01648104,-9.716504 -4.97984 0.3054935,-9.738184 -4.751514 0.5292211,5.010,31  0
-1.644748 -8.671928 -2.136475,-2.03955 -8.3948 -1.496549,-2.177436 -7.799175 -1.099142,-2.246794 -7.294074 -0.8140193,-2.384341 -6.710067 -0.4544376,-1.915952 -6.810482 -0.7944087,-1.848262 -6.128317 -0.2107441,-1.763099 -5.680576 0.2226985,-1.65966 -5.359866 0.5518301,-1.675344 -7.018352 -0.8581572,-1.484421 -6.489782 -0.1027057,-1.484421 -6.489782 -0.1027057,-1.178755 -6.066925 0.7317722,-1.500681 -7.369217 -0.9246148,-1.319071 -7.08849 -0.1035819,-1.248553 -7.07104 0.3541651,-1.195589 -7.011481 0.5867779,-1.402339 -7.778143 -0.9791187,-1.240395 -7.677858 -0.2514368,-1.184177 -7.67692 0.1645029,-1.144251 -7.618446 0.4281986,-9.22585 -8.313002 -0.6360281,-8.682782 -8.129116 -0.1717465,-8.23278 -7.501441 0.09081113,-7.891946 -6.901122 0.3285797,-7.538774 -6.480463 0.5815029,-8.608015 -5.876022 -0.319185,-8.459375 -4.902982 -0.1284315,-8.418646 -4.263425 0.1152675,-8.411443 -3.732392 0.3030946,-8.97064 -5.733707 -0.3418398,-8.962029 -4.745937 -0.07894671,-9.041037 -4.366285 0.2863981,-9.139304 -4.31393 0.5645783,-9.302402 -5.831532 -0.2951229,-9.351812 -4.90602 -0.04360205,-9.401096 -4.552492 0.3022037,-9.455296 -4.493297 0.5346558,-9.629607 -6.132724 -0.2141851,-9.715049 -5.427436 0.02541864,-9.75311 -5.029527 0.2930735,-9.767509 -4.775529 0.5068468,5.110,31  0
-1.769693 -8.301531 -1.325073,-2.161641 -8.075535 -0.5141652,-2.372108 -7.644008 0.1641622,-2.532064 -7.215719 0.6813066,-2.615906 -6.836008 1.214275,-2.058404 -6.880153 0.6486923,-1.879564 -6.333127 1.495245,-1.818993 -6.023345 2.033337,-1.732836 -5.800384 2.327262,-1.800215 -6.916597 0.5387563,-1.519237 -6.490661 1.409688,-1.519237 -6.490661 1.409688,-1.228469 -5.882 2.185189,-1.613375 -7.126831 0.4284145,-1.387317 -6.865495 1.265305,-1.246465 -6.54374 1.687608,-1.147746 -6.220018 1.987301,-1.548347 -7.367941 0.3157282,-1.388162 -7.130094 1.046894,-1.2748 -6.925815 1.378778,-1.192641 -6.71883 1.648542,-9.263041 -8.306614 -0.6390097,-8.707379 -8.138355 -0.1613379,-8.254687 -7.517232 0.116846,-7.91215 -6.91043 0.3598709,-7.555749 -6.489128 0.6241018,-8.631312 -5.885172 -0.2529934,-8.475034 -4.923181 -0.03569418,-8.435697 -4.281353 0.2265026,-8.435708 -3.744712 0.4204097,-8.995767 -5.73746 -0.2812588,-8.976184 -4.755691 0.003591418,-9.054955 -4.363729 0.3806635,-9.158951 -4.297847 0.6727351,-9.331319 -5.828855 -0.2471449,-9.373434 -4.911677 0.02851993,-9.426332 -4.55112 0.3993839,-9.489381 -4.482157 0.6502316,-9.662836 -6.124877 -0.1782113,-9.73952 -5.425865 0.08089721,-9.777241 -5.029556 0.3633559,-9.793966 -4.772638 0.5908337,5.210,31  0
-1.391397 -8.695055 -0.2895548,-1.858735 -8.677027 0.7471812,-2.118862 -8.063456 1.402025,-2.292418 -7.386542 1.87935,-2.397176 -6.678434 2.378352,-1.875472 -6.730276 1.673102,-1.784961 -5.949382 2.584202,-1.705055 -5.641675 3.186543,-1.636801 -5.473417 3.525423,-1.522364 -6.768223 1.477891,-1.246728 -6.4103 2.573014,-1.246728 -6.4103 2.573014,-1.1201 -6.5762 3.652609,-1.211255 -7.06775 1.318624,-0.9464798 -6.973253 2.450967,-0.8819866 -7.253652 2.951284,-0.9236069 -7.380199 3.167064,-1.007606 -7.426576 1.166569,-0.7481241 -7.52333 2.118018,-0.6591234 -7.783722 2.51157,-0.6886578 -7.872089 2.764861,-9.259396 -8.287832 -0.6403054,-8.712313 -8.126495 -0.1716262,-8.260593 -7.507757 0.1056328,-7.915497 -6.91714 0.3552596,-7.560902 -6.498865 0.6308224,-8.630152 -5.855115 -0.286217,-8.485197 -4.906679 -0.07481897,-8.443427 -4.27167 0.1985593,-8.439107 -3.754577 0.4106956,-8.99118 -5.717216 -0.2966464,-8.978315 -4.739291 0.002633274,-9.042687 -4.352552 0.4030347,-9.138297 -4.307822 0.7072461,-9.328636 -5.825414 -0.244011,-9.376547 -4.906274 0.04558939,-9.415372 -4.560447 0.4337209,-9.470093 -4.515348 0.6951417,-9.666146 -6.148189 -0.1597843,-9.753143 -5.450125 0.1250795,-9.789382 -5.054233 0.4231675,-9.808576 -4.802295 0.6620989,5.310,31  0
-1.285973 -8.635614 0.03369879,-1.737525 -8.622299 1.136726,-2.006401 -8.121397 1.865249,-2.081865 -7.465486 2.446599,-2.282873 -6.847446 3.194576,-1.822597 -6.513086 1.842173,-1.677176 -6.057526 2.835437,-1.507407 -5.791482 3.476665,-1.371665 -5.580361 3.870972,-1.329225 -6.409421 1.579252,-0.9673896 -6.407781 2.641278,-0.9673896 -6.407781 2.641278,-0.9602489 -7.027802 3.421705,-0.8721266 -6.620344 1.399652,-0.534843 -6.893938 2.394477,-0.591166 -7.460265 2.58726,-0.7452335 -7.661045 2.539153,-0.5069423 -6.988534 1.27023,-0.2185507 -7.14944 2.098447,-0.2385263 -7.513391 2.335784,-0.3653107 -7.631227 2.401676,-9.266987 -8.27512 -0.6570796,-8.714266 -8.119465 -0.1451491,-8.260753 -7.510288 0.1571091,-7.916604 -6.920026 0.4203292,-7.554227 -6.496702 0.707129,-8.637825 -5.849393 -0.2370003,-8.496161 -4.899072 -0.01835537,-8.458649 -4.269807 0.258682,-8.458045 -3.757915 0.4745471,-9.003228 -5.71595 -0.2646513,-8.992202 -4.737264 0.04149842,-9.067717 -4.343145 0.4491547,-9.175317 -4.286853 0.7685261,-9.341778 -5.827203 -0.2291939,-9.396892 -4.91122 0.07016277,-9.45215 -4.554296 0.4715214,-9.521675 -4.492589 0.7432882,-9.677654 -6.146133 -0.1584868,-9.761402 -5.446294 0.1342729,-9.801403 -5.050926 0.4374878,-9.824347 -4.794823 0.6853198,5.410,31 3 0
-1.624582 -8.516638 -1.073174,-2.020785 -8.441641 -0.01864231,-2.1959 -7.899477 0.692709,-2.349158 -7.348928 1.207627,-2.441568 -6.784577 1.735483,-1.91495 -6.895368 0.9539006,-1.759604 -6.25398 1.887019,-1.654471 -5.953222 2.53188,-1.515468 -5.754415 2.897679,-1.679395 -6.938386 0.726371,-1.424547 -6.431922 1.704832,-1.424547 -6.431922 1.704832,-1.021263 -6.222483 2.708459,-1.490525 -7.161756 0.5220621,-1.276865 -6.913123 1.485033,-1.080542 -6.887846 1.984046,-0.9576454 -6.799082 2.30074,-1.40953 -7.415567 0.3267525,-1.268444 -7.247133 1.137772,-1.123013 -7.259399 1.533382,-1.021864 -7.221239 1.849257,-9.267372 -8.321463 -0.6138117,-8.714605 -8.161219 -0.1267673,-8.268408 -7.531627 0.1621467,-7.936371 -6.927684 0.4161661,-7.579687 -6.500808 0.6979939,-8.644677 -5.881685 -0.2196501,-8.50178 -4.929229 -0.01101333,-8.4635 -4.287746 0.253641,-8.461996 -3.758006 0.4616163,-9.00796 -5.746797 -0.2378685,-8.999287 -4.777961 0.05609417,-9.069912 -4.384753 0.454259,-9.16836 -4.322303 0.7612774,-9.344336 -5.85066 -0.1964473,-9.395834 -4.940809 0.09039634,-9.441282 -4.580434 0.4799997,-9.49896 -4.51159 0.7452542,-9.677355 -6.15861 -0.1192077,-9.766994 -5.463472 0.1556217,-9.80958 -5.064401 0.448351,-9.831461 -4.797074 0.6875371,5.510,31 3 0
-1.736429 -8.256746 -3.160537,-2.05745 -7.971668 -2.700039,-2.144817 -7.580918 -2.298143,-2.18536 -7.194016 -1.981591,-2.279968 -6.712413 -1.617867,-1.800858 -6.855741 -1.89878,-1.672452 -6.364442 -1.353163,-1.632052 -5.817222 -1.04028,-1.578321 -5.255889 -0.8058398,-1.636384 -6.98639 -1.892478,-1.403443 -6.799464 -1.277572,-1.403443 -6.799464 -1.277572,-1.450869 -6.675975 -0.8576859,-1.535745 -7.189268 -1.884099,-1.36683 -7.139513 -1.230777,-1.475945 -7.290382 -1.060751,-1.576936 -7.310291 -0.9774593,-1.501068 -7.445104 -1.853035,-1.373071 -7.378211 -1.249694,-1.403374 -7.301688 -0.9407304,-1.432598 -7.148313 -0.7476061,-9.275885 -8.319706 -0.5906741,-8.7191 -8.150581 -0.1064746,-8.271577 -7.520022 0.1827198,-7.931785 -6.924116 0.4414704,-7.568944 -6.49626 0.7264837,-8.648535 -5.862496 -0.2313117,-8.503353 -4.924249 -0.02976894,-8.467398 -4.291773 0.2435182,-8.472531 -3.77603 0.4637079,-9.008146 -5.735535 -0.2407373,-8.992134 -4.782025 0.06745821,-9.066091 -4.408708 0.4980607,-9.173635 -4.38397 0.8245162,-9.343329 -5.845998 -0.1851974,-9.393487 -4.952495 0.1175897,-9.446511 -4.604846 0.5321342,-9.516173 -4.558179 0.8089896,-9.676639 -6.161827 -0.09712198,-9.765332 -5.460628 0.2002119,-9.805974 -5.073509 0.5133457,-9.830581 -4.834632 0.7612448,5.610,31 3 0
-1.477308 -8.717445 -0.9598805,-1.940547 -8.469271 0.004341066,-2.143751 -7.86281 0.6732143,-2.249825 -7.220798 1.157212,-2.318492 -6.579483 1.640191,-1.858177 -6.989439 1.07549,-1.724792 -6.309345 1.986196,-1.631857 -5.835203 2.544981,-1.515864 -5.416934 2.86152,-1.51811 -7.177948 0.9153068,-1.227436 -6.832968 1.917466,-1.227436 -6.832968 1.917466,-0.8915877 -5.892444 2.855329,-1.230265 -7.520814 0.7938409,-0.9638119 -7.38251 1.876067,-0.7996821 -7.022105 2.37308,-0.7201595 -6.590599 2.648715,-1.034387 -7.884868 0.6820494,-0.8042545 -7.840438 1.6216,-0.6728706 -7.682493 2.100421,-0.6088247 -7.386674 2.463539,-9.278607 -8.329996 -0.6144338,-8.724913 -8.162247 -0.1364101,-8.275384 -7.531944 0.1531664,-7.933625 -6.934481 0.4103248,-7.573658 -6.514759 0.6992029,-8.645228 -5.890195 -0.2384334,-8.496277 -4.941202 -0.02072239,-8.461492 -4.306321 0.2580702,-8.466563 -3.793621 0.4773927,-9.009502 -5.755581 -0.2448001,-8.994885 -4.781163 0.07789785,-9.063725 -4.423925 0.5063031,-9.1636 -4.41789 0.8274794,-9.348598 -5.861971 -0.188742,-9.398333 -4.950939 0.1164981,-9.441952 -4.607332 0.525254,-9.499821 -4.559997 0.7971191,-9.686513 -6.174562 -0.1033217,-9.777637 -5.48203 0.1888896,-9.821668 -5.092124 0.4967105,-9.847657 -4.836251 0.7421337,5.710,31 3 0
-1.464477 -8.558151 -0.7529033,-1.91691 -8.492411 0.3250389,-2.12218 -7.917091 0.9912598,-2.256052 -7.295752 1.490331,-2.332452 -6.650301 1.983219,-1.828019 -6.709825 1.223762,-1.682048 -6.000112 2.141636,-1.57339 -5.672342 2.72279,-1.462012 -5.463296 3.012034,-1.488392 -6.793253 0.9971358,-1.158249 -6.553262 2.090567,-1.158249 -6.553262 2.090567,-0.9049978 -6.476372 3.100418,-1.212936 -7.091767 0.8163357,-0.9472446 -7.216455 1.947158,-0.8515062 -7.417533 2.427828,-0.8505955 -7.474158 2.612003,-1.060384 -7.437151 0.6498342,-0.8352137 -7.632118 1.557154,-0.7300501 -7.854751 1.953528,-0.7105627 -7.916943 2.191389,-9.261538 -8.367558 -0.5732763,-8.71242 -8.193081 -0.09908944,-8.265343 -7.53899 0.1924253,-7.925501 -6.941547 0.4510837,-7.560163 -6.518442 0.7402103,-8.650331 -5.912266 -0.188797,-8.503936 -4.961959 0.01683521,-8.46639 -4.328002 0.2802603,-8.46543 -3.791385 0.4886934,-9.010921 -5.780034 -0.1991045,-8.998152 -4.812944 0.1027558,-9.070137 -4.442128 0.507393,-9.169103 -4.390995 0.8181887,-9.347835 -5.884757 -0.1512071,-9.401531 -4.975488 0.1370593,-9.453063 -4.624275 0.5246038,-9.519519 -4.553218 0.7839546,-9.682409 -6.196231 -0.07168627,-9.774103 -5.494845 0.1944254,-9.817685 -5.093074 0.4745513,-9.846058 -4.819261 0.704281,5.810,31 3 0
-1.389074 -8.83285 0.4279656,-1.833339 -8.829336 1.416168,-2.096206 -8.171856 2.057585,-2.249917 -7.484122 2.606407,-2.395491 -6.774084 3.239394,-1.827077 -6.415988 1.901904,-1.714514 -5.476476 2.736541,-1.587935 -5.288219 3.280125,-1.477555 -5.356395 3.509679,-1.470809 -6.312633 1.697259,-1.106046 -6.18362 2.678667,-1.106046 -6.18362 2.678667,-1.05794 -7.187019 3.456898,-1.150035 -6.531277 1.561679,-0.8300986 -6.79047 2.474474,-0.8528271 -7.498852 2.755984,-0.9620595 -7.81147 2.789579,-0.9375801 -6.862279 1.455445,-0.6449814 -7.218307 2.134668,-0.5991106 -7.761753 2.321291,-0.6550064 -7.948839 2.3599,-9.282556 -8.390171 -0.6341345,-8.74139 -8.198744 -0.1664282,-8.293962 -7.559385 0.1149443,-7.952842 -6.968421 0.3708282,-7.592084 -6.54388 0.6517597,-8.66836 -5.949866 -0.2759185,-8.523579 -4.982456 -0.09282124,-8.485848 -4.349976 0.1335852,-8.483377 -3.814695 0.3034953,-9.028995 -5.815386 -0.2976087,-9.021436 -4.848045 -0.03106749,-9.101202 -4.459371 0.3235523,-9.200583 -4.379594 0.592525,-9.364088 -5.917751 -0.2575286,-9.41636 -5.011459 -0.005739629,-9.468968 -4.645394 0.3444387,-9.527117 -4.550069 0.5786407,-9.69526 -6.223538 -0.1810239,-9.780098 -5.547603 0.04931086,-9.824781 -5.134592 0.3064525,-9.851014 -4.824773 0.5174711,5.910,31 3 0
-1.023829 -8.919247 -0.08653047,-1.570496 -8.94689 0.9702518,-2.003143 -8.337648 1.515475,-2.157393 -7.541019 1.929657,-2.400006 -6.876418 2.39088,-1.791296 -6.755533 1.336379,-1.830521 -5.84902 2.15277,-1.683447 -5.520916 2.710187,-1.527202 -5.528841 3.041135,-1.344728 -6.545143 1.106361,-1.123893 -5.709884 2.1373,-1.123893 -5.709884 2.1373,-0.9650922 -7.088766 2.777929,-0.9217324 -6.620634 0.9755218,-0.6994982 -6.103639 1.971383,-0.6298075 -6.960357 2.321468,-0.6807675 -7.672847 2.355938,-0.5428438 -6.883499 0.8916299,-0.3422494 -6.454049 1.755916,-0.3053513 -7.06107 2.107112,-0.3822002 -7.632381 2.224759,-9.302542 -8.411371 -0.6432301,-8.754527 -8.223431 -0.185337,-8.306255 -7.577117 0.06902844,-7.966652 -6.970611 0.295386,-7.617722 -6.545656 0.5391372,-8.693163 -5.965139 -0.3248367,-8.548925 -4.988147 -0.1415404,-8.511345 -4.348404 0.08734637,-8.506742 -3.8098 0.2531402,-9.057894 -5.832979 -0.3506266,-9.05411 -4.851218 -0.1029458,-9.129679 -4.459476 0.2392555,-9.221772 -4.3671 0.4952056,-9.39059 -5.936331 -0.3133803,-9.451468 -5.029836 -0.08133459,-9.50323 -4.653802 0.2609676,-9.551809 -4.535938 0.4942886,-9.713117 -6.239033 -0.2412147,-9.807695 -5.572889 -0.01981878,-9.858693 -5.165724 0.2364397,-9.882301 -4.855897 0.4491163,6.010,31 3 0
-1.241498 -9.060465 0.09052449,-1.793828 -8.953394 1.145273,-2.161028 -8.292709 1.756009,-2.277107 -7.472944 2.209662,-2.606394 -6.872858 2.743871,-1.915662 -6.806962 1.533124,-1.954047 -6.009281 2.353174,-1.870344 -5.59296 2.985271,-1.790901 -5.388295 3.379459,-1.448396 -6.635368 1.319796,-1.32339 -5.704025 2.403924,-1.32339 -5.704025 2.403924,-1.148506 -7.198376 3.14273,-1.028028 -6.70817 1.205193,-0.811636 -6.007465 2.198871,-0.7894249 -6.852531 2.515963,-0.8272414 -7.550562 2.526702,-0.6372609 -6.95879 1.135074,-0.3316302 -6.425455 1.970866,-0.3507214 -6.935006 2.306182,-0.459137 -7.43724 2.431524,-9.305758 -8.41647 -0.638909,-8.769237 -8.22398 -0.1406206,-8.32521 -7.597923 0.1491892,-7.990355 -6.989772 0.3989009,-7.627663 -6.558576 0.6692165,-8.703712 -5.978241 -0.2407228,-8.566107 -5.008639 -0.03234965,-8.536592 -4.363718 0.2342855,-8.544541 -3.832661 0.4416463,-9.068768 -5.845174 -0.2751967,-9.063199 -4.855289 0.01834875,-9.146269 -4.472914 0.4118567,-9.253191 -4.422397 0.7118546,-9.405925 -5.952291 -0.2486792,-9.459454 -5.029813 0.02893156,-9.516701 -4.680397 0.4047781,-9.583187 -4.610267 0.658098,-9.740165 -6.264848 -0.1881278,-9.834743 -5.578096 0.08067143,-9.888624 -5.181521 0.3665792,-9.926547 -4.900592 0.5971974,6.110,31 3 0
-1.382096 -9.023579 -0.07542934,-1.907757 -8.87949 0.903093,-2.254418 -8.225613 1.459947,-2.394916 -7.427372 1.897129,-2.762338 -6.827713 2.436117,-2.052721 -6.688536 1.058307,-2.095165 -5.93843 1.810115,-2.012691 -5.507937 2.391551,-1.937408 -5.206504 2.757802,-1.595658 -6.521213 0.8579142,-1.462929 -5.63849 1.910435,-1.462929 -5.63849 1.910435,-1.289652 -7.240776 2.615815,-1.192217 -6.59023 0.7614703,-0.9875722 -5.907499 1.704457,-0.9547119 -6.816996 2.014838,-0.9790974 -7.484777 1.994929,-0.8198366 -6.814576 0.7056252,-0.5295558 -6.255547 1.471682,-0.5506763 -6.797651 1.74962,-0.6464186 -7.283182 1.811897,-9.317041 -8.444628 -0.6181192,-8.774909 -8.264437 -0.1259601,-8.327235 -7.620193 0.157673,-7.991468 -7.005844 0.4023554,-7.626784 -6.568794 0.6624432,-8.709949 -6.004537 -0.2336568,-8.577332 -5.042509 -0.03132892,-8.552477 -4.402889 0.2248032,-8.562906 -3.869684 0.4248909,-9.075462 -5.865452 -0.2711282,-9.074519 -4.874649 0.02512944,-9.155937 -4.512765 0.4104315,-9.25784 -4.473827 0.7003903,-9.412424 -5.967777 -0.2475791,-9.469748 -5.04295 0.031959,-9.524529 -4.707322 0.3935742,-9.588978 -4.644163 0.6364119,-9.74633 -6.275562 -0.1906792,-9.840935 -5.588249 0.06986821,-9.893473 -5.200046 0.3424071,-9.931561 -4.926862 0.5623227,6.210,31 3 0
-1.449176 -8.935019 -0.2599767,-1.987581 -8.78896 0.6420528,-2.345191 -8.166767 1.16423,-2.518959 -7.401412 1.581969,-2.893241 -6.819482 2.090041,-2.149518 -6.609883 0.7269038,-2.200785 -5.858345 1.408476,-2.137136 -5.415605 1.949374,-2.082375 -5.114257 2.303327,-1.693604 -6.45005 0.5549456,-1.569022 -5.572853 1.546105,-1.569022 -5.572853 1.546105,-1.414935 -7.177574 2.252433,-1.29318 -6.525043 0.4765843,-1.106962 -5.839471 1.36469,-1.081704 -6.724323 1.673671,-1.113086 -7.426128 1.667065,-0.9236341 -6.752068 0.4399055,-0.6486068 -6.199777 1.160226,-0.6694012 -6.723677 1.434527,-0.761447 -7.224319 1.500548,-9.331722 -8.476723 -0.6680085,-8.791202 -8.29105 -0.1808874,-8.343596 -7.662613 0.1055472,-8.006778 -7.048431 0.3503307,-7.639509 -6.611478 0.6151038,-8.715805 -6.062126 -0.2385364,-8.574193 -5.092311 -0.01341337,-8.546993 -4.454286 0.2607973,-8.55523 -3.92381 0.4756869,-9.082357 -5.920619 -0.2670022,-9.073815 -4.925912 0.045349,-9.15717 -4.557064 0.4412066,-9.262228 -4.515907 0.7457423,-9.423786 -6.026836 -0.2381988,-9.472393 -5.103088 0.05225927,-9.531499 -4.766729 0.4215293,-9.600899 -4.701296 0.6712542,-9.762027 -6.344999 -0.1797953,-9.853047 -5.658473 0.0980981,-9.905777 -5.25991 0.378714,-9.945608 -4.975 0.608155,6.310,31 3 0
-1.700646 -8.920185 -0.1697675,-2.162974 -8.654755 0.6358827,-2.562564 -7.932793 1.039571,-2.811018 -7.202825 1.35975,-3.150711 -6.731008 1.760968,-2.380427 -6.511302 0.6923587,-2.498501 -5.607758 1.252063,-2.504198 -5.164383 1.735874,-2.494434 -4.90657 2.091514,-1.974547 -6.381413 0.5475856,-1.948901 -5.328538 1.364309,-1.948901 -5.328538 1.364309,-1.861994 -6.523496 2.017871,-1.596879 -6.487034 0.4827068,-1.521308 -5.743627 1.243491,-1.51282 -6.45536 1.613271,-1.54541 -7.127626 1.700187,-1.232142 -6.781371 0.4723143,-1.140532 -6.157947 1.102825,-1.175167 -6.527465 1.402329,-1.232364 -6.99571 1.524002,-9.333191 -8.575438 -0.6957843,-8.796115 -8.399418 -0.2241088,-8.355791 -7.758059 0.04226446,-8.032527 -7.140365 0.2752857,-7.694462 -6.668312 0.5229553,-8.738957 -6.157388 -0.3551699,-8.592628 -5.190177 -0.1540857,-8.560272 -4.545707 0.1091253,-8.56355 -4.016457 0.3191633,-9.103985 -6.011878 -0.3939682,-9.099696 -5.026608 -0.131684,-9.190225 -4.664925 0.2483823,-9.295233 -4.633224 0.5440086,-9.441227 -6.11165 -0.3719535,-9.49373 -5.202487 -0.1339989,-9.55192 -4.861969 0.2035865,-9.614437 -4.789342 0.4390653,-9.774561 -6.419202 -0.3174566,-9.868677 -5.741636 -0.07937306,-9.923763 -5.350952 0.1792868,-9.962616 -5.067741 0.3884717,6.410,31 3 0
-1.700646 -8.920185 -0.1697675,-2.162974 -8.654755 0.6358827,-2.562564 -7.932793 1.039571,-2.811018 -7.202825 1.35975,-3.150711 -6.731008 1.760968,-2.380427 -6.511302 0.6923587,-2.498501 -5.607758 1.252063,-2.504198 -5.164383 1.735874,-2.494434 -4.90657 2.091514,-1.974547 -6.381413 0.5475856,-1.948901 -5.328538 1.364309,-1.948901 -5.328538 1.364309,-1.861994 -6.523496 2.017871,-1.596879 -6.487034 0.4827068,-1.521308 -5.743627 1.243491,-1.51282 -6.45536 1.613271,-1.54541 -7.127626 1.700187,-1.232142 -6.781371 0.4723143,-1.140532 -6.157947 1.102825,-1.175167 -6.527465 1.402329,-1.232364 -6.99571 1.524002,-9.300403 -8.616383 -0.5631826,-8.74296 -8.445131 -0.07064137,-8.335929 -7.790979 0.2108062,-8.073542 -7.144847 0.4589754,-7.763717 -6.617124 0.707476,-8.706877 -6.155944 -0.2325851,-8.554649 -5.242144 -0.04574096,-8.529955 -4.618169 0.2396768,-8.54322 -4.122732 0.4832809,-9.068484 -6.014276 -0.2655148,-9.058827 -5.068067 0.01916158,-9.159718 -4.744483 0.4730961,-9.284369 -4.790338 0.8247398,-9.406505 -6.125966 -0.2341861,-9.458608 -5.230203 0.02848679,-9.544494 -4.935619 0.4406857,-9.640207 -4.947984 0.7354243,-9.73737 -6.445106 -0.1704399,-9.835836 -5.751935 0.08135015,-9.896049 -5.36608 0.3748782,-9.950281 -5.132535 0.6143746,6.510,31 3 0
-1.700646 -8.920185 -0.1697675,-2.162974 -8.654755 0.6358827,-2.562564 -7.932793 1.039571,-2.811018 -7.202825 1.35975,-3.150711 -6.731008 1.760968,-2.380427 -6.511302 0.6923587,-2.498501 -5.607758 1.252063,-2.504198 -5.164383 1.735874,-2.494434 -4.90657 2.091514,-1.974547 -6.381413 0.5475856,-1.948901 -5.328538 1.364309,-1.948901 -5.328538 1.364309,-1.861994 -6.523496 2.017871,-1.596879 -6.487034 0.4827068,-1.521308 -5.743627 1.243491,-1.51282 -6.45536 1.613271,-1.54541 -7.127626 1.700187,-1.232142 -6.781371 0.4723143,-1.140532 -6.157947 1.102825,-1.175167 -6.527465 1.402329,-1.232364 -6.99571 1.524002,-9.265874 -8.628513 -0.5751545,-8.722676 -8.44875 -0.1047637,-8.317687 -7.781496 0.1601446,-8.069309 -7.112072 0.3977554,-7.788872 -6.578211 0.6141285,-8.686255 -6.17613 -0.279247,-8.53106 -5.255041 -0.07961547,-8.504107 -4.613367 0.214792,-8.507433 -4.093675 0.4602154,-9.052711 -6.025426 -0.3034024,-9.043837 -5.057103 -0.003257871,-9.129005 -4.792634 0.4502001,-9.230523 -4.874095 0.7901803,-9.390805 -6.120688 -0.2632523,-9.443209 -5.203409 0.0006545782,-9.52065 -4.929067 0.3785468,-9.605564 -4.951641 0.6453347,-9.719719 -6.426118 -0.1926413,-9.818849 -5.708915 0.03937697,-9.876841 -5.324959 0.2907122,-9.931394 -5.105779 0.4950234,6.610,31 3 0
-2.097548 -9.15667 0.6916353,-2.714243 -8.647272 1.055187,-3.201361 -7.855951 1.181741,-3.513382 -7.116893 1.324987,-3.787195 -6.509079 1.523364,-2.91662 -6.468828 0.6386881,-3.126842 -5.478605 0.836151,-3.194668 -4.82077 1.127364,-3.243767 -4.301646 1.352044,-2.542614 -6.292672 0.6656907,-2.641494 -5.128137 1.102852,-2.641494 -5.128137 1.102852,-2.562038 -5.726682 1.723795,-2.182053 -6.346147 0.7525926,-2.190214 -5.292877 1.171496,-2.222376 -5.567991 1.587228,-2.236634 -6.105937 1.734065,-1.802654 -6.588089 0.8722957,-1.783086 -5.791986 1.265796,-1.825353 -5.856508 1.532945,-1.877362 -6.249036 1.634144,-9.244776 -8.595047 -0.5606118,-8.694253 -8.429819 -0.04180741,-8.296538 -7.777938 0.2487132,-8.056412 -7.09782 0.4944599,-7.783333 -6.52433 0.6962308,-8.655842 -6.13548 -0.2250742,-8.502502 -5.226201 0.05077279,-8.484711 -4.58901 0.3716493,-8.480749 -4.093713 0.6282437,-9.045593 -5.990476 -0.2541348,-9.073375 -4.918287 0.1780196,-9.114733 -4.948287 0.6413351,-9.144066 -5.306755 0.9166887,-9.399988 -6.098392 -0.2167578,-9.461473 -5.067573 0.1607072,-9.472413 -5.04419 0.5402385,-9.473367 -5.335922 0.7503469,-9.73717 -6.425462 -0.1444309,-9.848959 -5.658106 0.1715559,-9.888005 -5.3101 0.4347258,-9.907055 -5.206148 0.6179631,6.710,31 3 0
-2.069781 -9.01487 0.4721129,-2.664943 -8.513315 0.8419892,-3.096738 -7.696556 1.07738,-3.411716 -6.889678 1.310077,-3.758556 -6.325742 1.551723,-2.906919 -6.363182 0.4710335,-3.109847 -5.426078 0.6908876,-3.20554 -4.851471 0.9312789,-3.273203 -4.303836 1.123437,-2.535522 -6.217997 0.4989153,-2.605143 -5.004336 1.061995,-2.605143 -5.004336 1.061995,-2.611301 -5.888189 1.606403,-2.178179 -6.235694 0.5783938,-2.165668 -5.116614 1.043053,-2.23327 -5.605699 1.343801,-2.254566 -6.225551 1.382349,-1.808034 -6.438771 0.7141644,-1.763961 -5.528724 1.049375,-1.858897 -5.756406 1.260548,-1.913759 -6.282853 1.289848,-9.284081 -8.633535 -0.479165,-8.6963 -8.452585 0.1055918,-8.291576 -7.817199 0.422588,-8.05519 -7.111579 0.6836604,-7.789895 -6.495456 0.8850307,-8.640414 -6.1809 -0.04469478,-8.493991 -5.279241 0.2848242,-8.501278 -4.654629 0.6195996,-8.509057 -4.159677 0.8864087,-9.033766 -6.018115 -0.1085104,-9.074068 -4.891761 0.416989,-9.115189 -5.061553 0.9160433,-9.136438 -5.52428 1.188592,-9.392966 -6.099705 -0.1093649,-9.468986 -5.016855 0.3558258,-9.475183 -5.144758 0.7580447,-9.463408 -5.578548 0.9576024,-9.734396 -6.392844 -0.07431796,-9.871343 -5.596479 0.299296,-9.894063 -5.332963 0.5811235,-9.886098 -5.374591 0.7466587,6.810,31 3 0
-2.22648 -8.849199 -0.3182375,-2.812278 -8.504803 0.0503931,-3.286337 -7.73281 0.1335132,-3.596199 -7.020618 0.2151895,-3.865471 -6.358386 0.3357359,-3.053875 -6.459544 -0.4216179,-3.280214 -5.514919 -0.3572099,-3.37823 -4.831415 -0.154964,-3.433215 -4.293766 0.06975189,-2.717411 -6.288724 -0.4377414,-2.80394 -5.143102 -0.1353662,-2.80394 -5.143102 -0.1353662,-2.744751 -5.590566 0.4433331,-2.390512 -6.308956 -0.3901249,-2.416446 -5.25526 -0.04903725,-2.432591 -5.474464 0.3792972,-2.422514 -5.993791 0.5854995,-2.047086 -6.493301 -0.3098891,-2.069842 -5.70499 0.03292564,-2.113542 -5.727886 0.3203746,-2.149387 -6.106826 0.4538104,-9.28677 -8.694281 -0.3567688,-8.691794 -8.5124 0.3060082,-8.293584 -7.874923 0.6587851,-8.075599 -7.147962 0.9519627,-7.86024 -6.503206 1.184,-8.619415 -6.25455 0.1719229,-8.500725 -5.353303 0.629761,-8.496514 -4.755944 1.061938,-8.483339 -4.280011 1.383481,-9.009387 -6.058105 0.09197408,-9.073018 -4.8721 0.7431839,-9.063359 -5.359882 1.246428,-9.042487 -5.972791 1.461584,-9.370132 -6.092659 0.09275103,-9.477072 -4.95577 0.6205558,-9.43611 -5.386627 1.004599,-9.382113 -5.987234 1.161467,-9.722952 -6.328678 0.1364747,-9.908454 -5.489042 0.5474876,-9.885746 -5.484592 0.8253087,-9.824049 -5.788181 0.9502372,6.910,31 3 0
-2.515175 -9.340406 -0.1648194,-3.107415 -8.585478 0.2923011,-3.485474 -7.737585 0.4178327,-3.793932 -6.942119 0.4498962,-3.985199 -6.304886 0.5056676,-3.289732 -6.731231 -0.2694865,-3.383692 -5.648328 -0.328717,-3.481236 -4.946321 -0.261098,-3.533815 -4.391531 -0.1996541,-3.043219 -6.763631 -0.5161774,-3.042087 -5.687828 -0.5256457,-3.042087 -5.687828 -0.5256457,-2.874736 -5.524894 -0.1198142,-2.796692 -6.890102 -0.7084237,-2.774561 -5.913329 -0.6837553,-2.72032 -5.764275 -0.3603111,-2.631868 -5.939993 -0.1693723,-2.571599 -7.067214 -0.897049,-2.613265 -6.354369 -0.8063332,-2.586449 -6.036762 -0.6449198,-2.535848 -6.03144 -0.5574955,-9.264275 -8.689449 -0.4264757,-8.68424 -8.491488 0.2562112,-8.289279 -7.865755 0.6336102,-8.087423 -7.162782 0.9503798,-7.91817 -6.508362 1.213259,-8.607718 -6.275389 0.1799123,-8.51737 -5.395151 0.7288723,-8.513465 -4.858576 1.212431,-8.502883 -4.429538 1.54954,-8.996507 -6.087698 0.103148,-9.053755 -4.920005 0.8363074,-9.032434 -5.551201 1.309748,-9.00645 -6.201925 1.473029,-9.365356 -6.112493 0.1143591,-9.469959 -4.968875 0.711072,-9.417413 -5.513009 1.054379,-9.359698 -6.132243 1.146724,-9.732794 -6.332922 0.1649544,-9.916068 -5.480514 0.6287957,-9.85785 -5.601121 0.8934089,-9.761148 -5.976692 0.984375,7.010,31 3 0
-2.210214 -8.975813 0.3796261,-2.818073 -8.547989 0.6949217,-3.30304 -7.744314 0.8044186,-3.597424 -6.952431 0.923872,-3.865581 -6.317386 1.089358,-3.059654 -6.388254 0.1191324,-3.277591 -5.44988 0.2419724,-3.38464 -4.817506 0.449118,-3.455761 -4.285292 0.6353505,-2.70823 -6.220222 0.1546963,-2.812846 -5.055651 0.5272422,-2.812846 -5.055651 0.5272422,-2.806692 -5.775135 0.9910269,-2.371643 -6.251016 0.2537125,-2.410416 -5.172233 0.6307117,-2.480207 -5.5491 0.9742687,-2.490213 -6.161258 1.045124,-2.012632 -6.459077 0.3968414,-2.035173 -5.62349 0.7438179,-2.140565 -5.769802 0.9740132,-2.211534 -6.273249 1.030986,-9.291355 -8.642075 -0.5088811,-8.708746 -8.470682 0.2251803,-8.293661 -7.880834 0.6282421,-8.091921 -7.165791 0.9427727,-7.980379 -6.524621 1.190465,-8.619877 -6.299848 0.2087373,-8.536545 -5.457654 0.8089279,-8.539323 -4.94929 1.324761,-8.53282 -4.537744 1.677073,-9.008498 -6.084013 0.1012496,-9.077616 -4.978405 0.8623855,-9.062273 -5.653409 1.352505,-9.027691 -6.306047 1.540163,-9.376534 -6.083408 0.07974315,-9.486105 -4.965977 0.6954385,-9.449278 -5.558599 1.037335,-9.391744 -6.191748 1.140746,-9.745077 -6.280767 0.09914917,-9.918574 -5.46201 0.5498233,-9.867333 -5.625333 0.8012948,-9.776299 -6.018552 0.8940727,7.110,31 3 0
-2.238191 -8.62781 -0.8868121,-2.786465 -8.376261 -0.5809531,-3.274235 -7.613773 -0.5068245,-3.604687 -6.927858 -0.4112967,-3.90933 -6.285503 -0.2974485,-3.053066 -6.411285 -0.9258527,-3.26112 -5.501747 -0.7911474,-3.37455 -4.816524 -0.5900373,-3.448433 -4.300743 -0.3891713,-2.735066 -6.231534 -0.9162026,-2.818948 -5.172296 -0.5386594,-2.818948 -5.172296 -0.5386594,-2.7861 -5.626967 -0.03922248,-2.416221 -6.248798 -0.8432837,-2.439439 -5.278015 -0.444571,-2.462304 -5.548801 -0.05701816,-2.444456 -6.092647 0.1260687,-2.083593 -6.414342 -0.7439669,-2.076566 -5.707653 -0.3539848,-2.119189 -5.779634 -0.06696916,-2.154692 -6.177089 0.06390274,-9.335716 -8.440353 -0.9829856,-8.782829 -8.466539 -0.1506397,-8.340743 -7.938343 0.3192155,-8.169525 -7.259627 0.6725074,-8.192398 -6.661277 0.9708918,-8.647861 -6.327316 -0.04053134,-8.544416 -5.582857 0.6092983,-8.556572 -5.097332 1.117148,-8.566825 -4.723461 1.469484,-9.046128 -6.079834 -0.1817637,-9.091805 -5.147738 0.6681209,-9.123115 -5.860108 1.190473,-9.13353 -6.555255 1.394245,-9.436047 -6.023925 -0.2388211,-9.506142 -5.085594 0.4713882,-9.49411 -5.735377 0.8569657,-9.455144 -6.399732 0.9496373,-9.830072 -6.133289 -0.246442,-9.981963 -5.376327 0.2878771,-9.940616 -5.671388 0.5860145,-9.854478 -6.159767 0.6932969,7.210,31 3 0
-2.234715 -8.592371 -0.5281624,-2.776938 -8.302719 -0.07334217,-3.212186 -7.588502 0.1735307,-3.511509 -6.85009 0.3980266,-3.852026 -6.299322 0.6229967,-3.026134 -6.232999 -0.349125,-3.224569 -5.358121 -0.07798028,-3.328558 -4.806325 0.1951572,-3.408625 -4.315567 0.4203866,-2.666492 -6.085915 -0.3459232,-2.725364 -4.96949 0.2735456,-2.725364 -4.96949 0.2735456,-2.692649 -5.974841 0.830613,-2.316837 -6.135509 -0.2858277,-2.293448 -5.120816 0.2406781,-2.345273 -5.703917 0.5438241,-2.360673 -6.343794 0.574481,-1.949544 -6.349607 -0.1762378,-1.903075 -5.569343 0.2285101,-1.995374 -5.833775 0.4705323,-2.045377 -6.323308 0.5444361,-9.389853 -8.427664 -0.9661965,-8.838579 -8.475683 -0.09256274,-8.38213 -7.972787 0.4321445,-8.211289 -7.276793 0.8314077,-8.304049 -6.726011 1.165404,-8.711848 -6.383376 0.1248685,-8.613297 -5.637201 0.8929502,-8.644753 -5.196762 1.470044,-8.676097 -4.929557 1.847969,-9.118242 -6.106426 -0.0389176,-9.178704 -5.193855 0.8887694,-9.218632 -5.950016 1.371918,-9.221192 -6.657758 1.524967,-9.517767 -6.035034 -0.1116904,-9.597574 -5.12036 0.6575921,-9.594817 -5.830549 0.9817851,-9.55123 -6.497522 1.013999,-9.91081 -6.137018 -0.1391671,-10.07141 -5.374074 0.4242191,-10.03732 -5.720425 0.697664,-9.940145 -6.235375 0.7597363,7.310,31 3 0
-2.228341 -8.639219 -0.4033317,-2.771083 -8.305632 0.01697844,-3.214395 -7.578479 0.2445442,-3.519888 -6.831365 0.4550976,-3.857588 -6.268339 0.6610512,-3.012085 -6.239976 -0.2915537,-3.21126 -5.360727 -0.05039853,-3.313189 -4.806431 0.1980935,-3.387352 -4.31536 0.3986726,-2.657441 -6.092628 -0.2780506,-2.707793 -4.969793 0.3196265,-2.707793 -4.969793 0.3196265,-2.679063 -5.993232 0.8611403,-2.315427 -6.134025 -0.2083215,-2.289035 -5.115184 0.3016285,-2.338352 -5.700221 0.6126338,-2.354852 -6.356542 0.6436535,-1.959677 -6.330934 -0.09533197,-1.909908 -5.527181 0.2917581,-1.999586 -5.764745 0.5356061,-2.049222 -6.256162 0.6116239,-9.397771 -8.445017 -0.871307,-8.856266 -8.488911 0.03430736,-8.398062 -7.982579 0.5741903,-8.231289 -7.296562 0.987234,-8.352458 -6.757774 1.348473,-8.735988 -6.376785 0.2658175,-8.639722 -5.655944 1.064077,-8.672394 -5.210557 1.670183,-8.707711 -4.956115 2.064725,-9.150568 -6.106548 0.09276575,-9.21823 -5.205604 1.053693,-9.253283 -5.956646 1.561783,-9.247134 -6.682224 1.739748,-9.554405 -6.040372 0.01372743,-9.648462 -5.154498 0.8191581,-9.632126 -5.854049 1.166524,-9.570065 -6.523962 1.217561,-9.948181 -6.151882 -0.02138066,-10.11904 -5.374908 0.5659335,-10.07345 -5.704492 0.8548148,-9.960511 -6.22225 0.9347651,7.410,31 3 0
-2.372561 -9.058859 -0.5385712,-2.97543 -8.419819 -0.3322506,-3.387887 -7.59502 -0.2688068,-3.686956 -6.872036 -0.2157887,-3.940651 -6.309377 -0.1096916,-3.179528 -6.600103 -0.7875516,-3.324729 -5.606364 -0.8402396,-3.433526 -4.93169 -0.7456661,-3.508773 -4.379309 -0.6259589,-2.902506 -6.583526 -0.8187222,-2.957365 -5.57359 -0.7515316,-2.957365 -5.57359 -0.7515316,-2.892516 -5.576776 -0.2643857,-2.628107 -6.72411 -0.8043709,-2.670948 -5.771001 -0.6893001,-2.65826 -5.697634 -0.3486972,-2.599412 -5.957002 -0.1146024,-2.361703 -6.975772 -0.7945361,-2.410461 -6.302443 -0.6076613,-2.420599 -6.091976 -0.4212424,-2.400054 -6.188453 -0.3198808,-9.455194 -8.489897 -0.6674615,-8.902148 -8.533392 0.2770348,-8.418049 -8.007538 0.849699,-8.251528 -7.295525 1.290533,-8.410522 -6.753568 1.650964,-8.775796 -6.391558 0.5234944,-8.682971 -5.665041 1.332607,-8.716219 -5.195309 1.94939,-8.750416 -4.925571 2.362514,-9.20034 -6.110686 0.3487589,-9.27271 -5.16184 1.29431,-9.311623 -5.934695 1.785837,-9.305636 -6.66146 1.960289,-9.609331 -6.040961 0.2685533,-9.708047 -5.099116 1.069582,-9.702122 -5.825899 1.397611,-9.643323 -6.503414 1.447083,-10.01112 -6.155122 0.2385699,-10.18042 -5.35193 0.8154397,-10.14969 -5.699533 1.084513,-10.05381 -6.222965 1.151341,7.510,31 3 0
-2.216916 -8.739899 -0.2264963,-2.802451 -8.369501 0.101759,-3.275927 -7.607778 0.2368164,-3.580069 -6.840318 0.3770229,-3.856688 -6.221296 0.5299774,-3.037588 -6.307055 -0.3951732,-3.231558 -5.373464 -0.261683,-3.344324 -4.757152 -0.07403407,-3.434313 -4.200506 0.08129975,-2.67905 -6.148126 -0.3601552,-2.769367 -5.006598 0.05954975,-2.769367 -5.006598 0.05954975,-2.754948 -5.742266 0.4710495,-2.340683 -6.171182 -0.2658297,-2.367645 -5.110837 0.1435007,-2.426965 -5.524213 0.4699746,-2.43768 -6.132543 0.5392203,-1.987244 -6.353792 -0.1238359,-1.987415 -5.545417 0.2250708,-2.089254 -5.680246 0.4611984,-2.159814 -6.168308 0.5248104,-9.466787 -8.481724 -0.5640351,-8.916807 -8.525702 0.3727179,-8.4252 -8.017027 0.94657,-8.2595 -7.296476 1.386879,-8.417903 -6.759015 1.742782,-8.780993 -6.408269 0.6759927,-8.684944 -5.698377 1.534208,-8.71548 -5.230865 2.161454,-8.74727 -4.944696 2.571478,-9.213612 -6.092281 0.50334,-9.295739 -5.16642 1.475443,-9.345964 -5.967067 1.942082,-9.347382 -6.703495 2.09005,-9.626878 -5.999919 0.4280466,-9.739021 -5.08698 1.262603,-9.746746 -5.843013 1.582822,-9.700003 -6.533283 1.626118,-10.02769 -6.106981 0.4014187,-10.20272 -5.318982 0.9810612,-10.18161 -5.667989 1.246237,-10.09571 -6.185842 1.311591,7.610,31 3 0
-2.216084 -8.704769 -0.1454318,-2.788237 -8.323435 0.2170989,-3.229332 -7.571798 0.4120481,-3.528351 -6.784676 0.6033289,-3.860405 -6.223482 0.7849165,-3.029801 -6.22862 -0.134166,-3.227871 -5.317455 0.07269861,-3.33582 -4.731896 0.3094594,-3.417369 -4.191175 0.4960046,-2.677268 -6.086254 -0.1015148,-2.742823 -4.925457 0.4482267,-2.742823 -4.925457 0.4482267,-2.722416 -5.857583 0.9604694,-2.339752 -6.11504 -0.0132385,-2.325229 -5.087348 0.4631791,-2.38167 -5.6613 0.7448753,-2.391634 -6.301693 0.7639174,-1.977269 -6.292644 0.1095343,-1.955865 -5.467409 0.4719027,-2.063985 -5.744692 0.6796401,-2.1131 -6.259176 0.7274092,-9.467484 -8.453287 -0.4784847,-8.925944 -8.512444 0.445709,-8.413201 -7.994848 1.037948,-8.22752 -7.283645 1.497463,-8.424356 -6.816255 1.883465,-8.771463 -6.409576 0.8070745,-8.677352 -5.723741 1.725289,-8.703608 -5.258262 2.417284,-8.72415 -4.957853 2.869136,-9.200654 -6.066768 0.6507722,-9.277751 -5.147363 1.642947,-9.327039 -5.992944 2.129187,-9.312287 -6.741586 2.303172,-9.620519 -5.942731 0.5913956,-9.727732 -5.046428 1.425781,-9.721923 -5.845943 1.717977,-9.654323 -6.547264 1.739075,-10.03314 -6.018665 0.5875255,-10.21359 -5.219316 1.179455,-10.1773 -5.635004 1.419976,-10.07063 -6.208248 1.462116,7.710,31 3 0
