TiagoOliveira98/Thesis-Project/Difficulty_1/Motor_Task/Unity_Project/DataLogging/JointData/Logs(1647315101)_fffff_Motor.csv
WRIST,THUMB_CMC,THUMB_MCP,THUMB_IP,THUMB_TIP,INDEX_FINGER_MCP,INDEX_FINGER_PIP,INDEX_FINGER_DIP,INDEX_FINGER_TIP,MIDDLE_FINGER_MCP,MIDDLE_FINGER_PIP,MIDDLE_FINGER_DIP,MIDDLE_FINGER_TIP,RING_FINGER_MCP,RING_FINGER_PIP,RING_FINGER_DIP,RING_FINGER_TIP,PINKY_MCP,PINKY_PIP,PINKY_DIP,PINKY_TIP,WRIST2,THUMB_CMC2,THUMB_MCP2,THUMB_IP2,THUMB_TIP2,INDEX_FINGER_MCP2,INDEX_FINGER_PIP2,INDEX_FINGER_DIP2,INDEX_FINGER_TIP2,MIDDLE_FINGER_MCP2,MIDDLE_FINGER_PIP2,MIDDLE_FINGER_DIP2,MIDDLE_FINGER_TIP2,RING_FINGER_MCP2,RING_FINGER_PIP2,RING_FINGER_DIP2,RING_FINGER_TIP2,PINKY_MCP2,PINKY_PIP2,PINKY_DIP2,PINKY_TIP2,Timestamp,Event
-1.807127 -7.351142 -0.1274269,-2.431886 -7.096914 0.1434359,-3.000697 -6.502779 0.2940997,-3.431356 -6.01983 0.4583302,-3.803094 -5.921121 0.6838501,-2.678671 -4.638749 -0.1219431,-2.953335 -3.617738 0.03351104,-3.114475 -2.979877 0.1806866,-3.232302 -2.379632 0.3196652,-2.336442 -4.351079 -0.03612085,-2.50852 -3.081937 0.04037456,-2.50852 -3.081937 0.04037456,-2.687132 -1.603396 0.3652827,-1.982615 -4.347121 0.1150719,-2.013389 -3.112758 0.2394121,-2.051464 -2.352767 0.4362949,-2.123237 -1.689306 0.6161852,-1.616617 -4.616929 0.3124306,-1.445148 -3.728343 0.4873426,-1.343375 -3.182998 0.6186572,-1.275702 -2.68485 0.7415501,-8.543253 -7.180908 0.00286865,-7.973305 -6.894533 0.2860139,-7.456605 -6.258867 0.5600237,-7.051497 -5.789041 0.8733062,-6.63079 -5.628831 1.214115,-7.817907 -4.513004 0.3140385,-7.699563 -3.405824 0.5068607,-7.658501 -2.732603 0.6918283,-7.626808 -2.123832 0.8377261,-8.166488 -4.350066 0.4058846,-8.067357 -3.056234 0.6035729,-7.998808 -2.234024 0.8437211,-7.952157 -1.514206 1.054536,-8.508322 -4.432703 0.5146249,-8.446184 -3.20842 0.7159247,-8.380158 -2.436462 0.9030167,-8.312136 -1.761823 1.046629,-8.857277 -4.73582 0.6555057,-8.900734 -3.788132 0.8605955,-8.900283 -3.187413 1.000658,-8.883989 -2.601423 1.100522,0.010,43  0
-1.784328 -7.385211 -0.03201344,-2.399067 -7.157953 0.2651724,-2.983619 -6.546045 0.4324246,-3.414808 -6.056295 0.6165335,-3.800091 -5.925107 0.8740071,-2.673663 -4.652774 -0.001251515,-2.947654 -3.659338 0.1631943,-3.101048 -3.013868 0.3179508,-3.212187 -2.407125 0.4618565,-2.33119 -4.361408 0.08532761,-2.505763 -3.110157 0.1729097,-2.505763 -3.110157 0.1729097,-2.680928 -1.605502 0.5235602,-1.974629 -4.36143 0.2412345,-2.007956 -3.133008 0.364048,-2.047771 -2.376514 0.5695276,-2.116073 -1.707847 0.7560855,-1.605771 -4.634727 0.4470953,-1.453142 -3.727823 0.6326672,-1.370444 -3.166902 0.7805189,-1.318073 -2.64563 0.9164501,-8.548876 -7.17098 -0.02625694,-7.966581 -6.877908 0.2388463,-7.446752 -6.234822 0.5011694,-7.047837 -5.74069 0.8032894,-6.637273 -5.581546 1.125425,-7.822659 -4.508882 0.2957382,-7.704585 -3.388952 0.4935267,-7.670924 -2.71033 0.6769774,-7.645712 -2.092305 0.824605,-8.176739 -4.349191 0.3852031,-8.072798 -3.041514 0.5887648,-8.00759 -2.218605 0.8285314,-7.962379 -1.492699 1.040028,-8.52392 -4.427137 0.486948,-8.449304 -3.191446 0.6877928,-8.385079 -2.419004 0.873082,-8.32035 -1.742001 1.019195,-8.878146 -4.721253 0.6163825,-8.906285 -3.760562 0.8158946,-8.90505 -3.155517 0.9518518,-8.892423 -2.564834 1.050792,0.110,43  0
-1.76851 -7.386812 -0.04856262,-2.38407 -7.158245 0.1973762,-2.967029 -6.539843 0.334439,-3.395268 -6.043134 0.4960423,-3.772048 -5.900062 0.7260134,-2.66733 -4.650517 -0.09668145,-2.945072 -3.663558 0.03161289,-3.103964 -3.02397 0.1683836,-3.211061 -2.421993 0.3021237,-2.324059 -4.367469 -0.005087916,-2.516742 -3.146306 0.0472025,-2.516742 -3.146306 0.0472025,-2.68916 -1.654709 0.3559118,-1.966953 -4.363903 0.1503538,-2.015996 -3.166236 0.2405842,-2.046344 -2.423381 0.4181132,-2.098567 -1.774323 0.5882238,-1.594451 -4.62664 0.3521644,-1.442044 -3.734685 0.5039344,-1.348969 -3.189866 0.6335921,-1.284194 -2.698497 0.7573372,-8.544096 -7.168639 0.0185919,-7.97563 -6.881412 0.3054987,-7.464798 -6.254303 0.5844041,-7.067639 -5.774494 0.9046771,-6.652455 -5.612522 1.250293,-7.840368 -4.491109 0.338515,-7.734135 -3.369888 0.545361,-7.693192 -2.689655 0.7397317,-7.660335 -2.083588 0.8909836,-8.190709 -4.331943 0.4335867,-8.09584 -3.026885 0.6446695,-8.025399 -2.203467 0.886465,-7.978201 -1.485019 1.090545,-8.533278 -4.415288 0.5470756,-8.468217 -3.173177 0.7583247,-8.400317 -2.402726 0.9446832,-8.333035 -1.728109 1.082223,-8.882684 -4.718107 0.6904098,-8.91958 -3.760627 0.8992739,-8.912924 -3.148116 1.039716,-8.892162 -2.548441 1.138645,0.210,43  0
-1.825365 -7.402461 -0.03546762,-2.430058 -7.148645 0.2428322,-2.986948 -6.526126 0.3958926,-3.408376 -6.03422 0.5694177,-3.791286 -5.919143 0.8118325,-2.664259 -4.646977 -0.008333551,-2.938895 -3.646061 0.1458175,-3.105988 -2.993292 0.2995825,-3.227501 -2.395122 0.4410908,-2.32249 -4.370935 0.07796369,-2.500645 -3.12059 0.15576,-2.500645 -3.12059 0.15576,-2.685328 -1.585678 0.4749944,-1.964119 -4.373809 0.2236989,-1.998253 -3.147353 0.3397678,-2.031679 -2.367851 0.523686,-2.088019 -1.679808 0.6949895,-1.595096 -4.643031 0.4184474,-1.437438 -3.739071 0.5917779,-1.340996 -3.167913 0.7310782,-1.26793 -2.635509 0.8605481,-8.556729 -7.160957 -0.0379892,-7.98415 -6.852372 0.2579893,-7.478581 -6.231298 0.5483799,-7.079585 -5.760322 0.8747989,-6.659984 -5.607651 1.236143,-7.848795 -4.500572 0.332502,-7.739634 -3.383295 0.5595343,-7.699776 -2.70014 0.7678618,-7.673631 -2.078989 0.9266294,-8.204962 -4.347266 0.4205704,-8.111401 -3.03934 0.6413946,-8.040895 -2.211307 0.8893508,-7.99801 -1.483822 1.098762,-8.551972 -4.434204 0.5242525,-8.492993 -3.193357 0.7433549,-8.422714 -2.432038 0.9279315,-8.356976 -1.768087 1.062693,-8.902455 -4.73026 0.6588459,-8.937819 -3.770088 0.8770946,-8.926846 -3.156527 1.014459,-8.903809 -2.556665 1.106767,0.310,43  0
-1.84355 -7.311244 -0.7231367,-2.42153 -7.126117 -0.5605106,-2.98682 -6.572385 -0.4245229,-3.387606 -6.120958 -0.2553582,-3.770023 -5.962089 -0.0127641,-2.713607 -4.752985 -0.5474567,-2.972997 -3.831939 -0.3949498,-3.136168 -3.174555 -0.2310599,-3.262179 -2.616498 -0.09336054,-2.397952 -4.5055 -0.4051102,-2.572246 -3.459373 -0.2185602,-2.572246 -3.459373 -0.2185602,-2.743247 -2.117246 0.197102,-2.049746 -4.552743 -0.2357258,-2.119124 -3.554753 -0.04562718,-2.154152 -2.950808 0.2098543,-2.188681 -2.441453 0.4103341,-1.691164 -4.838308 -0.06220967,-1.664552 -4.113045 0.1955367,-1.655088 -3.655899 0.3831061,-1.62407 -3.258869 0.5310994,-8.584505 -7.144388 -0.09263366,-8.010866 -6.854567 0.1983604,-7.492271 -6.253397 0.4751973,-7.082007 -5.79157 0.7908065,-6.667456 -5.638319 1.135324,-7.854447 -4.506114 0.2408451,-7.739557 -3.391485 0.4556527,-7.700209 -2.70752 0.6564533,-7.673956 -2.09457 0.8021073,-8.204963 -4.345489 0.3356037,-8.108116 -3.040975 0.547358,-8.041245 -2.209301 0.7933321,-7.997416 -1.485029 0.9950339,-8.546504 -4.428511 0.4474825,-8.488495 -3.196164 0.665952,-8.427655 -2.424415 0.8473579,-8.364424 -1.750779 0.9784601,-8.893374 -4.727185 0.5907103,-8.93917 -3.773395 0.8102897,-8.93715 -3.169229 0.9517031,-8.919213 -2.578897 1.042645,0.410,43  0
-1.821609 -7.286799 -0.5172104,-2.399856 -7.123447 -0.2702602,-2.968157 -6.560635 -0.1343644,-3.399432 -6.081932 0.0190807,-3.766823 -5.917973 0.2415515,-2.672744 -4.688522 -0.440758,-2.94341 -3.655381 -0.2813033,-3.104663 -2.978096 -0.159884,-3.204298 -2.378754 -0.03818095,-2.337115 -4.401133 -0.3431496,-2.515572 -3.121265 -0.2479528,-2.515572 -3.121265 -0.2479528,-2.673418 -1.565713 0.04761636,-1.981169 -4.406337 -0.196148,-2.01814 -3.166437 -0.06648344,-2.045669 -2.378039 0.121658,-2.093576 -1.698224 0.2866568,-1.616309 -4.68168 -0.01296437,-1.470155 -3.752359 0.1709436,-1.386039 -3.181104 0.3067393,-1.327113 -2.660621 0.4223541,-8.578009 -7.167399 -0.06304448,-8.010148 -6.860385 0.2147735,-7.498521 -6.23822 0.4880054,-7.090809 -5.76558 0.8027471,-6.676689 -5.597258 1.149986,-7.874929 -4.508102 0.2529947,-7.769255 -3.401793 0.4621336,-7.730373 -2.729163 0.6627848,-7.698617 -2.124181 0.815803,-8.222526 -4.355232 0.3555611,-8.130325 -3.056657 0.5592924,-8.060423 -2.231613 0.7994933,-8.012448 -1.511331 1.0006,-8.565803 -4.452142 0.4766837,-8.505526 -3.211689 0.6873919,-8.433881 -2.437525 0.8789459,-8.364427 -1.762584 1.016733,-8.91938 -4.766984 0.6285548,-8.96197 -3.810546 0.8486302,-8.953084 -3.192283 1.000223,-8.931796 -2.591612 1.099724,0.510,43  0
0.7947588 -7.378798 -0.2101201,-0.6185446 -7.234894 -0.03368092,-0.6010714 -5.973062 0.3433472,-1.001121 -5.390014 0.716537,-2.230835 -5.558227 0.7886162,-1.307715 -4.753215 -0.1759276,-2.070727 -3.855911 -0.01606589,-1.428802 -2.912721 0.1569099,-1.613011 -2.23943 0.3033917,-1.004483 -4.258093 -0.08306107,-0.6156979 -3.257241 0.0703076,-0.6156979 -3.257241 0.0703076,-0.7342486 -1.370537 0.2247528,0.771893 -4.56958 -0.02321411,0.0213623 -3.185394 0.1215222,-0.06862974 -2.330165 0.3161445,-0.09689617 -1.563581 0.4944044,1.359135 -4.797267 0.2200639,1.212345 -3.794596 0.4026417,1.19226 -3.118452 0.5720033,0.8186116 -2.465301 0.7293044,-8.609504 -7.174139 -0.08509228,-7.207315 -7.041622 0.1547761,-6.566767 -6.404336 0.4595712,-5.756081 -6.118818 0.7895057,-4.296672 -5.732562 1.321292,-5.383503 -4.694475 0.3029303,-5.285828 -3.521867 0.4942999,-5.279667 -2.638126 0.7090861,-5.441519 -1.930821 0.8954493,-5.816484 -4.460008 0.3897968,-5.713117 -3.079739 0.53101,-6.456482 -1.897032 0.8365806,-6.851439 -1.003595 0.9706716,-6.259754 -4.64968 0.4783899,-6.59824 -3.275186 0.693707,-6.910879 -2.352413 0.7770676,-7.138469 -1.544054 0.9658331,-7.248379 -4.898895 0.675032,-7.1835 -3.91615 0.8775238,-8.242322 -3.182278 0.9604222,-7.527834 -2.518308 1.03761,0.610,43  0
0.8605433 -7.483956 -0.08812881,-0.5618114 -7.301507 0.01511936,-0.5394802 -5.979703 0.3515014,-0.9315515 -5.373682 0.6992466,-2.154447 -5.557672 0.7480993,-1.247859 -4.794029 -0.1652071,-2.008416 -3.921785 -0.02356802,-1.383071 -2.979028 0.1479938,-1.564069 -2.296978 0.28541,-0.9373889 -4.328347 -0.0356051,-0.5633788 -3.352283 0.115645,-0.5633788 -3.352283 0.115645,-0.6881671 -1.532011 0.2302168,0.8567715 -4.614475 0.06626713,0.06401062 -3.250127 0.2041207,-0.02714348 -2.403875 0.3779062,-0.0431881 -1.645006 0.5339577,1.436414 -4.826469 0.3365799,1.256833 -3.816697 0.5190709,1.25697 -3.121932 0.6903719,0.8835135 -2.439687 0.8516925,-8.656393 -7.193113 -0.09137999,-7.256173 -7.057786 0.1558423,-6.615829 -6.405492 0.4458443,-5.819529 -6.059686 0.7627804,-4.35507 -5.665288 1.26531,-5.420195 -4.728454 0.3137287,-5.31144 -3.547843 0.5088251,-5.303623 -2.6632 0.7268044,-5.468621 -1.951791 0.9133942,-5.852072 -4.483682 0.3952456,-5.744158 -3.094955 0.5457428,-6.486095 -1.907635 0.8620659,-6.880616 -1.003004 1.002414,-6.297397 -4.673055 0.4835418,-6.62704 -3.290898 0.715043,-6.932047 -2.357384 0.8210994,-7.158283 -1.537239 1.026347,-7.290655 -4.929025 0.6764765,-7.222801 -3.956103 0.9009207,-8.263954 -3.21312 1.010564,-7.55679 -2.545885 1.101732,0.710,43  0
-1.617975 -7.538957 -0.02274613,-2.206496 -7.247081 0.2421379,-2.740506 -6.521992 0.4054723,-3.109167 -5.894741 0.5856667,-3.526046 -5.619434 0.8228943,-2.480292 -4.782537 0.06161574,-2.787687 -3.745967 0.2357582,-2.963856 -3.09765 0.3562163,-3.072961 -2.501633 0.4666989,-2.137386 -4.510328 0.151378,-2.324025 -3.241824 0.2739725,-2.324025 -3.241824 0.2739725,-2.497189 -1.625038 0.6063219,-1.783845 -4.525174 0.2920301,-1.833147 -3.26263 0.42181,-1.858677 -2.477886 0.5949286,-1.895975 -1.756756 0.7732165,-1.418244 -4.807838 0.4809496,-1.288712 -3.865605 0.64924,-1.20909 -3.28118 0.7864784,-1.141072 -2.751559 0.9098036,-8.729612 -7.264768 0.0820342,-8.163745 -6.941075 0.4041058,-7.657622 -6.279771 0.6710927,-7.272453 -5.754758 0.9706634,-6.862667 -5.533241 1.295509,-8.007065 -4.577331 0.4346252,-7.886713 -3.444352 0.6591805,-7.844503 -2.783619 0.8636768,-7.818626 -2.186281 1.008656,-8.369084 -4.411567 0.5043858,-8.283974 -3.123289 0.7146505,-8.234172 -2.315468 0.9693745,-8.205104 -1.609932 1.170084,-8.721749 -4.490528 0.5994263,-8.667447 -3.271915 0.8031209,-8.619557 -2.527301 0.9991139,-8.572512 -1.884299 1.141026,-9.085603 -4.778525 0.7232662,-9.128872 -3.840539 0.9378513,-9.127782 -3.243529 1.085355,-9.110115 -2.667618 1.179481,0.810,43  0
-1.35179 -7.707934 -0.0541417,-1.991803 -7.387103 0.3213051,-2.484804 -6.660121 0.5315756,-2.737049 -5.902518 0.7552644,-3.015181 -5.31024 0.995904,-2.268969 -4.959079 0.03440598,-2.54472 -3.889521 0.259779,-2.672346 -3.313709 0.4183591,-2.743747 -2.807536 0.5159697,-1.907055 -4.692466 0.07032149,-2.062177 -3.424665 0.229664,-2.062177 -3.424665 0.229664,-2.114456 -1.968448 0.5597069,-1.540411 -4.712455 0.1826111,-1.603429 -3.502565 0.3652145,-1.603442 -2.746418 0.5749755,-1.608509 -2.075161 0.7703844,-1.152795 -4.983531 0.3536182,-1.069024 -4.106749 0.5570283,-1.019651 -3.521297 0.744591,-0.9808035 -2.984664 0.9096584,-8.904902 -7.327699 0.1672377,-8.322513 -6.983931 0.4949843,-7.810709 -6.311595 0.7676601,-7.424106 -5.74188 1.070201,-7.014419 -5.460939 1.400782,-8.207676 -4.604646 0.4941821,-8.108951 -3.459542 0.7172474,-8.084407 -2.808553 0.9121542,-8.076406 -2.223065 1.047374,-8.569727 -4.442682 0.5612371,-8.507348 -3.164019 0.7556666,-8.48723 -2.400598 0.9773913,-8.486781 -1.732942 1.1445,-8.917879 -4.528467 0.6613486,-8.8764 -3.308341 0.8477911,-8.852674 -2.58416 1.02846,-8.82639 -1.951308 1.156865,-9.277644 -4.829269 0.791584,-9.325305 -3.894441 0.9839633,-9.325347 -3.298934 1.120628,-9.305117 -2.7297 1.217903,0.910,43  0
-1.312088 -7.733932 -0.1203573,-1.926567 -7.337924 0.2740034,-2.406353 -6.591257 0.4981471,-2.643352 -5.827558 0.7231671,-2.937638 -5.252303 0.9887389,-2.168764 -4.956216 0.08524929,-2.430138 -3.876483 0.3324475,-2.556419 -3.249207 0.4960077,-2.624439 -2.688645 0.5993109,-1.791655 -4.730289 0.1007767,-1.925953 -3.439373 0.3005765,-1.925953 -3.439373 0.3005765,-1.94955 -1.918309 0.6809651,-1.42614 -4.780887 0.1836468,-1.468492 -3.604426 0.3768728,-1.472226 -2.867637 0.613964,-1.477155 -2.203463 0.8204785,-1.053403 -5.070047 0.3198429,-0.9587507 -4.200689 0.5227276,-0.8993969 -3.617467 0.7188427,-0.8531885 -3.057906 0.8952298,-8.987891 -7.39829 0.2130739,-8.406664 -7.050085 0.5773659,-7.898101 -6.361951 0.8673522,-7.512612 -5.77831 1.18037,-7.095344 -5.489406 1.523353,-8.295079 -4.653701 0.6040598,-8.196123 -3.479081 0.8448462,-8.1782 -2.813912 1.052744,-8.182244 -2.209742 1.192033,-8.663374 -4.505393 0.6531644,-8.616804 -3.200922 0.8658917,-8.608184 -2.419921 1.103967,-8.625566 -1.73723 1.28327,-9.011275 -4.601968 0.7356706,-8.990018 -3.365259 0.9382079,-8.981177 -2.629636 1.129352,-8.975156 -1.996894 1.262856,-9.364769 -4.913703 0.8487682,-9.413914 -3.966241 1.052234,-9.41792 -3.363353 1.197002,-9.409222 -2.783882 1.299734,1.010,43  0
-1.221821 -7.781881 -0.1081971,-1.864686 -7.442392 0.2975209,-2.336092 -6.683526 0.5215082,-2.572977 -5.886095 0.7519814,-2.88169 -5.282325 0.9996001,-2.108942 -5.007043 0.1757844,-2.340587 -3.916736 0.4427034,-2.437469 -3.224006 0.6154723,-2.468177 -2.594752 0.7333929,-1.734275 -4.786379 0.1842263,-1.86894 -3.489085 0.416319,-1.86894 -3.489085 0.416319,-1.92756 -2.008908 0.7661294,-1.362116 -4.840263 0.2690565,-1.382097 -3.652797 0.4951187,-1.399419 -2.909817 0.7315596,-1.405564 -2.220878 0.9351449,-0.9863129 -5.152723 0.3911703,-0.8725195 -4.282552 0.6329152,-0.8261108 -3.690902 0.8508158,-0.7862954 -3.127258 1.0345,-9.028419 -7.455657 0.191632,-8.457693 -7.118301 0.5565808,-7.963234 -6.415168 0.8548184,-7.595722 -5.845672 1.170828,-7.187615 -5.585967 1.512036,-8.366224 -4.715475 0.5518545,-8.255437 -3.593151 0.7891882,-8.235467 -2.945248 1.001578,-8.238553 -2.355289 1.151593,-8.733253 -4.562757 0.61086,-8.700968 -3.293211 0.8290483,-8.714748 -2.523987 1.076715,-8.754294 -1.846482 1.268247,-9.07932 -4.647184 0.7070895,-9.064253 -3.437984 0.9252908,-9.066556 -2.715 1.125841,-9.078345 -2.089128 1.272717,-9.428608 -4.941396 0.8357779,-9.480619 -3.995842 1.047834,-9.508045 -3.390673 1.198245,-9.533335 -2.807144 1.312427,1.110,43  0
-1.167785 -7.872425 -0.06465073,-1.810058 -7.529965 0.3840819,-2.284576 -6.779787 0.6259074,-2.505024 -5.972696 0.876605,-2.81689 -5.325598 1.14638,-2.063138 -5.086371 0.235192,-2.284347 -3.981971 0.4971545,-2.383847 -3.291928 0.682862,-2.424434 -2.678794 0.8109396,-1.683509 -4.863073 0.2096682,-1.81529 -3.590154 0.423784,-1.81529 -3.590154 0.423784,-1.858639 -2.109955 0.7874458,-1.312342 -4.906553 0.261992,-1.343943 -3.740269 0.4715904,-1.354995 -2.994358 0.7099981,-1.358195 -2.299664 0.9115427,-0.9396038 -5.201545 0.3548104,-0.8481445 -4.331724 0.5813229,-0.8034201 -3.751821 0.7768059,-0.7621126 -3.193598 0.9562546,-9.094576 -7.545806 0.07498478,-8.512158 -7.208793 0.4481064,-8.024648 -6.50221 0.7475744,-7.667336 -5.941598 1.059094,-7.258866 -5.697139 1.39908,-8.462391 -4.838634 0.4982046,-8.372322 -3.675813 0.758775,-8.357821 -3.01578 0.9753346,-8.365296 -2.413844 1.126288,-8.832613 -4.692182 0.5493985,-8.803671 -3.404112 0.7925488,-8.819028 -2.636973 1.043,-8.864635 -1.974073 1.244808,-9.180502 -4.777821 0.6330488,-9.159259 -3.553092 0.8687019,-9.164867 -2.826768 1.079879,-9.184505 -2.208211 1.233368,-9.528156 -5.077442 0.7498683,-9.571915 -4.125538 0.967285,-9.589803 -3.52255 1.128081,-9.609446 -2.944476 1.261893,1.210,43  0
-1.147321 -7.876704 -0.1266716,-1.790939 -7.511508 0.2192934,-2.248907 -6.763565 0.4247969,-2.48103 -5.977141 0.6537012,-2.798516 -5.384485 0.9021374,-2.058412 -5.113655 0.08350708,-2.299431 -4.078187 0.3252376,-2.391717 -3.445459 0.478981,-2.419259 -2.902905 0.5802959,-1.68739 -4.886293 0.1071047,-1.845048 -3.621572 0.3060379,-1.845048 -3.621572 0.3060379,-1.911137 -2.154041 0.6226964,-1.313027 -4.926754 0.2074671,-1.346412 -3.746522 0.4176354,-1.370104 -2.99378 0.6461403,-1.383512 -2.298414 0.8375721,-0.9298368 -5.234228 0.339514,-0.8315024 -4.355324 0.5692912,-0.7990484 -3.755488 0.7804883,-0.7745552 -3.177898 0.9626352,-9.140258 -7.626302 0.1048474,-8.543976 -7.289307 0.5057958,-8.049635 -6.582213 0.8045862,-7.689441 -6.023566 1.115708,-7.271855 -5.771373 1.459436,-8.482276 -4.886369 0.472255,-8.403021 -3.753849 0.7091622,-8.397069 -3.124203 0.9199585,-8.415371 -2.549748 1.069207,-8.856503 -4.756111 0.5147507,-8.846568 -3.535444 0.7225258,-8.88551 -2.822973 0.9664063,-8.94976 -2.215064 1.165091,-9.203645 -4.848119 0.6010628,-9.208369 -3.685018 0.8237115,-9.230379 -3.005303 1.032527,-9.258337 -2.427295 1.185054,-9.549833 -5.146215 0.7235458,-9.612223 -4.228765 0.9387555,-9.645843 -3.645332 1.086701,-9.678485 -3.084248 1.209457,1.310,43  0
-1.155889 -7.912265 -0.2090085,-1.804988 -7.581798 0.188145,-2.271945 -6.834873 0.403047,-2.49993 -6.039955 0.6309537,-2.80899 -5.435699 0.8626481,-2.060026 -5.18251 0.07435873,-2.290506 -4.101758 0.3269508,-2.379383 -3.428134 0.4820198,-2.406743 -2.845809 0.5832958,-1.687048 -4.947772 0.0660679,-1.846246 -3.660199 0.27597,-1.846246 -3.660199 0.27597,-1.912011 -2.198822 0.5988981,-1.312262 -4.978907 0.1370982,-1.36292 -3.78766 0.3642232,-1.38507 -3.02863 0.5941346,-1.400922 -2.337057 0.7964001,-0.9284887 -5.273064 0.2418652,-0.8439331 -4.378652 0.4791321,-0.8186331 -3.783478 0.6927289,-0.8060899 -3.22047 0.8822229,-9.104808 -7.854682 -0.1840293,-8.539192 -7.483449 0.1702301,-8.085421 -6.725009 0.4632547,-7.735332 -6.097917 0.7457948,-7.320901 -5.734239 1.067799,-8.49944 -5.190537 0.1991124,-8.411243 -4.119983 0.4264197,-8.420353 -3.483268 0.628104,-8.435031 -2.956893 0.75675,-8.903078 -5.061067 0.2253058,-8.93563 -3.971641 0.5444512,-8.925924 -3.655295 0.8096204,-8.886199 -3.669748 0.9770373,-9.257277 -5.161777 0.2805852,-9.313823 -4.135641 0.553722,-9.285834 -3.776012 0.7774973,-9.21049 -3.709182 0.9032848,-9.593707 -5.445621 0.3669149,-9.661987 -4.626638 0.6093782,-9.642797 -4.194406 0.7700102,-9.568589 -3.933424 0.8750147,1.410,43  0
1.392839 -7.902887 -0.1716576,-0.03071785 -7.679764 0.09168458,0.0962534 -6.295631 0.5275535,-0.122561 -5.424037 0.9119623,-1.299683 -5.125439 1.101447,-0.7382526 -5.269048 0.07890806,-1.398013 -4.180593 0.2744968,-0.7228308 -3.326723 0.5118167,-0.8178058 -2.662469 0.6346169,-0.3689809 -4.839339 0.08900011,0.02009058 -3.775774 0.3735021,0.02009058 -3.775774 0.3735021,0.03258991 -1.950088 0.5598361,1.401498 -5.169581 0.1021101,0.657793 -3.809758 0.3411385,0.589561 -2.951593 0.6152624,0.6140208 -2.154736 0.8360379,2.025108 -5.414585 0.2998659,1.804983 -4.425231 0.5481963,1.735019 -3.71499 0.7914518,1.289955 -3.03267 1.005202,-9.103736 -7.956495 -0.4526149,-7.704491 -7.738483 -0.1170061,-7.15029 -6.978614 0.2140069,-6.409584 -6.381376 0.6409802,-5.207816 -5.646928 1.055813,-6.011947 -5.455261 0.01312221,-5.916183 -4.336502 0.2099545,-6.008538 -3.538069 0.4348708,-6.240787 -2.945032 0.6140119,-6.517097 -5.337059 -0.00288865,-6.577688 -4.245693 0.254465,-7.456252 -3.540864 0.5242448,-7.657084 -3.407503 0.836921,-7.130018 -5.489666 -0.05192909,-7.471775 -4.488199 0.2707028,-7.912876 -3.952036 0.437705,-8.000994 -3.732897 0.6992608,-7.908297 -5.910519 0.132462,-8.012199 -4.98996 0.3652768,-9.002663 -4.541374 0.5095989,-8.23184 -4.382999 0.5898572,1.510,43  0
1.395569 -7.902694 -0.1508026,-0.02632427 -7.670084 0.1058834,0.1021109 -6.273057 0.5349138,-0.1040621 -5.406438 0.9301186,-1.303691 -5.145047 1.116744,-0.7395883 -5.248641 0.0884801,-1.392668 -4.154855 0.2854257,-0.7168937 -3.292165 0.5227746,-0.8138494 -2.611792 0.6429418,-0.3658419 -4.833368 0.1060669,0.02152586 -3.767691 0.3905936,0.02152586 -3.767691 0.3905936,0.03322935 -1.958786 0.5709253,1.402397 -5.167581 0.1264662,0.6624236 -3.802688 0.368804,0.5939207 -2.947137 0.6527181,0.6161184 -2.157767 0.8721936,2.015051 -5.419338 0.3082556,1.780311 -4.420689 0.5493966,1.705111 -3.723108 0.7958025,1.248383 -3.056318 1.007039,-9.063751 -7.947761 -0.9234104,-7.686947 -7.815307 -0.3989266,-7.125772 -7.135204 0.04460956,-6.590145 -6.455185 0.5521117,-5.616345 -5.666653 0.9644765,-5.993463 -5.548542 -0.3590256,-5.919888 -4.429793 -0.1036673,-6.010258 -3.59358 0.2971826,-6.241937 -3.005967 0.6403916,-6.492684 -5.488145 -0.369155,-6.544443 -4.383152 0.1518737,-7.45564 -3.722374 0.7744614,-7.733153 -3.700655 1.307575,-7.105635 -5.655593 -0.4105721,-7.436785 -4.661945 0.09403216,-7.912699 -4.183719 0.6336807,-8.094945 -3.970217 1.084842,-7.887379 -6.100952 -0.2125686,-8.044384 -5.240407 0.2146511,-9.086096 -4.815275 0.6101847,-8.351016 -4.598324 0.9332597,1.610,43  0
1.359484 -7.912947 -0.09468049,-0.02615356 -7.756239 0.1785614,0.08472443 -6.373126 0.5917398,-0.123301 -5.526483 0.9683341,-1.324744 -5.30313 1.129754,-0.7228279 -5.279747 0.1405807,-1.376671 -4.222497 0.3196294,-0.7656693 -3.33558 0.5724199,-0.8901219 -2.620338 0.7249293,-0.3427649 -4.860988 0.1403866,0.05853701 -3.815052 0.4385456,0.05853701 -3.815052 0.4385456,0.06795979 -1.991055 0.683454,1.41643 -5.201279 0.1473661,0.6799474 -3.869729 0.387668,0.6082997 -3.029305 0.7006245,0.6217752 -2.25271 0.9378109,2.009634 -5.445875 0.3159732,1.78121 -4.471137 0.5767574,1.710326 -3.785848 0.8360142,1.252159 -3.135959 1.049821,-9.180646 -7.713071 -0.9721532,-7.80265 -7.753034 -0.4177391,-7.185723 -7.07926 0.04110014,-6.693012 -6.177587 0.5188,-6.520092 -5.386415 1.056007,-6.046706 -5.414024 -0.5456809,-6.022848 -4.368619 -0.1833743,-6.073654 -3.528409 0.1787358,-6.314506 -2.943378 0.4985662,-6.559236 -5.234567 -0.5745091,-6.735979 -3.986486 -0.02757052,-7.378272 -4.401603 0.7589965,-7.490385 -5.102649 1.103723,-7.211536 -5.340765 -0.5894253,-7.732067 -4.107141 -0.08769877,-7.916955 -4.530399 0.5092049,-7.880857 -5.146331 0.7263765,-8.039757 -5.683044 -0.3492621,-8.387371 -4.735582 -0.1213755,-9.145977 -4.666692 0.339345,-8.393659 -4.793066 0.4577309,1.710,43  0
-1.169949 -8.010424 -0.09012709,-1.814929 -7.69649 0.3386219,-2.286334 -6.972837 0.5671087,-2.5056 -6.189255 0.807453,-2.83887 -5.595109 1.080512,-2.066454 -5.23665 0.1964993,-2.299338 -4.142138 0.4479204,-2.411258 -3.451989 0.6321059,-2.465302 -2.827777 0.7664309,-1.693024 -5.009676 0.1830971,-1.843337 -3.737853 0.4020743,-1.843337 -3.737853 0.4020743,-1.933602 -2.269639 0.7726727,-1.327477 -5.05476 0.2491414,-1.359301 -3.885858 0.4579573,-1.391144 -3.131917 0.7186612,-1.41916 -2.448616 0.9387492,-0.957375 -5.347307 0.3560469,-0.8875461 -4.470794 0.5879963,-0.8701367 -3.886676 0.8095763,-0.8695269 -3.335464 1.003522,-9.202745 -7.56944 -1.175976,-8.665923 -7.439076 -0.4333685,-8.315582 -6.677652 0.004299164,-8.400398 -5.840953 0.3591822,-8.734779 -5.399555 0.6687256,-8.565284 -5.177759 -0.8026308,-8.480361 -4.240659 -0.3464559,-8.515553 -3.629257 0.05011582,-8.584259 -3.128205 0.3452445,-8.989938 -5.052432 -0.845904,-9.076851 -4.076716 -0.02701545,-9.074071 -4.59233 0.5367191,-9.072294 -5.219641 0.7509303,-9.386474 -5.144483 -0.788425,-9.509009 -4.194528 -0.09958458,-9.455029 -4.679941 0.3304483,-9.390781 -5.251823 0.4397486,-9.776595 -5.415732 -0.6700091,-9.936878 -4.643564 -0.1837776,-9.88606 -4.665317 0.1201851,-9.788733 -4.960674 0.2510513,1.810,43  0
-1.134472 -8.027027 -0.1173144,-1.79065 -7.723758 0.3151861,-2.265175 -7.000648 0.5453095,-2.497456 -6.214267 0.7754264,-2.835187 -5.619993 1.026743,-2.069263 -5.288633 0.1802611,-2.300933 -4.203369 0.425938,-2.407032 -3.508958 0.6044213,-2.454478 -2.878194 0.7393113,-1.696122 -5.040775 0.1514234,-1.852841 -3.773149 0.3554635,-1.852841 -3.773149 0.3554635,-1.951795 -2.305155 0.690226,-1.325011 -5.072927 0.2072585,-1.364085 -3.894635 0.4068558,-1.402509 -3.138387 0.6565613,-1.436945 -2.450761 0.8686426,-0.9482651 -5.362188 0.3019882,-0.8725591 -4.487109 0.532131,-0.8600287 -3.904151 0.7565218,-0.8642511 -3.352081 0.9479653,-9.271322 -7.394643 -1.126955,-8.741877 -7.30669 -0.3817394,-8.381918 -6.573041 0.041574,-8.47983 -5.73034 0.4058912,-8.81974 -5.347312 0.7097697,-8.578796 -5.04903 -0.7757258,-8.50224 -4.1651 -0.2147493,-8.526741 -3.618707 0.2151164,-8.584873 -3.129176 0.4703918,-9.007678 -4.863653 -0.8337199,-9.093211 -3.9533 0.04872704,-9.109403 -4.720185 0.525391,-9.126715 -5.404983 0.5723753,-9.415539 -4.90606 -0.776737,-9.526485 -3.995478 -0.04131615,-9.495321 -4.713683 0.258685,-9.46384 -5.33682 0.1981839,-9.812212 -5.138563 -0.6633992,-9.946044 -4.411159 -0.2001798,-9.892008 -4.62815 -0.01656842,-9.817776 -5.000406 -0.05545688,1.910,43  0
-1.156925 -8.028746 -0.1737537,-1.806189 -7.722858 0.1795167,-2.286768 -6.970495 0.3581766,-2.519394 -6.187514 0.5621765,-2.844585 -5.609313 0.786176,-2.059382 -5.267208 0.03595451,-2.286281 -4.166204 0.2734931,-2.384897 -3.477218 0.4320249,-2.426118 -2.849015 0.5400932,-1.689852 -5.050365 0.05518581,-1.839574 -3.774312 0.2712234,-1.839574 -3.774312 0.2712234,-1.908095 -2.319717 0.6091744,-1.322208 -5.095608 0.1521454,-1.356125 -3.914492 0.3804964,-1.379709 -3.157835 0.6326556,-1.397875 -2.478445 0.8394899,-0.9461746 -5.390674 0.2823332,-0.87356 -4.50698 0.5241131,-0.8561969 -3.925906 0.7468899,-0.8548565 -3.378496 0.9333853,-9.333302 -7.227495 -1.447849,-8.82232 -7.246004 -0.6284282,-8.401949 -6.566577 -0.1816573,-8.448727 -5.72695 0.1758047,-8.809999 -5.364502 0.4522502,-8.59201 -5.07411 -0.9540012,-8.476954 -4.295104 -0.2209291,-8.50486 -3.837332 0.3038706,-8.567057 -3.382629 0.5903196,-9.005786 -4.812761 -1.045239,-9.064627 -3.956539 -0.0197829,-9.094919 -4.844198 0.380361,-9.117125 -5.533025 0.3166153,-9.421825 -4.809297 -0.9984006,-9.523187 -3.922336 -0.1048119,-9.500191 -4.775314 0.1313467,-9.473997 -5.411867 -0.02910364,-9.836876 -5.019643 -0.8938721,-9.996892 -4.302806 -0.3175842,-9.943317 -4.618218 -0.119758,-9.864899 -5.042291 -0.1815031,2.010,43  0
-1.184634 -7.984996 -0.2425456,-1.835675 -7.721738 0.0960795,-2.314321 -6.97569 0.2633445,-2.539106 -6.196132 0.4527116,-2.866181 -5.652158 0.668949,-2.088248 -5.254027 -0.01977707,-2.313886 -4.13703 0.1964474,-2.410741 -3.4221 0.3372958,-2.449539 -2.778919 0.4399716,-1.719095 -5.027626 -0.005043298,-1.871257 -3.735464 0.2078904,-1.871257 -3.735464 0.2078904,-1.93278 -2.273692 0.5213804,-1.349919 -5.070492 0.0878334,-1.396346 -3.881316 0.3084602,-1.422104 -3.121306 0.5425607,-1.441878 -2.448225 0.7373052,-0.9721451 -5.368918 0.2100307,-0.9012508 -4.489385 0.451973,-0.888021 -3.913307 0.6741379,-0.8941913 -3.364178 0.8601011,-9.361456 -7.153121 -1.546044,-8.868745 -7.220643 -0.6542538,-8.461658 -6.613392 -0.1680626,-8.479712 -5.826471 0.2099179,-8.781128 -5.405504 0.525877,-8.60669 -5.110134 -0.768914,-8.475533 -4.38593 0.04942107,-8.514566 -3.975801 0.6186483,-8.59512 -3.614582 0.9378364,-9.023283 -4.822504 -0.900764,-9.071405 -4.010208 0.1792636,-9.119792 -4.947369 0.520437,-9.148193 -5.656406 0.4472705,-9.44949 -4.781446 -0.8861027,-9.544919 -3.939363 0.06447887,-9.541473 -4.83554 0.2956198,-9.519719 -5.5009 0.137642,-9.865734 -4.938263 -0.8188141,-10.04047 -4.196034 -0.1615802,-9.996703 -4.549482 0.07832348,-9.922744 -5.028954 0.05262077,2.110,43  0
-1.19474 -8.041416 -0.184391,-1.849621 -7.74053 0.1547003,-2.324553 -6.999977 0.3278177,-2.552949 -6.218318 0.5170411,-2.87668 -5.648208 0.7201459,-2.089634 -5.298368 0.03097335,-2.322142 -4.20788 0.2668988,-2.432596 -3.532027 0.4246275,-2.489953 -2.907344 0.5379588,-1.7193 -5.065306 0.05254081,-1.865644 -3.798763 0.2700247,-1.865644 -3.798763 0.2700247,-1.962715 -2.321215 0.62075,-1.35475 -5.104139 0.1502566,-1.395148 -3.930944 0.3697562,-1.428445 -3.171224 0.614634,-1.460666 -2.489912 0.824545,-0.9851856 -5.395414 0.2779211,-0.9100304 -4.512443 0.5147859,-0.8957968 -3.923661 0.7340304,-0.9019966 -3.373022 0.9175473,-9.376662 -7.20674 -1.460913,-8.872445 -7.220316 -0.5810727,-8.462209 -6.584001 -0.07003808,-8.503077 -5.830545 0.3285242,-8.817926 -5.455423 0.6745249,-8.636003 -5.136259 -0.6227692,-8.481803 -4.407503 0.2323335,-8.514091 -3.991837 0.8437508,-8.598856 -3.648492 1.195545,-9.05396 -4.872643 -0.7329838,-9.089793 -4.027069 0.361859,-9.131259 -4.930967 0.7273151,-9.15652 -5.621516 0.6956505,-9.479756 -4.842929 -0.7047328,-9.563719 -3.972062 0.2300678,-9.552343 -4.804263 0.4509081,-9.530624 -5.441448 0.3191067,-9.898602 -5.004741 -0.6164061,-10.08202 -4.197543 0.01886785,-10.02381 -4.508791 0.2452209,-9.933465 -4.971176 0.2374979,2.210,43  0
-1.228255 -8.024744 -0.2254045,-1.867128 -7.743734 0.123219,-2.338601 -6.993866 0.3012122,-2.562942 -6.219489 0.501162,-2.896963 -5.678099 0.722508,-2.106281 -5.293075 0.002851427,-2.334018 -4.207277 0.2433329,-2.436196 -3.533926 0.4002219,-2.488228 -2.915297 0.5132276,-1.741987 -5.059734 0.02473566,-1.895254 -3.789358 0.2562516,-1.895254 -3.789358 0.2562516,-1.990884 -2.311494 0.6118728,-1.382875 -5.097272 0.1243787,-1.416444 -3.915945 0.3581042,-1.441602 -3.152784 0.6098563,-1.469563 -2.470465 0.8241894,-1.01861 -5.38328 0.2539154,-0.938446 -4.495744 0.5013016,-0.9192233 -3.914495 0.7241606,-0.92342 -3.369997 0.9166343,-9.436291 -7.295335 -1.099887,-8.929013 -7.289724 -0.2127504,-8.497219 -6.629991 0.3175342,-8.54277 -5.878673 0.7391238,-8.860827 -5.540933 1.099571,-8.674132 -5.1285 -0.2436951,-8.525338 -4.389263 0.6439775,-8.567731 -4.024149 1.259402,-8.668644 -3.816862 1.605444,-9.105903 -4.861173 -0.3466178,-9.152343 -4.035118 0.7822152,-9.205595 -4.971781 1.163153,-9.223513 -5.690997 1.136954,-9.540817 -4.83259 -0.3104984,-9.636708 -3.975963 0.6395189,-9.635976 -4.843405 0.838793,-9.6081 -5.497446 0.7001888,-9.968024 -5.006915 -0.2136568,-10.15962 -4.205659 0.4224992,-10.10858 -4.540819 0.6359771,-10.01572 -5.006969 0.6148728,2.310,43  0
-1.222447 -8.033909 -0.193294,-1.871548 -7.759849 0.163405,-2.35111 -7.0107 0.3305573,-2.58379 -6.232713 0.5135212,-2.898772 -5.663872 0.7135857,-2.111393 -5.292996 -0.005680889,-2.349737 -4.208849 0.2167306,-2.465459 -3.530053 0.3691275,-2.526116 -2.893792 0.4850878,-1.745066 -5.057153 0.00377433,-1.89804 -3.78976 0.203805,-1.89804 -3.78976 0.203805,-1.999914 -2.314413 0.5348141,-1.384386 -5.094029 0.09382719,-1.428131 -3.918897 0.2938631,-1.460372 -3.155939 0.5405805,-1.490009 -2.478758 0.7542628,-1.015115 -5.37651 0.2178329,-0.9493361 -4.485815 0.4393922,-0.9359245 -3.898734 0.6568397,-0.9402714 -3.36046 0.8459747,-9.442405 -7.286077 -0.9045736,-8.941904 -7.299709 0.05306077,-8.505787 -6.640287 0.6093683,-8.576651 -5.906614 1.047492,-8.930148 -5.556623 1.414476,-8.702211 -5.112836 0.08277631,-8.54972 -4.409631 1.069617,-8.589068 -4.046447 1.70866,-8.673298 -3.796752 2.06257,-9.142657 -4.823025 -0.04717064,-9.209156 -4.021147 1.154391,-9.260373 -4.994349 1.549619,-9.270435 -5.709176 1.506749,-9.584347 -4.772485 -0.03164274,-9.697258 -3.946545 0.9996889,-9.696323 -4.846021 1.214143,-9.660743 -5.512594 1.055869,-10.01129 -4.941274 0.05211395,-10.22762 -4.187327 0.727344,-10.19361 -4.492839 0.9554771,-10.107 -4.931741 0.9266744,2.410,43  0
-1.218635 -8.03632 -0.1960108,-1.870291 -7.765745 0.1666394,-2.345261 -7.018987 0.3464393,-2.571911 -6.235515 0.5367666,-2.900164 -5.683576 0.7555094,-2.116548 -5.301721 0.04273282,-2.347404 -4.190967 0.2739851,-2.465948 -3.499502 0.4302534,-2.533835 -2.855855 0.5516598,-1.746935 -5.06476 0.04699972,-1.901334 -3.786775 0.2741833,-1.901334 -3.786775 0.2741833,-2.014334 -2.294128 0.6134794,-1.381917 -5.099629 0.1326919,-1.428231 -3.919727 0.3479997,-1.469113 -3.147668 0.5942146,-1.50887 -2.462168 0.80576,-1.009508 -5.379184 0.2521469,-0.9418411 -4.491241 0.4889749,-0.9338617 -3.899556 0.71047,-0.9452786 -3.354158 0.8982708,-9.44924 -7.37001 -0.7426626,-8.932579 -7.313402 0.1991046,-8.503035 -6.613739 0.7672933,-8.61563 -5.882152 1.202817,-8.983784 -5.577533 1.539933,-8.724768 -5.13529 0.2951674,-8.559927 -4.423414 1.253622,-8.595608 -4.031654 1.870298,-8.681376 -3.769449 2.235214,-9.174335 -4.88373 0.1949703,-9.222007 -4.0337 1.392242,-9.259389 -4.911927 1.81925,-9.266144 -5.622697 1.839386,-9.615259 -4.87955 0.2195335,-9.725801 -4.00247 1.242077,-9.709733 -4.776544 1.488589,-9.668814 -5.396804 1.399694,-10.03916 -5.107866 0.3175651,-10.27177 -4.330628 1.019026,-10.24164 -4.461329 1.306408,-10.1543 -4.756966 1.359786,2.510,43  0
-1.212846 -8.077396 -0.1442852,-1.864823 -7.804292 0.2775076,-2.347735 -7.076725 0.4797099,-2.582389 -6.294124 0.6814082,-2.900232 -5.719883 0.8966651,-2.113943 -5.339933 0.1640299,-2.343026 -4.240902 0.406227,-2.456541 -3.556036 0.571554,-2.525336 -2.911227 0.6984015,-1.740496 -5.093301 0.1292368,-1.893412 -3.825176 0.3520237,-1.893412 -3.825176 0.3520237,-2.004071 -2.358755 0.7026876,-1.374563 -5.119093 0.1745812,-1.413989 -3.951257 0.3794739,-1.444632 -3.198287 0.6370422,-1.476385 -2.523103 0.8600008,-1.004765 -5.387737 0.2563244,-0.9320803 -4.497016 0.4864202,-0.9145617 -3.909461 0.7136357,-0.921916 -3.360302 0.9050564,-9.513076 -7.395172 -0.5654956,-8.984209 -7.322288 0.4107169,-8.534986 -6.610331 1.001701,-8.659942 -5.857614 1.451522,-9.050263 -5.542151 1.792637,-8.790055 -5.127403 0.5399244,-8.641185 -4.444648 1.572193,-8.669259 -4.04862 2.236217,-8.758325 -3.770895 2.615777,-9.257383 -4.871387 0.4218454,-9.324072 -4.012214 1.68169,-9.359028 -4.950217 2.117289,-9.375931 -5.672203 2.12488,-9.717021 -4.842109 0.4370525,-9.845636 -3.982716 1.517138,-9.827024 -4.859251 1.720078,-9.799067 -5.503715 1.578757,-10.16026 -5.041206 0.5219774,-10.39435 -4.242465 1.240177,-10.3382 -4.510273 1.478498,-10.24006 -4.912918 1.468747,2.610,43  0
1.344454 -7.978705 -0.1358915,-0.05966854 -7.868842 0.1959427,0.04723024 -6.507593 0.6427955,-0.1685114 -5.649647 1.024412,-1.364146 -5.39532 1.185098,-0.7592611 -5.402788 0.2031721,-1.414829 -4.33119 0.4017931,-0.7684746 -3.453012 0.6619468,-0.8863001 -2.715242 0.8246049,-0.3922114 -4.956918 0.1673992,0.01518822 -3.926919 0.5161086,0.01518822 -3.926919 0.5161086,-0.009171963 -2.109066 0.7418343,1.37875 -5.278553 0.1544145,0.6309986 -3.954308 0.4024545,0.551919 -3.117765 0.7185543,0.5531154 -2.337437 0.9743859,1.983813 -5.494201 0.3016377,1.74487 -4.519313 0.5680169,1.668974 -3.827524 0.8372288,1.202378 -3.16967 1.066044,-9.565145 -7.395863 -0.5310325,-8.200047 -7.601968 0.3705496,-7.432665 -7.009592 0.9899313,-6.969673 -6.133639 1.590285,-7.070292 -5.503932 2.173682,-6.339968 -5.341521 0.7561814,-6.215702 -4.515415 1.769407,-6.270793 -3.921918 2.419614,-6.559679 -3.582139 2.826242,-6.889891 -5.005043 0.6062918,-7.030759 -3.896036 1.754122,-7.739399 -4.700042 2.426924,-7.86003 -5.503648 2.627925,-7.622992 -4.996044 0.5398034,-8.172848 -3.817314 1.562742,-8.358625 -4.675265 1.959413,-8.328749 -5.393114 1.91818,-8.593149 -5.205318 0.674787,-9.013928 -4.186738 1.3057,-9.588141 -4.47419 1.724736,-8.9563 -4.773703 1.786108,2.710,43  0
1.324211 -7.958045 -0.2603131,-0.07297993 -7.850361 -0.0006388128,0.04483795 -6.466409 0.4156415,-0.163022 -5.62741 0.7940152,-1.361018 -5.418075 0.940518,-0.7587967 -5.39447 0.02346273,-1.410282 -4.312607 0.2267727,-0.7651062 -3.433284 0.4727345,-0.8793917 -2.700372 0.6150135,-0.3873529 -4.970205 0.04985762,-0.001554489 -3.914583 0.3638467,-0.001554489 -3.914583 0.3638467,-0.02043438 -2.086927 0.56676,1.387404 -5.313854 0.08038698,0.6416473 -3.955152 0.3371121,0.5593939 -3.091631 0.6330532,0.5643768 -2.301426 0.8797272,2.003829 -5.559814 0.2727185,1.761453 -4.561603 0.5399611,1.682571 -3.853466 0.8082447,1.214337 -3.181383 1.030938,-9.61845 -7.467479 -0.4256151,-8.261153 -7.597246 0.4344822,-7.501711 -6.99459 1.044342,-7.081278 -6.125213 1.670517,-7.204587 -5.534401 2.278402,-6.464521 -5.330495 0.8215928,-6.327352 -4.447479 1.786526,-6.369534 -3.83593 2.436519,-6.664743 -3.555504 2.849875,-7.02155 -5.024725 0.6815315,-7.181586 -3.821284 1.74043,-7.872959 -4.644784 2.334544,-7.974072 -5.53366 2.498686,-7.751335 -5.03667 0.6293517,-8.338012 -3.747255 1.584277,-8.502345 -4.647152 1.951799,-8.467283 -5.445894 1.913579,-8.708753 -5.264127 0.7752326,-9.178246 -4.191038 1.381398,-9.728208 -4.480186 1.816866,-9.072338 -4.781859 1.873007,2.810,43  0
1.341717 -7.979649 -0.1662246,-0.0552721 -7.859178 0.1165822,0.04644489 -6.488258 0.5287384,-0.1805811 -5.644645 0.8902242,-1.375168 -5.440484 1.007759,-0.7429256 -5.399745 0.1067975,-1.394928 -4.323312 0.2966109,-0.7505322 -3.448869 0.5447162,-0.8653173 -2.721811 0.689505,-0.3833895 -4.96033 0.090838,0.02867603 -3.920531 0.4096519,0.02867603 -3.920531 0.4096519,0.0107708 -2.096319 0.6274329,1.379112 -5.291821 0.08828152,0.6422758 -3.959819 0.3206362,0.5653892 -3.127754 0.6185229,0.5693846 -2.358799 0.8528507,1.976403 -5.520465 0.2440049,1.752396 -4.543235 0.4901917,1.68096 -3.857156 0.7514457,1.219681 -3.212125 0.9677573,-9.724379 -7.411232 -0.1412657,-8.352218 -7.634977 0.8207389,-7.554108 -7.03124 1.484278,-7.141228 -6.187593 2.145782,-7.301675 -5.526199 2.751278,-6.54639 -5.28808 1.268205,-6.440017 -4.389951 2.308111,-6.517326 -3.796344 2.981278,-6.845047 -3.53464 3.402704,-7.12701 -4.935322 1.090394,-7.304077 -3.782394 2.243063,-8.006482 -4.687257 2.851221,-8.101853 -5.580994 3.010912,-7.880003 -4.904525 1.010167,-8.445304 -3.720071 2.021803,-8.640769 -4.664739 2.374942,-8.609952 -5.4899 2.313822,-8.856876 -5.084131 1.132494,-9.318598 -4.02389 1.771129,-9.805408 -4.474244 2.15926,-9.191142 -4.906967 2.161214,2.910,43  0
-1.217375 -8.052999 -0.2714553,-1.852567 -7.778808 0.1498196,-2.323053 -7.04249 0.3712549,-2.556812 -6.276519 0.6012839,-2.903365 -5.726449 0.8627483,-2.088789 -5.330499 0.04992047,-2.318311 -4.234458 0.3112791,-2.423077 -3.556943 0.4841845,-2.481371 -2.925128 0.6145077,-1.71967 -5.105738 0.04437876,-1.864841 -3.834451 0.2938773,-1.864841 -3.834451 0.2938773,-1.95717 -2.347299 0.6728476,-1.354651 -5.154268 0.1225354,-1.38113 -3.978244 0.3612584,-1.408083 -3.222802 0.6290594,-1.436418 -2.538136 0.856624,-0.9860592 -5.447256 0.2358677,-0.9070749 -4.562265 0.4953193,-0.886116 -3.976184 0.7379603,-0.8851433 -3.4194 0.9377204,-9.707716 -7.454915 -0.07017827,-9.160136 -7.376337 1.020637,-8.727503 -6.645858 1.731689,-8.891671 -5.929863 2.25285,-9.348053 -5.614059 2.619089,-9.10028 -5.18795 1.437482,-8.972775 -4.388561 2.538175,-9.025724 -3.951343 3.218668,-9.140767 -3.698247 3.649939,-9.609365 -4.942568 1.30047,-9.686113 -4.006456 2.597074,-9.689564 -4.83986 3.087938,-9.683277 -5.526279 3.236244,-10.08551 -4.933852 1.27647,-10.22981 -3.990921 2.37594,-10.18436 -4.666021 2.6463,-10.12985 -5.224443 2.63132,-10.53485 -5.147928 1.328133,-10.81346 -4.311172 2.080803,-10.77076 -4.430804 2.385364,-10.66361 -4.734167 2.476227,3.010,43  0
-1.233845 -8.051025 -0.3106466,-1.875812 -7.778303 0.08879179,-2.346107 -7.05384 0.2973401,-2.58205 -6.297095 0.5150669,-2.904994 -5.740207 0.7536491,-2.100448 -5.331155 -0.005012333,-2.328128 -4.222763 0.2542679,-2.440372 -3.53087 0.4267688,-2.498377 -2.884656 0.5555906,-1.731585 -5.113372 -0.004846752,-1.875921 -3.832537 0.2472396,-1.875921 -3.832537 0.2472396,-1.979599 -2.338125 0.619283,-1.366682 -5.167836 0.07615304,-1.400857 -3.991402 0.3165821,-1.435484 -3.230921 0.5786113,-1.465154 -2.549837 0.8048314,-0.9970512 -5.46508 0.1888169,-0.9172535 -4.577086 0.455467,-0.8970823 -3.979324 0.7051221,-0.893918 -3.41234 0.9081976,-9.796263 -7.364484 -0.1970106,-9.226532 -7.286218 0.8449781,-8.7934 -6.480897 1.521487,-9.002188 -5.715265 2.01574,-9.447396 -5.488204 2.358397,-9.172474 -5.145074 1.278014,-9.049359 -4.355842 2.376922,-9.093897 -3.916169 3.049707,-9.203835 -3.681654 3.429093,-9.695196 -4.874053 1.137746,-9.830858 -3.905281 2.368104,-9.825956 -4.868138 2.706158,-9.802551 -5.615237 2.703628,-10.18313 -4.820337 1.118497,-10.36518 -3.857809 2.169911,-10.30289 -4.764631 2.252804,-10.24564 -5.433555 2.080461,-10.62772 -4.982734 1.166172,-10.8936 -4.143873 1.874361,-10.81171 -4.47463 2.033035,-10.68157 -4.897894 1.971737,3.110,43  0
-1.221183 -8.091137 -0.1630689,-1.861814 -7.813761 0.2920123,-2.340254 -7.088851 0.5203085,-2.5741 -6.310699 0.7449454,-2.890403 -5.722648 0.990131,-2.108203 -5.356466 0.1598019,-2.330799 -4.288348 0.4151045,-2.442541 -3.614184 0.5891192,-2.509783 -2.975933 0.7236868,-1.732738 -5.111029 0.1247595,-1.874151 -3.847906 0.3564881,-1.874151 -3.847906 0.3564881,-1.964468 -2.359148 0.736519,-1.36776 -5.14994 0.1736016,-1.394998 -3.975958 0.3873899,-1.424313 -3.218211 0.6649475,-1.452145 -2.537191 0.8987137,-1.001117 -5.433588 0.2622771,-0.9245234 -4.537277 0.4982864,-0.904314 -3.940902 0.7383637,-0.9050598 -3.378569 0.9406862,-9.825903 -7.372638 0.1955835,-9.253391 -7.269949 1.296932,-8.783838 -6.447244 2.023768,-9.009029 -5.722072 2.557553,-9.526066 -5.527357 2.877219,-9.228706 -5.05763 1.781219,-9.111575 -4.292057 2.96619,-9.161136 -3.875633 3.640514,-9.270644 -3.632975 4.033146,-9.758071 -4.815568 1.643883,-9.866122 -3.931235 3.01815,-9.849014 -4.842145 3.458757,-9.826584 -5.548995 3.535216,-10.24943 -4.815089 1.626656,-10.41987 -3.92937 2.782484,-10.35513 -4.707273 2.95123,-10.29261 -5.311143 2.852749,-10.6982 -5.060947 1.684703,-10.99591 -4.27588 2.48264,-10.96226 -4.432129 2.755469,-10.86023 -4.752 2.793448,3.210,43 4 0
-1.220031 -8.093792 -0.1589735,-1.861694 -7.81495 0.3110403,-2.337486 -7.090367 0.5457,-2.56957 -6.311775 0.7734549,-2.889211 -5.735071 1.018905,-2.100887 -5.351275 0.1853601,-2.324928 -4.269825 0.4357896,-2.42389 -3.590898 0.6060285,-2.477559 -2.956022 0.7338022,-1.723886 -5.111833 0.1352018,-1.866693 -3.847384 0.3584536,-1.866693 -3.847384 0.3584536,-1.945382 -2.358428 0.7339848,-1.359138 -5.149728 0.1696042,-1.392 -3.97852 0.3758619,-1.423616 -3.220618 0.6404294,-1.454909 -2.538024 0.8675352,-0.9937334 -5.438045 0.2451758,-0.9161124 -4.544884 0.4765549,-0.8936777 -3.950004 0.7081175,-0.8924379 -3.387916 0.9020541,-9.867532 -7.368584 0.1082959,-9.285984 -7.271341 1.181817,-8.813215 -6.410717 1.916341,-9.040251 -5.702339 2.467498,-9.548412 -5.541596 2.837349,-9.27238 -5.100908 1.729271,-9.155185 -4.293298 2.928057,-9.20488 -3.852189 3.62019,-9.315863 -3.618672 4.003556,-9.812247 -4.865753 1.60087,-9.933469 -3.9453 2.95778,-9.898299 -4.904893 3.357675,-9.851101 -5.628144 3.407632,-10.31277 -4.841788 1.581698,-10.48379 -3.924091 2.707875,-10.40911 -4.749952 2.786271,-10.33324 -5.36531 2.622933,-10.77109 -5.031646 1.634781,-11.06401 -4.176411 2.390699,-10.99757 -4.425145 2.567794,-10.8723 -4.824247 2.522563,3.310,43 45 0
-1.202665 -8.114618 -0.1402777,-1.848781 -7.818893 0.331736,-2.324772 -7.105443 0.5681673,-2.553139 -6.332474 0.8039308,-2.877986 -5.747196 1.063419,-2.088777 -5.364995 0.2020251,-2.312385 -4.289524 0.4516001,-2.417172 -3.611395 0.6272967,-2.478257 -2.971947 0.7684463,-1.709426 -5.128573 0.1626108,-1.847106 -3.871891 0.3799766,-1.847106 -3.871891 0.3799766,-1.933314 -2.397981 0.7478,-1.339472 -5.167078 0.2100159,-1.358587 -4.006388 0.4104211,-1.392095 -3.261358 0.6815585,-1.422419 -2.580166 0.915975,-0.9681702 -5.445425 0.3004648,-0.8956814 -4.560567 0.5352626,-0.8820519 -3.968809 0.7799624,-0.885685 -3.403896 0.9885616,-9.869854 -7.400823 0.3762788,-9.284965 -7.254132 1.521254,-8.821268 -6.436613 2.318759,-9.035563 -5.752419 2.91706,-9.548407 -5.589679 3.331362,-9.286978 -5.098056 2.149268,-9.161767 -4.26363 3.396599,-9.231702 -3.883169 4.110363,-9.359015 -3.724171 4.510161,-9.833626 -4.885571 1.994753,-9.94596 -3.931272 3.402683,-9.930602 -4.829959 3.852564,-9.888847 -5.490488 3.952947,-10.33478 -4.898691 1.949918,-10.51508 -3.942918 3.115583,-10.45723 -4.663327 3.2833,-10.37794 -5.19427 3.199454,-10.79019 -5.135097 1.969989,-11.11139 -4.26992 2.729893,-11.10149 -4.35725 2.96445,-11.00891 -4.608703 2.986509,3.410,43 45 0
-1.193851 -8.124887 -0.1064614,-1.845121 -7.855501 0.365735,-2.325586 -7.130725 0.5912871,-2.564518 -6.355463 0.8131812,-2.900537 -5.784891 1.052974,-2.090305 -5.381442 0.2220366,-2.303323 -4.294784 0.4551743,-2.403634 -3.622526 0.615281,-2.461189 -2.985598 0.7382807,-1.713802 -5.128284 0.1655723,-1.835139 -3.85865 0.3703955,-1.835139 -3.85865 0.3703955,-1.905277 -2.401674 0.7174577,-1.348265 -5.159946 0.1946142,-1.35672 -3.986773 0.3926575,-1.378059 -3.248439 0.6573676,-1.400858 -2.573886 0.8816985,-0.9837871 -5.440865 0.2653611,-0.8967633 -4.562419 0.4948474,-0.8678761 -3.989785 0.7311422,-0.8619204 -3.446499 0.9302344,-9.909118 -7.517477 0.6499805,-9.316261 -7.265335 1.810287,-8.829573 -6.400199 2.62636,-9.044271 -5.727478 3.274051,-9.56698 -5.670276 3.722465,-9.324386 -5.039079 2.292208,-9.196625 -4.180134 3.631456,-9.247779 -3.92514 4.357103,-9.353945 -3.833912 4.711266,-9.875757 -4.844369 2.158028,-9.969593 -3.916374 3.682368,-9.936827 -4.961025 4.108209,-9.875405 -5.57275 4.118441,-10.37941 -4.872524 2.149522,-10.54967 -3.883942 3.384002,-10.47489 -4.703351 3.496022,-10.39105 -5.178354 3.338533,-10.84097 -5.128658 2.222054,-11.16515 -4.228506 2.980982,-11.13679 -4.389637 3.163241,-11.04142 -4.65398 3.111766,3.510,43 45 0
-1.183102 -8.147327 -0.1217218,-1.817949 -7.852659 0.3542549,-2.285981 -7.120846 0.5914358,-2.51678 -6.34774 0.8265899,-2.850196 -5.78869 1.095144,-2.037958 -5.377431 0.2313765,-2.264857 -4.298153 0.4639891,-2.367259 -3.625116 0.6216781,-2.426034 -2.985739 0.7501463,-1.658455 -5.150271 0.1764402,-1.792241 -3.889363 0.3783006,-1.792241 -3.889363 0.3783006,-1.861996 -2.433989 0.7430365,-1.296532 -5.193779 0.2065479,-1.318877 -4.027052 0.3954732,-1.360186 -3.287441 0.6564062,-1.397039 -2.611171 0.8855579,-0.9380226 -5.478932 0.2788278,-0.8518429 -4.600067 0.4944302,-0.8301659 -4.017566 0.7303823,-0.828125 -3.450465 0.9326619,-9.846171 -7.591949 0.816275,-9.258471 -7.201388 1.825487,-8.797513 -6.342872 2.63634,-9.026372 -5.643899 3.279026,-9.576971 -5.600526 3.747405,-9.264114 -5.092313 2.459989,-9.125202 -4.161205 3.687416,-9.204387 -3.851784 4.349841,-9.350946 -3.796024 4.696122,-9.834439 -4.874629 2.342959,-9.925995 -3.783615 3.549993,-9.885477 -4.776603 3.795264,-9.823215 -5.486003 3.767827,-10.34916 -4.878234 2.326794,-10.49642 -3.735385 3.317316,-10.40888 -4.655483 3.269552,-10.32813 -5.266836 3.04188,-10.82635 -5.066976 2.394799,-11.09963 -4.0459 3.004195,-10.98582 -4.451118 3.01254,-10.8361 -4.933799 2.852705,3.610,43 45 0
-1.156965 -8.185095 -0.1290811,-1.801383 -7.879426 0.3807343,-2.259649 -7.160396 0.6629608,-2.480388 -6.377363 0.9360728,-2.811157 -5.78667 1.231675,-2.023111 -5.436261 0.2998049,-2.245584 -4.368132 0.5709874,-2.331985 -3.695548 0.7516999,-2.373027 -3.059029 0.8885307,-1.638864 -5.200428 0.2505107,-1.773713 -3.938861 0.4947838,-1.773713 -3.938861 0.4947838,-1.846756 -2.482168 0.88822,-1.265865 -5.24621 0.289324,-1.289211 -4.072841 0.5177956,-1.321109 -3.311926 0.8036175,-1.35154 -2.610101 1.050725,-0.8933539 -5.540382 0.3653804,-0.8067441 -4.644701 0.6109881,-0.7731905 -4.044059 0.8612114,-0.7615447 -3.460956 1.083734,-9.774275 -7.480163 0.5919455,-9.213656 -7.249525 1.647015,-8.738664 -6.526012 2.391243,-8.797646 -5.78145 2.978386,-9.271141 -5.535932 3.514381,-9.123144 -5.083267 2.197289,-8.94905 -4.169754 3.375906,-9.008227 -3.731263 4.07249,-9.12255 -3.613314 4.474858,-9.661902 -4.806148 2.060169,-9.69583 -3.742065 3.330281,-9.704802 -4.629597 3.828646,-9.711801 -5.440492 3.962593,-10.16088 -4.764435 2.027259,-10.26672 -3.730888 3.076829,-10.23176 -4.591241 3.323317,-10.18508 -5.309265 3.266875,-10.65013 -4.923427 2.071027,-10.89369 -3.933012 2.851542,-10.80491 -4.281724 3.101905,-10.66198 -4.830823 3.136345,3.710,43 45 0
1.428064 -8.109526 -0.2371367,0.03390884 -7.979102 0.1261356,0.1444817 -6.609791 0.6040946,-0.06480598 -5.77326 1.035926,-1.270977 -5.564054 1.21655,-0.6278954 -5.535087 0.1909678,-1.27878 -4.49564 0.3975596,-0.6217904 -3.638928 0.6345519,-0.7277288 -2.911087 0.7738224,-0.2375579 -5.119482 0.154348,0.1702795 -4.091938 0.5011249,0.1702795 -4.091938 0.5011249,0.1593976 -2.32972 0.7290927,1.522354 -5.461753 0.1417345,0.7992001 -4.130019 0.4166613,0.7159147 -3.294257 0.7388116,0.723772 -2.501783 1.006196,2.119605 -5.705119 0.2858706,1.90837 -4.732445 0.5556006,1.844397 -4.040802 0.8419607,1.396618 -3.359432 1.097623,-9.470409 -7.365325 -0.2163451,-8.145367 -7.396284 0.5788084,-7.422945 -6.929572 1.254824,-6.719387 -6.07644 1.962268,-7.182802 -5.578809 2.459575,-6.459002 -5.259048 1.208179,-6.238109 -4.343038 2.027929,-6.369179 -3.709123 2.730969,-6.591893 -3.316326 3.208888,-6.990456 -4.912436 1.065005,-7.114837 -3.691043 1.912264,-9.016983 -4.427534 2.50054,-9.031802 -5.456438 2.80314,-7.921021 -4.815186 0.647373,-8.511623 -3.224095 1.505367,-9.301467 -4.033817 1.751386,-9.100027 -5.268656 1.832225,-9.070059 -5.00428 0.3694608,-9.873405 -3.493311 1.102863,-9.930521 -3.781053 1.489162,-9.829213 -4.343554 1.641601,3.810,43 45 0
1.413832 -8.052773 -0.3606026,0.02320576 -7.942363 -0.03425103,0.1466804 -6.575422 0.4193154,-0.0779829 -5.741159 0.8108732,-1.255731 -5.484027 0.9871547,-0.6146207 -5.493122 0.01051274,-1.26906 -4.458566 0.1972019,-0.6192317 -3.601779 0.4208268,-0.7234855 -2.885337 0.5457897,-0.2320724 -5.090713 -0.01500904,0.1685939 -4.056303 0.3008365,0.1685939 -4.056303 0.3008365,0.1669178 -2.300975 0.496655,1.521294 -5.447118 -0.01808735,0.7971687 -4.103811 0.2379233,0.7113438 -3.265529 0.5308064,0.7221079 -2.480245 0.7697218,2.12459 -5.701984 0.1322613,1.910799 -4.719905 0.3762518,1.844011 -4.021451 0.6487923,1.39988 -3.330129 0.8858201,-9.383852 -7.396247 -0.682789,-8.024241 -7.497732 0.06691591,-7.256154 -6.972483 0.619363,-6.562143 -6.03885 1.26217,-7.004463 -5.469726 1.608692,-6.285339 -5.216346 0.2275578,-6.051227 -4.398183 1.040342,-6.160357 -3.871869 1.763636,-6.360214 -3.403247 2.213483,-6.781034 -4.886352 0.108217,-6.85333 -3.808229 1.032447,-8.74641 -4.640298 1.549857,-8.806528 -5.693828 1.748369,-7.698279 -4.793089 -0.2400726,-8.228754 -3.345262 0.735328,-9.108809 -4.319445 0.9930162,-8.913732 -5.582976 0.949022,-8.858384 -4.985048 -0.4503471,-9.600403 -3.549301 0.2901428,-9.653643 -3.980083 0.6454855,-9.538087 -4.620967 0.6662037,3.910,43 45 0
1.407392 -8.058786 -0.4005857,0.01390743 -7.92528 -0.08249784,0.1344185 -6.564317 0.3678535,-0.09657478 -5.738163 0.7516451,-1.268312 -5.479746 0.9163292,-0.6130533 -5.501562 -0.01309977,-1.258059 -4.430156 0.1887692,-0.5967941 -3.560957 0.4211456,-0.6990471 -2.829743 0.5546035,-0.2271795 -5.109979 -0.03830031,0.1841331 -4.048513 0.2977849,0.1841331 -4.048513 0.2977849,0.2005277 -2.249267 0.5220116,1.523607 -5.467699 -0.0442772,0.8034816 -4.122758 0.2225731,0.7193103 -3.274556 0.5239064,0.7286654 -2.481611 0.7665879,2.120774 -5.721063 0.0994128,1.911477 -4.734348 0.3585938,1.84976 -4.031602 0.6388824,1.407305 -3.340951 0.8789311,-9.41124 -7.366569 -0.8162376,-8.054125 -7.567085 -0.05011996,-7.256659 -7.010962 0.4615658,-6.582478 -6.090004 1.062027,-7.004273 -5.589042 1.364489,-6.288023 -5.239613 0.05550276,-6.063391 -4.369642 0.815232,-6.190639 -3.821146 1.495967,-6.401798 -3.34155 1.912027,-6.774739 -4.885381 -0.06799053,-6.880875 -3.831962 0.8945788,-8.854014 -4.704847 1.421232,-8.832496 -5.770372 1.591027,-7.693814 -4.763274 -0.4228317,-8.242901 -3.329169 0.5543279,-9.10518 -4.287769 0.7798027,-8.901476 -5.555562 0.7211633,-8.836339 -4.92759 -0.6342908,-9.567456 -3.55372 0.1013319,-9.654693 -3.959341 0.4536824,-9.55971 -4.549409 0.4648423,4.010,43 45 0
1.394448 -8.062967 -0.2889134,-0.003437042 -7.938355 0.02422401,0.1165628 -6.5659 0.4699854,-0.1152372 -5.7349 0.8503754,-1.283329 -5.481798 1.017481,-0.6335773 -5.477973 0.1194832,-1.280982 -4.395048 0.3227323,-0.6387601 -3.505997 0.5558227,-0.7467384 -2.760543 0.6925583,-0.249239 -5.08702 0.1069289,0.1570234 -4.020401 0.435474,0.1570234 -4.020401 0.435474,0.1538324 -2.231176 0.6374986,1.500565 -5.447063 0.1095258,0.7877235 -4.102151 0.3847826,0.6991944 -3.259509 0.6765037,0.704555 -2.469948 0.9210334,2.096656 -5.710609 0.2661812,1.889444 -4.730083 0.5359659,1.822912 -4.032701 0.8181044,1.375431 -3.350215 1.059304,-9.34738 -7.435527 -1.51004,-7.991823 -7.632228 -0.8579844,-7.213229 -7.108529 -0.3899081,-6.477139 -6.187411 0.1733089,-6.859205 -5.616531 0.454905,-6.230148 -5.391279 -0.9487915,-6.013718 -4.496191 -0.4219663,-6.094643 -3.848086 0.1535814,-6.256532 -3.229822 0.5393432,-6.699495 -5.092853 -1.021044,-6.822355 -3.901154 -0.2518481,-8.616165 -4.679225 0.3638335,-8.635682 -5.717221 0.581452,-7.584052 -5.011538 -1.34833,-8.144296 -3.450962 -0.5150088,-8.971105 -4.272508 -0.1190391,-8.828876 -5.467734 -0.07065243,-8.701624 -5.192626 -1.543349,-9.408254 -3.796016 -0.8899322,-9.482767 -4.018117 -0.4539889,-9.431434 -4.541563 -0.3307652,4.110,43 45 0
-1.155312 -8.183128 -0.2012059,-1.803939 -7.888326 0.2545844,-2.266374 -7.147106 0.4928254,-2.492301 -6.375814 0.7312486,-2.809011 -5.81597 0.9922824,-1.97709 -5.422708 0.1803118,-2.203022 -4.332817 0.4231263,-2.304399 -3.640053 0.5822207,-2.351596 -2.992715 0.7046058,-1.597827 -5.209751 0.1487351,-1.725846 -3.932752 0.3551912,-1.725846 -3.932752 0.3551912,-1.791991 -2.484126 0.6950574,-1.231556 -5.276193 0.2032894,-1.243296 -4.09563 0.4171739,-1.272079 -3.341171 0.6684555,-1.298537 -2.651267 0.8908119,-0.8652873 -5.591733 0.2884566,-0.7634878 -4.711145 0.5152949,-0.7321577 -4.127 0.7499931,-0.7193017 -3.55824 0.9553585,-9.350071 -7.346935 -1.68856,-8.839848 -7.378625 -0.8957645,-8.382454 -6.748408 -0.4467601,-8.3696 -5.961555 -0.0697391,-8.694632 -5.600379 0.2420149,-8.641741 -5.252803 -1.156406,-8.501437 -4.439178 -0.4615991,-8.448435 -3.888442 0.08077943,-8.425847 -3.405206 0.4165339,-9.037676 -5.016768 -1.200818,-9.073164 -4.080722 -0.1725956,-9.074399 -4.858716 0.3453286,-9.095695 -5.581486 0.4197428,-9.443156 -4.994562 -1.118333,-9.530383 -4.061763 -0.2061502,-9.479706 -4.812656 0.1858038,-9.442846 -5.520254 0.1697592,-9.857023 -5.153808 -0.9927241,-10.01071 -4.379255 -0.3721119,-9.944909 -4.634046 -0.07412541,-9.858504 -5.124895 -0.024876,4.210,43 45 0
-1.166838 -8.228085 -0.202986,-1.810255 -7.914165 0.2416962,-2.268651 -7.160843 0.4783412,-2.484821 -6.37174 0.7143897,-2.801197 -5.797861 0.9623206,-1.973904 -5.462913 0.1895235,-2.192018 -4.370508 0.4528323,-2.288453 -3.68739 0.6160313,-2.331029 -3.040618 0.736036,-1.596744 -5.256604 0.1734605,-1.719081 -3.977198 0.4188312,-1.719081 -3.977198 0.4188312,-1.786324 -2.510375 0.7875163,-1.231641 -5.32232 0.241547,-1.245862 -4.139089 0.4867481,-1.279262 -3.375181 0.7465085,-1.304173 -2.669405 0.9781976,-0.8666353 -5.632417 0.3378576,-0.7663717 -4.743953 0.589358,-0.7361021 -4.147014 0.8367469,-0.7233925 -3.565629 1.053047,-9.343833 -7.375242 -1.552882,-8.834402 -7.377586 -0.7716379,-8.41659 -6.689352 -0.3248633,-8.439219 -5.906192 0.05105305,-8.744735 -5.561604 0.3839471,-8.666251 -5.186414 -1.051723,-8.542228 -4.336534 -0.3821787,-8.503079 -3.79754 0.1483841,-8.501222 -3.339489 0.4763136,-9.074644 -4.992857 -1.100561,-9.117979 -4.056442 -0.09739256,-9.108345 -4.832368 0.359302,-9.114653 -5.556375 0.4120513,-9.488637 -5.0344 -1.017692,-9.582052 -4.078948 -0.1598068,-9.524061 -4.787648 0.1908183,-9.483059 -5.454515 0.1778616,-9.90115 -5.264831 -0.8909622,-10.06588 -4.456033 -0.3141571,-10.0067 -4.618798 -0.02034926,-9.924301 -5.025301 0.0608139,4.310,43 45 0
-1.120989 -8.265366 -0.1531701,-1.755703 -7.955431 0.3034864,-2.205869 -7.182909 0.5557489,-2.422803 -6.383628 0.8064587,-2.77398 -5.833195 1.088239,-1.941872 -5.503747 0.279089,-2.157997 -4.451953 0.5477874,-2.239003 -3.78899 0.7094743,-2.264269 -3.167369 0.8343177,-1.563437 -5.286782 0.264959,-1.689058 -4.028747 0.538159,-1.689058 -4.028747 0.538159,-1.730754 -2.580863 0.9381666,-1.199395 -5.349048 0.3298053,-1.210346 -4.163242 0.6040285,-1.2364 -3.406826 0.8937788,-1.245191 -2.695059 1.145041,-0.838191 -5.666597 0.4218014,-0.736268 -4.781671 0.6989981,-0.6923728 -4.184755 0.9657052,-0.6561217 -3.583723 1.208373,-9.372452 -7.369407 -1.719043,-8.853475 -7.37154 -0.9558205,-8.428997 -6.700283 -0.5114094,-8.442444 -5.90928 -0.1413782,-8.779113 -5.564233 0.1686324,-8.711199 -5.221302 -1.252172,-8.574052 -4.357582 -0.6305325,-8.535619 -3.783042 -0.130626,-8.539148 -3.301038 0.1932645,-9.11107 -5.029871 -1.2932,-9.143147 -4.10615 -0.3246466,-9.141769 -4.793603 0.1583519,-9.163269 -5.474538 0.2456404,-9.513605 -5.06405 -1.211048,-9.596118 -4.125687 -0.3953358,-9.546171 -4.738241 -0.02611089,-9.514701 -5.359263 -0.01152289,-9.919357 -5.275726 -1.081631,-10.07743 -4.489145 -0.5241704,-10.02416 -4.626903 -0.2180868,-9.942998 -5.025247 -0.1196656,4.410,43 45 0
-1.091984 -8.336092 -0.1724102,-1.698395 -8.002628 0.3132207,-2.122657 -7.22952 0.5876061,-2.320691 -6.439053 0.8608114,-2.653643 -5.845961 1.1822,-1.860033 -5.552326 0.2362532,-2.080509 -4.494743 0.4937777,-2.165413 -3.827489 0.6653886,-2.185044 -3.210119 0.7971409,-1.487368 -5.35112 0.2056246,-1.616685 -4.093412 0.4474666,-1.616685 -4.093412 0.4474666,-1.620301 -2.643253 0.8302064,-1.128469 -5.428727 0.257744,-1.139771 -4.248384 0.5057766,-1.152043 -3.485292 0.791862,-1.142515 -2.767548 1.032721,-0.768517 -5.759642 0.3429874,-0.6689548 -4.882246 0.5995634,-0.6204462 -4.297524 0.8453159,-0.5737715 -3.71964 1.069901,-9.382155 -7.523572 -1.890439,-8.847498 -7.473112 -1.161646,-8.422213 -6.802114 -0.7486397,-8.407809 -6.022106 -0.4178854,-8.730405 -5.591146 -0.1434292,-8.725595 -5.421726 -1.335544,-8.578971 -4.503793 -0.8255916,-8.541003 -3.87495 -0.3703095,-8.525793 -3.341701 -0.001043558,-9.126852 -5.257844 -1.349724,-9.135555 -4.298568 -0.524204,-9.125508 -4.584444 0.09089458,-9.151932 -5.082577 0.4044172,-9.525467 -5.30592 -1.274649,-9.584698 -4.333999 -0.5799443,-9.568039 -4.51308 -0.06013453,-9.556494 -4.902431 0.1787986,-9.92342 -5.533529 -1.154011,-10.05007 -4.763708 -0.6584206,-10.05557 -4.563451 -0.3053844,-10.0247 -4.671271 -0.08629465,4.510,43 45 0
-1.049357 -8.336773 -0.1654249,-1.662954 -8.003656 0.3021069,-2.095646 -7.243832 0.5677881,-2.294733 -6.465089 0.8408405,-2.615518 -5.873807 1.155813,-1.829304 -5.550584 0.2130187,-2.050016 -4.499752 0.4721394,-2.145433 -3.828723 0.6474851,-2.180486 -3.200601 0.7786475,-1.454643 -5.34869 0.1933268,-1.575656 -4.095218 0.4216228,-1.575656 -4.095218 0.4216228,-1.592312 -2.658947 0.7971146,-1.094487 -5.421833 0.2583303,-1.101396 -4.25048 0.4845613,-1.116632 -3.498496 0.7727228,-1.114772 -2.799137 1.016435,-0.7347641 -5.747528 0.3573957,-0.631465 -4.887182 0.59137,-0.5845661 -4.304798 0.8356868,-0.5407004 -3.727763 1.059627,-9.37721 -7.56616 -1.875871,-8.846169 -7.503096 -1.161892,-8.429598 -6.82403 -0.7548171,-8.412672 -6.022641 -0.4324744,-8.727687 -5.554048 -0.1687756,-8.720697 -5.440752 -1.355203,-8.580564 -4.509534 -0.8706117,-8.538244 -3.870624 -0.4114206,-8.51924 -3.331205 -0.03456974,-9.116868 -5.28874 -1.369604,-9.121418 -4.333251 -0.556491,-9.107232 -4.581148 0.06842577,-9.13543 -5.068182 0.400576,-9.516391 -5.340602 -1.297263,-9.572422 -4.389333 -0.627769,-9.564427 -4.527614 -0.09547651,-9.565879 -4.883598 0.1614507,-9.917841 -5.56142 -1.179313,-10.03391 -4.794085 -0.6839308,-10.03242 -4.601448 -0.3180611,-9.998363 -4.714471 -0.08670974,4.610,43 45 0
-1.045836 -8.412796 -0.1993734,-1.658906 -8.0865 0.3001103,-2.066353 -7.329366 0.5789419,-2.249573 -6.528903 0.8468357,-2.558874 -5.9153 1.143484,-1.841206 -5.677992 0.2611418,-2.085201 -4.62183 0.5652495,-2.163779 -3.939266 0.7592998,-2.174845 -3.298526 0.904562,-1.458878 -5.445201 0.2313757,-1.585848 -4.172437 0.4982619,-1.585848 -4.172437 0.4982619,-1.580489 -2.690118 0.9077982,-1.090432 -5.510267 0.2841035,-1.101095 -4.303455 0.5507287,-1.114368 -3.535874 0.8482233,-1.112913 -2.832424 1.089293,-0.7206516 -5.847793 0.3712692,-0.6049619 -4.948711 0.6331923,-0.5556908 -4.349726 0.8850936,-0.5167122 -3.763546 1.097571,-9.378222 -7.558475 -1.857035,-8.836397 -7.486892 -1.166498,-8.414483 -6.789987 -0.7638472,-8.398332 -5.959514 -0.4276712,-8.733593 -5.492322 -0.1570041,-8.713516 -5.406345 -1.424411,-8.581481 -4.457668 -0.941603,-8.549393 -3.822823 -0.4983563,-8.54235 -3.292692 -0.145469,-9.112267 -5.260938 -1.425138,-9.117357 -4.287891 -0.6108944,-9.111322 -4.614509 -0.01168549,-9.144611 -5.150355 0.2757778,-9.512091 -5.326344 -1.330038,-9.566372 -4.344265 -0.653783,-9.555427 -4.552397 -0.1401618,-9.552656 -4.962532 0.09145224,-9.916765 -5.565566 -1.19196,-10.03653 -4.788631 -0.7049381,-10.03849 -4.609646 -0.3552295,-10.01015 -4.729206 -0.1472443,4.710,43 45 0
-1.052646 -8.458197 -0.1781352,-1.645579 -8.127825 0.3685615,-2.047001 -7.364282 0.6591287,-2.216969 -6.569086 0.9422461,-2.521525 -5.945397 1.257231,-1.822235 -5.687856 0.2812394,-2.050793 -4.631521 0.5774068,-2.123042 -3.947341 0.7825608,-2.125863 -3.309662 0.9474,-1.436511 -5.477651 0.2323703,-1.551203 -4.222046 0.4923153,-1.551203 -4.222046 0.4923153,-1.522107 -2.766169 0.9324173,-1.070363 -5.551105 0.2713774,-1.074963 -4.366268 0.5286234,-1.078467 -3.620842 0.8478529,-1.065145 -2.925549 1.107811,-0.7038488 -5.886617 0.3491527,-0.5923643 -4.993499 0.6157809,-0.5395699 -4.405885 0.8844239,-0.495595 -3.82031 1.118603,-9.377349 -7.553812 -1.774644,-8.840036 -7.476528 -1.085475,-8.432021 -6.745664 -0.6902022,-8.452499 -5.929609 -0.3635131,-8.789249 -5.522274 -0.08288455,-8.740231 -5.353738 -1.388055,-8.60355 -4.413156 -0.93408,-8.566183 -3.779241 -0.5095778,-8.561151 -3.261631 -0.1706918,-9.138104 -5.220568 -1.39236,-9.144892 -4.250559 -0.5809574,-9.13888 -4.561258 0.02152336,-9.176172 -5.113386 0.3090597,-9.529316 -5.290306 -1.300712,-9.580816 -4.320337 -0.61235,-9.564119 -4.552292 -0.09820116,-9.559699 -5.009215 0.1150314,-9.929667 -5.526788 -1.159059,-10.05532 -4.734177 -0.6443067,-10.03475 -4.640544 -0.274276,-9.982514 -4.885307 -0.06244421,4.810,43 45 0
-1.027926 -8.477818 -0.2085821,-1.624296 -8.157978 0.3758755,-2.035081 -7.440437 0.6972636,-2.213505 -6.648937 0.9964006,-2.511085 -5.994697 1.334185,-1.826044 -5.742792 0.332355,-2.059986 -4.676054 0.6456894,-2.135768 -3.971674 0.8779802,-2.148757 -3.303335 1.065648,-1.440326 -5.518007 0.2566677,-1.570234 -4.259523 0.5352746,-1.570234 -4.259523 0.5352746,-1.568179 -2.765584 1.002893,-1.071278 -5.587661 0.2682627,-1.080268 -4.407634 0.5439669,-1.093355 -3.652117 0.8771316,-1.087273 -2.94043 1.148475,-0.70158 -5.922254 0.3176459,-0.5924911 -5.040795 0.6087685,-0.548502 -4.464588 0.8931024,-0.5114698 -3.888535 1.132111,-9.392815 -7.601814 -1.709301,-8.848414 -7.477846 -1.020572,-8.450724 -6.741415 -0.6274687,-8.487165 -5.941907 -0.3126281,-8.805435 -5.522198 -0.03588283,-8.7586 -5.383583 -1.227199,-8.624145 -4.440749 -0.7899421,-8.582956 -3.813156 -0.3518034,-8.572402 -3.310394 0.01137638,-9.165897 -5.268316 -1.21973,-9.169692 -4.327495 -0.4479601,-9.169037 -4.425916 0.2071252,-9.211124 -4.843902 0.5959373,-9.557077 -5.360973 -1.132963,-9.600854 -4.426856 -0.4811997,-9.600582 -4.458674 0.09897614,-9.612082 -4.751628 0.4106741,-9.949484 -5.621767 -0.9944266,-10.06172 -4.860399 -0.498865,-10.065 -4.656465 -0.08552206,-10.0324 -4.751391 0.2012914,4.910,43 45 0
-1.045161 -8.489439 -0.277412,-1.639767 -8.16534 0.2828014,-2.046743 -7.407003 0.5817251,-2.216159 -6.599855 0.8660724,-2.513272 -5.952426 1.182938,-1.827939 -5.75945 0.2294078,-2.062636 -4.69861 0.5253469,-2.135592 -4.001919 0.7324166,-2.142937 -3.346046 0.9092853,-1.439962 -5.544151 0.1671976,-1.569947 -4.297113 0.4308813,-1.569947 -4.297113 0.4308813,-1.563687 -2.824885 0.8662041,-1.068863 -5.609691 0.1936272,-1.077231 -4.423376 0.4574945,-1.087706 -3.674338 0.7806336,-1.078793 -2.975042 1.046605,-0.6985669 -5.935153 0.2561538,-0.5919142 -5.036912 0.5388464,-0.5445404 -4.457281 0.8174587,-0.5053749 -3.876975 1.058769,-9.41337 -7.645922 -1.789607,-8.865911 -7.491808 -1.11647,-8.465166 -6.733914 -0.7381296,-8.51707 -5.956663 -0.4357759,-8.839561 -5.54649 -0.1755811,-8.794675 -5.430006 -1.276976,-8.66613 -4.458221 -0.8543887,-8.620558 -3.811247 -0.4219515,-8.609427 -3.309531 -0.05442739,-9.200868 -5.343121 -1.261423,-9.210791 -4.395648 -0.5126954,-9.205799 -4.367737 0.147408,-9.245282 -4.704057 0.5691702,-9.585819 -5.447366 -1.173963,-9.629821 -4.515878 -0.5465976,-9.634332 -4.447541 0.04606247,-9.646906 -4.661907 0.3933868,-9.97068 -5.706695 -1.034755,-10.08538 -4.944356 -0.5592163,-10.09807 -4.704903 -0.145094,-10.06951 -4.744825 0.1638157,5.010,43 45 0
-1.065137 -8.480154 -0.3394884,-1.661912 -8.14917 0.1977925,-2.066239 -7.402277 0.4918084,-2.23042 -6.59962 0.7744646,-2.50945 -5.936369 1.090266,-1.82864 -5.759265 0.1533359,-2.061922 -4.68946 0.4380125,-2.141464 -4.002193 0.6395289,-2.157774 -3.342342 0.8183551,-1.442655 -5.550065 0.1008129,-1.56598 -4.304943 0.3684718,-1.56598 -4.304943 0.3684718,-1.561673 -2.847494 0.8069785,-1.075644 -5.626024 0.1331002,-1.07963 -4.443487 0.3941129,-1.081859 -3.700318 0.7098528,-1.066626 -3.00606 0.9710721,-0.7107916 -5.955191 0.1987763,-0.5986938 -5.044485 0.478413,-0.5438299 -4.455866 0.7582635,-0.4997797 -3.86778 0.9995952,-9.433721 -7.710247 -1.655603,-8.880667 -7.550207 -0.9686669,-8.477189 -6.779073 -0.5591239,-8.517187 -6.006738 -0.2340451,-8.82591 -5.599311 0.04934657,-8.804504 -5.473508 -1.048798,-8.682326 -4.512814 -0.5895199,-8.639966 -3.884855 -0.1441773,-8.624969 -3.377923 0.2256393,-9.2136 -5.392868 -1.029951,-9.22816 -4.480901 -0.2499121,-9.222326 -4.401292 0.4179507,-9.257826 -4.654659 0.8559748,-9.598951 -5.503843 -0.946297,-9.642049 -4.615949 -0.2933365,-9.646989 -4.50809 0.3011483,-9.657326 -4.653701 0.6570863,-9.984207 -5.774271 -0.8109376,-10.08506 -5.029806 -0.3222891,-10.10609 -4.772507 0.09841609,-10.08232 -4.762039 0.4132181,5.110,43 45 0
1.495424 -8.364697 -0.3714338,0.1436644 -8.208593 0.05014065,0.3233118 -6.868595 0.5582876,0.1222682 -6.025035 0.9821441,-0.975203 -5.564643 1.293575,-0.4964561 -5.793403 0.1333308,-1.148875 -4.72155 0.3644603,-0.4593792 -3.843983 0.6485594,-0.5362973 -3.078656 0.8592716,-0.0841608 -5.413845 0.07032187,0.3353062 -4.379833 0.4367101,0.3353062 -4.379833 0.4367101,0.414546 -2.552192 0.7189566,1.664758 -5.788509 0.04140577,0.9618063 -4.450149 0.3139969,0.9084191 -3.619054 0.663578,0.961041 -2.819908 0.9376669,2.275553 -6.067213 0.1659237,2.07752 -5.082365 0.4526716,2.025254 -4.395703 0.7640354,1.630517 -3.678582 1.030833,-9.44394 -7.693397 -1.653013,-8.054748 -7.803882 -1.087512,-7.312181 -7.185049 -0.6665502,-6.597764 -6.254636 -0.1466066,-6.972214 -5.624586 0.08638621,-6.361631 -5.587976 -1.074859,-6.19613 -4.56809 -0.7175369,-6.25678 -3.783343 -0.244309,-6.458601 -3.188643 0.1624722,-6.854196 -5.410892 -1.097212,-6.97528 -4.320392 -0.4627729,-8.562736 -4.327119 0.3234023,-8.759039 -5.082159 0.7190005,-7.705627 -5.405568 -1.429747,-8.430844 -3.98139 -0.8872216,-9.102042 -4.048765 -0.2249317,-9.047287 -4.93243 0.102454,-8.797311 -5.655179 -1.635171,-9.484379 -4.429246 -1.138246,-9.60474 -4.214392 -0.6240514,-9.644319 -4.335989 -0.2524321,5.210,43 45 0
1.485306 -8.395344 -0.3552737,0.1424656 -8.220081 0.0537006,0.3323631 -6.847105 0.5581971,0.1483231 -6.003578 0.9806298,-0.9828658 -5.617448 1.271947,-0.4803381 -5.809997 0.1632629,-1.147849 -4.75049 0.4094534,-0.4597178 -3.893096 0.6834578,-0.5282855 -3.143581 0.8802341,-0.07350445 -5.443273 0.1219333,0.3307071 -4.419948 0.5147769,0.3307071 -4.419948 0.5147769,0.4111586 -2.608324 0.8221094,1.671396 -5.826451 0.1034859,0.9559631 -4.480468 0.4138679,0.8961272 -3.645236 0.7857629,0.9427848 -2.853375 1.071223,2.274686 -6.13026 0.2440138,2.072254 -5.139664 0.5664559,2.01489 -4.444181 0.8854843,1.608227 -3.730017 1.158915,-9.433271 -7.689292 -1.650325,-8.05055 -7.810167 -1.102984,-7.31018 -7.185058 -0.7025916,-6.581594 -6.270448 -0.2048157,-6.961018 -5.662649 0.004886993,-6.363538 -5.558742 -1.164068,-6.172442 -4.572608 -0.8166846,-6.225091 -3.788012 -0.3182004,-6.428068 -3.20377 0.1110589,-6.85446 -5.383347 -1.186879,-6.960264 -4.241834 -0.5795388,-8.568676 -4.266307 0.2088223,-8.747691 -5.086593 0.5672606,-7.702575 -5.382542 -1.512371,-8.440158 -3.881961 -0.9822811,-9.076128 -3.991822 -0.3205004,-9.024302 -4.966363 -0.04634881,-8.791579 -5.636975 -1.704094,-9.481961 -4.356403 -1.188233,-9.575139 -4.203165 -0.6638806,-9.587025 -4.424903 -0.3221642,5.310,43 45 0
-1.070452 -8.501755 -0.3146437,-1.651246 -8.17202 0.230895,-2.054951 -7.412601 0.5275732,-2.230714 -6.621784 0.812817,-2.535276 -5.999058 1.137629,-1.8374 -5.773413 0.1869298,-2.070292 -4.721958 0.4894501,-2.140588 -4.036726 0.7059757,-2.148602 -3.38743 0.8865356,-1.458481 -5.567163 0.1349728,-1.582099 -4.33719 0.4147903,-1.582099 -4.33719 0.4147903,-1.574393 -2.883735 0.8829939,-1.093464 -5.645717 0.1693579,-1.095137 -4.469705 0.4470492,-1.100212 -3.726781 0.7810152,-1.090413 -3.031492 1.052144,-0.7287016 -5.988544 0.2387746,-0.6228638 -5.09446 0.5262662,-0.5716476 -4.512258 0.8097146,-0.5275702 -3.929401 1.046597,-9.423805 -7.657972 -1.688894,-8.884224 -7.545146 -1.003991,-8.475471 -6.827972 -0.5911573,-8.475672 -6.008426 -0.250686,-8.819563 -5.567201 0.04306114,-8.783872 -5.448717 -1.208995,-8.658638 -4.52964 -0.7269313,-8.634426 -3.922908 -0.2820983,-8.636095 -3.443403 0.06408179,-9.181094 -5.31774 -1.210701,-9.193862 -4.384292 -0.3758882,-9.187198 -4.646228 0.2709742,-9.219039 -5.160401 0.6121074,-9.569718 -5.393669 -1.126931,-9.628911 -4.461248 -0.4436365,-9.615173 -4.650495 0.0820117,-9.603629 -5.067089 0.3306328,-9.962746 -5.638177 -0.9976619,-10.09015 -4.884079 -0.5047505,-10.09248 -4.719888 -0.1402367,-10.05492 -4.867324 0.0855931,5.410,43 45 0
-1.050843 -8.496445 -0.3173848,-1.640387 -8.184986 0.2692869,-2.047606 -7.462776 0.5998796,-2.225356 -6.686367 0.9092718,-2.524479 -6.037316 1.262331,-1.841384 -5.789771 0.2401451,-2.083734 -4.748899 0.5548815,-2.159301 -4.057107 0.781008,-2.167745 -3.404638 0.9740244,-1.458281 -5.573108 0.1806487,-1.596978 -4.337129 0.4631101,-1.596978 -4.337129 0.4631101,-1.585245 -2.870061 0.9128404,-1.086533 -5.6506 0.2110922,-1.096179 -4.471792 0.4807272,-1.104372 -3.721624 0.8003154,-1.089007 -3.015316 1.0668,-0.7131071 -5.99024 0.2802124,-0.6149721 -5.089569 0.5685621,-0.5674949 -4.497957 0.8479177,-0.5228806 -3.907026 1.088243,-9.41063 -7.66423 -1.759946,-8.883583 -7.570949 -1.072454,-8.471597 -6.850742 -0.664676,-8.478027 -6.048614 -0.3319248,-8.8216 -5.627521 -0.05491853,-8.781717 -5.467107 -1.288195,-8.654163 -4.553304 -0.8180061,-8.621611 -3.951746 -0.3784215,-8.615908 -3.472606 -0.02656877,-9.179721 -5.34266 -1.286344,-9.19078 -4.38865 -0.4794164,-9.176888 -4.634534 0.1428858,-9.211101 -5.149811 0.4706173,-9.568788 -5.42778 -1.199512,-9.623747 -4.471263 -0.5248061,-9.606617 -4.610798 0.004381776,-9.602929 -4.996419 0.2569289,-9.964304 -5.680633 -1.062856,-10.08615 -4.912953 -0.5670345,-10.08759 -4.725646 -0.1929291,-10.05438 -4.854274 0.04430223,5.510,43 45 0
-1.042246 -8.530672 -0.3351981,-1.636286 -8.209038 0.1871719,-2.05117 -7.466739 0.4843633,-2.23341 -6.685534 0.7742838,-2.526309 -6.039723 1.097524,-1.818193 -5.806449 0.1753792,-2.069827 -4.767463 0.4846973,-2.150427 -4.087226 0.6969701,-2.158302 -3.435848 0.878059,-1.439601 -5.608252 0.1455379,-1.577279 -4.378294 0.4320754,-1.577279 -4.378294 0.4320754,-1.57493 -2.913906 0.8874729,-1.074759 -5.693981 0.1979753,-1.084701 -4.520214 0.4774241,-1.097465 -3.775525 0.7983403,-1.089078 -3.077054 1.063007,-0.7067189 -6.039221 0.2807716,-0.6034708 -5.145099 0.5805209,-0.5570097 -4.551189 0.8654392,-0.5153742 -3.958563 1.100746,-9.419654 -7.614624 -1.796813,-8.881588 -7.57748 -1.107982,-8.467168 -6.889852 -0.7189801,-8.479421 -6.079394 -0.3951637,-8.824463 -5.654222 -0.1200109,-8.764745 -5.431463 -1.459613,-8.632992 -4.546675 -0.9655384,-8.606243 -3.946597 -0.5059178,-8.620198 -3.478534 -0.1636906,-9.162744 -5.281493 -1.468025,-9.181284 -4.332519 -0.6151609,-9.169359 -4.742754 -0.02012789,-9.206892 -5.332633 0.2326019,-9.558702 -5.340818 -1.366804,-9.622412 -4.386308 -0.6275065,-9.568876 -4.822416 -0.1430134,-9.541947 -5.413705 0.01094043,-9.967085 -5.559463 -1.221833,-10.09184 -4.780256 -0.6740047,-10.03755 -4.825738 -0.3258798,-9.966282 -5.196882 -0.1602409,5.610,43 45 0
-1.052359 -8.538174 -0.3143449,-1.642405 -8.213131 0.2306122,-2.047676 -7.467346 0.5336717,-2.220278 -6.689914 0.8296032,-2.52164 -6.062944 1.159608,-1.81969 -5.811412 0.2136536,-2.069343 -4.783744 0.525137,-2.152877 -4.111539 0.7356647,-2.167477 -3.470516 0.9158251,-1.442107 -5.610063 0.1750164,-1.582336 -4.381732 0.467575,-1.582336 -4.381732 0.467575,-1.585158 -2.935851 0.9290799,-1.079151 -5.692914 0.221302,-1.086824 -4.513883 0.5098462,-1.097266 -3.775561 0.8420643,-1.085231 -3.081861 1.112175,-0.7131896 -6.036214 0.2996657,-0.6071615 -5.135729 0.6040584,-0.5567026 -4.544038 0.8934298,-0.5107303 -3.950269 1.13727,-9.410466 -7.645978 -1.863271,-8.885381 -7.587414 -1.172495,-8.475333 -6.903461 -0.7797803,-8.469799 -6.098095 -0.4469784,-8.809466 -5.694708 -0.167039,-8.768484 -5.485413 -1.48526,-8.644675 -4.589857 -0.966166,-8.623901 -4.00534 -0.5090643,-8.63466 -3.545478 -0.1728989,-9.160529 -5.338185 -1.489937,-9.193881 -4.382153 -0.6184049,-9.174059 -4.84703 -0.03332055,-9.193608 -5.47487 0.1961867,-9.553529 -5.4085 -1.388036,-9.636984 -4.435842 -0.6447102,-9.594563 -4.827583 -0.1491584,-9.561226 -5.393952 0.01820409,-9.951607 -5.650292 -1.243956,-10.1057 -4.883424 -0.7254071,-10.08876 -4.801577 -0.3820456,-10.03449 -5.049082 -0.2072914,5.710,43 45 0
-1.046215 -8.500149 -0.376109,-1.641914 -8.193075 0.1683766,-2.053585 -7.44709 0.4651813,-2.227078 -6.660897 0.7515347,-2.520557 -6.034584 1.074685,-1.833448 -5.793917 0.1296142,-2.083069 -4.762863 0.4256245,-2.163352 -4.086143 0.6240333,-2.173694 -3.452955 0.7935638,-1.452852 -5.587451 0.08299902,-1.595467 -4.362766 0.3594001,-1.595467 -4.362766 0.3594001,-1.589892 -2.916639 0.7893293,-1.085608 -5.667266 0.124366,-1.094846 -4.497604 0.3979074,-1.101125 -3.754625 0.7111738,-1.087106 -3.054695 0.9716604,-0.7142935 -6.006961 0.2008992,-0.6109085 -5.112401 0.4856573,-0.5580301 -4.522415 0.7670006,-0.5074673 -3.930633 1.006776,-9.415987 -7.689258 -1.879336,-8.885911 -7.607593 -1.17617,-8.480319 -6.92444 -0.7706861,-8.476828 -6.133392 -0.4559177,-8.793055 -5.674896 -0.1846056,-8.780622 -5.532909 -1.34715,-8.642621 -4.630587 -0.8706014,-8.608463 -4.01567 -0.4016626,-8.6098 -3.54523 -0.01321983,-9.179026 -5.413345 -1.359428,-9.186979 -4.470315 -0.5581644,-9.181406 -4.603586 0.09380043,-9.228453 -5.042436 0.472782,-9.566122 -5.493511 -1.285606,-9.623196 -4.552177 -0.6152091,-9.606637 -4.658665 -0.05276573,-9.60874 -5.025135 0.2363569,-9.957683 -5.726497 -1.162198,-10.07676 -4.960163 -0.6351254,-10.05804 -4.837335 -0.2180532,-10.0088 -5.04026 0.05998933,5.810,43 45 0
-1.044424 -8.520721 -0.2922087,-1.642655 -8.224257 0.3014534,-2.06082 -7.504821 0.6280831,-2.239524 -6.726871 0.9326218,-2.527924 -6.061315 1.274333,-1.82852 -5.800523 0.2557392,-2.064252 -4.750483 0.5632111,-2.144964 -4.056449 0.7844132,-2.159907 -3.410317 0.9710034,-1.445101 -5.584808 0.180023,-1.574641 -4.344562 0.4571567,-1.574641 -4.344562 0.4571567,-1.568083 -2.87738 0.8933793,-1.07971 -5.661182 0.1944849,-1.084725 -4.490427 0.459438,-1.093081 -3.75572 0.7713575,-1.077374 -3.054277 1.028936,-0.7153034 -5.998027 0.2473933,-0.6090708 -5.10813 0.5315809,-0.5575085 -4.52399 0.809294,-0.5069246 -3.936116 1.044787,-9.4062 -7.674648 -1.976527,-8.885986 -7.637662 -1.270977,-8.477026 -6.95091 -0.8681408,-8.47302 -6.151104 -0.5415545,-8.804546 -5.720982 -0.2512238,-8.767414 -5.552108 -1.536228,-8.635803 -4.658395 -1.023324,-8.598888 -4.055532 -0.5511245,-8.597522 -3.583852 -0.1850518,-9.157353 -5.408769 -1.551569,-9.16635 -4.445529 -0.703844,-9.140503 -4.799075 -0.1025472,-9.172749 -5.366163 0.1710037,-9.5495 -5.467082 -1.467456,-9.602389 -4.496413 -0.7321805,-9.562342 -4.83251 -0.2167099,-9.545435 -5.376756 -0.009924889,-9.953738 -5.682934 -1.338411,-10.07719 -4.896373 -0.7782155,-10.042 -4.849597 -0.3939122,-9.982875 -5.157241 -0.1780915,5.910,43 45 0
-1.020668 -8.540352 -0.305142,-1.622738 -8.226583 0.2411613,-2.040646 -7.485038 0.5404736,-2.219265 -6.703544 0.827045,-2.523595 -6.071962 1.144471,-1.82647 -5.823521 0.2120101,-2.069606 -4.78676 0.5171615,-2.146931 -4.111433 0.7257837,-2.153993 -3.465344 0.9008263,-1.446944 -5.611135 0.1625914,-1.580387 -4.381794 0.4436496,-1.580387 -4.381794 0.4436496,-1.579013 -2.932109 0.8727552,-1.080396 -5.689455 0.1989274,-1.090213 -4.509599 0.4769274,-1.106668 -3.761425 0.7946458,-1.098271 -3.059493 1.052121,-0.7093344 -6.031579 0.2714067,-0.611619 -5.141954 0.5656455,-0.5698805 -4.547063 0.8527039,-0.5310793 -3.951397 1.091494,-9.399563 -7.651849 -1.929143,-8.881615 -7.641456 -1.21685,-8.466418 -6.97097 -0.8052136,-8.451073 -6.178377 -0.469009,-8.760954 -5.747306 -0.1813877,-8.752994 -5.54542 -1.505654,-8.619337 -4.677743 -0.9772127,-8.584887 -4.072925 -0.4939153,-8.58984 -3.589506 -0.1393746,-9.140882 -5.368398 -1.53073,-9.151528 -4.395057 -0.681547,-9.121327 -4.86063 -0.1317073,-9.14969 -5.464778 0.08093512,-9.532636 -5.388983 -1.447131,-9.586404 -4.403039 -0.7025561,-9.518319 -4.908555 -0.2559166,-9.49158 -5.535754 -0.1442435,-9.942525 -5.564794 -1.321017,-10.05938 -4.755957 -0.7472876,-9.976642 -4.919446 -0.4109192,-9.890074 -5.384332 -0.2694455,6.010,43 45 0
-1.031892 -8.533438 -0.3117408,-1.638404 -8.228283 0.2724792,-2.055075 -7.499696 0.590882,-2.229803 -6.704032 0.8857981,-2.525195 -6.063549 1.20981,-1.821534 -5.833242 0.2623557,-2.066123 -4.796105 0.5740392,-2.149755 -4.125355 0.7897879,-2.168412 -3.483335 0.9731421,-1.436954 -5.609003 0.191538,-1.577147 -4.383392 0.485283,-1.577147 -4.383392 0.485283,-1.582972 -2.923799 0.9322753,-1.071271 -5.681162 0.2054857,-1.085386 -4.508783 0.492557,-1.101667 -3.768438 0.8250376,-1.094083 -3.063165 1.091082,-0.7045212 -6.016296 0.2571885,-0.6032739 -5.126413 0.5552549,-0.5567431 -4.544258 0.8466356,-0.5145454 -3.961198 1.08901,-9.396372 -7.654129 -1.918886,-8.875422 -7.652189 -1.201481,-8.454303 -6.972347 -0.7979292,-8.440063 -6.156784 -0.4683758,-8.762237 -5.733482 -0.1978961,-8.745803 -5.542763 -1.540857,-8.605241 -4.677736 -1.014871,-8.570849 -4.071634 -0.5333887,-8.577869 -3.571918 -0.1856682,-9.133034 -5.359802 -1.572137,-9.147527 -4.378367 -0.721608,-9.119986 -4.883168 -0.1734412,-9.146238 -5.495904 0.02624249,-9.519462 -5.376306 -1.49387,-9.583888 -4.377347 -0.7346036,-9.515485 -4.937028 -0.297079,-9.48248 -5.579316 -0.2087629,-9.923292 -5.54589 -1.370581,-10.04103 -4.748781 -0.7874637,-9.958049 -4.966839 -0.4607528,-9.867562 -5.452169 -0.3371664,6.110,43 45 0
-1.080422 -8.547077 -0.3473651,-1.670821 -8.213589 0.1771242,-2.065968 -7.450711 0.4737698,-2.226036 -6.662481 0.759183,-2.523558 -6.049188 1.078319,-1.840478 -5.834943 0.1910183,-2.08893 -4.803349 0.517121,-2.165544 -4.128694 0.7356695,-2.169547 -3.48546 0.9117961,-1.457351 -5.630167 0.1608642,-1.591662 -4.396938 0.4678155,-1.591662 -4.396938 0.4678155,-1.582106 -2.922523 0.9495547,-1.089329 -5.717118 0.211233,-1.097351 -4.536586 0.510509,-1.104351 -3.782628 0.8441211,-1.091951 -3.085258 1.113462,-0.7179689 -6.068637 0.2911741,-0.6097927 -5.162899 0.5991032,-0.5561409 -4.565165 0.8871056,-0.5118351 -3.970664 1.127682,-9.376324 -7.647485 -1.870773,-8.854997 -7.627168 -1.169618,-8.436501 -6.938876 -0.7772626,-8.434197 -6.12948 -0.4593315,-8.76051 -5.709684 -0.1920553,-8.731929 -5.499149 -1.516471,-8.596404 -4.624334 -1.007867,-8.554777 -4.040421 -0.5422059,-8.549801 -3.577127 -0.205098,-9.119281 -5.335958 -1.541318,-9.128312 -4.349746 -0.6997854,-9.106637 -4.847009 -0.1503158,-9.133922 -5.475509 0.05572331,-9.504696 -5.374567 -1.458109,-9.559919 -4.39159 -0.718434,-9.496686 -4.912345 -0.2604483,-9.468638 -5.542224 -0.1390319,-9.908667 -5.565779 -1.329378,-10.02485 -4.7723 -0.7587577,-9.947248 -4.946544 -0.3979555,-9.859114 -5.401506 -0.236068,6.210,43 45 0
4.041051 -8.317471 -0.4096246,1.949511 -8.349012 -0.1223511,2.69172 -6.320334 0.5956524,2.525157 -5.522146 1.18017,0.5399256 -5.378211 1.414828,0.860055 -5.93563 0.1172895,-0.2964039 -4.885211 0.309122,1.182096 -3.877904 0.6549457,1.035201 -3.061246 0.8729928,1.204113 -5.343513 0.06893335,2.203296 -4.564502 0.5754318,2.203296 -4.564502 0.5754318,2.327433 -2.40256 0.7100768,4.408935 -6.009061 -0.01259753,2.93767 -4.487613 0.2892112,2.841788 -3.593645 0.6852775,2.945584 -2.706739 0.9869981,5.223392 -6.251632 0.171024,4.689825 -5.181705 0.4805996,4.59207 -4.365236 0.8249047,3.764551 -3.532632 1.113619,-9.381497 -7.64522 -1.714032,-7.198008 -8.136456 -1.246829,-6.097483 -7.715538 -0.8516514,-4.612321 -6.634723 -0.1498306,-5.047808 -5.84311 0.009118572,-3.857474 -5.713716 -1.358323,-3.596784 -4.72407 -1.038601,-3.792769 -3.930713 -0.4327349,-4.17966 -3.2164 -0.000269455,-4.383064 -5.36526 -1.450136,-4.582096 -3.948297 -0.9798838,-7.819584 -4.511001 -0.1477119,-8.179776 -5.931863 -0.02285543,-5.717687 -5.221874 -2.169703,-7.126743 -3.139993 -1.63593,-8.399033 -3.906274 -1.070959,-8.20691 -5.796312 -0.9757551,-7.529299 -5.422702 -2.688084,-8.769197 -3.574195 -2.001004,-8.95436 -3.961029 -1.471039,-8.930563 -4.606243 -1.207229,6.310,43 45 0
-1.035037 -8.543335 -0.3482434,-1.625984 -8.23719 0.2424292,-2.035238 -7.506004 0.5628831,-2.216813 -6.722331 0.859754,-2.513915 -6.084535 1.198043,-1.818844 -5.840831 0.2010164,-2.066571 -4.78858 0.4950975,-2.14502 -4.098318 0.7123109,-2.152634 -3.446415 0.906046,-1.438141 -5.622754 0.1153705,-1.575872 -4.39237 0.3903428,-1.575872 -4.39237 0.3903428,-1.568488 -2.926761 0.8577955,-1.071349 -5.689134 0.1162105,-1.084746 -4.521537 0.3741052,-1.09604 -3.790157 0.6979955,-1.082408 -3.100244 0.9662033,-0.704318 -6.010476 0.1547638,-0.6011648 -5.118515 0.4328544,-0.5498924 -4.547069 0.7154623,-0.501421 -3.97509 0.9542603,-9.397209 -7.670566 -1.748624,-8.871533 -7.654411 -1.061175,-8.43911 -6.972437 -0.6601583,-8.420097 -6.159019 -0.326509,-8.747568 -5.766681 -0.04715049,-8.713883 -5.523598 -1.383246,-8.574261 -4.667188 -0.8434358,-8.537655 -4.094236 -0.3550122,-8.536733 -3.630908 -0.01508331,-9.100412 -5.330984 -1.400478,-9.103889 -4.363142 -0.5409344,-9.090592 -4.93547 -0.0103054,-9.122272 -5.599063 0.1645147,-9.489712 -5.349012 -1.307114,-9.54296 -4.366339 -0.5550549,-9.484718 -4.953895 -0.1443698,-9.45948 -5.608967 -0.07977915,-9.898493 -5.527304 -1.171799,-10.00945 -4.737133 -0.5958021,-9.928667 -4.977199 -0.2726706,-9.839622 -5.466208 -0.1581209,6.410,43 45 0
1.494934 -8.459249 -0.3591547,0.151144 -8.331301 0.10555,0.336359 -6.980489 0.6348099,0.1560597 -6.129604 1.069864,-0.9773226 -5.731424 1.376211,-0.4969869 -5.908749 0.2024919,-1.164641 -4.854386 0.4446632,-0.4694347 -3.998044 0.7322432,-0.5420508 -3.253376 0.9505093,-0.09673262 -5.509639 0.1176314,0.3206835 -4.490377 0.5015581,0.3206835 -4.490377 0.5015581,0.377769 -2.686265 0.7954056,1.65227 -5.878427 0.07329553,0.9410653 -4.531177 0.358021,0.8830194 -3.705919 0.7205935,0.931263 -2.914777 1.001862,2.263573 -6.158863 0.1869327,2.068815 -5.167147 0.485477,2.01951 -4.480021 0.802071,1.629419 -3.765792 1.071128,-9.376982 -7.673859 -1.737517,-8.0311 -7.936054 -1.187426,-7.263401 -7.360462 -0.7927487,-6.495173 -6.440055 -0.2915288,-6.866392 -5.830669 -0.07338559,-6.259089 -5.622503 -1.469319,-6.070641 -4.704734 -1.047143,-6.156046 -4.034575 -0.4956171,-6.357902 -3.472542 -0.1141472,-6.716612 -5.355899 -1.522819,-6.844912 -4.138536 -0.8677438,-8.434105 -4.81594 -0.1778812,-8.607092 -5.889476 -0.07596174,-7.580957 -5.288414 -1.833657,-8.342311 -3.733173 -1.19592,-8.918747 -4.519052 -0.701429,-8.831455 -5.830799 -0.6477802,-8.695425 -5.466235 -2.024346,-9.377687 -4.155206 -1.389947,-9.42699 -4.52591 -0.9673498,-9.359544 -5.139526 -0.811839,6.510,43 45 0
1.490914 -8.455517 -0.3577727,0.1486111 -8.303135 0.06894276,0.3329697 -6.937704 0.5925739,0.1590662 -6.093221 1.026101,-0.993485 -5.748166 1.31443,-0.4981756 -5.901491 0.1944234,-1.175186 -4.854067 0.4463311,-0.4789476 -4.002017 0.7287315,-0.5452366 -3.251245 0.9367841,-0.09876156 -5.508452 0.1389345,0.3082495 -4.499028 0.5411273,0.3082495 -4.499028 0.5411273,0.3804107 -2.693077 0.860481,1.64949 -5.885067 0.1100213,0.9394855 -4.534371 0.4129577,0.8875504 -3.703675 0.7893631,0.9410243 -2.916945 1.082997,2.258612 -6.17777 0.2374749,2.064645 -5.180701 0.5515559,2.017181 -4.485042 0.8766646,1.624019 -3.76284 1.151501,-9.366377 -7.724057 -1.793835,-8.014678 -7.939534 -1.239811,-7.246633 -7.360384 -0.8402207,-6.493718 -6.434722 -0.3384616,-6.873083 -5.876762 -0.1283864,-6.267824 -5.700844 -1.452587,-6.063739 -4.786165 -1.038421,-6.13745 -4.101307 -0.5182689,-6.333901 -3.55026 -0.147418,-6.717825 -5.430191 -1.501991,-6.832627 -4.219439 -0.8449,-8.418057 -4.796595 -0.1598032,-8.621509 -5.864295 -0.01420234,-7.572168 -5.357407 -1.816386,-8.325002 -3.801441 -1.195776,-8.91121 -4.466749 -0.6980755,-8.818397 -5.72672 -0.6096045,-8.679549 -5.532681 -2.006325,-9.375909 -4.186666 -1.39335,-9.430311 -4.457227 -0.9403155,-9.366208 -5.026083 -0.7157909,6.610,43 45 0
-1.070782 -8.540882 -0.3307446,-1.660841 -8.242043 0.2914175,-2.057134 -7.506342 0.6312665,-2.224877 -6.718215 0.942464,-2.535157 -6.084436 1.301228,-1.847534 -5.833976 0.2680843,-2.086203 -4.774364 0.5767267,-2.168987 -4.085788 0.7918719,-2.185549 -3.443081 0.9794106,-1.460965 -5.620658 0.1763461,-1.589914 -4.373569 0.4661109,-1.589914 -4.373569 0.4661109,-1.589664 -2.907477 0.9236093,-1.094432 -5.698825 0.1732239,-1.096746 -4.515363 0.453246,-1.105202 -3.774007 0.7865831,-1.088369 -3.075546 1.056575,-0.7313995 -6.037475 0.2101551,-0.6217484 -5.141621 0.5088371,-0.5659785 -4.561479 0.7986813,-0.5123653 -3.980837 1.045166,-9.352176 -7.774417 -2.008226,-8.815733 -7.723718 -1.336796,-8.385367 -7.075262 -0.9385166,-8.341732 -6.281661 -0.6186578,-8.63072 -5.808399 -0.3601023,-8.67878 -5.722994 -1.473,-8.520371 -4.878477 -0.9324994,-8.472265 -4.304805 -0.460833,-8.455633 -3.856165 -0.09906042,-9.06271 -5.542228 -1.490249,-9.065247 -4.528235 -0.656655,-9.029407 -4.884233 -0.07295001,-9.052945 -5.445434 0.2073357,-9.443408 -5.557656 -1.421695,-9.503066 -4.540517 -0.6983963,-9.436622 -4.908733 -0.2264791,-9.399612 -5.46388 -0.04950976,-9.844199 -5.724981 -1.308011,-9.955783 -4.888576 -0.7530322,-9.883224 -4.937839 -0.3879851,-9.795651 -5.334602 -0.1846395,6.710,43 45 0
-1.039238 -8.525921 -0.3911307,-1.635231 -8.22982 0.173102,-2.045975 -7.50261 0.4841924,-2.22997 -6.722729 0.7774625,-2.534361 -6.089525 1.111059,-1.834389 -5.8408 0.1483876,-2.086615 -4.789947 0.4459386,-2.170297 -4.111129 0.6545663,-2.185347 -3.461479 0.835694,-1.45671 -5.621589 0.0830169,-1.595985 -4.394641 0.3666142,-1.595985 -4.394641 0.3666142,-1.601813 -2.94739 0.8098805,-1.092916 -5.687399 0.1058938,-1.103706 -4.516692 0.3778622,-1.115018 -3.784349 0.6985525,-1.102954 -3.087472 0.9602493,-0.7283492 -6.010067 0.1628655,-0.6148005 -5.122522 0.4507297,-0.5559263 -4.543733 0.7336274,-0.5016108 -3.962821 0.9720702,-9.327526 -7.772451 -2.026742,-8.794096 -7.724805 -1.362333,-8.370775 -7.046549 -0.9909763,-8.343489 -6.243152 -0.7024796,-8.635738 -5.775732 -0.4664,-8.666659 -5.712881 -1.55349,-8.494181 -4.880132 -1.044859,-8.441058 -4.307333 -0.5820125,-8.425818 -3.870554 -0.2222621,-9.046677 -5.530374 -1.574637,-9.028063 -4.519485 -0.7773881,-8.993484 -4.803283 -0.1969422,-9.025974 -5.338129 0.08265138,-9.425539 -5.546411 -1.506012,-9.468103 -4.531946 -0.8028005,-9.40471 -4.838867 -0.3135867,-9.377131 -5.353158 -0.1278865,-9.824077 -5.718698 -1.391431,-9.922905 -4.911058 -0.8135198,-9.849463 -4.974901 -0.4201038,-9.766068 -5.369823 -0.1993564,6.810,43 45 0
-1.051895 -8.562328 -0.3062375,-1.641304 -8.262674 0.2923145,-2.049364 -7.52009 0.6152096,-2.226601 -6.719905 0.9121393,-2.539445 -6.090843 1.24808,-1.839162 -5.858182 0.2764094,-2.074609 -4.808818 0.5775291,-2.15218 -4.124897 0.7878164,-2.161934 -3.484006 0.9677559,-1.453687 -5.634901 0.1916644,-1.586892 -4.412109 0.4649696,-1.586892 -4.412109 0.4649696,-1.5892 -2.956985 0.9000504,-1.084495 -5.704289 0.1919028,-1.089926 -4.536687 0.4635347,-1.100999 -3.802906 0.7830685,-1.088147 -3.108675 1.044357,-0.7170281 -6.03539 0.2308987,-0.6130829 -5.143049 0.5242029,-0.5574775 -4.565706 0.8054215,-0.5063181 -3.990134 1.046818,-9.319823 -7.748836 -1.925805,-8.791414 -7.73816 -1.245844,-8.356783 -7.072572 -0.8700798,-8.310989 -6.262438 -0.5592728,-8.603882 -5.813935 -0.3108218,-8.621734 -5.678143 -1.512086,-8.46414 -4.870516 -0.9677442,-8.419727 -4.319404 -0.4826218,-8.412922 -3.881131 -0.1278903,-9.00516 -5.470752 -1.531635,-9.008651 -4.473951 -0.6938227,-8.974321 -4.976084 -0.1236129,-8.999798 -5.600922 0.09811234,-9.393538 -5.476193 -1.451218,-9.452203 -4.463951 -0.7051986,-9.382232 -4.983915 -0.236645,-9.346195 -5.612538 -0.107311,-9.801895 -5.648521 -1.325251,-9.919054 -4.859175 -0.7497356,-9.840702 -4.999442 -0.3939463,-9.75383 -5.438784 -0.2300376,6.910,43 45 0
-1.069779 -8.572323 -0.3346382,-1.658479 -8.270245 0.2309232,-2.060246 -7.503584 0.5440989,-2.235013 -6.698287 0.8354725,-2.559576 -6.085641 1.172995,-1.858554 -5.869915 0.2279153,-2.104883 -4.818923 0.5287297,-2.182364 -4.135786 0.7435913,-2.189038 -3.484951 0.931281,-1.477703 -5.654138 0.163608,-1.618372 -4.424583 0.4474332,-1.618372 -4.424583 0.4474332,-1.621389 -2.962784 0.9103156,-1.108078 -5.729965 0.1820297,-1.117265 -4.545167 0.4652992,-1.130553 -3.793846 0.7981399,-1.120528 -3.091684 1.070738,-0.7355733 -6.070546 0.2341424,-0.6363115 -5.165245 0.53927,-0.5836663 -4.575782 0.8290597,-0.5345993 -3.987676 1.073592,-9.282185 -7.749864 -1.821275,-8.774944 -7.709014 -1.10411,-8.342834 -7.059007 -0.6905442,-8.306001 -6.27412 -0.3490938,-8.607965 -5.88025 -0.07539928,-8.586021 -5.64903 -1.374561,-8.449638 -4.838735 -0.7897933,-8.400271 -4.321103 -0.3074538,-8.376308 -3.925364 0.01717019,-8.968875 -5.444481 -1.407217,-8.982249 -4.447292 -0.5269359,-8.963041 -5.107124 -0.05861592,-8.977653 -5.826048 0.05266035,-9.360586 -5.464423 -1.324075,-9.430116 -4.450792 -0.5599242,-9.362367 -5.059642 -0.1769001,-9.321452 -5.728338 -0.122136,-9.772698 -5.656909 -1.190756,-9.912394 -4.829204 -0.6259285,-9.824748 -5.011276 -0.2845725,-9.721744 -5.481756 -0.1423582,7.010,43 45 0
-1.069215 -8.584927 -0.2783951,-1.660982 -8.310534 0.3066877,-2.07677 -7.547222 0.6225034,-2.257801 -6.732807 0.9087068,-2.581295 -6.117199 1.232928,-1.869092 -5.88707 0.3210869,-2.110116 -4.842017 0.6232882,-2.185698 -4.164414 0.8337461,-2.196333 -3.509248 1.024801,-1.485267 -5.656213 0.2472381,-1.62466 -4.443511 0.5424978,-1.62466 -4.443511 0.5424978,-1.624296 -2.998037 1.001936,-1.116267 -5.728405 0.2559613,-1.125331 -4.556732 0.5496423,-1.13607 -3.817003 0.8905729,-1.120994 -3.106273 1.16907,-0.7479534 -6.068002 0.2983697,-0.6504712 -5.176509 0.6118314,-0.5963964 -4.593032 0.9119941,-0.5416126 -3.996884 1.167066,-9.282114 -7.743294 -1.909248,-8.76429 -7.763336 -1.183344,-8.328647 -7.130416 -0.7836214,-8.274709 -6.330291 -0.4602476,-8.549202 -5.876073 -0.2018331,-8.570153 -5.708761 -1.335739,-8.409716 -4.920259 -0.6948794,-8.352127 -4.388092 -0.1659071,-8.326138 -3.974849 0.2045759,-8.954904 -5.492389 -1.368322,-8.970593 -4.507671 -0.4408451,-8.94359 -5.109373 0.1312648,-8.968228 -5.785278 0.3375434,-9.348677 -5.491958 -1.296987,-9.423281 -4.516256 -0.4954935,-9.362479 -5.092418 -0.0362556,-9.331404 -5.736619 0.08334839,-9.755802 -5.66113 -1.180603,-9.886548 -4.882687 -0.5808551,-9.81332 -5.031896 -0.2215818,-9.733034 -5.47201 -0.05827105,7.110,43 45 0
-1.090934 -8.609116 -0.2952848,-1.678834 -8.306919 0.2790281,-2.086674 -7.565237 0.604273,-2.263704 -6.76766 0.910324,-2.573811 -6.132128 1.248742,-1.856073 -5.904064 0.3074647,-2.115147 -4.880487 0.6177393,-2.198359 -4.208182 0.8328599,-2.210529 -3.559254 1.024618,-1.475407 -5.684047 0.247072,-1.626901 -4.48052 0.5518363,-1.626901 -4.48052 0.5518363,-1.63031 -3.027433 1.029104,-1.105309 -5.760887 0.2652317,-1.124329 -4.592638 0.557523,-1.14101 -3.855001 0.8938941,-1.12875 -3.150592 1.172706,-0.7334967 -6.10577 0.3165466,-0.6381207 -5.199295 0.6284851,-0.5896463 -4.605018 0.9312936,-0.5422664 -4.002817 1.192505,-9.225187 -7.733745 -1.854233,-8.721665 -7.742938 -1.040175,-8.293513 -7.13002 -0.5923491,-8.265659 -6.355281 -0.2526697,-8.57083 -5.868648 0.04231846,-8.520216 -5.715568 -1.149731,-8.348125 -4.957614 -0.4521761,-8.296398 -4.448203 0.1059773,-8.285442 -4.082197 0.4868816,-8.91201 -5.488941 -1.219664,-8.918265 -4.543048 -0.2444829,-8.902092 -5.218704 0.2886516,-8.921345 -5.942336 0.465027,-9.313132 -5.488834 -1.169718,-9.380627 -4.532455 -0.3045579,-9.32332 -5.196203 0.1461035,-9.289216 -5.896503 0.2367402,-9.729507 -5.657608 -1.068503,-9.878719 -4.842515 -0.4120214,-9.800853 -5.069693 -0.0335803,-9.70183 -5.57738 0.1333284,7.210,43 45 0
-1.094079 -8.590435 -0.3491217,-1.682845 -8.309481 0.2671604,-2.090371 -7.590023 0.6163884,-2.265693 -6.799421 0.9371752,-2.573041 -6.156759 1.299675,-1.890679 -5.903263 0.2732601,-2.129607 -4.856298 0.5879387,-2.208233 -4.169137 0.8162768,-2.221567 -3.511837 1.021438,-1.503089 -5.683477 0.1877989,-1.635425 -4.448198 0.4880773,-1.635425 -4.448198 0.4880773,-1.639954 -2.967592 0.9715893,-1.130794 -5.755714 0.1887202,-1.140266 -4.580968 0.4751575,-1.158432 -3.839696 0.8049171,-1.14849 -3.13372 1.081514,-0.7598305 -6.091615 0.2246599,-0.6479239 -5.196167 0.5290682,-0.5890856 -4.608736 0.8262118,-0.5312595 -4.013465 1.080689,-9.241246 -7.741594 -1.792913,-8.737136 -7.771339 -0.9812408,-8.292063 -7.162124 -0.5294304,-8.241751 -6.375295 -0.1806645,-8.537982 -5.898877 0.1251354,-8.502279 -5.723997 -1.07645,-8.333991 -4.974864 -0.3601793,-8.275721 -4.497011 0.2036537,-8.250763 -4.166287 0.5820574,-8.893161 -5.488689 -1.140253,-8.897022 -4.548086 -0.1600091,-8.885355 -5.242118 0.3726202,-8.908328 -5.961061 0.5390538,-9.298885 -5.486392 -1.084282,-9.363744 -4.52914 -0.2108239,-9.306776 -5.205346 0.2333666,-9.272962 -5.909437 0.3134445,-9.720683 -5.647051 -0.9771916,-9.867743 -4.832053 -0.3252716,-9.790224 -5.070831 0.04485607,-9.693535 -5.589163 0.2015719,7.310,43 45 0
-1.075116 -8.647558 -0.2427568,-1.675216 -8.359667 0.3339924,-2.097193 -7.61325 0.6593426,-2.281587 -6.813034 0.9606606,-2.598078 -6.184024 1.297407,-1.875309 -5.929529 0.3420511,-2.111521 -4.888067 0.6467142,-2.188836 -4.205081 0.8748494,-2.201252 -3.546471 1.076426,-1.492437 -5.706862 0.2733921,-1.624049 -4.498078 0.5677306,-1.624049 -4.498078 0.5677306,-1.626702 -3.045353 1.041378,-1.12224 -5.775996 0.2859218,-1.135297 -4.613285 0.56201,-1.154271 -3.880994 0.8837098,-1.150901 -3.180032 1.153261,-0.7503209 -6.108301 0.3333277,-0.6537275 -5.21154 0.6278377,-0.5998402 -4.624349 0.9106034,-0.5492439 -4.027341 1.155237,-9.229231 -7.750778 -1.556233,-8.731036 -7.77729 -0.7174172,-8.292597 -7.150802 -0.2373885,-8.23385 -6.381076 0.12594,-8.515204 -5.896389 0.4548928,-8.50436 -5.700821 -0.6855682,-8.334746 -4.942068 0.09800637,-8.273972 -4.510116 0.6969117,-8.253513 -4.264577 1.091498,-8.911679 -5.472654 -0.7455537,-8.917509 -4.505083 0.2715058,-8.895544 -5.269295 0.7656699,-8.906421 -6.026661 0.9123322,-9.331823 -5.494899 -0.6871583,-9.397293 -4.52478 0.212607,-9.340964 -5.182024 0.6380044,-9.303909 -5.851284 0.7265142,-9.754045 -5.697757 -0.5777059,-9.923594 -4.882757 0.1092209,-9.868665 -5.032198 0.4934703,-9.785812 -5.45401 0.675028,7.410,43 45 0
1.472224 -8.532726 -0.3788357,0.07278633 -8.327257 0.01492999,0.2782516 -7.006521 0.5244237,0.1024427 -6.154308 0.9527355,-1.070374 -5.850127 1.213707,-0.5307651 -5.9984 0.1811076,-1.214992 -4.972524 0.4410088,-0.5402479 -4.131748 0.7224238,-0.6161475 -3.376512 0.9252801,-0.1352911 -5.598747 0.1517124,0.264267 -4.607442 0.5724455,0.264267 -4.607442 0.5724455,0.3200879 -2.822214 0.896978,1.621296 -5.968431 0.1369374,0.8942366 -4.619919 0.4587029,0.8328552 -3.79669 0.8288673,0.8721061 -2.999527 1.125857,2.236874 -6.259977 0.2733097,2.03583 -5.261568 0.594383,1.986678 -4.55463 0.9259806,1.585847 -3.815752 1.210638,-9.24773 -7.7347 -1.333381,-7.91715 -8.030367 -0.5968302,-7.131087 -7.542318 -0.1007007,-6.351503 -6.642704 0.459442,-6.704969 -5.977619 0.7247802,-6.071326 -5.778638 -0.4012967,-5.837845 -4.97739 0.2710687,-5.89608 -4.448823 0.9103392,-6.058213 -4.064838 1.353863,-6.552121 -5.450885 -0.4975141,-6.667548 -4.267334 0.3193421,-8.255704 -5.055082 0.9785784,-8.403399 -6.188755 1.100047,-7.459359 -5.39479 -0.8451416,-8.210083 -3.871091 -0.05443436,-8.807202 -4.632149 0.4385853,-8.721648 -5.881336 0.5498713,-8.593872 -5.629313 -1.05713,-9.334634 -4.292827 -0.3172724,-9.422574 -4.468194 0.1717939,-9.368998 -4.93339 0.4346625,7.510,43 45 0
1.502609 -8.551634 -0.3741658,0.1058407 -8.367714 0.07703607,0.3132105 -7.109981 0.6180813,0.11238 -6.282297 1.067939,-1.024844 -5.884406 1.387015,-0.4928503 -6.020938 0.2201278,-1.182023 -4.995805 0.4558843,-0.5151272 -4.142667 0.7415904,-0.5917907 -3.403532 0.9615176,-0.1063499 -5.615412 0.1516154,0.2934103 -4.635322 0.5599546,0.2934103 -4.635322 0.5599546,0.3355298 -2.836675 0.8861735,1.645196 -5.983219 0.1083676,0.9075284 -4.648124 0.3987215,0.839879 -3.835338 0.7700609,0.8834262 -3.045721 1.059689,2.253515 -6.269006 0.216885,2.048624 -5.269616 0.5305749,1.997593 -4.572198 0.8605843,1.60636 -3.846797 1.137556,-9.288669 -7.713769 -1.049386,-7.943037 -7.98273 -0.2892845,-7.163019 -7.49499 0.2261086,-6.384421 -6.588445 0.7980101,-6.726801 -5.889045 1.102626,-6.102194 -5.671705 -0.0183013,-5.863581 -4.8679 0.7009301,-5.925042 -4.31286 1.394206,-6.093392 -3.91695 1.870291,-6.609642 -5.377647 -0.1241985,-6.728994 -4.18601 0.7283368,-8.342855 -4.954285 1.398192,-8.470304 -6.105127 1.565843,-7.525385 -5.33369 -0.4816297,-8.292549 -3.823389 0.343898,-8.905181 -4.595136 0.8635154,-8.807377 -5.846224 0.9953628,-8.665778 -5.570111 -0.7061753,-9.416347 -4.221399 0.06547809,-9.497399 -4.45042 0.5660233,-9.426521 -4.932373 0.8455526,7.610,43 45 0
1.502965 -8.542858 -0.4665398,0.1131649 -8.380619 0.02381955,0.327323 -7.140396 0.5867566,0.1265917 -6.326347 1.049687,-0.9934134 -5.907533 1.386066,-0.497962 -6.043275 0.1945362,-1.186214 -5.014356 0.4542186,-0.5123115 -4.161869 0.7501609,-0.5885963 -3.421669 0.9730824,-0.1035781 -5.644315 0.1090801,0.2891359 -4.649856 0.544565,0.2891359 -4.649856 0.544565,0.3230753 -2.841504 0.8823376,1.645538 -6.015769 0.05703737,0.911253 -4.668966 0.3709638,0.845933 -3.853545 0.7496927,0.8924093 -3.052335 1.042931,2.256172 -6.300148 0.1574723,2.05819 -5.305709 0.4800346,2.010782 -4.615282 0.8130156,1.62532 -3.884793 1.089553,-9.3173 -7.667984 -0.9106696,-7.961861 -7.925443 -0.1229126,-7.185701 -7.423106 0.3980017,-6.428659 -6.481645 0.9812985,-6.796003 -5.811084 1.267416,-6.133027 -5.609485 0.1716012,-5.887124 -4.76592 0.9260689,-5.963442 -4.195306 1.608727,-6.140589 -3.751037 2.071462,-6.650594 -5.312285 0.0753889,-6.784152 -4.075505 0.9611511,-8.371555 -4.851171 1.635407,-8.508278 -5.983478 1.759095,-7.573956 -5.28534 -0.2741625,-8.357216 -3.739598 0.5743545,-8.949604 -4.456213 1.07093,-8.865216 -5.654584 1.191727,-8.710001 -5.568552 -0.4827483,-9.493055 -4.238994 0.2964676,-9.603599 -4.292969 0.8280854,-9.550994 -4.601441 1.119391,7.710,43 45 0
