TiagoOliveira98/Thesis-Project/Difficulty_2_NEW/Cognitive_Task/Unity_Project/DataLogging/JointData/Logs(1651333951)_fff_Cognitive_Difficulty0.csv
WRIST,THUMB_CMC,THUMB_MCP,THUMB_IP,THUMB_TIP,INDEX_FINGER_MCP,INDEX_FINGER_PIP,INDEX_FINGER_DIP,INDEX_FINGER_TIP,MIDDLE_FINGER_MCP,MIDDLE_FINGER_PIP,MIDDLE_FINGER_DIP,MIDDLE_FINGER_TIP,RING_FINGER_MCP,RING_FINGER_PIP,RING_FINGER_DIP,RING_FINGER_TIP,PINKY_MCP,PINKY_PIP,PINKY_DIP,PINKY_TIP,WRIST2,THUMB_CMC2,THUMB_MCP2,THUMB_IP2,THUMB_TIP2,INDEX_FINGER_MCP2,INDEX_FINGER_PIP2,INDEX_FINGER_DIP2,INDEX_FINGER_TIP2,MIDDLE_FINGER_MCP2,MIDDLE_FINGER_PIP2,MIDDLE_FINGER_DIP2,MIDDLE_FINGER_TIP2,RING_FINGER_MCP2,RING_FINGER_PIP2,RING_FINGER_DIP2,RING_FINGER_TIP2,PINKY_MCP2,PINKY_PIP2,PINKY_DIP2,PINKY_TIP2,Timestamp,Event
-2.927371 -9.868332 0.0008142804,-3.466999 -8.992405 0.07600302,-3.657025 -8.092489 -0.009635068,-3.702581 -7.362363 -0.1975676,-3.699548 -6.922967 -0.3860773,-3.11396 -7.314357 -0.07218872,-3.566347 -6.689332 -0.4608372,-3.794625 -7.140766 -0.6042744,-3.806639 -7.57266 -0.6108554,-2.91871 -7.418043 -0.2613531,-3.424622 -6.86293 -0.7278838,-3.658298 -7.320529 -0.8135725,-3.669135 -7.827881 -0.7704282,-2.818573 -7.637146 -0.4904359,-3.306911 -7.143299 -0.9125987,-3.527996 -7.522441 -0.887302,-3.533181 -7.972546 -0.7470639,-2.783652 -7.898597 -0.6977367,-3.159872 -7.528903 -1.022047,-3.37241 -7.735982 -1.042158,-3.424414 -8.045862 -1.008234,-48 -50 0,-48 -50 0,-48 -50 0,-48 -50 0,-48 -50 0,-48 -50 0,-48 -50 0,-48 -50 0,-48 -50 0,-48 -50 0,-48 -50 0,-48 -50 0,-48 -50 0,-48 -50 0,-48 -50 0,-48 -50 0,-48 -50 0,-48 -50 0,-48 -50 0,-48 -50 0,-48 -50 0,0.01667,1 0 0 0 0 0 True
-2.927371 -9.868332 0.0008142804,-3.466999 -8.992405 0.07600302,-3.657025 -8.092489 -0.009635068,-3.702581 -7.362363 -0.1975676,-3.699548 -6.922967 -0.3860773,-3.11396 -7.314357 -0.07218872,-3.566347 -6.689332 -0.4608372,-3.794625 -7.140766 -0.6042744,-3.806639 -7.57266 -0.6108554,-2.91871 -7.418043 -0.2613531,-3.424622 -6.86293 -0.7278838,-3.658298 -7.320529 -0.8135725,-3.669135 -7.827881 -0.7704282,-2.818573 -7.637146 -0.4904359,-3.306911 -7.143299 -0.9125987,-3.527996 -7.522441 -0.887302,-3.533181 -7.972546 -0.7470639,-2.783652 -7.898597 -0.6977367,-3.159872 -7.528903 -1.022047,-3.37241 -7.735982 -1.042158,-3.424414 -8.045862 -1.008234,-48 -50 0,-48 -50 0,-48 -50 0,-48 -50 0,-48 -50 0,-48 -50 0,-48 -50 0,-48 -50 0,-48 -50 0,-48 -50 0,-48 -50 0,-48 -50 0,-48 -50 0,-48 -50 0,-48 -50 0,-48 -50 0,-48 -50 0,-48 -50 0,-48 -50 0,-48 -50 0,-48 -50 0,0.05000,1 0 0 0 0 0 True
-2.927371 -9.868332 0.0008142804,-3.466999 -8.992405 0.07600302,-3.657025 -8.092489 -0.009635068,-3.702581 -7.362363 -0.1975676,-3.699548 -6.922967 -0.3860773,-3.11396 -7.314357 -0.07218872,-3.566347 -6.689332 -0.4608372,-3.794625 -7.140766 -0.6042744,-3.806639 -7.57266 -0.6108554,-2.91871 -7.418043 -0.2613531,-3.424622 -6.86293 -0.7278838,-3.658298 -7.320529 -0.8135725,-3.669135 -7.827881 -0.7704282,-2.818573 -7.637146 -0.4904359,-3.306911 -7.143299 -0.9125987,-3.527996 -7.522441 -0.887302,-3.533181 -7.972546 -0.7470639,-2.783652 -7.898597 -0.6977367,-3.159872 -7.528903 -1.022047,-3.37241 -7.735982 -1.042158,-3.424414 -8.045862 -1.008234,-48 -50 0,-48 -50 0,-48 -50 0,-48 -50 0,-48 -50 0,-48 -50 0,-48 -50 0,-48 -50 0,-48 -50 0,-48 -50 0,-48 -50 0,-48 -50 0,-48 -50 0,-48 -50 0,-48 -50 0,-48 -50 0,-48 -50 0,-48 -50 0,-48 -50 0,-48 -50 0,-48 -50 0,0.08333,1 0 0 0 0 0 True
-2.927371 -9.868332 0.0008142804,-3.466999 -8.992405 0.07600302,-3.657025 -8.092489 -0.009635068,-3.702581 -7.362363 -0.1975676,-3.699548 -6.922967 -0.3860773,-3.11396 -7.314357 -0.07218872,-3.566347 -6.689332 -0.4608372,-3.794625 -7.140766 -0.6042744,-3.806639 -7.57266 -0.6108554,-2.91871 -7.418043 -0.2613531,-3.424622 -6.86293 -0.7278838,-3.658298 -7.320529 -0.8135725,-3.669135 -7.827881 -0.7704282,-2.818573 -7.637146 -0.4904359,-3.306911 -7.143299 -0.9125987,-3.527996 -7.522441 -0.887302,-3.533181 -7.972546 -0.7470639,-2.783652 -7.898597 -0.6977367,-3.159872 -7.528903 -1.022047,-3.37241 -7.735982 -1.042158,-3.424414 -8.045862 -1.008234,-48 -50 0,-48 -50 0,-48 -50 0,-48 -50 0,-48 -50 0,-48 -50 0,-48 -50 0,-48 -50 0,-48 -50 0,-48 -50 0,-48 -50 0,-48 -50 0,-48 -50 0,-48 -50 0,-48 -50 0,-48 -50 0,-48 -50 0,-48 -50 0,-48 -50 0,-48 -50 0,-48 -50 0,0.11667,1 0 0 0 0 0 True
-2.927371 -9.868332 0.0008142804,-3.466999 -8.992405 0.07600302,-3.657025 -8.092489 -0.009635068,-3.702581 -7.362363 -0.1975676,-3.699548 -6.922967 -0.3860773,-3.11396 -7.314357 -0.07218872,-3.566347 -6.689332 -0.4608372,-3.794625 -7.140766 -0.6042744,-3.806639 -7.57266 -0.6108554,-2.91871 -7.418043 -0.2613531,-3.424622 -6.86293 -0.7278838,-3.658298 -7.320529 -0.8135725,-3.669135 -7.827881 -0.7704282,-2.818573 -7.637146 -0.4904359,-3.306911 -7.143299 -0.9125987,-3.527996 -7.522441 -0.887302,-3.533181 -7.972546 -0.7470639,-2.783652 -7.898597 -0.6977367,-3.159872 -7.528903 -1.022047,-3.37241 -7.735982 -1.042158,-3.424414 -8.045862 -1.008234,-48 -50 0,-48 -50 0,-48 -50 0,-48 -50 0,-48 -50 0,-48 -50 0,-48 -50 0,-48 -50 0,-48 -50 0,-48 -50 0,-48 -50 0,-48 -50 0,-48 -50 0,-48 -50 0,-48 -50 0,-48 -50 0,-48 -50 0,-48 -50 0,-48 -50 0,-48 -50 0,-48 -50 0,0.15000,1 0 0 0 0 0 True
-2.927371 -9.868332 0.0008142804,-3.466999 -8.992405 0.07600302,-3.657025 -8.092489 -0.009635068,-3.702581 -7.362363 -0.1975676,-3.699548 -6.922967 -0.3860773,-3.11396 -7.314357 -0.07218872,-3.566347 -6.689332 -0.4608372,-3.794625 -7.140766 -0.6042744,-3.806639 -7.57266 -0.6108554,-2.91871 -7.418043 -0.2613531,-3.424622 -6.86293 -0.7278838,-3.658298 -7.320529 -0.8135725,-3.669135 -7.827881 -0.7704282,-2.818573 -7.637146 -0.4904359,-3.306911 -7.143299 -0.9125987,-3.527996 -7.522441 -0.887302,-3.533181 -7.972546 -0.7470639,-2.783652 -7.898597 -0.6977367,-3.159872 -7.528903 -1.022047,-3.37241 -7.735982 -1.042158,-3.424414 -8.045862 -1.008234,-48 -50 0,-48 -50 0,-48 -50 0,-48 -50 0,-48 -50 0,-48 -50 0,-48 -50 0,-48 -50 0,-48 -50 0,-48 -50 0,-48 -50 0,-48 -50 0,-48 -50 0,-48 -50 0,-48 -50 0,-48 -50 0,-48 -50 0,-48 -50 0,-48 -50 0,-48 -50 0,-48 -50 0,0.18333,1 0 0 0 0 0 True
-2.927371 -9.868332 0.0008142804,-3.466999 -8.992405 0.07600302,-3.657025 -8.092489 -0.009635068,-3.702581 -7.362363 -0.1975676,-3.699548 -6.922967 -0.3860773,-3.11396 -7.314357 -0.07218872,-3.566347 -6.689332 -0.4608372,-3.794625 -7.140766 -0.6042744,-3.806639 -7.57266 -0.6108554,-2.91871 -7.418043 -0.2613531,-3.424622 -6.86293 -0.7278838,-3.658298 -7.320529 -0.8135725,-3.669135 -7.827881 -0.7704282,-2.818573 -7.637146 -0.4904359,-3.306911 -7.143299 -0.9125987,-3.527996 -7.522441 -0.887302,-3.533181 -7.972546 -0.7470639,-2.783652 -7.898597 -0.6977367,-3.159872 -7.528903 -1.022047,-3.37241 -7.735982 -1.042158,-3.424414 -8.045862 -1.008234,-48 -50 0,-48 -50 0,-48 -50 0,-48 -50 0,-48 -50 0,-48 -50 0,-48 -50 0,-48 -50 0,-48 -50 0,-48 -50 0,-48 -50 0,-48 -50 0,-48 -50 0,-48 -50 0,-48 -50 0,-48 -50 0,-48 -50 0,-48 -50 0,-48 -50 0,-48 -50 0,-48 -50 0,0.21667,1 0 0 0 0 0 True
0.8123684 -9.868332 0.1199089,-0.8374906 -8.992405 -0.04302514,-0.7602091 -7.814089 0.1850483,-0.7617636 -6.840194 -0.1762896,-1.034213 -6.088981 -0.4420877,0.1978364 -6.444931 -0.06531771,-0.6657729 -5.81402 -0.5845149,-1.346455 -6.358379 -0.7534456,-1.624881 -6.945398 -0.6958147,0.5548301 -6.769098 -0.2230372,-0.164156 -6.004192 -0.8673642,-1.121356 -6.744922 -0.9857229,-1.643604 -7.456939 -0.9256821,1.694698 -7.377037 -0.4743471,-0.3319054 -6.658677 -1.029627,-1.071657 -7.179977 -1.121798,-1.465142 -7.774211 -0.8672641,1.406342 -7.911365 -0.6616742,0.2657385 -7.445079 -1.045035,-0.3996696 -7.662483 -1.001648,-1.734855 -8.076937 -1.413806,-48 -50 0,-46.34351 -50 0,-46.53787 -50 0,-47.44973 -50 0,-43.90176 -50 0,-45.50355 -50 0,-44.77044 -50 0,-45.33688 -50 0,-44.57 -50 0,-44.9371 -50 0,-42.44324 -50 0,-47.64162 -50 0,-47.83333 -50 0,-44.3284 -50 0,-46.17685 -50 0,-42.83209 -50 0,-45.98146 -50 0,-42.60991 -50 0,-43.13097 -50 0,-47.28306 -50 0,-45.13748 -50 0,0.25000,1 0 0 0 0 0 True
-2.927371 -9.868332 0.0008142804,-3.466999 -8.992405 0.07600302,-3.657025 -8.092489 -0.009635068,-3.702581 -7.362363 -0.1975676,-3.699548 -6.922967 -0.3860773,-3.11396 -7.314357 -0.07218872,-3.566347 -6.689332 -0.4608372,-3.794625 -7.140766 -0.6042744,-3.806639 -7.57266 -0.6108554,-2.91871 -7.418043 -0.2613531,-3.424622 -6.86293 -0.7278838,-3.658298 -7.320529 -0.8135725,-3.669135 -7.827881 -0.7704282,-2.818573 -7.637146 -0.4904359,-3.306911 -7.143299 -0.9125987,-3.527996 -7.522441 -0.887302,-3.533181 -7.972546 -0.7470639,-2.783652 -7.898597 -0.6977367,-3.159872 -7.528903 -1.022047,-3.37241 -7.735982 -1.042158,-3.424414 -8.045862 -1.008234,-48 -50 0,-48 -50 0,-48 -50 0,-48 -50 0,-48 -50 0,-48 -50 0,-48 -50 0,-48 -50 0,-48 -50 0,-48 -50 0,-48 -50 0,-48 -50 0,-48 -50 0,-48 -50 0,-48 -50 0,-48 -50 0,-48 -50 0,-48 -50 0,-48 -50 0,-48 -50 0,-48 -50 0,0.28333,1 0 0 0 0 0 True
-2.927371 -9.868332 0.0008142804,-3.466999 -8.992405 0.07600302,-3.657025 -8.092489 -0.009635068,-3.702581 -7.362363 -0.1975676,-3.699548 -6.922967 -0.3860773,-3.11396 -7.314357 -0.07218872,-3.566347 -6.689332 -0.4608372,-3.794625 -7.140766 -0.6042744,-3.806639 -7.57266 -0.6108554,-2.91871 -7.418043 -0.2613531,-3.424622 -6.86293 -0.7278838,-3.658298 -7.320529 -0.8135725,-3.669135 -7.827881 -0.7704282,-2.818573 -7.637146 -0.4904359,-3.306911 -7.143299 -0.9125987,-3.527996 -7.522441 -0.887302,-3.533181 -7.972546 -0.7470639,-2.783652 -7.898597 -0.6977367,-3.159872 -7.528903 -1.022047,-3.37241 -7.735982 -1.042158,-3.424414 -8.045862 -1.008234,-48 -50 0,-48 -50 0,-48 -50 0,-48 -50 0,-48 -50 0,-48 -50 0,-48 -50 0,-48 -50 0,-48 -50 0,-48 -50 0,-48 -50 0,-48 -50 0,-48 -50 0,-48 -50 0,-48 -50 0,-48 -50 0,-48 -50 0,-48 -50 0,-48 -50 0,-48 -50 0,-48 -50 0,0.31667,1 0 0 0 0 0 True
-2.927371 -9.868332 0.0008142804,-3.466999 -8.992405 0.07600302,-3.657025 -8.092489 -0.009635068,-3.702581 -7.362363 -0.1975676,-3.699548 -6.922967 -0.3860773,-3.11396 -7.314357 -0.07218872,-3.566347 -6.689332 -0.4608372,-3.794625 -7.140766 -0.6042744,-3.806639 -7.57266 -0.6108554,-2.91871 -7.418043 -0.2613531,-3.424622 -6.86293 -0.7278838,-3.658298 -7.320529 -0.8135725,-3.669135 -7.827881 -0.7704282,-2.818573 -7.637146 -0.4904359,-3.306911 -7.143299 -0.9125987,-3.527996 -7.522441 -0.887302,-3.533181 -7.972546 -0.7470639,-2.783652 -7.898597 -0.6977367,-3.159872 -7.528903 -1.022047,-3.37241 -7.735982 -1.042158,-3.424414 -8.045862 -1.008234,-48 -50 0,-48 -50 0,-48 -50 0,-48 -50 0,-48 -50 0,-48 -50 0,-48 -50 0,-48 -50 0,-48 -50 0,-48 -50 0,-48 -50 0,-48 -50 0,-48 -50 0,-48 -50 0,-48 -50 0,-48 -50 0,-48 -50 0,-48 -50 0,-48 -50 0,-48 -50 0,-48 -50 0,0.35000,1 0 0 0 0 0 True
-2.927371 -9.868332 0.0008142804,-3.466999 -8.992405 0.07600302,-3.657025 -8.092489 -0.009635068,-3.702581 -7.362363 -0.1975676,-3.699548 -6.922967 -0.3860773,-3.11396 -7.314357 -0.07218872,-3.566347 -6.689332 -0.4608372,-3.794625 -7.140766 -0.6042744,-3.806639 -7.57266 -0.6108554,-2.91871 -7.418043 -0.2613531,-3.424622 -6.86293 -0.7278838,-3.658298 -7.320529 -0.8135725,-3.669135 -7.827881 -0.7704282,-2.818573 -7.637146 -0.4904359,-3.306911 -7.143299 -0.9125987,-3.527996 -7.522441 -0.887302,-3.533181 -7.972546 -0.7470639,-2.783652 -7.898597 -0.6977367,-3.159872 -7.528903 -1.022047,-3.37241 -7.735982 -1.042158,-3.424414 -8.045862 -1.008234,-48 -50 0,-48 -50 0,-48 -50 0,-48 -50 0,-48 -50 0,-48 -50 0,-48 -50 0,-48 -50 0,-48 -50 0,-48 -50 0,-48 -50 0,-48 -50 0,-48 -50 0,-48 -50 0,-48 -50 0,-48 -50 0,-48 -50 0,-48 -50 0,-48 -50 0,-48 -50 0,-48 -50 0,0.38333,1 0 0 0 0 0 True
-2.927371 -9.868332 0.0008142804,-3.466999 -8.992405 0.07600302,-3.657025 -8.092489 -0.009635068,-3.702581 -7.362363 -0.1975676,-3.699548 -6.922967 -0.3860773,-3.11396 -7.314357 -0.07218872,-3.566347 -6.689332 -0.4608372,-3.794625 -7.140766 -0.6042744,-3.806639 -7.57266 -0.6108554,-2.91871 -7.418043 -0.2613531,-3.424622 -6.86293 -0.7278838,-3.658298 -7.320529 -0.8135725,-3.669135 -7.827881 -0.7704282,-2.818573 -7.637146 -0.4904359,-3.306911 -7.143299 -0.9125987,-3.527996 -7.522441 -0.887302,-3.533181 -7.972546 -0.7470639,-2.783652 -7.898597 -0.6977367,-3.159872 -7.528903 -1.022047,-3.37241 -7.735982 -1.042158,-3.424414 -8.045862 -1.008234,-48 -50 0,-48 -50 0,-48 -50 0,-48 -50 0,-48 -50 0,-48 -50 0,-48 -50 0,-48 -50 0,-48 -50 0,-48 -50 0,-48 -50 0,-48 -50 0,-48 -50 0,-48 -50 0,-48 -50 0,-48 -50 0,-48 -50 0,-48 -50 0,-48 -50 0,-48 -50 0,-48 -50 0,0.41667,1 0 0 0 0 0 True
-2.927371 -9.868332 0.0008142804,-3.466999 -8.992405 0.07600302,-3.657025 -8.092489 -0.009635068,-3.702581 -7.362363 -0.1975676,-3.699548 -6.922967 -0.3860773,-3.11396 -7.314357 -0.07218872,-3.566347 -6.689332 -0.4608372,-3.794625 -7.140766 -0.6042744,-3.806639 -7.57266 -0.6108554,-2.91871 -7.418043 -0.2613531,-3.424622 -6.86293 -0.7278838,-3.658298 -7.320529 -0.8135725,-3.669135 -7.827881 -0.7704282,-2.818573 -7.637146 -0.4904359,-3.306911 -7.143299 -0.9125987,-3.527996 -7.522441 -0.887302,-3.533181 -7.972546 -0.7470639,-2.783652 -7.898597 -0.6977367,-3.159872 -7.528903 -1.022047,-3.37241 -7.735982 -1.042158,-3.424414 -8.045862 -1.008234,-48 -50 0,-48 -50 0,-48 -50 0,-48 -50 0,-48 -50 0,-48 -50 0,-48 -50 0,-48 -50 0,-48 -50 0,-48 -50 0,-48 -50 0,-48 -50 0,-48 -50 0,-48 -50 0,-48 -50 0,-48 -50 0,-48 -50 0,-48 -50 0,-48 -50 0,-48 -50 0,-48 -50 0,0.45000,1 0 0 0 0 0 True
-2.927371 -9.868332 0.0008142804,-3.466999 -8.992405 0.07600302,-3.657025 -8.092489 -0.009635068,-3.702581 -7.362363 -0.1975676,-3.699548 -6.922967 -0.3860773,-3.11396 -7.314357 -0.07218872,-3.566347 -6.689332 -0.4608372,-3.794625 -7.140766 -0.6042744,-3.806639 -7.57266 -0.6108554,-2.91871 -7.418043 -0.2613531,-3.424622 -6.86293 -0.7278838,-3.658298 -7.320529 -0.8135725,-3.669135 -7.827881 -0.7704282,-2.818573 -7.637146 -0.4904359,-3.306911 -7.143299 -0.9125987,-3.527996 -7.522441 -0.887302,-3.533181 -7.972546 -0.7470639,-2.783652 -7.898597 -0.6977367,-3.159872 -7.528903 -1.022047,-3.37241 -7.735982 -1.042158,-3.424414 -8.045862 -1.008234,-48 -50 0,-48 -50 0,-48 -50 0,-48 -50 0,-48 -50 0,-48 -50 0,-48 -50 0,-48 -50 0,-48 -50 0,-48 -50 0,-48 -50 0,-48 -50 0,-48 -50 0,-48 -50 0,-48 -50 0,-48 -50 0,-48 -50 0,-48 -50 0,-48 -50 0,-48 -50 0,-48 -50 0,0.48333,1 0 0 0 0 0 True
-2.927371 -9.868332 0.0008142804,-3.466999 -8.992405 0.07600302,-3.657025 -8.092489 -0.009635068,-3.702581 -7.362363 -0.1975676,-3.699548 -6.922967 -0.3860773,-3.11396 -7.314357 -0.07218872,-3.566347 -6.689332 -0.4608372,-3.794625 -7.140766 -0.6042744,-3.806639 -7.57266 -0.6108554,-2.91871 -7.418043 -0.2613531,-3.424622 -6.86293 -0.7278838,-3.658298 -7.320529 -0.8135725,-3.669135 -7.827881 -0.7704282,-2.818573 -7.637146 -0.4904359,-3.306911 -7.143299 -0.9125987,-3.527996 -7.522441 -0.887302,-3.533181 -7.972546 -0.7470639,-2.783652 -7.898597 -0.6977367,-3.159872 -7.528903 -1.022047,-3.37241 -7.735982 -1.042158,-3.424414 -8.045862 -1.008234,-48 -50 0,-48 -50 0,-48 -50 0,-48 -50 0,-48 -50 0,-48 -50 0,-48 -50 0,-48 -50 0,-48 -50 0,-48 -50 0,-48 -50 0,-48 -50 0,-48 -50 0,-48 -50 0,-48 -50 0,-48 -50 0,-48 -50 0,-48 -50 0,-48 -50 0,-48 -50 0,-48 -50 0,0.51667,1 0 0 0 0 0 True
-2.927371 -9.868332 0.0008142804,-3.466999 -8.992405 0.07600302,-3.657025 -8.092489 -0.009635068,-3.702581 -7.362363 -0.1975676,-3.699548 -6.922967 -0.3860773,-3.11396 -7.314357 -0.07218872,-3.566347 -6.689332 -0.4608372,-3.794625 -7.140766 -0.6042744,-3.806639 -7.57266 -0.6108554,-2.91871 -7.418043 -0.2613531,-3.424622 -6.86293 -0.7278838,-3.658298 -7.320529 -0.8135725,-3.669135 -7.827881 -0.7704282,-2.818573 -7.637146 -0.4904359,-3.306911 -7.143299 -0.9125987,-3.527996 -7.522441 -0.887302,-3.533181 -7.972546 -0.7470639,-2.783652 -7.898597 -0.6977367,-3.159872 -7.528903 -1.022047,-3.37241 -7.735982 -1.042158,-3.424414 -8.045862 -1.008234,-48 -50 0,-48 -50 0,-48 -50 0,-48 -50 0,-48 -50 0,-48 -50 0,-48 -50 0,-48 -50 0,-48 -50 0,-48 -50 0,-48 -50 0,-48 -50 0,-48 -50 0,-48 -50 0,-48 -50 0,-48 -50 0,-48 -50 0,-48 -50 0,-48 -50 0,-48 -50 0,-48 -50 0,0.55000,1 0 0 0 0 0 True
-2.927371 -9.868332 0.0008142804,-3.466999 -8.992405 0.07600302,-3.657025 -8.092489 -0.009635068,-3.702581 -7.362363 -0.1975676,-3.699548 -6.922967 -0.3860773,-3.11396 -7.314357 -0.07218872,-3.566347 -6.689332 -0.4608372,-3.794625 -7.140766 -0.6042744,-3.806639 -7.57266 -0.6108554,-2.91871 -7.418043 -0.2613531,-3.424622 -6.86293 -0.7278838,-3.658298 -7.320529 -0.8135725,-3.669135 -7.827881 -0.7704282,-2.818573 -7.637146 -0.4904359,-3.306911 -7.143299 -0.9125987,-3.527996 -7.522441 -0.887302,-3.533181 -7.972546 -0.7470639,-2.783652 -7.898597 -0.6977367,-3.159872 -7.528903 -1.022047,-3.37241 -7.735982 -1.042158,-3.424414 -8.045862 -1.008234,-48 -50 0,-48 -50 0,-48 -50 0,-48 -50 0,-48 -50 0,-48 -50 0,-48 -50 0,-48 -50 0,-48 -50 0,-48 -50 0,-48 -50 0,-48 -50 0,-48 -50 0,-48 -50 0,-48 -50 0,-48 -50 0,-48 -50 0,-48 -50 0,-48 -50 0,-48 -50 0,-48 -50 0,0.58333,1 0 0 0 0 0 True
0.8123684 -9.868332 0.1199089,-0.8374906 -8.992405 -0.04302514,-0.7601948 -7.814147 0.1850251,-0.7618909 -6.840301 -0.1763199,-1.034216 -6.088987 -0.4420763,0.197834 -6.444963 -0.06521081,-0.6657896 -5.814027 -0.5845363,-1.346612 -6.358396 -0.7533365,-1.624927 -6.945434 -0.6958124,0.5547209 -6.769086 -0.2230642,-0.1641579 -6.00419 -0.8673847,-1.121383 -6.744927 -0.9857436,-1.643556 -7.45685 -0.9257974,1.694676 -7.377015 -0.4743797,-0.331903 -6.658643 -1.029542,-1.071425 -7.179908 -1.121762,-1.465125 -7.774177 -0.8672366,1.406363 -7.911388 -0.6616416,0.2658501 -7.44506 -1.045115,-0.3996706 -7.662482 -1.001656,-1.734789 -8.076933 -1.413837,-48 -50 0,-46.34351 -50 0,-46.53787 -50 0,-47.44973 -50 0,-43.90176 -50 0,-45.50355 -50 0,-44.77044 -50 0,-45.33688 -50 0,-44.57 -50 0,-44.9371 -50 0,-42.44324 -50 0,-47.64162 -50 0,-47.83333 -50 0,-44.3284 -50 0,-46.17685 -50 0,-42.83209 -50 0,-45.98146 -50 0,-42.60991 -50 0,-43.13097 -50 0,-47.28306 -50 0,-45.13748 -50 0,0.61667,1 0 0 0 0 0 True
-2.927371 -9.868332 0.0008142804,-3.466999 -8.992405 0.07600302,-3.657025 -8.092489 -0.009635068,-3.702581 -7.362363 -0.1975676,-3.699548 -6.922967 -0.3860773,-3.11396 -7.314357 -0.07218872,-3.566347 -6.689332 -0.4608372,-3.794625 -7.140766 -0.6042744,-3.806639 -7.57266 -0.6108554,-2.91871 -7.418043 -0.2613531,-3.424622 -6.86293 -0.7278838,-3.658298 -7.320529 -0.8135725,-3.669135 -7.827881 -0.7704282,-2.818573 -7.637146 -0.4904359,-3.306911 -7.143299 -0.9125987,-3.527996 -7.522441 -0.887302,-3.533181 -7.972546 -0.7470639,-2.783652 -7.898597 -0.6977367,-3.159872 -7.528903 -1.022047,-3.37241 -7.735982 -1.042158,-3.424414 -8.045862 -1.008234,-48 -50 0,-48 -50 0,-48 -50 0,-48 -50 0,-48 -50 0,-48 -50 0,-48 -50 0,-48 -50 0,-48 -50 0,-48 -50 0,-48 -50 0,-48 -50 0,-48 -50 0,-48 -50 0,-48 -50 0,-48 -50 0,-48 -50 0,-48 -50 0,-48 -50 0,-48 -50 0,-48 -50 0,0.65000,1 0 0 0 0 0 True
-2.927371 -9.868332 0.0008142804,-3.466999 -8.992405 0.07600302,-3.657025 -8.092489 -0.009635068,-3.702581 -7.362363 -0.1975676,-3.699548 -6.922967 -0.3860773,-3.11396 -7.314357 -0.07218872,-3.566347 -6.689332 -0.4608372,-3.794625 -7.140766 -0.6042744,-3.806639 -7.57266 -0.6108554,-2.91871 -7.418043 -0.2613531,-3.424622 -6.86293 -0.7278838,-3.658298 -7.320529 -0.8135725,-3.669135 -7.827881 -0.7704282,-2.818573 -7.637146 -0.4904359,-3.306911 -7.143299 -0.9125987,-3.527996 -7.522441 -0.887302,-3.533181 -7.972546 -0.7470639,-2.783652 -7.898597 -0.6977367,-3.159872 -7.528903 -1.022047,-3.37241 -7.735982 -1.042158,-3.424414 -8.045862 -1.008234,-48 -50 0,-48 -50 0,-48 -50 0,-48 -50 0,-48 -50 0,-48 -50 0,-48 -50 0,-48 -50 0,-48 -50 0,-48 -50 0,-48 -50 0,-48 -50 0,-48 -50 0,-48 -50 0,-48 -50 0,-48 -50 0,-48 -50 0,-48 -50 0,-48 -50 0,-48 -50 0,-48 -50 0,0.68333,1 0 0 0 0 0 True
-2.927371 -9.868332 0.0008142804,-3.466999 -8.992405 0.07600302,-3.657025 -8.092489 -0.009635068,-3.702581 -7.362363 -0.1975676,-3.699548 -6.922967 -0.3860773,-3.11396 -7.314357 -0.07218872,-3.566347 -6.689332 -0.4608372,-3.794625 -7.140766 -0.6042744,-3.806639 -7.57266 -0.6108554,-2.91871 -7.418043 -0.2613531,-3.424622 -6.86293 -0.7278838,-3.658298 -7.320529 -0.8135725,-3.669135 -7.827881 -0.7704282,-2.818573 -7.637146 -0.4904359,-3.306911 -7.143299 -0.9125987,-3.527996 -7.522441 -0.887302,-3.533181 -7.972546 -0.7470639,-2.783652 -7.898597 -0.6977367,-3.159872 -7.528903 -1.022047,-3.37241 -7.735982 -1.042158,-3.424414 -8.045862 -1.008234,-48 -50 0,-48 -50 0,-48 -50 0,-48 -50 0,-48 -50 0,-48 -50 0,-48 -50 0,-48 -50 0,-48 -50 0,-48 -50 0,-48 -50 0,-48 -50 0,-48 -50 0,-48 -50 0,-48 -50 0,-48 -50 0,-48 -50 0,-48 -50 0,-48 -50 0,-48 -50 0,-48 -50 0,0.71667,1 0 0 0 0 0 True
-2.927371 -9.868332 0.0008142804,-3.466999 -8.992405 0.07600302,-3.657025 -8.092489 -0.009635068,-3.702581 -7.362363 -0.1975676,-3.699548 -6.922967 -0.3860773,-3.11396 -7.314357 -0.07218872,-3.566347 -6.689332 -0.4608372,-3.794625 -7.140766 -0.6042744,-3.806639 -7.57266 -0.6108554,-2.91871 -7.418043 -0.2613531,-3.424622 -6.86293 -0.7278838,-3.658298 -7.320529 -0.8135725,-3.669135 -7.827881 -0.7704282,-2.818573 -7.637146 -0.4904359,-3.306911 -7.143299 -0.9125987,-3.527996 -7.522441 -0.887302,-3.533181 -7.972546 -0.7470639,-2.783652 -7.898597 -0.6977367,-3.159872 -7.528903 -1.022047,-3.37241 -7.735982 -1.042158,-3.424414 -8.045862 -1.008234,-48 -50 0,-48 -50 0,-48 -50 0,-48 -50 0,-48 -50 0,-48 -50 0,-48 -50 0,-48 -50 0,-48 -50 0,-48 -50 0,-48 -50 0,-48 -50 0,-48 -50 0,-48 -50 0,-48 -50 0,-48 -50 0,-48 -50 0,-48 -50 0,-48 -50 0,-48 -50 0,-48 -50 0,0.75000,1 0 0 0 0 0 True
-2.927371 -9.868332 0.0008142804,-3.466999 -8.992405 0.07600302,-3.657025 -8.092489 -0.009635068,-3.702581 -7.362363 -0.1975676,-3.699548 -6.922967 -0.3860773,-3.11396 -7.314357 -0.07218872,-3.566347 -6.689332 -0.4608372,-3.794625 -7.140766 -0.6042744,-3.806639 -7.57266 -0.6108554,-2.91871 -7.418043 -0.2613531,-3.424622 -6.86293 -0.7278838,-3.658298 -7.320529 -0.8135725,-3.669135 -7.827881 -0.7704282,-2.818573 -7.637146 -0.4904359,-3.306911 -7.143299 -0.9125987,-3.527996 -7.522441 -0.887302,-3.533181 -7.972546 -0.7470639,-2.783652 -7.898597 -0.6977367,-3.159872 -7.528903 -1.022047,-3.37241 -7.735982 -1.042158,-3.424414 -8.045862 -1.008234,-48 -50 0,-48 -50 0,-48 -50 0,-48 -50 0,-48 -50 0,-48 -50 0,-48 -50 0,-48 -50 0,-48 -50 0,-48 -50 0,-48 -50 0,-48 -50 0,-48 -50 0,-48 -50 0,-48 -50 0,-48 -50 0,-48 -50 0,-48 -50 0,-48 -50 0,-48 -50 0,-48 -50 0,0.78333,1 0 0 0 0 0 True
-2.927371 -9.868332 0.0008142804,-3.466999 -8.992405 0.07600302,-3.657025 -8.092489 -0.009635068,-3.702581 -7.362363 -0.1975676,-3.699548 -6.922967 -0.3860773,-3.11396 -7.314357 -0.07218872,-3.566347 -6.689332 -0.4608372,-3.794625 -7.140766 -0.6042744,-3.806639 -7.57266 -0.6108554,-2.91871 -7.418043 -0.2613531,-3.424622 -6.86293 -0.7278838,-3.658298 -7.320529 -0.8135725,-3.669135 -7.827881 -0.7704282,-2.818573 -7.637146 -0.4904359,-3.306911 -7.143299 -0.9125987,-3.527996 -7.522441 -0.887302,-3.533181 -7.972546 -0.7470639,-2.783652 -7.898597 -0.6977367,-3.159872 -7.528903 -1.022047,-3.37241 -7.735982 -1.042158,-3.424414 -8.045862 -1.008234,-48 -50 0,-48 -50 0,-48 -50 0,-48 -50 0,-48 -50 0,-48 -50 0,-48 -50 0,-48 -50 0,-48 -50 0,-48 -50 0,-48 -50 0,-48 -50 0,-48 -50 0,-48 -50 0,-48 -50 0,-48 -50 0,-48 -50 0,-48 -50 0,-48 -50 0,-48 -50 0,-48 -50 0,0.81667,1 0 0 0 0 0 True
-2.927371 -9.868332 0.0008142804,-3.466999 -8.992405 0.07600302,-3.657025 -8.092489 -0.009635068,-3.702581 -7.362363 -0.1975676,-3.699548 -6.922967 -0.3860773,-3.11396 -7.314357 -0.07218872,-3.566347 -6.689332 -0.4608372,-3.794625 -7.140766 -0.6042744,-3.806639 -7.57266 -0.6108554,-2.91871 -7.418043 -0.2613531,-3.424622 -6.86293 -0.7278838,-3.658298 -7.320529 -0.8135725,-3.669135 -7.827881 -0.7704282,-2.818573 -7.637146 -0.4904359,-3.306911 -7.143299 -0.9125987,-3.527996 -7.522441 -0.887302,-3.533181 -7.972546 -0.7470639,-2.783652 -7.898597 -0.6977367,-3.159872 -7.528903 -1.022047,-3.37241 -7.735982 -1.042158,-3.424414 -8.045862 -1.008234,-48 -50 0,-48 -50 0,-48 -50 0,-48 -50 0,-48 -50 0,-48 -50 0,-48 -50 0,-48 -50 0,-48 -50 0,-48 -50 0,-48 -50 0,-48 -50 0,-48 -50 0,-48 -50 0,-48 -50 0,-48 -50 0,-48 -50 0,-48 -50 0,-48 -50 0,-48 -50 0,-48 -50 0,0.85000,1 0 0 0 0 0 True
-2.927371 -9.868332 0.0008142804,-3.466999 -8.992405 0.07600302,-3.657025 -8.092489 -0.009635068,-3.702581 -7.362363 -0.1975676,-3.699548 -6.922967 -0.3860773,-3.11396 -7.314357 -0.07218872,-3.566347 -6.689332 -0.4608372,-3.794625 -7.140766 -0.6042744,-3.806639 -7.57266 -0.6108554,-2.91871 -7.418043 -0.2613531,-3.424622 -6.86293 -0.7278838,-3.658298 -7.320529 -0.8135725,-3.669135 -7.827881 -0.7704282,-2.818573 -7.637146 -0.4904359,-3.306911 -7.143299 -0.9125987,-3.527996 -7.522441 -0.887302,-3.533181 -7.972546 -0.7470639,-2.783652 -7.898597 -0.6977367,-3.159872 -7.528903 -1.022047,-3.37241 -7.735982 -1.042158,-3.424414 -8.045862 -1.008234,-48 -50 0,-48 -50 0,-48 -50 0,-48 -50 0,-48 -50 0,-48 -50 0,-48 -50 0,-48 -50 0,-48 -50 0,-48 -50 0,-48 -50 0,-48 -50 0,-48 -50 0,-48 -50 0,-48 -50 0,-48 -50 0,-48 -50 0,-48 -50 0,-48 -50 0,-48 -50 0,-48 -50 0,0.88333,1 0 0 0 0 0 True
-2.927371 -9.868332 0.0008142804,-3.466999 -8.992405 0.07600302,-3.657025 -8.092489 -0.009635068,-3.702581 -7.362363 -0.1975676,-3.699548 -6.922967 -0.3860773,-3.11396 -7.314357 -0.07218872,-3.566347 -6.689332 -0.4608372,-3.794625 -7.140766 -0.6042744,-3.806639 -7.57266 -0.6108554,-2.91871 -7.418043 -0.2613531,-3.424622 -6.86293 -0.7278838,-3.658298 -7.320529 -0.8135725,-3.669135 -7.827881 -0.7704282,-2.818573 -7.637146 -0.4904359,-3.306911 -7.143299 -0.9125987,-3.527996 -7.522441 -0.887302,-3.533181 -7.972546 -0.7470639,-2.783652 -7.898597 -0.6977367,-3.159872 -7.528903 -1.022047,-3.37241 -7.735982 -1.042158,-3.424414 -8.045862 -1.008234,-48 -50 0,-48 -50 0,-48 -50 0,-48 -50 0,-48 -50 0,-48 -50 0,-48 -50 0,-48 -50 0,-48 -50 0,-48 -50 0,-48 -50 0,-48 -50 0,-48 -50 0,-48 -50 0,-48 -50 0,-48 -50 0,-48 -50 0,-48 -50 0,-48 -50 0,-48 -50 0,-48 -50 0,0.91667,1 0 0 0 0 0 True
-2.927371 -9.868332 0.0008142804,-3.466999 -8.992405 0.07600302,-3.657025 -8.092489 -0.009635068,-3.702581 -7.362363 -0.1975676,-3.699548 -6.922967 -0.3860773,-3.11396 -7.314357 -0.07218872,-3.566347 -6.689332 -0.4608372,-3.794625 -7.140766 -0.6042744,-3.806639 -7.57266 -0.6108554,-2.91871 -7.418043 -0.2613531,-3.424622 -6.86293 -0.7278838,-3.658298 -7.320529 -0.8135725,-3.669135 -7.827881 -0.7704282,-2.818573 -7.637146 -0.4904359,-3.306911 -7.143299 -0.9125987,-3.527996 -7.522441 -0.887302,-3.533181 -7.972546 -0.7470639,-2.783652 -7.898597 -0.6977367,-3.159872 -7.528903 -1.022047,-3.37241 -7.735982 -1.042158,-3.424414 -8.045862 -1.008234,-48 -50 0,-48 -50 0,-48 -50 0,-48 -50 0,-48 -50 0,-48 -50 0,-48 -50 0,-48 -50 0,-48 -50 0,-48 -50 0,-48 -50 0,-48 -50 0,-48 -50 0,-48 -50 0,-48 -50 0,-48 -50 0,-48 -50 0,-48 -50 0,-48 -50 0,-48 -50 0,-48 -50 0,0.95000,1 0 0 0 0 0 True
-2.927371 -9.868332 0.0008142804,-3.466999 -8.992405 0.07600302,-3.657025 -8.092489 -0.009635068,-3.702581 -7.362363 -0.1975676,-3.699548 -6.922967 -0.3860773,-3.11396 -7.314357 -0.07218872,-3.566347 -6.689332 -0.4608372,-3.794625 -7.140766 -0.6042744,-3.806639 -7.57266 -0.6108554,-2.91871 -7.418043 -0.2613531,-3.424622 -6.86293 -0.7278838,-3.658298 -7.320529 -0.8135725,-3.669135 -7.827881 -0.7704282,-2.818573 -7.637146 -0.4904359,-3.306911 -7.143299 -0.9125987,-3.527996 -7.522441 -0.887302,-3.533181 -7.972546 -0.7470639,-2.783652 -7.898597 -0.6977367,-3.159872 -7.528903 -1.022047,-3.37241 -7.735982 -1.042158,-3.424414 -8.045862 -1.008234,-48 -50 0,-48 -50 0,-48 -50 0,-48 -50 0,-48 -50 0,-48 -50 0,-48 -50 0,-48 -50 0,-48 -50 0,-48 -50 0,-48 -50 0,-48 -50 0,-48 -50 0,-48 -50 0,-48 -50 0,-48 -50 0,-48 -50 0,-48 -50 0,-48 -50 0,-48 -50 0,-48 -50 0,0.98333,1 0 0 0 0 0 True
-2.927371 -9.868332 0.0008142804,-3.466999 -8.992405 0.07600302,-3.657025 -8.092489 -0.009635068,-3.702581 -7.362363 -0.1975676,-3.699548 -6.922967 -0.3860773,-3.11396 -7.314357 -0.07218872,-3.566347 -6.689332 -0.4608372,-3.794625 -7.140766 -0.6042744,-3.806639 -7.57266 -0.6108554,-2.91871 -7.418043 -0.2613531,-3.424622 -6.86293 -0.7278838,-3.658298 -7.320529 -0.8135725,-3.669135 -7.827881 -0.7704282,-2.818573 -7.637146 -0.4904359,-3.306911 -7.143299 -0.9125987,-3.527996 -7.522441 -0.887302,-3.533181 -7.972546 -0.7470639,-2.783652 -7.898597 -0.6977367,-3.159872 -7.528903 -1.022047,-3.37241 -7.735982 -1.042158,-3.424414 -8.045862 -1.008234,-48 -50 0,-48 -50 0,-48 -50 0,-48 -50 0,-48 -50 0,-48 -50 0,-48 -50 0,-48 -50 0,-48 -50 0,-48 -50 0,-48 -50 0,-48 -50 0,-48 -50 0,-48 -50 0,-48 -50 0,-48 -50 0,-48 -50 0,-48 -50 0,-48 -50 0,-48 -50 0,-48 -50 0,1.01667,1 0 0 0 0 0 True
-2.927371 -9.868332 0.0008142804,-3.466999 -8.992405 0.07600302,-3.657025 -8.092489 -0.009635068,-3.702581 -7.362363 -0.1975676,-3.699548 -6.922967 -0.3860773,-3.11396 -7.314357 -0.07218872,-3.566347 -6.689332 -0.4608372,-3.794625 -7.140766 -0.6042744,-3.806639 -7.57266 -0.6108554,-2.91871 -7.418043 -0.2613531,-3.424622 -6.86293 -0.7278838,-3.658298 -7.320529 -0.8135725,-3.669135 -7.827881 -0.7704282,-2.818573 -7.637146 -0.4904359,-3.306911 -7.143299 -0.9125987,-3.527996 -7.522441 -0.887302,-3.533181 -7.972546 -0.7470639,-2.783652 -7.898597 -0.6977367,-3.159872 -7.528903 -1.022047,-3.37241 -7.735982 -1.042158,-3.424414 -8.045862 -1.008234,-48 -50 0,-48 -50 0,-48 -50 0,-48 -50 0,-48 -50 0,-48 -50 0,-48 -50 0,-48 -50 0,-48 -50 0,-48 -50 0,-48 -50 0,-48 -50 0,-48 -50 0,-48 -50 0,-48 -50 0,-48 -50 0,-48 -50 0,-48 -50 0,-48 -50 0,-48 -50 0,-48 -50 0,1.05000,1 0 0 0 0 0 True
-2.927371 -9.868332 0.0008142804,-3.466999 -8.992405 0.07600302,-3.657025 -8.092489 -0.009635068,-3.702581 -7.362363 -0.1975676,-3.699548 -6.922967 -0.3860773,-3.11396 -7.314357 -0.07218872,-3.566347 -6.689332 -0.4608372,-3.794625 -7.140766 -0.6042744,-3.806639 -7.57266 -0.6108554,-2.91871 -7.418043 -0.2613531,-3.424622 -6.86293 -0.7278838,-3.658298 -7.320529 -0.8135725,-3.669135 -7.827881 -0.7704282,-2.818573 -7.637146 -0.4904359,-3.306911 -7.143299 -0.9125987,-3.527996 -7.522441 -0.887302,-3.533181 -7.972546 -0.7470639,-2.783652 -7.898597 -0.6977367,-3.159872 -7.528903 -1.022047,-3.37241 -7.735982 -1.042158,-3.424414 -8.045862 -1.008234,-48 -50 0,-48 -50 0,-48 -50 0,-48 -50 0,-48 -50 0,-48 -50 0,-48 -50 0,-48 -50 0,-48 -50 0,-48 -50 0,-48 -50 0,-48 -50 0,-48 -50 0,-48 -50 0,-48 -50 0,-48 -50 0,-48 -50 0,-48 -50 0,-48 -50 0,-48 -50 0,-48 -50 0,1.08333,1 0 0 0 0 0 True
-2.927371 -9.868332 0.0008142804,-3.466999 -8.992405 0.07600302,-3.657025 -8.092489 -0.009635068,-3.702581 -7.362363 -0.1975676,-3.699548 -6.922967 -0.3860773,-3.11396 -7.314357 -0.07218872,-3.566347 -6.689332 -0.4608372,-3.794625 -7.140766 -0.6042744,-3.806639 -7.57266 -0.6108554,-2.91871 -7.418043 -0.2613531,-3.424622 -6.86293 -0.7278838,-3.658298 -7.320529 -0.8135725,-3.669135 -7.827881 -0.7704282,-2.818573 -7.637146 -0.4904359,-3.306911 -7.143299 -0.9125987,-3.527996 -7.522441 -0.887302,-3.533181 -7.972546 -0.7470639,-2.783652 -7.898597 -0.6977367,-3.159872 -7.528903 -1.022047,-3.37241 -7.735982 -1.042158,-3.424414 -8.045862 -1.008234,-48 -50 0,-48 -50 0,-48 -50 0,-48 -50 0,-48 -50 0,-48 -50 0,-48 -50 0,-48 -50 0,-48 -50 0,-48 -50 0,-48 -50 0,-48 -50 0,-48 -50 0,-48 -50 0,-48 -50 0,-48 -50 0,-48 -50 0,-48 -50 0,-48 -50 0,-48 -50 0,-48 -50 0,1.11667,1 0 0 0 0 0 True
-2.927371 -9.868332 0.0008142804,-3.466999 -8.992405 0.07600302,-3.657025 -8.092489 -0.009635068,-3.702581 -7.362363 -0.1975676,-3.699548 -6.922967 -0.3860773,-3.11396 -7.314357 -0.07218872,-3.566347 -6.689332 -0.4608372,-3.794625 -7.140766 -0.6042744,-3.806639 -7.57266 -0.6108554,-2.91871 -7.418043 -0.2613531,-3.424622 -6.86293 -0.7278838,-3.658298 -7.320529 -0.8135725,-3.669135 -7.827881 -0.7704282,-2.818573 -7.637146 -0.4904359,-3.306911 -7.143299 -0.9125987,-3.527996 -7.522441 -0.887302,-3.533181 -7.972546 -0.7470639,-2.783652 -7.898597 -0.6977367,-3.159872 -7.528903 -1.022047,-3.37241 -7.735982 -1.042158,-3.424414 -8.045862 -1.008234,-48 -50 0,-48 -50 0,-48 -50 0,-48 -50 0,-48 -50 0,-48 -50 0,-48 -50 0,-48 -50 0,-48 -50 0,-48 -50 0,-48 -50 0,-48 -50 0,-48 -50 0,-48 -50 0,-48 -50 0,-48 -50 0,-48 -50 0,-48 -50 0,-48 -50 0,-48 -50 0,-48 -50 0,1.15000,1 0 0 0 0 0 True
-2.927371 -9.868332 0.0008142804,-3.466999 -8.992405 0.07600302,-3.657025 -8.092489 -0.009635068,-3.702581 -7.362363 -0.1975676,-3.699548 -6.922967 -0.3860773,-3.11396 -7.314357 -0.07218872,-3.566347 -6.689332 -0.4608372,-3.794625 -7.140766 -0.6042744,-3.806639 -7.57266 -0.6108554,-2.91871 -7.418043 -0.2613531,-3.424622 -6.86293 -0.7278838,-3.658298 -7.320529 -0.8135725,-3.669135 -7.827881 -0.7704282,-2.818573 -7.637146 -0.4904359,-3.306911 -7.143299 -0.9125987,-3.527996 -7.522441 -0.887302,-3.533181 -7.972546 -0.7470639,-2.783652 -7.898597 -0.6977367,-3.159872 -7.528903 -1.022047,-3.37241 -7.735982 -1.042158,-3.424414 -8.045862 -1.008234,-48 -50 0,-48 -50 0,-48 -50 0,-48 -50 0,-48 -50 0,-48 -50 0,-48 -50 0,-48 -50 0,-48 -50 0,-48 -50 0,-48 -50 0,-48 -50 0,-48 -50 0,-48 -50 0,-48 -50 0,-48 -50 0,-48 -50 0,-48 -50 0,-48 -50 0,-48 -50 0,-48 -50 0,1.18333,1 0 0 0 0 0 True
-2.927371 -9.868332 0.0008142804,-3.466999 -8.992405 0.07600302,-3.657025 -8.092489 -0.009635068,-3.702581 -7.362363 -0.1975676,-3.699548 -6.922967 -0.3860773,-3.11396 -7.314357 -0.07218872,-3.566347 -6.689332 -0.4608372,-3.794625 -7.140766 -0.6042744,-3.806639 -7.57266 -0.6108554,-2.91871 -7.418043 -0.2613531,-3.424622 -6.86293 -0.7278838,-3.658298 -7.320529 -0.8135725,-3.669135 -7.827881 -0.7704282,-2.818573 -7.637146 -0.4904359,-3.306911 -7.143299 -0.9125987,-3.527996 -7.522441 -0.887302,-3.533181 -7.972546 -0.7470639,-2.783652 -7.898597 -0.6977367,-3.159872 -7.528903 -1.022047,-3.37241 -7.735982 -1.042158,-3.424414 -8.045862 -1.008234,-48 -50 0,-48 -50 0,-48 -50 0,-48 -50 0,-48 -50 0,-48 -50 0,-48 -50 0,-48 -50 0,-48 -50 0,-48 -50 0,-48 -50 0,-48 -50 0,-48 -50 0,-48 -50 0,-48 -50 0,-48 -50 0,-48 -50 0,-48 -50 0,-48 -50 0,-48 -50 0,-48 -50 0,1.21667,1 0 0 0 0 0 True
-2.927371 -9.868332 0.0008142804,-3.466999 -8.992405 0.07600302,-3.657025 -8.092489 -0.009635068,-3.702581 -7.362363 -0.1975676,-3.699548 -6.922967 -0.3860773,-3.11396 -7.314357 -0.07218872,-3.566347 -6.689332 -0.4608372,-3.794625 -7.140766 -0.6042744,-3.806639 -7.57266 -0.6108554,-2.91871 -7.418043 -0.2613531,-3.424622 -6.86293 -0.7278838,-3.658298 -7.320529 -0.8135725,-3.669135 -7.827881 -0.7704282,-2.818573 -7.637146 -0.4904359,-3.306911 -7.143299 -0.9125987,-3.527996 -7.522441 -0.887302,-3.533181 -7.972546 -0.7470639,-2.783652 -7.898597 -0.6977367,-3.159872 -7.528903 -1.022047,-3.37241 -7.735982 -1.042158,-3.424414 -8.045862 -1.008234,-48 -50 0,-48 -50 0,-48 -50 0,-48 -50 0,-48 -50 0,-48 -50 0,-48 -50 0,-48 -50 0,-48 -50 0,-48 -50 0,-48 -50 0,-48 -50 0,-48 -50 0,-48 -50 0,-48 -50 0,-48 -50 0,-48 -50 0,-48 -50 0,-48 -50 0,-48 -50 0,-48 -50 0,1.25000,1 0 0 0 0 0 True
-2.927371 -9.868332 0.0008142804,-3.466999 -8.992405 0.07600302,-3.657025 -8.092489 -0.009635068,-3.702581 -7.362363 -0.1975676,-3.699548 -6.922967 -0.3860773,-3.11396 -7.314357 -0.07218872,-3.566347 -6.689332 -0.4608372,-3.794625 -7.140766 -0.6042744,-3.806639 -7.57266 -0.6108554,-2.91871 -7.418043 -0.2613531,-3.424622 -6.86293 -0.7278838,-3.658298 -7.320529 -0.8135725,-3.669135 -7.827881 -0.7704282,-2.818573 -7.637146 -0.4904359,-3.306911 -7.143299 -0.9125987,-3.527996 -7.522441 -0.887302,-3.533181 -7.972546 -0.7470639,-2.783652 -7.898597 -0.6977367,-3.159872 -7.528903 -1.022047,-3.37241 -7.735982 -1.042158,-3.424414 -8.045862 -1.008234,-48 -50 0,-48 -50 0,-48 -50 0,-48 -50 0,-48 -50 0,-48 -50 0,-48 -50 0,-48 -50 0,-48 -50 0,-48 -50 0,-48 -50 0,-48 -50 0,-48 -50 0,-48 -50 0,-48 -50 0,-48 -50 0,-48 -50 0,-48 -50 0,-48 -50 0,-48 -50 0,-48 -50 0,1.28333,1 0 0 0 0 0 True
-2.927371 -9.868332 0.0008142804,-3.466999 -8.992405 0.07600302,-3.657025 -8.092489 -0.009635068,-3.702581 -7.362363 -0.1975676,-3.699548 -6.922967 -0.3860773,-3.11396 -7.314357 -0.07218872,-3.566347 -6.689332 -0.4608372,-3.794625 -7.140766 -0.6042744,-3.806639 -7.57266 -0.6108554,-2.91871 -7.418043 -0.2613531,-3.424622 -6.86293 -0.7278838,-3.658298 -7.320529 -0.8135725,-3.669135 -7.827881 -0.7704282,-2.818573 -7.637146 -0.4904359,-3.306911 -7.143299 -0.9125987,-3.527996 -7.522441 -0.887302,-3.533181 -7.972546 -0.7470639,-2.783652 -7.898597 -0.6977367,-3.159872 -7.528903 -1.022047,-3.37241 -7.735982 -1.042158,-3.424414 -8.045862 -1.008234,-48 -50 0,-48 -50 0,-48 -50 0,-48 -50 0,-48 -50 0,-48 -50 0,-48 -50 0,-48 -50 0,-48 -50 0,-48 -50 0,-48 -50 0,-48 -50 0,-48 -50 0,-48 -50 0,-48 -50 0,-48 -50 0,-48 -50 0,-48 -50 0,-48 -50 0,-48 -50 0,-48 -50 0,1.31667,1 0 0 0 0 0 True
-2.927371 -9.868332 0.0008142804,-3.466999 -8.992405 0.07600302,-3.657025 -8.092489 -0.009635068,-3.702581 -7.362363 -0.1975676,-3.699548 -6.922967 -0.3860773,-3.11396 -7.314357 -0.07218872,-3.566347 -6.689332 -0.4608372,-3.794625 -7.140766 -0.6042744,-3.806639 -7.57266 -0.6108554,-2.91871 -7.418043 -0.2613531,-3.424622 -6.86293 -0.7278838,-3.658298 -7.320529 -0.8135725,-3.669135 -7.827881 -0.7704282,-2.818573 -7.637146 -0.4904359,-3.306911 -7.143299 -0.9125987,-3.527996 -7.522441 -0.887302,-3.533181 -7.972546 -0.7470639,-2.783652 -7.898597 -0.6977367,-3.159872 -7.528903 -1.022047,-3.37241 -7.735982 -1.042158,-3.424414 -8.045862 -1.008234,-48 -50 0,-48 -50 0,-48 -50 0,-48 -50 0,-48 -50 0,-48 -50 0,-48 -50 0,-48 -50 0,-48 -50 0,-48 -50 0,-48 -50 0,-48 -50 0,-48 -50 0,-48 -50 0,-48 -50 0,-48 -50 0,-48 -50 0,-48 -50 0,-48 -50 0,-48 -50 0,-48 -50 0,1.35000,1 0 0 0 1 1 True
-2.927371 -9.868332 0.0008142804,-3.466999 -8.992405 0.07600302,-3.657025 -8.092489 -0.009635068,-3.702581 -7.362363 -0.1975676,-3.699548 -6.922967 -0.3860773,-3.11396 -7.314357 -0.07218872,-3.566347 -6.689332 -0.4608372,-3.794625 -7.140766 -0.6042744,-3.806639 -7.57266 -0.6108554,-2.91871 -7.418043 -0.2613531,-3.424622 -6.86293 -0.7278838,-3.658298 -7.320529 -0.8135725,-3.669135 -7.827881 -0.7704282,-2.818573 -7.637146 -0.4904359,-3.306911 -7.143299 -0.9125987,-3.527996 -7.522441 -0.887302,-3.533181 -7.972546 -0.7470639,-2.783652 -7.898597 -0.6977367,-3.159872 -7.528903 -1.022047,-3.37241 -7.735982 -1.042158,-3.424414 -8.045862 -1.008234,-48 -50 0,-48 -50 0,-48 -50 0,-48 -50 0,-48 -50 0,-48 -50 0,-48 -50 0,-48 -50 0,-48 -50 0,-48 -50 0,-48 -50 0,-48 -50 0,-48 -50 0,-48 -50 0,-48 -50 0,-48 -50 0,-48 -50 0,-48 -50 0,-48 -50 0,-48 -50 0,-48 -50 0,1.38333,0 0 0 0 1 1 False
-2.927371 -9.868332 0.0008142804,-3.466999 -8.992405 0.07600302,-3.657025 -8.092489 -0.009635068,-3.702581 -7.362363 -0.1975676,-3.699548 -6.922967 -0.3860773,-3.11396 -7.314357 -0.07218872,-3.566347 -6.689332 -0.4608372,-3.794625 -7.140766 -0.6042744,-3.806639 -7.57266 -0.6108554,-2.91871 -7.418043 -0.2613531,-3.424622 -6.86293 -0.7278838,-3.658298 -7.320529 -0.8135725,-3.669135 -7.827881 -0.7704282,-2.818573 -7.637146 -0.4904359,-3.306911 -7.143299 -0.9125987,-3.527996 -7.522441 -0.887302,-3.533181 -7.972546 -0.7470639,-2.783652 -7.898597 -0.6977367,-3.159872 -7.528903 -1.022047,-3.37241 -7.735982 -1.042158,-3.424414 -8.045862 -1.008234,-48 -50 0,-48 -50 0,-48 -50 0,-48 -50 0,-48 -50 0,-48 -50 0,-48 -50 0,-48 -50 0,-48 -50 0,-48 -50 0,-48 -50 0,-48 -50 0,-48 -50 0,-48 -50 0,-48 -50 0,-48 -50 0,-48 -50 0,-48 -50 0,-48 -50 0,-48 -50 0,-48 -50 0,1.41667,0 0 0 0 1 1 False
-2.927371 -9.868332 0.0008142804,-3.466999 -8.992405 0.07600302,-3.657025 -8.092489 -0.009635068,-3.702581 -7.362363 -0.1975676,-3.699548 -6.922967 -0.3860773,-3.11396 -7.314357 -0.07218872,-3.566347 -6.689332 -0.4608372,-3.794625 -7.140766 -0.6042744,-3.806639 -7.57266 -0.6108554,-2.91871 -7.418043 -0.2613531,-3.424622 -6.86293 -0.7278838,-3.658298 -7.320529 -0.8135725,-3.669135 -7.827881 -0.7704282,-2.818573 -7.637146 -0.4904359,-3.306911 -7.143299 -0.9125987,-3.527996 -7.522441 -0.887302,-3.533181 -7.972546 -0.7470639,-2.783652 -7.898597 -0.6977367,-3.159872 -7.528903 -1.022047,-3.37241 -7.735982 -1.042158,-3.424414 -8.045862 -1.008234,-48 -50 0,-48 -50 0,-48 -50 0,-48 -50 0,-48 -50 0,-48 -50 0,-48 -50 0,-48 -50 0,-48 -50 0,-48 -50 0,-48 -50 0,-48 -50 0,-48 -50 0,-48 -50 0,-48 -50 0,-48 -50 0,-48 -50 0,-48 -50 0,-48 -50 0,-48 -50 0,-48 -50 0,1.45000,0 0 0 0 1 1 False
-2.927371 -9.868332 0.0008142804,-3.466999 -8.992405 0.07600302,-3.657025 -8.092489 -0.009635068,-3.702581 -7.362363 -0.1975676,-3.699548 -6.922967 -0.3860773,-3.11396 -7.314357 -0.07218872,-3.566347 -6.689332 -0.4608372,-3.794625 -7.140766 -0.6042744,-3.806639 -7.57266 -0.6108554,-2.91871 -7.418043 -0.2613531,-3.424622 -6.86293 -0.7278838,-3.658298 -7.320529 -0.8135725,-3.669135 -7.827881 -0.7704282,-2.818573 -7.637146 -0.4904359,-3.306911 -7.143299 -0.9125987,-3.527996 -7.522441 -0.887302,-3.533181 -7.972546 -0.7470639,-2.783652 -7.898597 -0.6977367,-3.159872 -7.528903 -1.022047,-3.37241 -7.735982 -1.042158,-3.424414 -8.045862 -1.008234,-48 -50 0,-48 -50 0,-48 -50 0,-48 -50 0,-48 -50 0,-48 -50 0,-48 -50 0,-48 -50 0,-48 -50 0,-48 -50 0,-48 -50 0,-48 -50 0,-48 -50 0,-48 -50 0,-48 -50 0,-48 -50 0,-48 -50 0,-48 -50 0,-48 -50 0,-48 -50 0,-48 -50 0,1.48333,0 0 0 0 1 1 False
-2.927371 -9.868332 0.0008142804,-3.466999 -8.992405 0.07600302,-3.657025 -8.092489 -0.009635068,-3.702581 -7.362363 -0.1975676,-3.699548 -6.922967 -0.3860773,-3.11396 -7.314357 -0.07218872,-3.566347 -6.689332 -0.4608372,-3.794625 -7.140766 -0.6042744,-3.806639 -7.57266 -0.6108554,-2.91871 -7.418043 -0.2613531,-3.424622 -6.86293 -0.7278838,-3.658298 -7.320529 -0.8135725,-3.669135 -7.827881 -0.7704282,-2.818573 -7.637146 -0.4904359,-3.306911 -7.143299 -0.9125987,-3.527996 -7.522441 -0.887302,-3.533181 -7.972546 -0.7470639,-2.783652 -7.898597 -0.6977367,-3.159872 -7.528903 -1.022047,-3.37241 -7.735982 -1.042158,-3.424414 -8.045862 -1.008234,-48 -50 0,-48 -50 0,-48 -50 0,-48 -50 0,-48 -50 0,-48 -50 0,-48 -50 0,-48 -50 0,-48 -50 0,-48 -50 0,-48 -50 0,-48 -50 0,-48 -50 0,-48 -50 0,-48 -50 0,-48 -50 0,-48 -50 0,-48 -50 0,-48 -50 0,-48 -50 0,-48 -50 0,1.51667,0 0 0 0 1 1 False
-2.927371 -9.868332 0.0008142804,-3.466999 -8.992405 0.07600302,-3.657025 -8.092489 -0.009635068,-3.702581 -7.362363 -0.1975676,-3.699548 -6.922967 -0.3860773,-3.11396 -7.314357 -0.07218872,-3.566347 -6.689332 -0.4608372,-3.794625 -7.140766 -0.6042744,-3.806639 -7.57266 -0.6108554,-2.91871 -7.418043 -0.2613531,-3.424622 -6.86293 -0.7278838,-3.658298 -7.320529 -0.8135725,-3.669135 -7.827881 -0.7704282,-2.818573 -7.637146 -0.4904359,-3.306911 -7.143299 -0.9125987,-3.527996 -7.522441 -0.887302,-3.533181 -7.972546 -0.7470639,-2.783652 -7.898597 -0.6977367,-3.159872 -7.528903 -1.022047,-3.37241 -7.735982 -1.042158,-3.424414 -8.045862 -1.008234,-48 -50 0,-48 -50 0,-48 -50 0,-48 -50 0,-48 -50 0,-48 -50 0,-48 -50 0,-48 -50 0,-48 -50 0,-48 -50 0,-48 -50 0,-48 -50 0,-48 -50 0,-48 -50 0,-48 -50 0,-48 -50 0,-48 -50 0,-48 -50 0,-48 -50 0,-48 -50 0,-48 -50 0,1.55000,0 0 0 0 1 1 False
-2.927371 -9.868332 0.0008142804,-3.466999 -8.992405 0.07600302,-3.657025 -8.092489 -0.009635068,-3.702581 -7.362363 -0.1975676,-3.699548 -6.922967 -0.3860773,-3.11396 -7.314357 -0.07218872,-3.566347 -6.689332 -0.4608372,-3.794625 -7.140766 -0.6042744,-3.806639 -7.57266 -0.6108554,-2.91871 -7.418043 -0.2613531,-3.424622 -6.86293 -0.7278838,-3.658298 -7.320529 -0.8135725,-3.669135 -7.827881 -0.7704282,-2.818573 -7.637146 -0.4904359,-3.306911 -7.143299 -0.9125987,-3.527996 -7.522441 -0.887302,-3.533181 -7.972546 -0.7470639,-2.783652 -7.898597 -0.6977367,-3.159872 -7.528903 -1.022047,-3.37241 -7.735982 -1.042158,-3.424414 -8.045862 -1.008234,-48 -50 0,-48 -50 0,-48 -50 0,-48 -50 0,-48 -50 0,-48 -50 0,-48 -50 0,-48 -50 0,-48 -50 0,-48 -50 0,-48 -50 0,-48 -50 0,-48 -50 0,-48 -50 0,-48 -50 0,-48 -50 0,-48 -50 0,-48 -50 0,-48 -50 0,-48 -50 0,-48 -50 0,1.58333,0 0 0 0 1 1 False
-2.927371 -9.868332 0.0008142804,-3.466999 -8.992405 0.07600302,-3.657025 -8.092489 -0.009635068,-3.702581 -7.362363 -0.1975676,-3.699548 -6.922967 -0.3860773,-3.11396 -7.314357 -0.07218872,-3.566347 -6.689332 -0.4608372,-3.794625 -7.140766 -0.6042744,-3.806639 -7.57266 -0.6108554,-2.91871 -7.418043 -0.2613531,-3.424622 -6.86293 -0.7278838,-3.658298 -7.320529 -0.8135725,-3.669135 -7.827881 -0.7704282,-2.818573 -7.637146 -0.4904359,-3.306911 -7.143299 -0.9125987,-3.527996 -7.522441 -0.887302,-3.533181 -7.972546 -0.7470639,-2.783652 -7.898597 -0.6977367,-3.159872 -7.528903 -1.022047,-3.37241 -7.735982 -1.042158,-3.424414 -8.045862 -1.008234,-48 -50 0,-48 -50 0,-48 -50 0,-48 -50 0,-48 -50 0,-48 -50 0,-48 -50 0,-48 -50 0,-48 -50 0,-48 -50 0,-48 -50 0,-48 -50 0,-48 -50 0,-48 -50 0,-48 -50 0,-48 -50 0,-48 -50 0,-48 -50 0,-48 -50 0,-48 -50 0,-48 -50 0,1.61667,0 0 0 0 1 1 False
-2.927371 -9.868332 0.0008142804,-3.466999 -8.992405 0.07600302,-3.657025 -8.092489 -0.009635068,-3.702581 -7.362363 -0.1975676,-3.699548 -6.922967 -0.3860773,-3.11396 -7.314357 -0.07218872,-3.566347 -6.689332 -0.4608372,-3.794625 -7.140766 -0.6042744,-3.806639 -7.57266 -0.6108554,-2.91871 -7.418043 -0.2613531,-3.424622 -6.86293 -0.7278838,-3.658298 -7.320529 -0.8135725,-3.669135 -7.827881 -0.7704282,-2.818573 -7.637146 -0.4904359,-3.306911 -7.143299 -0.9125987,-3.527996 -7.522441 -0.887302,-3.533181 -7.972546 -0.7470639,-2.783652 -7.898597 -0.6977367,-3.159872 -7.528903 -1.022047,-3.37241 -7.735982 -1.042158,-3.424414 -8.045862 -1.008234,-48 -50 0,-48 -50 0,-48 -50 0,-48 -50 0,-48 -50 0,-48 -50 0,-48 -50 0,-48 -50 0,-48 -50 0,-48 -50 0,-48 -50 0,-48 -50 0,-48 -50 0,-48 -50 0,-48 -50 0,-48 -50 0,-48 -50 0,-48 -50 0,-48 -50 0,-48 -50 0,-48 -50 0,1.65000,0 0 0 0 1 1 False
-2.927371 -9.868332 0.0008142804,-3.466999 -8.992405 0.07600302,-3.657025 -8.092489 -0.009635068,-3.702581 -7.362363 -0.1975676,-3.699548 -6.922967 -0.3860773,-3.11396 -7.314357 -0.07218872,-3.566347 -6.689332 -0.4608372,-3.794625 -7.140766 -0.6042744,-3.806639 -7.57266 -0.6108554,-2.91871 -7.418043 -0.2613531,-3.424622 -6.86293 -0.7278838,-3.658298 -7.320529 -0.8135725,-3.669135 -7.827881 -0.7704282,-2.818573 -7.637146 -0.4904359,-3.306911 -7.143299 -0.9125987,-3.527996 -7.522441 -0.887302,-3.533181 -7.972546 -0.7470639,-2.783652 -7.898597 -0.6977367,-3.159872 -7.528903 -1.022047,-3.37241 -7.735982 -1.042158,-3.424414 -8.045862 -1.008234,-48 -50 0,-48 -50 0,-48 -50 0,-48 -50 0,-48 -50 0,-48 -50 0,-48 -50 0,-48 -50 0,-48 -50 0,-48 -50 0,-48 -50 0,-48 -50 0,-48 -50 0,-48 -50 0,-48 -50 0,-48 -50 0,-48 -50 0,-48 -50 0,-48 -50 0,-48 -50 0,-48 -50 0,1.68333,0 0 0 0 1 1 False
-2.927371 -9.868332 0.0008142804,-3.466999 -8.992405 0.07600302,-3.657025 -8.092489 -0.009635068,-3.702581 -7.362363 -0.1975676,-3.699548 -6.922967 -0.3860773,-3.11396 -7.314357 -0.07218872,-3.566347 -6.689332 -0.4608372,-3.794625 -7.140766 -0.6042744,-3.806639 -7.57266 -0.6108554,-2.91871 -7.418043 -0.2613531,-3.424622 -6.86293 -0.7278838,-3.658298 -7.320529 -0.8135725,-3.669135 -7.827881 -0.7704282,-2.818573 -7.637146 -0.4904359,-3.306911 -7.143299 -0.9125987,-3.527996 -7.522441 -0.887302,-3.533181 -7.972546 -0.7470639,-2.783652 -7.898597 -0.6977367,-3.159872 -7.528903 -1.022047,-3.37241 -7.735982 -1.042158,-3.424414 -8.045862 -1.008234,-48 -50 0,-48 -50 0,-48 -50 0,-48 -50 0,-48 -50 0,-48 -50 0,-48 -50 0,-48 -50 0,-48 -50 0,-48 -50 0,-48 -50 0,-48 -50 0,-48 -50 0,-48 -50 0,-48 -50 0,-48 -50 0,-48 -50 0,-48 -50 0,-48 -50 0,-48 -50 0,-48 -50 0,1.71667,0 0 0 0 1 1 False
-2.927371 -9.868332 0.0008142804,-3.466999 -8.992405 0.07600302,-3.657025 -8.092489 -0.009635068,-3.702581 -7.362363 -0.1975676,-3.699548 -6.922967 -0.3860773,-3.11396 -7.314357 -0.07218872,-3.566347 -6.689332 -0.4608372,-3.794625 -7.140766 -0.6042744,-3.806639 -7.57266 -0.6108554,-2.91871 -7.418043 -0.2613531,-3.424622 -6.86293 -0.7278838,-3.658298 -7.320529 -0.8135725,-3.669135 -7.827881 -0.7704282,-2.818573 -7.637146 -0.4904359,-3.306911 -7.143299 -0.9125987,-3.527996 -7.522441 -0.887302,-3.533181 -7.972546 -0.7470639,-2.783652 -7.898597 -0.6977367,-3.159872 -7.528903 -1.022047,-3.37241 -7.735982 -1.042158,-3.424414 -8.045862 -1.008234,-48 -50 0,-48 -50 0,-48 -50 0,-48 -50 0,-48 -50 0,-48 -50 0,-48 -50 0,-48 -50 0,-48 -50 0,-48 -50 0,-48 -50 0,-48 -50 0,-48 -50 0,-48 -50 0,-48 -50 0,-48 -50 0,-48 -50 0,-48 -50 0,-48 -50 0,-48 -50 0,-48 -50 0,1.75000,0 0 0 0 1 1 False
-2.927371 -9.868332 0.0008142804,-3.466999 -8.992405 0.07600302,-3.657025 -8.092489 -0.009635068,-3.702581 -7.362363 -0.1975676,-3.699548 -6.922967 -0.3860773,-3.11396 -7.314357 -0.07218872,-3.566347 -6.689332 -0.4608372,-3.794625 -7.140766 -0.6042744,-3.806639 -7.57266 -0.6108554,-2.91871 -7.418043 -0.2613531,-3.424622 -6.86293 -0.7278838,-3.658298 -7.320529 -0.8135725,-3.669135 -7.827881 -0.7704282,-2.818573 -7.637146 -0.4904359,-3.306911 -7.143299 -0.9125987,-3.527996 -7.522441 -0.887302,-3.533181 -7.972546 -0.7470639,-2.783652 -7.898597 -0.6977367,-3.159872 -7.528903 -1.022047,-3.37241 -7.735982 -1.042158,-3.424414 -8.045862 -1.008234,-48 -50 0,-48 -50 0,-48 -50 0,-48 -50 0,-48 -50 0,-48 -50 0,-48 -50 0,-48 -50 0,-48 -50 0,-48 -50 0,-48 -50 0,-48 -50 0,-48 -50 0,-48 -50 0,-48 -50 0,-48 -50 0,-48 -50 0,-48 -50 0,-48 -50 0,-48 -50 0,-48 -50 0,1.78333,0 0 0 0 1 1 False
-2.927371 -9.868332 0.0008142804,-3.466999 -8.992405 0.07600302,-3.657025 -8.092489 -0.009635068,-3.702581 -7.362363 -0.1975676,-3.699548 -6.922967 -0.3860773,-3.11396 -7.314357 -0.07218872,-3.566347 -6.689332 -0.4608372,-3.794625 -7.140766 -0.6042744,-3.806639 -7.57266 -0.6108554,-2.91871 -7.418043 -0.2613531,-3.424622 -6.86293 -0.7278838,-3.658298 -7.320529 -0.8135725,-3.669135 -7.827881 -0.7704282,-2.818573 -7.637146 -0.4904359,-3.306911 -7.143299 -0.9125987,-3.527996 -7.522441 -0.887302,-3.533181 -7.972546 -0.7470639,-2.783652 -7.898597 -0.6977367,-3.159872 -7.528903 -1.022047,-3.37241 -7.735982 -1.042158,-3.424414 -8.045862 -1.008234,-48 -50 0,-48 -50 0,-48 -50 0,-48 -50 0,-48 -50 0,-48 -50 0,-48 -50 0,-48 -50 0,-48 -50 0,-48 -50 0,-48 -50 0,-48 -50 0,-48 -50 0,-48 -50 0,-48 -50 0,-48 -50 0,-48 -50 0,-48 -50 0,-48 -50 0,-48 -50 0,-48 -50 0,1.81667,0 0 0 0 1 1 False
-2.927371 -9.868332 0.0008142804,-3.466999 -8.992405 0.07600302,-3.657025 -8.092489 -0.009635068,-3.702581 -7.362363 -0.1975676,-3.699548 -6.922967 -0.3860773,-3.11396 -7.314357 -0.07218872,-3.566347 -6.689332 -0.4608372,-3.794625 -7.140766 -0.6042744,-3.806639 -7.57266 -0.6108554,-2.91871 -7.418043 -0.2613531,-3.424622 -6.86293 -0.7278838,-3.658298 -7.320529 -0.8135725,-3.669135 -7.827881 -0.7704282,-2.818573 -7.637146 -0.4904359,-3.306911 -7.143299 -0.9125987,-3.527996 -7.522441 -0.887302,-3.533181 -7.972546 -0.7470639,-2.783652 -7.898597 -0.6977367,-3.159872 -7.528903 -1.022047,-3.37241 -7.735982 -1.042158,-3.424414 -8.045862 -1.008234,-48 -50 0,-48 -50 0,-48 -50 0,-48 -50 0,-48 -50 0,-48 -50 0,-48 -50 0,-48 -50 0,-48 -50 0,-48 -50 0,-48 -50 0,-48 -50 0,-48 -50 0,-48 -50 0,-48 -50 0,-48 -50 0,-48 -50 0,-48 -50 0,-48 -50 0,-48 -50 0,-48 -50 0,1.85000,0 0 0 0 1 1 False
-2.927371 -9.868332 0.0008142804,-3.466999 -8.992405 0.07600302,-3.657025 -8.092489 -0.009635068,-3.702581 -7.362363 -0.1975676,-3.699548 -6.922967 -0.3860773,-3.11396 -7.314357 -0.07218872,-3.566347 -6.689332 -0.4608372,-3.794625 -7.140766 -0.6042744,-3.806639 -7.57266 -0.6108554,-2.91871 -7.418043 -0.2613531,-3.424622 -6.86293 -0.7278838,-3.658298 -7.320529 -0.8135725,-3.669135 -7.827881 -0.7704282,-2.818573 -7.637146 -0.4904359,-3.306911 -7.143299 -0.9125987,-3.527996 -7.522441 -0.887302,-3.533181 -7.972546 -0.7470639,-2.783652 -7.898597 -0.6977367,-3.159872 -7.528903 -1.022047,-3.37241 -7.735982 -1.042158,-3.424414 -8.045862 -1.008234,-48 -50 0,-48 -50 0,-48 -50 0,-48 -50 0,-48 -50 0,-48 -50 0,-48 -50 0,-48 -50 0,-48 -50 0,-48 -50 0,-48 -50 0,-48 -50 0,-48 -50 0,-48 -50 0,-48 -50 0,-48 -50 0,-48 -50 0,-48 -50 0,-48 -50 0,-48 -50 0,-48 -50 0,1.88333,0 0 0 0 1 1 False
-2.927371 -9.868332 0.0008142804,-3.466999 -8.992405 0.07600302,-3.657025 -8.092489 -0.009635068,-3.702581 -7.362363 -0.1975676,-3.699548 -6.922967 -0.3860773,-3.11396 -7.314357 -0.07218872,-3.566347 -6.689332 -0.4608372,-3.794625 -7.140766 -0.6042744,-3.806639 -7.57266 -0.6108554,-2.91871 -7.418043 -0.2613531,-3.424622 -6.86293 -0.7278838,-3.658298 -7.320529 -0.8135725,-3.669135 -7.827881 -0.7704282,-2.818573 -7.637146 -0.4904359,-3.306911 -7.143299 -0.9125987,-3.527996 -7.522441 -0.887302,-3.533181 -7.972546 -0.7470639,-2.783652 -7.898597 -0.6977367,-3.159872 -7.528903 -1.022047,-3.37241 -7.735982 -1.042158,-3.424414 -8.045862 -1.008234,-48 -50 0,-48 -50 0,-48 -50 0,-48 -50 0,-48 -50 0,-48 -50 0,-48 -50 0,-48 -50 0,-48 -50 0,-48 -50 0,-48 -50 0,-48 -50 0,-48 -50 0,-48 -50 0,-48 -50 0,-48 -50 0,-48 -50 0,-48 -50 0,-48 -50 0,-48 -50 0,-48 -50 0,1.91667,0 1 0 1 1 2 True
-2.927371 -9.868332 0.0008142804,-3.466999 -8.992405 0.07600302,-3.657025 -8.092489 -0.009635068,-3.702581 -7.362363 -0.1975676,-3.699548 -6.922967 -0.3860773,-3.11396 -7.314357 -0.07218872,-3.566347 -6.689332 -0.4608372,-3.794625 -7.140766 -0.6042744,-3.806639 -7.57266 -0.6108554,-2.91871 -7.418043 -0.2613531,-3.424622 -6.86293 -0.7278838,-3.658298 -7.320529 -0.8135725,-3.669135 -7.827881 -0.7704282,-2.818573 -7.637146 -0.4904359,-3.306911 -7.143299 -0.9125987,-3.527996 -7.522441 -0.887302,-3.533181 -7.972546 -0.7470639,-2.783652 -7.898597 -0.6977367,-3.159872 -7.528903 -1.022047,-3.37241 -7.735982 -1.042158,-3.424414 -8.045862 -1.008234,-48 -50 0,-48 -50 0,-48 -50 0,-48 -50 0,-48 -50 0,-48 -50 0,-48 -50 0,-48 -50 0,-48 -50 0,-48 -50 0,-48 -50 0,-48 -50 0,-48 -50 0,-48 -50 0,-48 -50 0,-48 -50 0,-48 -50 0,-48 -50 0,-48 -50 0,-48 -50 0,-48 -50 0,1.95000,0 1 0 1 1 2 True
-2.927371 -9.868332 0.0008142804,-3.466999 -8.992405 0.07600302,-3.657025 -8.092489 -0.009635068,-3.702581 -7.362363 -0.1975676,-3.699548 -6.922967 -0.3860773,-3.11396 -7.314357 -0.07218872,-3.566347 -6.689332 -0.4608372,-3.794625 -7.140766 -0.6042744,-3.806639 -7.57266 -0.6108554,-2.91871 -7.418043 -0.2613531,-3.424622 -6.86293 -0.7278838,-3.658298 -7.320529 -0.8135725,-3.669135 -7.827881 -0.7704282,-2.818573 -7.637146 -0.4904359,-3.306911 -7.143299 -0.9125987,-3.527996 -7.522441 -0.887302,-3.533181 -7.972546 -0.7470639,-2.783652 -7.898597 -0.6977367,-3.159872 -7.528903 -1.022047,-3.37241 -7.735982 -1.042158,-3.424414 -8.045862 -1.008234,-48 -50 0,-48 -50 0,-48 -50 0,-48 -50 0,-48 -50 0,-48 -50 0,-48 -50 0,-48 -50 0,-48 -50 0,-48 -50 0,-48 -50 0,-48 -50 0,-48 -50 0,-48 -50 0,-48 -50 0,-48 -50 0,-48 -50 0,-48 -50 0,-48 -50 0,-48 -50 0,-48 -50 0,1.98333,0 1 0 1 1 2 True
-2.927371 -9.868332 0.0008142804,-3.466999 -8.992405 0.07600302,-3.657025 -8.092489 -0.009635068,-3.702581 -7.362363 -0.1975676,-3.699548 -6.922967 -0.3860773,-3.11396 -7.314357 -0.07218872,-3.566347 -6.689332 -0.4608372,-3.794625 -7.140766 -0.6042744,-3.806639 -7.57266 -0.6108554,-2.91871 -7.418043 -0.2613531,-3.424622 -6.86293 -0.7278838,-3.658298 -7.320529 -0.8135725,-3.669135 -7.827881 -0.7704282,-2.818573 -7.637146 -0.4904359,-3.306911 -7.143299 -0.9125987,-3.527996 -7.522441 -0.887302,-3.533181 -7.972546 -0.7470639,-2.783652 -7.898597 -0.6977367,-3.159872 -7.528903 -1.022047,-3.37241 -7.735982 -1.042158,-3.424414 -8.045862 -1.008234,-48 -50 0,-48 -50 0,-48 -50 0,-48 -50 0,-48 -50 0,-48 -50 0,-48 -50 0,-48 -50 0,-48 -50 0,-48 -50 0,-48 -50 0,-48 -50 0,-48 -50 0,-48 -50 0,-48 -50 0,-48 -50 0,-48 -50 0,-48 -50 0,-48 -50 0,-48 -50 0,-48 -50 0,2.01667,0 1 0 1 1 2 True
-2.927371 -9.868332 0.0008142804,-3.466999 -8.992405 0.07600302,-3.657025 -8.092489 -0.009635068,-3.702581 -7.362363 -0.1975676,-3.699548 -6.922967 -0.3860773,-3.11396 -7.314357 -0.07218872,-3.566347 -6.689332 -0.4608372,-3.794625 -7.140766 -0.6042744,-3.806639 -7.57266 -0.6108554,-2.91871 -7.418043 -0.2613531,-3.424622 -6.86293 -0.7278838,-3.658298 -7.320529 -0.8135725,-3.669135 -7.827881 -0.7704282,-2.818573 -7.637146 -0.4904359,-3.306911 -7.143299 -0.9125987,-3.527996 -7.522441 -0.887302,-3.533181 -7.972546 -0.7470639,-2.783652 -7.898597 -0.6977367,-3.159872 -7.528903 -1.022047,-3.37241 -7.735982 -1.042158,-3.424414 -8.045862 -1.008234,-48 -50 0,-48 -50 0,-48 -50 0,-48 -50 0,-48 -50 0,-48 -50 0,-48 -50 0,-48 -50 0,-48 -50 0,-48 -50 0,-48 -50 0,-48 -50 0,-48 -50 0,-48 -50 0,-48 -50 0,-48 -50 0,-48 -50 0,-48 -50 0,-48 -50 0,-48 -50 0,-48 -50 0,2.05000,0 1 0 1 1 2 True
-2.927371 -9.868332 0.0008142804,-3.466999 -8.992405 0.07600302,-3.657025 -8.092489 -0.009635068,-3.702581 -7.362363 -0.1975676,-3.699548 -6.922967 -0.3860773,-3.11396 -7.314357 -0.07218872,-3.566347 -6.689332 -0.4608372,-3.794625 -7.140766 -0.6042744,-3.806639 -7.57266 -0.6108554,-2.91871 -7.418043 -0.2613531,-3.424622 -6.86293 -0.7278838,-3.658298 -7.320529 -0.8135725,-3.669135 -7.827881 -0.7704282,-2.818573 -7.637146 -0.4904359,-3.306911 -7.143299 -0.9125987,-3.527996 -7.522441 -0.887302,-3.533181 -7.972546 -0.7470639,-2.783652 -7.898597 -0.6977367,-3.159872 -7.528903 -1.022047,-3.37241 -7.735982 -1.042158,-3.424414 -8.045862 -1.008234,-48 -50 0,-48 -50 0,-48 -50 0,-48 -50 0,-48 -50 0,-48 -50 0,-48 -50 0,-48 -50 0,-48 -50 0,-48 -50 0,-48 -50 0,-48 -50 0,-48 -50 0,-48 -50 0,-48 -50 0,-48 -50 0,-48 -50 0,-48 -50 0,-48 -50 0,-48 -50 0,-48 -50 0,2.08333,0 1 0 1 1 2 True
-2.927371 -9.868332 0.0008142804,-3.466999 -8.992405 0.07600302,-3.657025 -8.092489 -0.009635068,-3.702581 -7.362363 -0.1975676,-3.699548 -6.922967 -0.3860773,-3.11396 -7.314357 -0.07218872,-3.566347 -6.689332 -0.4608372,-3.794625 -7.140766 -0.6042744,-3.806639 -7.57266 -0.6108554,-2.91871 -7.418043 -0.2613531,-3.424622 -6.86293 -0.7278838,-3.658298 -7.320529 -0.8135725,-3.669135 -7.827881 -0.7704282,-2.818573 -7.637146 -0.4904359,-3.306911 -7.143299 -0.9125987,-3.527996 -7.522441 -0.887302,-3.533181 -7.972546 -0.7470639,-2.783652 -7.898597 -0.6977367,-3.159872 -7.528903 -1.022047,-3.37241 -7.735982 -1.042158,-3.424414 -8.045862 -1.008234,-48 -50 0,-48 -50 0,-48 -50 0,-48 -50 0,-48 -50 0,-48 -50 0,-48 -50 0,-48 -50 0,-48 -50 0,-48 -50 0,-48 -50 0,-48 -50 0,-48 -50 0,-48 -50 0,-48 -50 0,-48 -50 0,-48 -50 0,-48 -50 0,-48 -50 0,-48 -50 0,-48 -50 0,2.11667,0 1 0 1 1 2 True
-2.927371 -9.868332 0.0008142804,-3.466999 -8.992405 0.07600302,-3.657025 -8.092489 -0.009635068,-3.702581 -7.362363 -0.1975676,-3.699548 -6.922967 -0.3860773,-3.11396 -7.314357 -0.07218872,-3.566347 -6.689332 -0.4608372,-3.794625 -7.140766 -0.6042744,-3.806639 -7.57266 -0.6108554,-2.91871 -7.418043 -0.2613531,-3.424622 -6.86293 -0.7278838,-3.658298 -7.320529 -0.8135725,-3.669135 -7.827881 -0.7704282,-2.818573 -7.637146 -0.4904359,-3.306911 -7.143299 -0.9125987,-3.527996 -7.522441 -0.887302,-3.533181 -7.972546 -0.7470639,-2.783652 -7.898597 -0.6977367,-3.159872 -7.528903 -1.022047,-3.37241 -7.735982 -1.042158,-3.424414 -8.045862 -1.008234,-48 -50 0,-48 -50 0,-48 -50 0,-48 -50 0,-48 -50 0,-48 -50 0,-48 -50 0,-48 -50 0,-48 -50 0,-48 -50 0,-48 -50 0,-48 -50 0,-48 -50 0,-48 -50 0,-48 -50 0,-48 -50 0,-48 -50 0,-48 -50 0,-48 -50 0,-48 -50 0,-48 -50 0,2.15000,0 1 0 1 1 2 True
-2.927371 -9.868332 0.0008142804,-3.466999 -8.992405 0.07600302,-3.657025 -8.092489 -0.009635068,-3.702581 -7.362363 -0.1975676,-3.699548 -6.922967 -0.3860773,-3.11396 -7.314357 -0.07218872,-3.566347 -6.689332 -0.4608372,-3.794625 -7.140766 -0.6042744,-3.806639 -7.57266 -0.6108554,-2.91871 -7.418043 -0.2613531,-3.424622 -6.86293 -0.7278838,-3.658298 -7.320529 -0.8135725,-3.669135 -7.827881 -0.7704282,-2.818573 -7.637146 -0.4904359,-3.306911 -7.143299 -0.9125987,-3.527996 -7.522441 -0.887302,-3.533181 -7.972546 -0.7470639,-2.783652 -7.898597 -0.6977367,-3.159872 -7.528903 -1.022047,-3.37241 -7.735982 -1.042158,-3.424414 -8.045862 -1.008234,-48 -50 0,-48 -50 0,-48 -50 0,-48 -50 0,-48 -50 0,-48 -50 0,-48 -50 0,-48 -50 0,-48 -50 0,-48 -50 0,-48 -50 0,-48 -50 0,-48 -50 0,-48 -50 0,-48 -50 0,-48 -50 0,-48 -50 0,-48 -50 0,-48 -50 0,-48 -50 0,-48 -50 0,2.18333,0 1 0 1 1 2 True
-2.927371 -9.868332 0.0008142804,-3.466999 -8.992405 0.07600302,-3.657025 -8.092489 -0.009635068,-3.702581 -7.362363 -0.1975676,-3.699548 -6.922967 -0.3860773,-3.11396 -7.314357 -0.07218872,-3.566347 -6.689332 -0.4608372,-3.794625 -7.140766 -0.6042744,-3.806639 -7.57266 -0.6108554,-2.91871 -7.418043 -0.2613531,-3.424622 -6.86293 -0.7278838,-3.658298 -7.320529 -0.8135725,-3.669135 -7.827881 -0.7704282,-2.818573 -7.637146 -0.4904359,-3.306911 -7.143299 -0.9125987,-3.527996 -7.522441 -0.887302,-3.533181 -7.972546 -0.7470639,-2.783652 -7.898597 -0.6977367,-3.159872 -7.528903 -1.022047,-3.37241 -7.735982 -1.042158,-3.424414 -8.045862 -1.008234,-48 -50 0,-48 -50 0,-48 -50 0,-48 -50 0,-48 -50 0,-48 -50 0,-48 -50 0,-48 -50 0,-48 -50 0,-48 -50 0,-48 -50 0,-48 -50 0,-48 -50 0,-48 -50 0,-48 -50 0,-48 -50 0,-48 -50 0,-48 -50 0,-48 -50 0,-48 -50 0,-48 -50 0,2.21667,0 1 0 1 1 2 True
-2.927371 -9.868332 0.0008142804,-3.466999 -8.992405 0.07600302,-3.657025 -8.092489 -0.009635068,-3.702581 -7.362363 -0.1975676,-3.699548 -6.922967 -0.3860773,-3.11396 -7.314357 -0.07218872,-3.566347 -6.689332 -0.4608372,-3.794625 -7.140766 -0.6042744,-3.806639 -7.57266 -0.6108554,-2.91871 -7.418043 -0.2613531,-3.424622 -6.86293 -0.7278838,-3.658298 -7.320529 -0.8135725,-3.669135 -7.827881 -0.7704282,-2.818573 -7.637146 -0.4904359,-3.306911 -7.143299 -0.9125987,-3.527996 -7.522441 -0.887302,-3.533181 -7.972546 -0.7470639,-2.783652 -7.898597 -0.6977367,-3.159872 -7.528903 -1.022047,-3.37241 -7.735982 -1.042158,-3.424414 -8.045862 -1.008234,-48 -50 0,-48 -50 0,-48 -50 0,-48 -50 0,-48 -50 0,-48 -50 0,-48 -50 0,-48 -50 0,-48 -50 0,-48 -50 0,-48 -50 0,-48 -50 0,-48 -50 0,-48 -50 0,-48 -50 0,-48 -50 0,-48 -50 0,-48 -50 0,-48 -50 0,-48 -50 0,-48 -50 0,2.25000,0 1 0 1 1 2 True
-2.927371 -9.868332 0.0008142804,-3.466999 -8.992405 0.07600302,-3.657025 -8.092489 -0.009635068,-3.702581 -7.362363 -0.1975676,-3.699548 -6.922967 -0.3860773,-3.11396 -7.314357 -0.07218872,-3.566347 -6.689332 -0.4608372,-3.794625 -7.140766 -0.6042744,-3.806639 -7.57266 -0.6108554,-2.91871 -7.418043 -0.2613531,-3.424622 -6.86293 -0.7278838,-3.658298 -7.320529 -0.8135725,-3.669135 -7.827881 -0.7704282,-2.818573 -7.637146 -0.4904359,-3.306911 -7.143299 -0.9125987,-3.527996 -7.522441 -0.887302,-3.533181 -7.972546 -0.7470639,-2.783652 -7.898597 -0.6977367,-3.159872 -7.528903 -1.022047,-3.37241 -7.735982 -1.042158,-3.424414 -8.045862 -1.008234,-48 -50 0,-48 -50 0,-48 -50 0,-48 -50 0,-48 -50 0,-48 -50 0,-48 -50 0,-48 -50 0,-48 -50 0,-48 -50 0,-48 -50 0,-48 -50 0,-48 -50 0,-48 -50 0,-48 -50 0,-48 -50 0,-48 -50 0,-48 -50 0,-48 -50 0,-48 -50 0,-48 -50 0,2.28333,0 1 0 1 1 2 True
-2.927371 -9.868332 0.0008142804,-3.466999 -8.992405 0.07600302,-3.657025 -8.092489 -0.009635068,-3.702581 -7.362363 -0.1975676,-3.699548 -6.922967 -0.3860773,-3.11396 -7.314357 -0.07218872,-3.566347 -6.689332 -0.4608372,-3.794625 -7.140766 -0.6042744,-3.806639 -7.57266 -0.6108554,-2.91871 -7.418043 -0.2613531,-3.424622 -6.86293 -0.7278838,-3.658298 -7.320529 -0.8135725,-3.669135 -7.827881 -0.7704282,-2.818573 -7.637146 -0.4904359,-3.306911 -7.143299 -0.9125987,-3.527996 -7.522441 -0.887302,-3.533181 -7.972546 -0.7470639,-2.783652 -7.898597 -0.6977367,-3.159872 -7.528903 -1.022047,-3.37241 -7.735982 -1.042158,-3.424414 -8.045862 -1.008234,-48 -50 0,-48 -50 0,-48 -50 0,-48 -50 0,-48 -50 0,-48 -50 0,-48 -50 0,-48 -50 0,-48 -50 0,-48 -50 0,-48 -50 0,-48 -50 0,-48 -50 0,-48 -50 0,-48 -50 0,-48 -50 0,-48 -50 0,-48 -50 0,-48 -50 0,-48 -50 0,-48 -50 0,2.31667,0 1 0 1 1 2 True
-2.927371 -9.868332 0.0008142804,-3.466999 -8.992405 0.07600302,-3.657025 -8.092489 -0.009635068,-3.702581 -7.362363 -0.1975676,-3.699548 -6.922967 -0.3860773,-3.11396 -7.314357 -0.07218872,-3.566347 -6.689332 -0.4608372,-3.794625 -7.140766 -0.6042744,-3.806639 -7.57266 -0.6108554,-2.91871 -7.418043 -0.2613531,-3.424622 -6.86293 -0.7278838,-3.658298 -7.320529 -0.8135725,-3.669135 -7.827881 -0.7704282,-2.818573 -7.637146 -0.4904359,-3.306911 -7.143299 -0.9125987,-3.527996 -7.522441 -0.887302,-3.533181 -7.972546 -0.7470639,-2.783652 -7.898597 -0.6977367,-3.159872 -7.528903 -1.022047,-3.37241 -7.735982 -1.042158,-3.424414 -8.045862 -1.008234,-48 -50 0,-48 -50 0,-48 -50 0,-48 -50 0,-48 -50 0,-48 -50 0,-48 -50 0,-48 -50 0,-48 -50 0,-48 -50 0,-48 -50 0,-48 -50 0,-48 -50 0,-48 -50 0,-48 -50 0,-48 -50 0,-48 -50 0,-48 -50 0,-48 -50 0,-48 -50 0,-48 -50 0,2.35000,0 1 0 1 1 2 True
-2.927371 -9.868332 0.0008142804,-3.466999 -8.992405 0.07600302,-3.657025 -8.092489 -0.009635068,-3.702581 -7.362363 -0.1975676,-3.699548 -6.922967 -0.3860773,-3.11396 -7.314357 -0.07218872,-3.566347 -6.689332 -0.4608372,-3.794625 -7.140766 -0.6042744,-3.806639 -7.57266 -0.6108554,-2.91871 -7.418043 -0.2613531,-3.424622 -6.86293 -0.7278838,-3.658298 -7.320529 -0.8135725,-3.669135 -7.827881 -0.7704282,-2.818573 -7.637146 -0.4904359,-3.306911 -7.143299 -0.9125987,-3.527996 -7.522441 -0.887302,-3.533181 -7.972546 -0.7470639,-2.783652 -7.898597 -0.6977367,-3.159872 -7.528903 -1.022047,-3.37241 -7.735982 -1.042158,-3.424414 -8.045862 -1.008234,-48 -50 0,-48 -50 0,-48 -50 0,-48 -50 0,-48 -50 0,-48 -50 0,-48 -50 0,-48 -50 0,-48 -50 0,-48 -50 0,-48 -50 0,-48 -50 0,-48 -50 0,-48 -50 0,-48 -50 0,-48 -50 0,-48 -50 0,-48 -50 0,-48 -50 0,-48 -50 0,-48 -50 0,2.38333,0 1 0 1 1 2 True
-2.927371 -9.868332 0.0008142804,-3.466999 -8.992405 0.07600302,-3.657025 -8.092489 -0.009635068,-3.702581 -7.362363 -0.1975676,-3.699548 -6.922967 -0.3860773,-3.11396 -7.314357 -0.07218872,-3.566347 -6.689332 -0.4608372,-3.794625 -7.140766 -0.6042744,-3.806639 -7.57266 -0.6108554,-2.91871 -7.418043 -0.2613531,-3.424622 -6.86293 -0.7278838,-3.658298 -7.320529 -0.8135725,-3.669135 -7.827881 -0.7704282,-2.818573 -7.637146 -0.4904359,-3.306911 -7.143299 -0.9125987,-3.527996 -7.522441 -0.887302,-3.533181 -7.972546 -0.7470639,-2.783652 -7.898597 -0.6977367,-3.159872 -7.528903 -1.022047,-3.37241 -7.735982 -1.042158,-3.424414 -8.045862 -1.008234,-48 -50 0,-48 -50 0,-48 -50 0,-48 -50 0,-48 -50 0,-48 -50 0,-48 -50 0,-48 -50 0,-48 -50 0,-48 -50 0,-48 -50 0,-48 -50 0,-48 -50 0,-48 -50 0,-48 -50 0,-48 -50 0,-48 -50 0,-48 -50 0,-48 -50 0,-48 -50 0,-48 -50 0,2.41667,0 1 0 1 1 2 True
-2.927371 -9.868332 0.0008142804,-3.466999 -8.992405 0.07600302,-3.657025 -8.092489 -0.009635068,-3.702581 -7.362363 -0.1975676,-3.699548 -6.922967 -0.3860773,-3.11396 -7.314357 -0.07218872,-3.566347 -6.689332 -0.4608372,-3.794625 -7.140766 -0.6042744,-3.806639 -7.57266 -0.6108554,-2.91871 -7.418043 -0.2613531,-3.424622 -6.86293 -0.7278838,-3.658298 -7.320529 -0.8135725,-3.669135 -7.827881 -0.7704282,-2.818573 -7.637146 -0.4904359,-3.306911 -7.143299 -0.9125987,-3.527996 -7.522441 -0.887302,-3.533181 -7.972546 -0.7470639,-2.783652 -7.898597 -0.6977367,-3.159872 -7.528903 -1.022047,-3.37241 -7.735982 -1.042158,-3.424414 -8.045862 -1.008234,-48 -50 0,-48 -50 0,-48 -50 0,-48 -50 0,-48 -50 0,-48 -50 0,-48 -50 0,-48 -50 0,-48 -50 0,-48 -50 0,-48 -50 0,-48 -50 0,-48 -50 0,-48 -50 0,-48 -50 0,-48 -50 0,-48 -50 0,-48 -50 0,-48 -50 0,-48 -50 0,-48 -50 0,2.45000,1 1 1 2 1 3 True
-2.927371 -9.868332 0.0008142804,-3.466999 -8.992405 0.07600302,-3.657025 -8.092489 -0.009635068,-3.702581 -7.362363 -0.1975676,-3.699548 -6.922967 -0.3860773,-3.11396 -7.314357 -0.07218872,-3.566347 -6.689332 -0.4608372,-3.794625 -7.140766 -0.6042744,-3.806639 -7.57266 -0.6108554,-2.91871 -7.418043 -0.2613531,-3.424622 -6.86293 -0.7278838,-3.658298 -7.320529 -0.8135725,-3.669135 -7.827881 -0.7704282,-2.818573 -7.637146 -0.4904359,-3.306911 -7.143299 -0.9125987,-3.527996 -7.522441 -0.887302,-3.533181 -7.972546 -0.7470639,-2.783652 -7.898597 -0.6977367,-3.159872 -7.528903 -1.022047,-3.37241 -7.735982 -1.042158,-3.424414 -8.045862 -1.008234,-48 -50 0,-48 -50 0,-48 -50 0,-48 -50 0,-48 -50 0,-48 -50 0,-48 -50 0,-48 -50 0,-48 -50 0,-48 -50 0,-48 -50 0,-48 -50 0,-48 -50 0,-48 -50 0,-48 -50 0,-48 -50 0,-48 -50 0,-48 -50 0,-48 -50 0,-48 -50 0,-48 -50 0,2.48333,1 1 1 2 1 3 True
-2.927371 -9.868332 0.0008142804,-3.466999 -8.992405 0.07600302,-3.657025 -8.092489 -0.009635068,-3.702581 -7.362363 -0.1975676,-3.699548 -6.922967 -0.3860773,-3.11396 -7.314357 -0.07218872,-3.566347 -6.689332 -0.4608372,-3.794625 -7.140766 -0.6042744,-3.806639 -7.57266 -0.6108554,-2.91871 -7.418043 -0.2613531,-3.424622 -6.86293 -0.7278838,-3.658298 -7.320529 -0.8135725,-3.669135 -7.827881 -0.7704282,-2.818573 -7.637146 -0.4904359,-3.306911 -7.143299 -0.9125987,-3.527996 -7.522441 -0.887302,-3.533181 -7.972546 -0.7470639,-2.783652 -7.898597 -0.6977367,-3.159872 -7.528903 -1.022047,-3.37241 -7.735982 -1.042158,-3.424414 -8.045862 -1.008234,-48 -50 0,-48 -50 0,-48 -50 0,-48 -50 0,-48 -50 0,-48 -50 0,-48 -50 0,-48 -50 0,-48 -50 0,-48 -50 0,-48 -50 0,-48 -50 0,-48 -50 0,-48 -50 0,-48 -50 0,-48 -50 0,-48 -50 0,-48 -50 0,-48 -50 0,-48 -50 0,-48 -50 0,2.51667,1 1 1 2 1 3 True
-2.927371 -9.868332 0.0008142804,-3.466999 -8.992405 0.07600302,-3.657025 -8.092489 -0.009635068,-3.702581 -7.362363 -0.1975676,-3.699548 -6.922967 -0.3860773,-3.11396 -7.314357 -0.07218872,-3.566347 -6.689332 -0.4608372,-3.794625 -7.140766 -0.6042744,-3.806639 -7.57266 -0.6108554,-2.91871 -7.418043 -0.2613531,-3.424622 -6.86293 -0.7278838,-3.658298 -7.320529 -0.8135725,-3.669135 -7.827881 -0.7704282,-2.818573 -7.637146 -0.4904359,-3.306911 -7.143299 -0.9125987,-3.527996 -7.522441 -0.887302,-3.533181 -7.972546 -0.7470639,-2.783652 -7.898597 -0.6977367,-3.159872 -7.528903 -1.022047,-3.37241 -7.735982 -1.042158,-3.424414 -8.045862 -1.008234,-48 -50 0,-48 -50 0,-48 -50 0,-48 -50 0,-48 -50 0,-48 -50 0,-48 -50 0,-48 -50 0,-48 -50 0,-48 -50 0,-48 -50 0,-48 -50 0,-48 -50 0,-48 -50 0,-48 -50 0,-48 -50 0,-48 -50 0,-48 -50 0,-48 -50 0,-48 -50 0,-48 -50 0,2.55000,1 1 1 2 1 3 True
-2.927371 -9.868332 0.0008142804,-3.466999 -8.992405 0.07600302,-3.657025 -8.092489 -0.009635068,-3.702581 -7.362363 -0.1975676,-3.699548 -6.922967 -0.3860773,-3.11396 -7.314357 -0.07218872,-3.566347 -6.689332 -0.4608372,-3.794625 -7.140766 -0.6042744,-3.806639 -7.57266 -0.6108554,-2.91871 -7.418043 -0.2613531,-3.424622 -6.86293 -0.7278838,-3.658298 -7.320529 -0.8135725,-3.669135 -7.827881 -0.7704282,-2.818573 -7.637146 -0.4904359,-3.306911 -7.143299 -0.9125987,-3.527996 -7.522441 -0.887302,-3.533181 -7.972546 -0.7470639,-2.783652 -7.898597 -0.6977367,-3.159872 -7.528903 -1.022047,-3.37241 -7.735982 -1.042158,-3.424414 -8.045862 -1.008234,-48 -50 0,-48 -50 0,-48 -50 0,-48 -50 0,-48 -50 0,-48 -50 0,-48 -50 0,-48 -50 0,-48 -50 0,-48 -50 0,-48 -50 0,-48 -50 0,-48 -50 0,-48 -50 0,-48 -50 0,-48 -50 0,-48 -50 0,-48 -50 0,-48 -50 0,-48 -50 0,-48 -50 0,2.58333,1 1 1 2 1 3 True
-2.927371 -9.868332 0.0008142804,-3.466999 -8.992405 0.07600302,-3.657025 -8.092489 -0.009635068,-3.702581 -7.362363 -0.1975676,-3.699548 -6.922967 -0.3860773,-3.11396 -7.314357 -0.07218872,-3.566347 -6.689332 -0.4608372,-3.794625 -7.140766 -0.6042744,-3.806639 -7.57266 -0.6108554,-2.91871 -7.418043 -0.2613531,-3.424622 -6.86293 -0.7278838,-3.658298 -7.320529 -0.8135725,-3.669135 -7.827881 -0.7704282,-2.818573 -7.637146 -0.4904359,-3.306911 -7.143299 -0.9125987,-3.527996 -7.522441 -0.887302,-3.533181 -7.972546 -0.7470639,-2.783652 -7.898597 -0.6977367,-3.159872 -7.528903 -1.022047,-3.37241 -7.735982 -1.042158,-3.424414 -8.045862 -1.008234,-48 -50 0,-48 -50 0,-48 -50 0,-48 -50 0,-48 -50 0,-48 -50 0,-48 -50 0,-48 -50 0,-48 -50 0,-48 -50 0,-48 -50 0,-48 -50 0,-48 -50 0,-48 -50 0,-48 -50 0,-48 -50 0,-48 -50 0,-48 -50 0,-48 -50 0,-48 -50 0,-48 -50 0,2.61667,1 1 1 2 1 3 True
-2.927371 -9.868332 0.0008142804,-3.466999 -8.992405 0.07600302,-3.657025 -8.092489 -0.009635068,-3.702581 -7.362363 -0.1975676,-3.699548 -6.922967 -0.3860773,-3.11396 -7.314357 -0.07218872,-3.566347 -6.689332 -0.4608372,-3.794625 -7.140766 -0.6042744,-3.806639 -7.57266 -0.6108554,-2.91871 -7.418043 -0.2613531,-3.424622 -6.86293 -0.7278838,-3.658298 -7.320529 -0.8135725,-3.669135 -7.827881 -0.7704282,-2.818573 -7.637146 -0.4904359,-3.306911 -7.143299 -0.9125987,-3.527996 -7.522441 -0.887302,-3.533181 -7.972546 -0.7470639,-2.783652 -7.898597 -0.6977367,-3.159872 -7.528903 -1.022047,-3.37241 -7.735982 -1.042158,-3.424414 -8.045862 -1.008234,-48 -50 0,-48 -50 0,-48 -50 0,-48 -50 0,-48 -50 0,-48 -50 0,-48 -50 0,-48 -50 0,-48 -50 0,-48 -50 0,-48 -50 0,-48 -50 0,-48 -50 0,-48 -50 0,-48 -50 0,-48 -50 0,-48 -50 0,-48 -50 0,-48 -50 0,-48 -50 0,-48 -50 0,2.65000,1 1 1 2 1 3 True
-2.927371 -9.868332 0.0008142804,-3.466999 -8.992405 0.07600302,-3.657025 -8.092489 -0.009635068,-3.702581 -7.362363 -0.1975676,-3.699548 -6.922967 -0.3860773,-3.11396 -7.314357 -0.07218872,-3.566347 -6.689332 -0.4608372,-3.794625 -7.140766 -0.6042744,-3.806639 -7.57266 -0.6108554,-2.91871 -7.418043 -0.2613531,-3.424622 -6.86293 -0.7278838,-3.658298 -7.320529 -0.8135725,-3.669135 -7.827881 -0.7704282,-2.818573 -7.637146 -0.4904359,-3.306911 -7.143299 -0.9125987,-3.527996 -7.522441 -0.887302,-3.533181 -7.972546 -0.7470639,-2.783652 -7.898597 -0.6977367,-3.159872 -7.528903 -1.022047,-3.37241 -7.735982 -1.042158,-3.424414 -8.045862 -1.008234,-48 -50 0,-48 -50 0,-48 -50 0,-48 -50 0,-48 -50 0,-48 -50 0,-48 -50 0,-48 -50 0,-48 -50 0,-48 -50 0,-48 -50 0,-48 -50 0,-48 -50 0,-48 -50 0,-48 -50 0,-48 -50 0,-48 -50 0,-48 -50 0,-48 -50 0,-48 -50 0,-48 -50 0,2.68333,1 1 1 2 1 3 True
-2.927371 -9.868332 0.0008142804,-3.466999 -8.992405 0.07600302,-3.657025 -8.092489 -0.009635068,-3.702581 -7.362363 -0.1975676,-3.699548 -6.922967 -0.3860773,-3.11396 -7.314357 -0.07218872,-3.566347 -6.689332 -0.4608372,-3.794625 -7.140766 -0.6042744,-3.806639 -7.57266 -0.6108554,-2.91871 -7.418043 -0.2613531,-3.424622 -6.86293 -0.7278838,-3.658298 -7.320529 -0.8135725,-3.669135 -7.827881 -0.7704282,-2.818573 -7.637146 -0.4904359,-3.306911 -7.143299 -0.9125987,-3.527996 -7.522441 -0.887302,-3.533181 -7.972546 -0.7470639,-2.783652 -7.898597 -0.6977367,-3.159872 -7.528903 -1.022047,-3.37241 -7.735982 -1.042158,-3.424414 -8.045862 -1.008234,-48 -50 0,-48 -50 0,-48 -50 0,-48 -50 0,-48 -50 0,-48 -50 0,-48 -50 0,-48 -50 0,-48 -50 0,-48 -50 0,-48 -50 0,-48 -50 0,-48 -50 0,-48 -50 0,-48 -50 0,-48 -50 0,-48 -50 0,-48 -50 0,-48 -50 0,-48 -50 0,-48 -50 0,2.71667,1 1 1 2 1 3 True
-2.927371 -9.868332 0.0008142804,-3.466999 -8.992405 0.07600302,-3.657025 -8.092489 -0.009635068,-3.702581 -7.362363 -0.1975676,-3.699548 -6.922967 -0.3860773,-3.11396 -7.314357 -0.07218872,-3.566347 -6.689332 -0.4608372,-3.794625 -7.140766 -0.6042744,-3.806639 -7.57266 -0.6108554,-2.91871 -7.418043 -0.2613531,-3.424622 -6.86293 -0.7278838,-3.658298 -7.320529 -0.8135725,-3.669135 -7.827881 -0.7704282,-2.818573 -7.637146 -0.4904359,-3.306911 -7.143299 -0.9125987,-3.527996 -7.522441 -0.887302,-3.533181 -7.972546 -0.7470639,-2.783652 -7.898597 -0.6977367,-3.159872 -7.528903 -1.022047,-3.37241 -7.735982 -1.042158,-3.424414 -8.045862 -1.008234,-48 -50 0,-48 -50 0,-48 -50 0,-48 -50 0,-48 -50 0,-48 -50 0,-48 -50 0,-48 -50 0,-48 -50 0,-48 -50 0,-48 -50 0,-48 -50 0,-48 -50 0,-48 -50 0,-48 -50 0,-48 -50 0,-48 -50 0,-48 -50 0,-48 -50 0,-48 -50 0,-48 -50 0,2.75000,1 1 1 2 1 3 True
-2.927371 -9.868332 0.0008142804,-3.466999 -8.992405 0.07600302,-3.657025 -8.092489 -0.009635068,-3.702581 -7.362363 -0.1975676,-3.699548 -6.922967 -0.3860773,-3.11396 -7.314357 -0.07218872,-3.566347 -6.689332 -0.4608372,-3.794625 -7.140766 -0.6042744,-3.806639 -7.57266 -0.6108554,-2.91871 -7.418043 -0.2613531,-3.424622 -6.86293 -0.7278838,-3.658298 -7.320529 -0.8135725,-3.669135 -7.827881 -0.7704282,-2.818573 -7.637146 -0.4904359,-3.306911 -7.143299 -0.9125987,-3.527996 -7.522441 -0.887302,-3.533181 -7.972546 -0.7470639,-2.783652 -7.898597 -0.6977367,-3.159872 -7.528903 -1.022047,-3.37241 -7.735982 -1.042158,-3.424414 -8.045862 -1.008234,-48 -50 0,-48 -50 0,-48 -50 0,-48 -50 0,-48 -50 0,-48 -50 0,-48 -50 0,-48 -50 0,-48 -50 0,-48 -50 0,-48 -50 0,-48 -50 0,-48 -50 0,-48 -50 0,-48 -50 0,-48 -50 0,-48 -50 0,-48 -50 0,-48 -50 0,-48 -50 0,-48 -50 0,2.78333,1 1 1 2 1 3 True
-2.927371 -9.868332 0.0008142804,-3.466999 -8.992405 0.07600302,-3.657025 -8.092489 -0.009635068,-3.702581 -7.362363 -0.1975676,-3.699548 -6.922967 -0.3860773,-3.11396 -7.314357 -0.07218872,-3.566347 -6.689332 -0.4608372,-3.794625 -7.140766 -0.6042744,-3.806639 -7.57266 -0.6108554,-2.91871 -7.418043 -0.2613531,-3.424622 -6.86293 -0.7278838,-3.658298 -7.320529 -0.8135725,-3.669135 -7.827881 -0.7704282,-2.818573 -7.637146 -0.4904359,-3.306911 -7.143299 -0.9125987,-3.527996 -7.522441 -0.887302,-3.533181 -7.972546 -0.7470639,-2.783652 -7.898597 -0.6977367,-3.159872 -7.528903 -1.022047,-3.37241 -7.735982 -1.042158,-3.424414 -8.045862 -1.008234,-48 -50 0,-48 -50 0,-48 -50 0,-48 -50 0,-48 -50 0,-48 -50 0,-48 -50 0,-48 -50 0,-48 -50 0,-48 -50 0,-48 -50 0,-48 -50 0,-48 -50 0,-48 -50 0,-48 -50 0,-48 -50 0,-48 -50 0,-48 -50 0,-48 -50 0,-48 -50 0,-48 -50 0,2.81667,1 1 1 2 1 3 True
-2.927371 -9.868332 0.0008142804,-3.466999 -8.992405 0.07600302,-3.657025 -8.092489 -0.009635068,-3.702581 -7.362363 -0.1975676,-3.699548 -6.922967 -0.3860773,-3.11396 -7.314357 -0.07218872,-3.566347 -6.689332 -0.4608372,-3.794625 -7.140766 -0.6042744,-3.806639 -7.57266 -0.6108554,-2.91871 -7.418043 -0.2613531,-3.424622 -6.86293 -0.7278838,-3.658298 -7.320529 -0.8135725,-3.669135 -7.827881 -0.7704282,-2.818573 -7.637146 -0.4904359,-3.306911 -7.143299 -0.9125987,-3.527996 -7.522441 -0.887302,-3.533181 -7.972546 -0.7470639,-2.783652 -7.898597 -0.6977367,-3.159872 -7.528903 -1.022047,-3.37241 -7.735982 -1.042158,-3.424414 -8.045862 -1.008234,-48 -50 0,-48 -50 0,-48 -50 0,-48 -50 0,-48 -50 0,-48 -50 0,-48 -50 0,-48 -50 0,-48 -50 0,-48 -50 0,-48 -50 0,-48 -50 0,-48 -50 0,-48 -50 0,-48 -50 0,-48 -50 0,-48 -50 0,-48 -50 0,-48 -50 0,-48 -50 0,-48 -50 0,2.85000,1 1 1 2 1 3 True
-2.927371 -9.868332 0.0008142804,-3.466999 -8.992405 0.07600302,-3.657025 -8.092489 -0.009635068,-3.702581 -7.362363 -0.1975676,-3.699548 -6.922967 -0.3860773,-3.11396 -7.314357 -0.07218872,-3.566347 -6.689332 -0.4608372,-3.794625 -7.140766 -0.6042744,-3.806639 -7.57266 -0.6108554,-2.91871 -7.418043 -0.2613531,-3.424622 -6.86293 -0.7278838,-3.658298 -7.320529 -0.8135725,-3.669135 -7.827881 -0.7704282,-2.818573 -7.637146 -0.4904359,-3.306911 -7.143299 -0.9125987,-3.527996 -7.522441 -0.887302,-3.533181 -7.972546 -0.7470639,-2.783652 -7.898597 -0.6977367,-3.159872 -7.528903 -1.022047,-3.37241 -7.735982 -1.042158,-3.424414 -8.045862 -1.008234,-48 -50 0,-48 -50 0,-48 -50 0,-48 -50 0,-48 -50 0,-48 -50 0,-48 -50 0,-48 -50 0,-48 -50 0,-48 -50 0,-48 -50 0,-48 -50 0,-48 -50 0,-48 -50 0,-48 -50 0,-48 -50 0,-48 -50 0,-48 -50 0,-48 -50 0,-48 -50 0,-48 -50 0,2.88333,1 1 1 2 1 3 True
-2.927371 -9.868332 0.0008142804,-3.466999 -8.992405 0.07600302,-3.657025 -8.092489 -0.009635068,-3.702581 -7.362363 -0.1975676,-3.699548 -6.922967 -0.3860773,-3.11396 -7.314357 -0.07218872,-3.566347 -6.689332 -0.4608372,-3.794625 -7.140766 -0.6042744,-3.806639 -7.57266 -0.6108554,-2.91871 -7.418043 -0.2613531,-3.424622 -6.86293 -0.7278838,-3.658298 -7.320529 -0.8135725,-3.669135 -7.827881 -0.7704282,-2.818573 -7.637146 -0.4904359,-3.306911 -7.143299 -0.9125987,-3.527996 -7.522441 -0.887302,-3.533181 -7.972546 -0.7470639,-2.783652 -7.898597 -0.6977367,-3.159872 -7.528903 -1.022047,-3.37241 -7.735982 -1.042158,-3.424414 -8.045862 -1.008234,-48 -50 0,-48 -50 0,-48 -50 0,-48 -50 0,-48 -50 0,-48 -50 0,-48 -50 0,-48 -50 0,-48 -50 0,-48 -50 0,-48 -50 0,-48 -50 0,-48 -50 0,-48 -50 0,-48 -50 0,-48 -50 0,-48 -50 0,-48 -50 0,-48 -50 0,-48 -50 0,-48 -50 0,2.91667,1 1 1 2 1 3 True
-2.927371 -9.868332 0.0008142804,-3.466999 -8.992405 0.07600302,-3.657025 -8.092489 -0.009635068,-3.702581 -7.362363 -0.1975676,-3.699548 -6.922967 -0.3860773,-3.11396 -7.314357 -0.07218872,-3.566347 -6.689332 -0.4608372,-3.794625 -7.140766 -0.6042744,-3.806639 -7.57266 -0.6108554,-2.91871 -7.418043 -0.2613531,-3.424622 -6.86293 -0.7278838,-3.658298 -7.320529 -0.8135725,-3.669135 -7.827881 -0.7704282,-2.818573 -7.637146 -0.4904359,-3.306911 -7.143299 -0.9125987,-3.527996 -7.522441 -0.887302,-3.533181 -7.972546 -0.7470639,-2.783652 -7.898597 -0.6977367,-3.159872 -7.528903 -1.022047,-3.37241 -7.735982 -1.042158,-3.424414 -8.045862 -1.008234,-48 -50 0,-48 -50 0,-48 -50 0,-48 -50 0,-48 -50 0,-48 -50 0,-48 -50 0,-48 -50 0,-48 -50 0,-48 -50 0,-48 -50 0,-48 -50 0,-48 -50 0,-48 -50 0,-48 -50 0,-48 -50 0,-48 -50 0,-48 -50 0,-48 -50 0,-48 -50 0,-48 -50 0,2.95000,1 1 1 2 1 3 True
-2.927371 -9.868332 0.0008142804,-3.466999 -8.992405 0.07600302,-3.657025 -8.092489 -0.009635068,-3.702581 -7.362363 -0.1975676,-3.699548 -6.922967 -0.3860773,-3.11396 -7.314357 -0.07218872,-3.566347 -6.689332 -0.4608372,-3.794625 -7.140766 -0.6042744,-3.806639 -7.57266 -0.6108554,-2.91871 -7.418043 -0.2613531,-3.424622 -6.86293 -0.7278838,-3.658298 -7.320529 -0.8135725,-3.669135 -7.827881 -0.7704282,-2.818573 -7.637146 -0.4904359,-3.306911 -7.143299 -0.9125987,-3.527996 -7.522441 -0.887302,-3.533181 -7.972546 -0.7470639,-2.783652 -7.898597 -0.6977367,-3.159872 -7.528903 -1.022047,-3.37241 -7.735982 -1.042158,-3.424414 -8.045862 -1.008234,-48 -50 0,-48 -50 0,-48 -50 0,-48 -50 0,-48 -50 0,-48 -50 0,-48 -50 0,-48 -50 0,-48 -50 0,-48 -50 0,-48 -50 0,-48 -50 0,-48 -50 0,-48 -50 0,-48 -50 0,-48 -50 0,-48 -50 0,-48 -50 0,-48 -50 0,-48 -50 0,-48 -50 0,2.98333,1 1 1 2 1 3 True
-2.927371 -9.868332 0.0008142804,-3.466999 -8.992405 0.07600302,-3.657025 -8.092489 -0.009635068,-3.702581 -7.362363 -0.1975676,-3.699548 -6.922967 -0.3860773,-3.11396 -7.314357 -0.07218872,-3.566347 -6.689332 -0.4608372,-3.794625 -7.140766 -0.6042744,-3.806639 -7.57266 -0.6108554,-2.91871 -7.418043 -0.2613531,-3.424622 -6.86293 -0.7278838,-3.658298 -7.320529 -0.8135725,-3.669135 -7.827881 -0.7704282,-2.818573 -7.637146 -0.4904359,-3.306911 -7.143299 -0.9125987,-3.527996 -7.522441 -0.887302,-3.533181 -7.972546 -0.7470639,-2.783652 -7.898597 -0.6977367,-3.159872 -7.528903 -1.022047,-3.37241 -7.735982 -1.042158,-3.424414 -8.045862 -1.008234,-48 -50 0,-48 -50 0,-48 -50 0,-48 -50 0,-48 -50 0,-48 -50 0,-48 -50 0,-48 -50 0,-48 -50 0,-48 -50 0,-48 -50 0,-48 -50 0,-48 -50 0,-48 -50 0,-48 -50 0,-48 -50 0,-48 -50 0,-48 -50 0,-48 -50 0,-48 -50 0,-48 -50 0,3.01667,1 1 2 3 1 4 False
-2.927371 -9.868332 0.0008142804,-3.466999 -8.992405 0.07600302,-3.657025 -8.092489 -0.009635068,-3.702581 -7.362363 -0.1975676,-3.699548 -6.922967 -0.3860773,-3.11396 -7.314357 -0.07218872,-3.566347 -6.689332 -0.4608372,-3.794625 -7.140766 -0.6042744,-3.806639 -7.57266 -0.6108554,-2.91871 -7.418043 -0.2613531,-3.424622 -6.86293 -0.7278838,-3.658298 -7.320529 -0.8135725,-3.669135 -7.827881 -0.7704282,-2.818573 -7.637146 -0.4904359,-3.306911 -7.143299 -0.9125987,-3.527996 -7.522441 -0.887302,-3.533181 -7.972546 -0.7470639,-2.783652 -7.898597 -0.6977367,-3.159872 -7.528903 -1.022047,-3.37241 -7.735982 -1.042158,-3.424414 -8.045862 -1.008234,-48 -50 0,-48 -50 0,-48 -50 0,-48 -50 0,-48 -50 0,-48 -50 0,-48 -50 0,-48 -50 0,-48 -50 0,-48 -50 0,-48 -50 0,-48 -50 0,-48 -50 0,-48 -50 0,-48 -50 0,-48 -50 0,-48 -50 0,-48 -50 0,-48 -50 0,-48 -50 0,-48 -50 0,3.05000,1 1 2 3 1 4 False
-2.927371 -9.868332 0.0008142804,-3.466999 -8.992405 0.07600302,-3.657025 -8.092489 -0.009635068,-3.702581 -7.362363 -0.1975676,-3.699548 -6.922967 -0.3860773,-3.11396 -7.314357 -0.07218872,-3.566347 -6.689332 -0.4608372,-3.794625 -7.140766 -0.6042744,-3.806639 -7.57266 -0.6108554,-2.91871 -7.418043 -0.2613531,-3.424622 -6.86293 -0.7278838,-3.658298 -7.320529 -0.8135725,-3.669135 -7.827881 -0.7704282,-2.818573 -7.637146 -0.4904359,-3.306911 -7.143299 -0.9125987,-3.527996 -7.522441 -0.887302,-3.533181 -7.972546 -0.7470639,-2.783652 -7.898597 -0.6977367,-3.159872 -7.528903 -1.022047,-3.37241 -7.735982 -1.042158,-3.424414 -8.045862 -1.008234,-48 -50 0,-48 -50 0,-48 -50 0,-48 -50 0,-48 -50 0,-48 -50 0,-48 -50 0,-48 -50 0,-48 -50 0,-48 -50 0,-48 -50 0,-48 -50 0,-48 -50 0,-48 -50 0,-48 -50 0,-48 -50 0,-48 -50 0,-48 -50 0,-48 -50 0,-48 -50 0,-48 -50 0,3.08333,1 1 2 3 1 4 False
-2.927371 -9.868332 0.0008142804,-3.466999 -8.992405 0.07600302,-3.657025 -8.092489 -0.009635068,-3.702581 -7.362363 -0.1975676,-3.699548 -6.922967 -0.3860773,-3.11396 -7.314357 -0.07218872,-3.566347 -6.689332 -0.4608372,-3.794625 -7.140766 -0.6042744,-3.806639 -7.57266 -0.6108554,-2.91871 -7.418043 -0.2613531,-3.424622 -6.86293 -0.7278838,-3.658298 -7.320529 -0.8135725,-3.669135 -7.827881 -0.7704282,-2.818573 -7.637146 -0.4904359,-3.306911 -7.143299 -0.9125987,-3.527996 -7.522441 -0.887302,-3.533181 -7.972546 -0.7470639,-2.783652 -7.898597 -0.6977367,-3.159872 -7.528903 -1.022047,-3.37241 -7.735982 -1.042158,-3.424414 -8.045862 -1.008234,-48 -50 0,-48 -50 0,-48 -50 0,-48 -50 0,-48 -50 0,-48 -50 0,-48 -50 0,-48 -50 0,-48 -50 0,-48 -50 0,-48 -50 0,-48 -50 0,-48 -50 0,-48 -50 0,-48 -50 0,-48 -50 0,-48 -50 0,-48 -50 0,-48 -50 0,-48 -50 0,-48 -50 0,3.11666,1 1 2 3 1 4 False
-2.927371 -9.868332 0.0008142804,-3.466999 -8.992405 0.07600302,-3.657025 -8.092489 -0.009635068,-3.702581 -7.362363 -0.1975676,-3.699548 -6.922967 -0.3860773,-3.11396 -7.314357 -0.07218872,-3.566347 -6.689332 -0.4608372,-3.794625 -7.140766 -0.6042744,-3.806639 -7.57266 -0.6108554,-2.91871 -7.418043 -0.2613531,-3.424622 -6.86293 -0.7278838,-3.658298 -7.320529 -0.8135725,-3.669135 -7.827881 -0.7704282,-2.818573 -7.637146 -0.4904359,-3.306911 -7.143299 -0.9125987,-3.527996 -7.522441 -0.887302,-3.533181 -7.972546 -0.7470639,-2.783652 -7.898597 -0.6977367,-3.159872 -7.528903 -1.022047,-3.37241 -7.735982 -1.042158,-3.424414 -8.045862 -1.008234,-48 -50 0,-48 -50 0,-48 -50 0,-48 -50 0,-48 -50 0,-48 -50 0,-48 -50 0,-48 -50 0,-48 -50 0,-48 -50 0,-48 -50 0,-48 -50 0,-48 -50 0,-48 -50 0,-48 -50 0,-48 -50 0,-48 -50 0,-48 -50 0,-48 -50 0,-48 -50 0,-48 -50 0,3.15000,1 1 2 3 1 4 False
-2.927371 -9.868332 0.0008142804,-3.466999 -8.992405 0.07600302,-3.657025 -8.092489 -0.009635068,-3.702581 -7.362363 -0.1975676,-3.699548 -6.922967 -0.3860773,-3.11396 -7.314357 -0.07218872,-3.566347 -6.689332 -0.4608372,-3.794625 -7.140766 -0.6042744,-3.806639 -7.57266 -0.6108554,-2.91871 -7.418043 -0.2613531,-3.424622 -6.86293 -0.7278838,-3.658298 -7.320529 -0.8135725,-3.669135 -7.827881 -0.7704282,-2.818573 -7.637146 -0.4904359,-3.306911 -7.143299 -0.9125987,-3.527996 -7.522441 -0.887302,-3.533181 -7.972546 -0.7470639,-2.783652 -7.898597 -0.6977367,-3.159872 -7.528903 -1.022047,-3.37241 -7.735982 -1.042158,-3.424414 -8.045862 -1.008234,-48 -50 0,-48 -50 0,-48 -50 0,-48 -50 0,-48 -50 0,-48 -50 0,-48 -50 0,-48 -50 0,-48 -50 0,-48 -50 0,-48 -50 0,-48 -50 0,-48 -50 0,-48 -50 0,-48 -50 0,-48 -50 0,-48 -50 0,-48 -50 0,-48 -50 0,-48 -50 0,-48 -50 0,3.18333,1 1 2 3 1 4 False
-2.927371 -9.868332 0.0008142804,-3.466999 -8.992405 0.07600302,-3.657025 -8.092489 -0.009635068,-3.702581 -7.362363 -0.1975676,-3.699548 -6.922967 -0.3860773,-3.11396 -7.314357 -0.07218872,-3.566347 -6.689332 -0.4608372,-3.794625 -7.140766 -0.6042744,-3.806639 -7.57266 -0.6108554,-2.91871 -7.418043 -0.2613531,-3.424622 -6.86293 -0.7278838,-3.658298 -7.320529 -0.8135725,-3.669135 -7.827881 -0.7704282,-2.818573 -7.637146 -0.4904359,-3.306911 -7.143299 -0.9125987,-3.527996 -7.522441 -0.887302,-3.533181 -7.972546 -0.7470639,-2.783652 -7.898597 -0.6977367,-3.159872 -7.528903 -1.022047,-3.37241 -7.735982 -1.042158,-3.424414 -8.045862 -1.008234,-48 -50 0,-48 -50 0,-48 -50 0,-48 -50 0,-48 -50 0,-48 -50 0,-48 -50 0,-48 -50 0,-48 -50 0,-48 -50 0,-48 -50 0,-48 -50 0,-48 -50 0,-48 -50 0,-48 -50 0,-48 -50 0,-48 -50 0,-48 -50 0,-48 -50 0,-48 -50 0,-48 -50 0,3.21666,1 1 2 3 1 4 False
-2.927371 -9.868332 0.0008142804,-3.466999 -8.992405 0.07600302,-3.657025 -8.092489 -0.009635068,-3.702581 -7.362363 -0.1975676,-3.699548 -6.922967 -0.3860773,-3.11396 -7.314357 -0.07218872,-3.566347 -6.689332 -0.4608372,-3.794625 -7.140766 -0.6042744,-3.806639 -7.57266 -0.6108554,-2.91871 -7.418043 -0.2613531,-3.424622 -6.86293 -0.7278838,-3.658298 -7.320529 -0.8135725,-3.669135 -7.827881 -0.7704282,-2.818573 -7.637146 -0.4904359,-3.306911 -7.143299 -0.9125987,-3.527996 -7.522441 -0.887302,-3.533181 -7.972546 -0.7470639,-2.783652 -7.898597 -0.6977367,-3.159872 -7.528903 -1.022047,-3.37241 -7.735982 -1.042158,-3.424414 -8.045862 -1.008234,-48 -50 0,-48 -50 0,-48 -50 0,-48 -50 0,-48 -50 0,-48 -50 0,-48 -50 0,-48 -50 0,-48 -50 0,-48 -50 0,-48 -50 0,-48 -50 0,-48 -50 0,-48 -50 0,-48 -50 0,-48 -50 0,-48 -50 0,-48 -50 0,-48 -50 0,-48 -50 0,-48 -50 0,3.25000,1 1 2 3 1 4 False
-2.927371 -9.868332 0.0008142804,-3.466999 -8.992405 0.07600302,-3.657025 -8.092489 -0.009635068,-3.702581 -7.362363 -0.1975676,-3.699548 -6.922967 -0.3860773,-3.11396 -7.314357 -0.07218872,-3.566347 -6.689332 -0.4608372,-3.794625 -7.140766 -0.6042744,-3.806639 -7.57266 -0.6108554,-2.91871 -7.418043 -0.2613531,-3.424622 -6.86293 -0.7278838,-3.658298 -7.320529 -0.8135725,-3.669135 -7.827881 -0.7704282,-2.818573 -7.637146 -0.4904359,-3.306911 -7.143299 -0.9125987,-3.527996 -7.522441 -0.887302,-3.533181 -7.972546 -0.7470639,-2.783652 -7.898597 -0.6977367,-3.159872 -7.528903 -1.022047,-3.37241 -7.735982 -1.042158,-3.424414 -8.045862 -1.008234,-48 -50 0,-48 -50 0,-48 -50 0,-48 -50 0,-48 -50 0,-48 -50 0,-48 -50 0,-48 -50 0,-48 -50 0,-48 -50 0,-48 -50 0,-48 -50 0,-48 -50 0,-48 -50 0,-48 -50 0,-48 -50 0,-48 -50 0,-48 -50 0,-48 -50 0,-48 -50 0,-48 -50 0,3.28333,1 1 2 3 1 4 False
-2.927371 -9.868332 0.0008142804,-3.466999 -8.992405 0.07600302,-3.657025 -8.092489 -0.009635068,-3.702581 -7.362363 -0.1975676,-3.699548 -6.922967 -0.3860773,-3.11396 -7.314357 -0.07218872,-3.566347 -6.689332 -0.4608372,-3.794625 -7.140766 -0.6042744,-3.806639 -7.57266 -0.6108554,-2.91871 -7.418043 -0.2613531,-3.424622 -6.86293 -0.7278838,-3.658298 -7.320529 -0.8135725,-3.669135 -7.827881 -0.7704282,-2.818573 -7.637146 -0.4904359,-3.306911 -7.143299 -0.9125987,-3.527996 -7.522441 -0.887302,-3.533181 -7.972546 -0.7470639,-2.783652 -7.898597 -0.6977367,-3.159872 -7.528903 -1.022047,-3.37241 -7.735982 -1.042158,-3.424414 -8.045862 -1.008234,-48 -50 0,-48 -50 0,-48 -50 0,-48 -50 0,-48 -50 0,-48 -50 0,-48 -50 0,-48 -50 0,-48 -50 0,-48 -50 0,-48 -50 0,-48 -50 0,-48 -50 0,-48 -50 0,-48 -50 0,-48 -50 0,-48 -50 0,-48 -50 0,-48 -50 0,-48 -50 0,-48 -50 0,3.31666,1 1 2 3 1 4 False
-2.927371 -9.868332 0.0008142804,-3.466999 -8.992405 0.07600302,-3.657025 -8.092489 -0.009635068,-3.702581 -7.362363 -0.1975676,-3.699548 -6.922967 -0.3860773,-3.11396 -7.314357 -0.07218872,-3.566347 -6.689332 -0.4608372,-3.794625 -7.140766 -0.6042744,-3.806639 -7.57266 -0.6108554,-2.91871 -7.418043 -0.2613531,-3.424622 -6.86293 -0.7278838,-3.658298 -7.320529 -0.8135725,-3.669135 -7.827881 -0.7704282,-2.818573 -7.637146 -0.4904359,-3.306911 -7.143299 -0.9125987,-3.527996 -7.522441 -0.887302,-3.533181 -7.972546 -0.7470639,-2.783652 -7.898597 -0.6977367,-3.159872 -7.528903 -1.022047,-3.37241 -7.735982 -1.042158,-3.424414 -8.045862 -1.008234,-48 -50 0,-48 -50 0,-48 -50 0,-48 -50 0,-48 -50 0,-48 -50 0,-48 -50 0,-48 -50 0,-48 -50 0,-48 -50 0,-48 -50 0,-48 -50 0,-48 -50 0,-48 -50 0,-48 -50 0,-48 -50 0,-48 -50 0,-48 -50 0,-48 -50 0,-48 -50 0,-48 -50 0,3.35000,1 1 2 3 1 4 False
-2.927371 -9.868332 0.0008142804,-3.466999 -8.992405 0.07600302,-3.657025 -8.092489 -0.009635068,-3.702581 -7.362363 -0.1975676,-3.699548 -6.922967 -0.3860773,-3.11396 -7.314357 -0.07218872,-3.566347 -6.689332 -0.4608372,-3.794625 -7.140766 -0.6042744,-3.806639 -7.57266 -0.6108554,-2.91871 -7.418043 -0.2613531,-3.424622 -6.86293 -0.7278838,-3.658298 -7.320529 -0.8135725,-3.669135 -7.827881 -0.7704282,-2.818573 -7.637146 -0.4904359,-3.306911 -7.143299 -0.9125987,-3.527996 -7.522441 -0.887302,-3.533181 -7.972546 -0.7470639,-2.783652 -7.898597 -0.6977367,-3.159872 -7.528903 -1.022047,-3.37241 -7.735982 -1.042158,-3.424414 -8.045862 -1.008234,-48 -50 0,-48 -50 0,-48 -50 0,-48 -50 0,-48 -50 0,-48 -50 0,-48 -50 0,-48 -50 0,-48 -50 0,-48 -50 0,-48 -50 0,-48 -50 0,-48 -50 0,-48 -50 0,-48 -50 0,-48 -50 0,-48 -50 0,-48 -50 0,-48 -50 0,-48 -50 0,-48 -50 0,3.38333,1 1 2 3 1 4 False
-2.927371 -9.868332 0.0008142804,-3.466999 -8.992405 0.07600302,-3.657025 -8.092489 -0.009635068,-3.702581 -7.362363 -0.1975676,-3.699548 -6.922967 -0.3860773,-3.11396 -7.314357 -0.07218872,-3.566347 -6.689332 -0.4608372,-3.794625 -7.140766 -0.6042744,-3.806639 -7.57266 -0.6108554,-2.91871 -7.418043 -0.2613531,-3.424622 -6.86293 -0.7278838,-3.658298 -7.320529 -0.8135725,-3.669135 -7.827881 -0.7704282,-2.818573 -7.637146 -0.4904359,-3.306911 -7.143299 -0.9125987,-3.527996 -7.522441 -0.887302,-3.533181 -7.972546 -0.7470639,-2.783652 -7.898597 -0.6977367,-3.159872 -7.528903 -1.022047,-3.37241 -7.735982 -1.042158,-3.424414 -8.045862 -1.008234,-48 -50 0,-48 -50 0,-48 -50 0,-48 -50 0,-48 -50 0,-48 -50 0,-48 -50 0,-48 -50 0,-48 -50 0,-48 -50 0,-48 -50 0,-48 -50 0,-48 -50 0,-48 -50 0,-48 -50 0,-48 -50 0,-48 -50 0,-48 -50 0,-48 -50 0,-48 -50 0,-48 -50 0,3.41666,1 1 2 3 1 4 False
-2.927371 -9.868332 0.0008142804,-3.466999 -8.992405 0.07600302,-3.657025 -8.092489 -0.009635068,-3.702581 -7.362363 -0.1975676,-3.699548 -6.922967 -0.3860773,-3.11396 -7.314357 -0.07218872,-3.566347 -6.689332 -0.4608372,-3.794625 -7.140766 -0.6042744,-3.806639 -7.57266 -0.6108554,-2.91871 -7.418043 -0.2613531,-3.424622 -6.86293 -0.7278838,-3.658298 -7.320529 -0.8135725,-3.669135 -7.827881 -0.7704282,-2.818573 -7.637146 -0.4904359,-3.306911 -7.143299 -0.9125987,-3.527996 -7.522441 -0.887302,-3.533181 -7.972546 -0.7470639,-2.783652 -7.898597 -0.6977367,-3.159872 -7.528903 -1.022047,-3.37241 -7.735982 -1.042158,-3.424414 -8.045862 -1.008234,-48 -50 0,-48 -50 0,-48 -50 0,-48 -50 0,-48 -50 0,-48 -50 0,-48 -50 0,-48 -50 0,-48 -50 0,-48 -50 0,-48 -50 0,-48 -50 0,-48 -50 0,-48 -50 0,-48 -50 0,-48 -50 0,-48 -50 0,-48 -50 0,-48 -50 0,-48 -50 0,-48 -50 0,3.45000,1 1 2 3 1 4 False
-2.927371 -9.868332 0.0008142804,-3.466999 -8.992405 0.07600302,-3.657025 -8.092489 -0.009635068,-3.702581 -7.362363 -0.1975676,-3.699548 -6.922967 -0.3860773,-3.11396 -7.314357 -0.07218872,-3.566347 -6.689332 -0.4608372,-3.794625 -7.140766 -0.6042744,-3.806639 -7.57266 -0.6108554,-2.91871 -7.418043 -0.2613531,-3.424622 -6.86293 -0.7278838,-3.658298 -7.320529 -0.8135725,-3.669135 -7.827881 -0.7704282,-2.818573 -7.637146 -0.4904359,-3.306911 -7.143299 -0.9125987,-3.527996 -7.522441 -0.887302,-3.533181 -7.972546 -0.7470639,-2.783652 -7.898597 -0.6977367,-3.159872 -7.528903 -1.022047,-3.37241 -7.735982 -1.042158,-3.424414 -8.045862 -1.008234,-48 -50 0,-48 -50 0,-48 -50 0,-48 -50 0,-48 -50 0,-48 -50 0,-48 -50 0,-48 -50 0,-48 -50 0,-48 -50 0,-48 -50 0,-48 -50 0,-48 -50 0,-48 -50 0,-48 -50 0,-48 -50 0,-48 -50 0,-48 -50 0,-48 -50 0,-48 -50 0,-48 -50 0,3.48333,1 1 2 3 1 4 False
-2.927371 -9.868332 0.0008142804,-3.466999 -8.992405 0.07600302,-3.657025 -8.092489 -0.009635068,-3.702581 -7.362363 -0.1975676,-3.699548 -6.922967 -0.3860773,-3.11396 -7.314357 -0.07218872,-3.566347 -6.689332 -0.4608372,-3.794625 -7.140766 -0.6042744,-3.806639 -7.57266 -0.6108554,-2.91871 -7.418043 -0.2613531,-3.424622 -6.86293 -0.7278838,-3.658298 -7.320529 -0.8135725,-3.669135 -7.827881 -0.7704282,-2.818573 -7.637146 -0.4904359,-3.306911 -7.143299 -0.9125987,-3.527996 -7.522441 -0.887302,-3.533181 -7.972546 -0.7470639,-2.783652 -7.898597 -0.6977367,-3.159872 -7.528903 -1.022047,-3.37241 -7.735982 -1.042158,-3.424414 -8.045862 -1.008234,-48 -50 0,-48 -50 0,-48 -50 0,-48 -50 0,-48 -50 0,-48 -50 0,-48 -50 0,-48 -50 0,-48 -50 0,-48 -50 0,-48 -50 0,-48 -50 0,-48 -50 0,-48 -50 0,-48 -50 0,-48 -50 0,-48 -50 0,-48 -50 0,-48 -50 0,-48 -50 0,-48 -50 0,3.51666,1 1 2 3 1 4 False
-2.927371 -9.868332 0.0008142804,-3.466999 -8.992405 0.07600302,-3.657025 -8.092489 -0.009635068,-3.702581 -7.362363 -0.1975676,-3.699548 -6.922967 -0.3860773,-3.11396 -7.314357 -0.07218872,-3.566347 -6.689332 -0.4608372,-3.794625 -7.140766 -0.6042744,-3.806639 -7.57266 -0.6108554,-2.91871 -7.418043 -0.2613531,-3.424622 -6.86293 -0.7278838,-3.658298 -7.320529 -0.8135725,-3.669135 -7.827881 -0.7704282,-2.818573 -7.637146 -0.4904359,-3.306911 -7.143299 -0.9125987,-3.527996 -7.522441 -0.887302,-3.533181 -7.972546 -0.7470639,-2.783652 -7.898597 -0.6977367,-3.159872 -7.528903 -1.022047,-3.37241 -7.735982 -1.042158,-3.424414 -8.045862 -1.008234,-48 -50 0,-48 -50 0,-48 -50 0,-48 -50 0,-48 -50 0,-48 -50 0,-48 -50 0,-48 -50 0,-48 -50 0,-48 -50 0,-48 -50 0,-48 -50 0,-48 -50 0,-48 -50 0,-48 -50 0,-48 -50 0,-48 -50 0,-48 -50 0,-48 -50 0,-48 -50 0,-48 -50 0,3.55000,1 1 2 3 1 4 False
-2.927371 -9.868332 0.0008142804,-3.466999 -8.992405 0.07600302,-3.657025 -8.092489 -0.009635068,-3.702581 -7.362363 -0.1975676,-3.699548 -6.922967 -0.3860773,-3.11396 -7.314357 -0.07218872,-3.566347 -6.689332 -0.4608372,-3.794625 -7.140766 -0.6042744,-3.806639 -7.57266 -0.6108554,-2.91871 -7.418043 -0.2613531,-3.424622 -6.86293 -0.7278838,-3.658298 -7.320529 -0.8135725,-3.669135 -7.827881 -0.7704282,-2.818573 -7.637146 -0.4904359,-3.306911 -7.143299 -0.9125987,-3.527996 -7.522441 -0.887302,-3.533181 -7.972546 -0.7470639,-2.783652 -7.898597 -0.6977367,-3.159872 -7.528903 -1.022047,-3.37241 -7.735982 -1.042158,-3.424414 -8.045862 -1.008234,-48 -50 0,-48 -50 0,-48 -50 0,-48 -50 0,-48 -50 0,-48 -50 0,-48 -50 0,-48 -50 0,-48 -50 0,-48 -50 0,-48 -50 0,-48 -50 0,-48 -50 0,-48 -50 0,-48 -50 0,-48 -50 0,-48 -50 0,-48 -50 0,-48 -50 0,-48 -50 0,-48 -50 0,3.58333,1 1 2 3 1 4 False
-2.927371 -9.868332 0.0008142804,-3.466999 -8.992405 0.07600302,-3.657025 -8.092489 -0.009635068,-3.702581 -7.362363 -0.1975676,-3.699548 -6.922967 -0.3860773,-3.11396 -7.314357 -0.07218872,-3.566347 -6.689332 -0.4608372,-3.794625 -7.140766 -0.6042744,-3.806639 -7.57266 -0.6108554,-2.91871 -7.418043 -0.2613531,-3.424622 -6.86293 -0.7278838,-3.658298 -7.320529 -0.8135725,-3.669135 -7.827881 -0.7704282,-2.818573 -7.637146 -0.4904359,-3.306911 -7.143299 -0.9125987,-3.527996 -7.522441 -0.887302,-3.533181 -7.972546 -0.7470639,-2.783652 -7.898597 -0.6977367,-3.159872 -7.528903 -1.022047,-3.37241 -7.735982 -1.042158,-3.424414 -8.045862 -1.008234,-48 -50 0,-48 -50 0,-48 -50 0,-48 -50 0,-48 -50 0,-48 -50 0,-48 -50 0,-48 -50 0,-48 -50 0,-48 -50 0,-48 -50 0,-48 -50 0,-48 -50 0,-48 -50 0,-48 -50 0,-48 -50 0,-48 -50 0,-48 -50 0,-48 -50 0,-48 -50 0,-48 -50 0,3.61666,1 1 2 3 1 4 False
-2.927371 -9.868332 0.0008142804,-3.466999 -8.992405 0.07600302,-3.657025 -8.092489 -0.009635068,-3.702581 -7.362363 -0.1975676,-3.699548 -6.922967 -0.3860773,-3.11396 -7.314357 -0.07218872,-3.566347 -6.689332 -0.4608372,-3.794625 -7.140766 -0.6042744,-3.806639 -7.57266 -0.6108554,-2.91871 -7.418043 -0.2613531,-3.424622 -6.86293 -0.7278838,-3.658298 -7.320529 -0.8135725,-3.669135 -7.827881 -0.7704282,-2.818573 -7.637146 -0.4904359,-3.306911 -7.143299 -0.9125987,-3.527996 -7.522441 -0.887302,-3.533181 -7.972546 -0.7470639,-2.783652 -7.898597 -0.6977367,-3.159872 -7.528903 -1.022047,-3.37241 -7.735982 -1.042158,-3.424414 -8.045862 -1.008234,-48 -50 0,-48 -50 0,-48 -50 0,-48 -50 0,-48 -50 0,-48 -50 0,-48 -50 0,-48 -50 0,-48 -50 0,-48 -50 0,-48 -50 0,-48 -50 0,-48 -50 0,-48 -50 0,-48 -50 0,-48 -50 0,-48 -50 0,-48 -50 0,-48 -50 0,-48 -50 0,-48 -50 0,3.65000,1 1 2 3 1 4 False
-2.927371 -9.868332 0.0008142804,-3.466999 -8.992405 0.07600302,-3.657025 -8.092489 -0.009635068,-3.702581 -7.362363 -0.1975676,-3.699548 -6.922967 -0.3860773,-3.11396 -7.314357 -0.07218872,-3.566347 -6.689332 -0.4608372,-3.794625 -7.140766 -0.6042744,-3.806639 -7.57266 -0.6108554,-2.91871 -7.418043 -0.2613531,-3.424622 -6.86293 -0.7278838,-3.658298 -7.320529 -0.8135725,-3.669135 -7.827881 -0.7704282,-2.818573 -7.637146 -0.4904359,-3.306911 -7.143299 -0.9125987,-3.527996 -7.522441 -0.887302,-3.533181 -7.972546 -0.7470639,-2.783652 -7.898597 -0.6977367,-3.159872 -7.528903 -1.022047,-3.37241 -7.735982 -1.042158,-3.424414 -8.045862 -1.008234,-48 -50 0,-48 -50 0,-48 -50 0,-48 -50 0,-48 -50 0,-48 -50 0,-48 -50 0,-48 -50 0,-48 -50 0,-48 -50 0,-48 -50 0,-48 -50 0,-48 -50 0,-48 -50 0,-48 -50 0,-48 -50 0,-48 -50 0,-48 -50 0,-48 -50 0,-48 -50 0,-48 -50 0,3.68333,1 1 2 3 1 4 False
-2.927371 -9.868332 0.0008142804,-3.466999 -8.992405 0.07600302,-3.657025 -8.092489 -0.009635068,-3.702581 -7.362363 -0.1975676,-3.699548 -6.922967 -0.3860773,-3.11396 -7.314357 -0.07218872,-3.566347 -6.689332 -0.4608372,-3.794625 -7.140766 -0.6042744,-3.806639 -7.57266 -0.6108554,-2.91871 -7.418043 -0.2613531,-3.424622 -6.86293 -0.7278838,-3.658298 -7.320529 -0.8135725,-3.669135 -7.827881 -0.7704282,-2.818573 -7.637146 -0.4904359,-3.306911 -7.143299 -0.9125987,-3.527996 -7.522441 -0.887302,-3.533181 -7.972546 -0.7470639,-2.783652 -7.898597 -0.6977367,-3.159872 -7.528903 -1.022047,-3.37241 -7.735982 -1.042158,-3.424414 -8.045862 -1.008234,-48 -50 0,-48 -50 0,-48 -50 0,-48 -50 0,-48 -50 0,-48 -50 0,-48 -50 0,-48 -50 0,-48 -50 0,-48 -50 0,-48 -50 0,-48 -50 0,-48 -50 0,-48 -50 0,-48 -50 0,-48 -50 0,-48 -50 0,-48 -50 0,-48 -50 0,-48 -50 0,-48 -50 0,3.71666,1 2 2 4 1 5 False
