TiagoOliveira98/Thesis-Project/Difficulty_0_NEW/Motor_Task/Unity_Project/DataLogging/JointData/Logs(1651328367)_ddd_Motor_Difficulty0.csv
WRIST,THUMB_CMC,THUMB_MCP,THUMB_IP,THUMB_TIP,INDEX_FINGER_MCP,INDEX_FINGER_PIP,INDEX_FINGER_DIP,INDEX_FINGER_TIP,MIDDLE_FINGER_MCP,MIDDLE_FINGER_PIP,MIDDLE_FINGER_DIP,MIDDLE_FINGER_TIP,RING_FINGER_MCP,RING_FINGER_PIP,RING_FINGER_DIP,RING_FINGER_TIP,PINKY_MCP,PINKY_PIP,PINKY_DIP,PINKY_TIP,WRIST2,THUMB_CMC2,THUMB_MCP2,THUMB_IP2,THUMB_TIP2,INDEX_FINGER_MCP2,INDEX_FINGER_PIP2,INDEX_FINGER_DIP2,INDEX_FINGER_TIP2,MIDDLE_FINGER_MCP2,MIDDLE_FINGER_PIP2,MIDDLE_FINGER_DIP2,MIDDLE_FINGER_TIP2,RING_FINGER_MCP2,RING_FINGER_PIP2,RING_FINGER_DIP2,RING_FINGER_TIP2,PINKY_MCP2,PINKY_PIP2,PINKY_DIP2,PINKY_TIP2,Timestamp,Event
-2.659327 -7.689278 -0.02092103,-3.258842 -7.478321 0.2123836,-3.822977 -6.900365 0.3366092,-4.218113 -6.306503 0.4636232,-4.523246 -5.922786 0.5892088,-3.417957 -5.291149 0.08055314,-3.620526 -4.278234 0.209482,-3.723937 -3.664587 0.3308462,-3.806232 -3.089174 0.439759,-3.082197 -5.05487 0.1209463,-3.219078 -3.867282 0.2852578,-3.300668 -3.101852 0.4878055,-3.373255 -2.436529 0.6562465,-2.751993 -5.035881 0.2163782,-2.843432 -3.91814 0.3887905,-2.926593 -3.208879 0.5691211,-3.008257 -2.602292 0.709025,-2.403512 -5.215105 0.3309074,-2.349822 -4.310341 0.4925673,-2.33935 -3.743824 0.6486822,-2.354586 -3.210445 0.782508,-8.258871 -7.88862 -0.01299756,-7.644912 -7.550058 0.2371911,-7.112283 -6.787662 0.3956149,-6.783063 -6.030733 0.5996565,-6.464495 -5.599205 0.8114852,-7.533997 -4.99895 0.0743796,-7.374022 -3.837835 0.2003039,-7.301966 -3.106864 0.376327,-7.247227 -2.472088 0.5378805,-7.896169 -4.807621 0.1446582,-7.753942 -3.505735 0.2211088,-7.672653 -2.649283 0.4462973,-7.619567 -1.907365 0.6536005,-8.250065 -4.883757 0.254994,-8.153918 -3.656537 0.3483356,-8.072325 -2.881429 0.5325379,-7.998611 -2.215921 0.6969956,-8.618055 -5.17373 0.3995816,-8.676813 -4.256023 0.5445543,-8.675793 -3.666827 0.691144,-8.647078 -3.076369 0.8189697,0.01667,0 0 1
-2.659327 -7.689278 -0.02092103,-3.258842 -7.478321 0.2123836,-3.822977 -6.900365 0.3366092,-4.218113 -6.306503 0.4636232,-4.523246 -5.922786 0.5892088,-3.417957 -5.291149 0.08055314,-3.620526 -4.278234 0.209482,-3.723937 -3.664587 0.3308462,-3.806232 -3.089174 0.439759,-3.082197 -5.05487 0.1209463,-3.219078 -3.867282 0.2852578,-3.300668 -3.101852 0.4878055,-3.373255 -2.436529 0.6562465,-2.751993 -5.035881 0.2163782,-2.843432 -3.91814 0.3887905,-2.926593 -3.208879 0.5691211,-3.008257 -2.602292 0.709025,-2.403512 -5.215105 0.3309074,-2.349822 -4.310341 0.4925673,-2.33935 -3.743824 0.6486822,-2.354586 -3.210445 0.782508,-8.258871 -7.88862 -0.01299756,-7.644912 -7.550058 0.2371911,-7.112283 -6.787662 0.3956149,-6.783063 -6.030733 0.5996565,-6.464495 -5.599205 0.8114852,-7.533997 -4.99895 0.0743796,-7.374022 -3.837835 0.2003039,-7.301966 -3.106864 0.376327,-7.247227 -2.472088 0.5378805,-7.896169 -4.807621 0.1446582,-7.753942 -3.505735 0.2211088,-7.672653 -2.649283 0.4462973,-7.619567 -1.907365 0.6536005,-8.250065 -4.883757 0.254994,-8.153918 -3.656537 0.3483356,-8.072325 -2.881429 0.5325379,-7.998611 -2.215921 0.6969956,-8.618055 -5.17373 0.3995816,-8.676813 -4.256023 0.5445543,-8.675793 -3.666827 0.691144,-8.647078 -3.076369 0.8189697,0.05000,0 0 1
-2.666097 -7.691131 0.003743263,-3.264273 -7.486469 0.2333485,-3.826582 -6.900993 0.3492807,-4.215916 -6.29618 0.4669235,-4.519892 -5.904474 0.581606,-3.424829 -5.293277 0.09892263,-3.624768 -4.285589 0.2331479,-3.727821 -3.680022 0.3573812,-3.811444 -3.104478 0.4651233,-3.088463 -5.049212 0.140136,-3.226265 -3.871008 0.3082362,-3.311771 -3.106885 0.510922,-3.387507 -2.437447 0.6827208,-2.75585 -5.028587 0.2359908,-2.850245 -3.915177 0.4137157,-2.936845 -3.207654 0.5925575,-3.018673 -2.601919 0.7317947,-2.402188 -5.210145 0.3520837,-2.352111 -4.305674 0.5162598,-2.343989 -3.735321 0.6736429,-2.359876 -3.197608 0.8089015,-8.261888 -7.882752 -0.03584357,-7.648944 -7.542896 0.2152882,-7.113933 -6.786097 0.3763742,-6.782282 -6.031589 0.5830553,-6.474743 -5.594536 0.799813,-7.538088 -4.998338 0.03593427,-7.381172 -3.844956 0.1542327,-7.307831 -3.116157 0.3301461,-7.252074 -2.493956 0.4932519,-7.898596 -4.807514 0.1031158,-7.755152 -3.509128 0.1708499,-7.672881 -2.656142 0.3927219,-7.618083 -1.919276 0.5990357,-8.250729 -4.88199 0.2099866,-8.152558 -3.65988 0.2946879,-8.070788 -2.886685 0.4744342,-7.995343 -2.21998 0.6384387,-8.617988 -5.169817 0.3527378,-8.680585 -4.255996 0.4857029,-8.68117 -3.671005 0.6260381,-8.652083 -3.083982 0.7527642,0.08333,0 0 1
-2.671372 -7.691129 -0.02198098,-3.26812 -7.48147 0.2113571,-3.827151 -6.898502 0.3329163,-4.213755 -6.29356 0.4569699,-4.519336 -5.903293 0.5792104,-3.421677 -5.299913 0.09278233,-3.625843 -4.291149 0.2334704,-3.728898 -3.684779 0.3632753,-3.811184 -3.107357 0.4728712,-3.084706 -5.056185 0.1316807,-3.224153 -3.875415 0.3047,-3.307444 -3.108226 0.5142972,-3.379457 -2.43288 0.6905401,-2.754004 -5.031722 0.2224926,-2.845858 -3.919752 0.3986422,-2.92862 -3.214094 0.5809651,-3.0066 -2.608442 0.7236084,-2.40502 -5.20331 0.332823,-2.354643 -4.298871 0.4952978,-2.343496 -3.729606 0.6520081,-2.356238 -3.191878 0.7880925,-8.256928 -7.897209 0.003838996,-7.645405 -7.556701 0.254573,-7.114869 -6.793796 0.4105269,-6.791829 -6.037118 0.6126448,-6.481572 -5.613727 0.8236949,-7.537685 -4.997806 0.06512859,-7.378605 -3.84154 0.182236,-7.301832 -3.110877 0.3551908,-7.24272 -2.482503 0.5165878,-7.901418 -4.809112 0.1309267,-7.755361 -3.511121 0.1976436,-7.670289 -2.661024 0.4188342,-7.612267 -1.919034 0.6249925,-8.255426 -4.889144 0.2367136,-8.156478 -3.66902 0.3170002,-8.074566 -2.898332 0.4938303,-7.998831 -2.228706 0.6537979,-8.622825 -5.185443 0.3799621,-8.685689 -4.274084 0.5075557,-8.688529 -3.687789 0.6495782,-8.662614 -3.095899 0.777696,0.11667,0 0 1
-2.671372 -7.691129 -0.02198098,-3.26812 -7.48147 0.2113571,-3.827151 -6.898502 0.3329163,-4.213755 -6.29356 0.4569699,-4.519336 -5.903293 0.5792104,-3.421677 -5.299913 0.09278233,-3.625843 -4.291149 0.2334704,-3.728898 -3.684779 0.3632753,-3.811184 -3.107357 0.4728712,-3.084706 -5.056185 0.1316807,-3.224153 -3.875415 0.3047,-3.307444 -3.108226 0.5142972,-3.379457 -2.43288 0.6905401,-2.754004 -5.031722 0.2224926,-2.845858 -3.919752 0.3986422,-2.92862 -3.214094 0.5809651,-3.0066 -2.608442 0.7236084,-2.40502 -5.20331 0.332823,-2.354643 -4.298871 0.4952978,-2.343496 -3.729606 0.6520081,-2.356238 -3.191878 0.7880925,-8.256928 -7.897209 0.003838996,-7.645405 -7.556701 0.254573,-7.114869 -6.793796 0.4105269,-6.791829 -6.037118 0.6126448,-6.481572 -5.613727 0.8236949,-7.537685 -4.997806 0.06512859,-7.378605 -3.84154 0.182236,-7.301832 -3.110877 0.3551908,-7.24272 -2.482503 0.5165878,-7.901418 -4.809112 0.1309267,-7.755361 -3.511121 0.1976436,-7.670289 -2.661024 0.4188342,-7.612267 -1.919034 0.6249925,-8.255426 -4.889144 0.2367136,-8.156478 -3.66902 0.3170002,-8.074566 -2.898332 0.4938303,-7.998831 -2.228706 0.6537979,-8.622825 -5.185443 0.3799621,-8.685689 -4.274084 0.5075557,-8.688529 -3.687789 0.6495782,-8.662614 -3.095899 0.777696,0.15000,0 0 1
-2.690892 -7.708833 0.0839493,-3.28348 -7.502479 0.2994314,-3.830489 -6.894704 0.4053155,-4.209173 -6.275947 0.5206742,-4.510191 -5.880251 0.6357212,-3.420286 -5.273832 0.1269307,-3.618755 -4.271372 0.2394266,-3.721032 -3.664255 0.3521944,-3.801884 -3.091118 0.4521375,-3.087156 -5.037742 0.1745126,-3.220104 -3.859161 0.3187578,-3.30405 -3.094165 0.5087647,-3.375202 -2.425783 0.667944,-2.761407 -5.022275 0.2771907,-2.846749 -3.90616 0.4321632,-2.933255 -3.191001 0.599385,-3.014053 -2.579488 0.7321045,-2.415791 -5.208808 0.4022496,-2.360133 -4.302751 0.5464423,-2.349293 -3.723669 0.6947197,-2.3614 -3.180362 0.8248708,-8.246829 -7.895645 0.01878404,-7.63674 -7.545352 0.2812461,-7.108958 -6.785163 0.4456552,-6.788159 -6.033407 0.6540199,-6.48118 -5.606995 0.8722956,-7.537285 -4.99269 0.118084,-7.378122 -3.836353 0.2507266,-7.304712 -3.107215 0.4288382,-7.248232 -2.476302 0.5933074,-7.903452 -4.80364 0.1835525,-7.754761 -3.502972 0.2655075,-7.672354 -2.644237 0.49277,-7.618523 -1.898376 0.7050637,-8.260768 -4.880146 0.2889388,-8.157694 -3.654069 0.3802791,-8.078918 -2.878102 0.5643346,-8.006445 -2.208101 0.732942,-8.631657 -5.171424 0.4324266,-8.689095 -4.253786 0.5704934,-8.68875 -3.664811 0.7159351,-8.65971 -3.072414 0.8488542,0.18333,0 0 1
-2.690892 -7.708833 0.0839493,-3.28348 -7.502479 0.2994314,-3.830489 -6.894704 0.4053155,-4.209173 -6.275947 0.5206742,-4.510191 -5.880251 0.6357212,-3.420286 -5.273832 0.1269307,-3.618755 -4.271372 0.2394266,-3.721032 -3.664255 0.3521944,-3.801884 -3.091118 0.4521375,-3.087156 -5.037742 0.1745126,-3.220104 -3.859161 0.3187578,-3.30405 -3.094165 0.5087647,-3.375202 -2.425783 0.667944,-2.761407 -5.022275 0.2771907,-2.846749 -3.90616 0.4321632,-2.933255 -3.191001 0.599385,-3.014053 -2.579488 0.7321045,-2.415791 -5.208808 0.4022496,-2.360133 -4.302751 0.5464423,-2.349293 -3.723669 0.6947197,-2.3614 -3.180362 0.8248708,-8.246829 -7.895645 0.01878404,-7.63674 -7.545352 0.2812461,-7.108958 -6.785163 0.4456552,-6.788159 -6.033407 0.6540199,-6.48118 -5.606995 0.8722956,-7.537285 -4.99269 0.118084,-7.378122 -3.836353 0.2507266,-7.304712 -3.107215 0.4288382,-7.248232 -2.476302 0.5933074,-7.903452 -4.80364 0.1835525,-7.754761 -3.502972 0.2655075,-7.672354 -2.644237 0.49277,-7.618523 -1.898376 0.7050637,-8.260768 -4.880146 0.2889388,-8.157694 -3.654069 0.3802791,-8.078918 -2.878102 0.5643346,-8.006445 -2.208101 0.732942,-8.631657 -5.171424 0.4324266,-8.689095 -4.253786 0.5704934,-8.68875 -3.664811 0.7159351,-8.65971 -3.072414 0.8488542,0.21667,0 0 1
-2.692729 -7.723636 0.1171757,-3.286251 -7.494403 0.3314489,-3.827061 -6.864515 0.4364034,-4.204763 -6.235069 0.5546241,-4.511933 -5.836212 0.6744646,-3.411635 -5.265713 0.1747219,-3.613954 -4.245952 0.2870187,-3.717157 -3.622044 0.3920788,-3.796078 -3.032836 0.4889363,-3.081793 -5.042448 0.2225284,-3.216681 -3.856903 0.3721715,-3.304008 -3.094039 0.5474948,-3.376085 -2.430868 0.693274,-2.758895 -5.033507 0.3283926,-2.835535 -3.906541 0.4869162,-2.919414 -3.185905 0.6468917,-2.997737 -2.565876 0.7715142,-2.416451 -5.224086 0.4545971,-2.358077 -4.31917 0.6086533,-2.346608 -3.741156 0.756532,-2.356343 -3.201604 0.8845463,-8.239792 -7.894683 -0.0004547897,-7.630754 -7.554121 0.2638653,-7.106554 -6.789539 0.4196669,-6.79059 -6.032521 0.6196042,-6.480865 -5.609592 0.8210286,-7.53065 -4.997793 0.08344492,-7.367655 -3.838698 0.2103059,-7.291271 -3.1073 0.3805906,-7.231614 -2.472743 0.5385816,-7.900062 -4.806936 0.1474347,-7.749128 -3.495777 0.226475,-7.668091 -2.644302 0.4494718,-7.611833 -1.897057 0.652135,-8.258832 -4.882722 0.252831,-8.15635 -3.639103 0.349959,-8.082366 -2.858932 0.5361512,-8.011454 -2.179828 0.6975412,-8.628207 -5.173892 0.3930703,-8.684533 -4.250659 0.5420124,-8.687325 -3.657468 0.6911462,-8.661209 -3.058533 0.819088,0.25000,0 0 1
-2.692729 -7.723636 0.1171757,-3.286251 -7.494403 0.3314489,-3.827061 -6.864515 0.4364034,-4.204763 -6.235069 0.5546241,-4.511933 -5.836212 0.6744646,-3.411635 -5.265713 0.1747219,-3.613954 -4.245952 0.2870187,-3.717157 -3.622044 0.3920788,-3.796078 -3.032836 0.4889363,-3.081793 -5.042448 0.2225284,-3.216681 -3.856903 0.3721715,-3.304008 -3.094039 0.5474948,-3.376085 -2.430868 0.693274,-2.758895 -5.033507 0.3283926,-2.835535 -3.906541 0.4869162,-2.919414 -3.185905 0.6468917,-2.997737 -2.565876 0.7715142,-2.416451 -5.224086 0.4545971,-2.358077 -4.31917 0.6086533,-2.346608 -3.741156 0.756532,-2.356343 -3.201604 0.8845463,-8.239792 -7.894683 -0.0004547897,-7.630754 -7.554121 0.2638653,-7.106554 -6.789539 0.4196669,-6.79059 -6.032521 0.6196042,-6.480865 -5.609592 0.8210286,-7.53065 -4.997793 0.08344492,-7.367655 -3.838698 0.2103059,-7.291271 -3.1073 0.3805906,-7.231614 -2.472743 0.5385816,-7.900062 -4.806936 0.1474347,-7.749128 -3.495777 0.226475,-7.668091 -2.644302 0.4494718,-7.611833 -1.897057 0.652135,-8.258832 -4.882722 0.252831,-8.15635 -3.639103 0.349959,-8.082366 -2.858932 0.5361512,-8.011454 -2.179828 0.6975412,-8.628207 -5.173892 0.3930703,-8.684533 -4.250659 0.5420124,-8.687325 -3.657468 0.6911462,-8.661209 -3.058533 0.819088,0.28333,0 0 1
-2.696892 -7.736778 0.1582657,-3.291203 -7.492937 0.3539751,-3.830389 -6.875356 0.4549757,-4.203175 -6.244442 0.5740763,-4.50868 -5.832861 0.6944231,-3.411551 -5.263395 0.1956988,-3.620861 -4.241046 0.3006679,-3.728846 -3.618944 0.3965815,-3.804804 -3.035154 0.4864449,-3.084459 -5.042961 0.2492992,-3.219364 -3.850427 0.3852999,-3.304342 -3.085526 0.5495801,-3.36905 -2.418928 0.6888493,-2.761865 -5.035154 0.3586977,-2.835324 -3.901407 0.4986672,-2.917585 -3.184388 0.6515007,-2.989541 -2.570198 0.7734859,-2.421019 -5.221842 0.4875568,-2.359927 -4.308345 0.6293569,-2.345788 -3.724452 0.7770813,-2.352175 -3.183387 0.9055793,-8.229411 -7.918305 0.06668715,-7.615705 -7.579502 0.3364977,-7.097142 -6.800971 0.4945681,-6.792116 -6.036815 0.6951004,-6.484114 -5.612237 0.8924688,-7.521877 -5.000946 0.1445702,-7.366941 -3.848936 0.2755594,-7.292562 -3.11594 0.4496547,-7.233118 -2.472738 0.6092043,-7.894699 -4.810382 0.2075318,-7.753557 -3.506321 0.2904502,-7.672241 -2.656584 0.5173928,-7.61633 -1.908453 0.7220042,-8.254086 -4.88449 0.312831,-8.159889 -3.649658 0.4108741,-8.085342 -2.87563 0.5945821,-8.014256 -2.200777 0.7522799,-8.623122 -5.17527 0.4547549,-8.677526 -4.252622 0.6016278,-8.67856 -3.65836 0.7448289,-8.651012 -3.057852 0.8650451,0.31667,0 0 1
-2.696892 -7.736778 0.1582657,-3.291203 -7.492937 0.3539751,-3.830389 -6.875356 0.4549757,-4.203175 -6.244442 0.5740763,-4.50868 -5.832861 0.6944231,-3.411551 -5.263395 0.1956988,-3.620861 -4.241046 0.3006679,-3.728846 -3.618944 0.3965815,-3.804804 -3.035154 0.4864449,-3.084459 -5.042961 0.2492992,-3.219364 -3.850427 0.3852999,-3.304342 -3.085526 0.5495801,-3.36905 -2.418928 0.6888493,-2.761865 -5.035154 0.3586977,-2.835324 -3.901407 0.4986672,-2.917585 -3.184388 0.6515007,-2.989541 -2.570198 0.7734859,-2.421019 -5.221842 0.4875568,-2.359927 -4.308345 0.6293569,-2.345788 -3.724452 0.7770813,-2.352175 -3.183387 0.9055793,-8.229411 -7.918305 0.06668715,-7.615705 -7.579502 0.3364977,-7.097142 -6.800971 0.4945681,-6.792116 -6.036815 0.6951004,-6.484114 -5.612237 0.8924688,-7.521877 -5.000946 0.1445702,-7.366941 -3.848936 0.2755594,-7.292562 -3.11594 0.4496547,-7.233118 -2.472738 0.6092043,-7.894699 -4.810382 0.2075318,-7.753557 -3.506321 0.2904502,-7.672241 -2.656584 0.5173928,-7.61633 -1.908453 0.7220042,-8.254086 -4.88449 0.312831,-8.159889 -3.649658 0.4108741,-8.085342 -2.87563 0.5945821,-8.014256 -2.200777 0.7522799,-8.623122 -5.17527 0.4547549,-8.677526 -4.252622 0.6016278,-8.67856 -3.65836 0.7448289,-8.651012 -3.057852 0.8650451,0.35000,0 0 1
-2.692379 -7.743045 0.2186405,-3.28736 -7.487945 0.4057689,-3.825497 -6.860486 0.4979812,-4.201099 -6.228052 0.6128582,-4.506971 -5.8166 0.7309689,-3.405682 -5.2521 0.2287263,-3.618217 -4.23532 0.3244471,-3.727386 -3.614199 0.4167383,-3.804106 -3.026601 0.5062193,-3.081501 -5.031349 0.2866942,-3.220695 -3.844268 0.416438,-3.30867 -3.082983 0.5807283,-3.372934 -2.415778 0.718321,-2.760895 -5.022806 0.402619,-2.837395 -3.890567 0.5402964,-2.9232 -3.176312 0.6954774,-2.99754 -2.560605 0.8180346,-2.421758 -5.209816 0.5372463,-2.364438 -4.293576 0.6809844,-2.353737 -3.705171 0.832121,-2.36263 -3.155832 0.9617693,-8.233266 -7.917852 0.08851478,-7.621888 -7.566186 0.3386479,-7.101416 -6.78136 0.4876151,-6.787761 -6.023315 0.68446,-6.475754 -5.599777 0.8848386,-7.521808 -4.989753 0.1261094,-7.361025 -3.847976 0.2432375,-7.281281 -3.1191 0.4144114,-7.218265 -2.485374 0.5724381,-7.892335 -4.80325 0.2033484,-7.750521 -3.506246 0.2724721,-7.665962 -2.659632 0.4935203,-7.605398 -1.919339 0.6924227,-8.249025 -4.878348 0.3263843,-8.157541 -3.65135 0.4193323,-8.079623 -2.875186 0.6050164,-8.002668 -2.199435 0.7625716,-8.616501 -5.165504 0.4862568,-8.683322 -4.244907 0.6331908,-8.690838 -3.649631 0.7736979,-8.667491 -3.047736 0.8922592,0.38333,0 0 1
-2.692379 -7.743045 0.2186405,-3.28736 -7.487945 0.4057689,-3.825497 -6.860486 0.4979812,-4.201099 -6.228052 0.6128582,-4.506971 -5.8166 0.7309689,-3.405682 -5.2521 0.2287263,-3.618217 -4.23532 0.3244471,-3.727386 -3.614199 0.4167383,-3.804106 -3.026601 0.5062193,-3.081501 -5.031349 0.2866942,-3.220695 -3.844268 0.416438,-3.30867 -3.082983 0.5807283,-3.372934 -2.415778 0.718321,-2.760895 -5.022806 0.402619,-2.837395 -3.890567 0.5402964,-2.9232 -3.176312 0.6954774,-2.99754 -2.560605 0.8180346,-2.421758 -5.209816 0.5372463,-2.364438 -4.293576 0.6809844,-2.353737 -3.705171 0.832121,-2.36263 -3.155832 0.9617693,-8.233266 -7.917852 0.08851478,-7.621888 -7.566186 0.3386479,-7.101416 -6.78136 0.4876151,-6.787761 -6.023315 0.68446,-6.475754 -5.599777 0.8848386,-7.521808 -4.989753 0.1261094,-7.361025 -3.847976 0.2432375,-7.281281 -3.1191 0.4144114,-7.218265 -2.485374 0.5724381,-7.892335 -4.80325 0.2033484,-7.750521 -3.506246 0.2724721,-7.665962 -2.659632 0.4935203,-7.605398 -1.919339 0.6924227,-8.249025 -4.878348 0.3263843,-8.157541 -3.65135 0.4193323,-8.079623 -2.875186 0.6050164,-8.002668 -2.199435 0.7625716,-8.616501 -5.165504 0.4862568,-8.683322 -4.244907 0.6331908,-8.690838 -3.649631 0.7736979,-8.667491 -3.047736 0.8922592,0.41667,0 0 1
-2.682976 -7.742834 0.2218156,-3.280005 -7.477308 0.4215008,-3.818409 -6.862443 0.5296932,-4.194315 -6.231222 0.6564516,-4.501678 -5.807729 0.7881804,-3.403337 -5.254238 0.2577988,-3.61602 -4.237791 0.3619531,-3.723537 -3.618631 0.4586067,-3.802057 -3.033045 0.5530815,-3.077518 -5.031682 0.3129796,-3.218562 -3.842159 0.4529336,-3.305091 -3.084489 0.6192366,-3.370986 -2.421541 0.7618126,-2.756415 -5.024013 0.4274135,-2.834141 -3.888697 0.5739762,-2.9183 -3.171369 0.7340257,-2.994531 -2.555841 0.8595825,-2.417841 -5.212978 0.5600623,-2.360258 -4.29675 0.7091583,-2.348556 -3.707953 0.8630734,-2.35737 -3.159716 0.9958119,-8.234757 -7.911279 0.08004627,-7.629532 -7.551249 0.3366137,-7.107996 -6.770099 0.4939301,-6.791585 -6.010021 0.6978479,-6.47837 -5.589164 0.9125866,-7.528053 -4.98591 0.1449065,-7.365668 -3.838437 0.2629388,-7.289047 -3.11268 0.4323973,-7.23076 -2.478854 0.5905854,-7.898222 -4.799537 0.2171209,-7.752139 -3.494835 0.2816595,-7.671925 -2.647302 0.4988837,-7.617685 -1.905421 0.6999767,-8.255544 -4.878092 0.3317331,-8.157574 -3.637801 0.4183389,-8.08299 -2.859418 0.6009155,-8.011799 -2.181555 0.761447,-8.623978 -5.169447 0.4829148,-8.684277 -4.249684 0.6234078,-8.687476 -3.657822 0.7635547,-8.661176 -3.061052 0.8848009,0.45000,0 0 1
-2.682976 -7.742834 0.2218156,-3.280005 -7.477308 0.4215008,-3.818409 -6.862443 0.5296932,-4.194315 -6.231222 0.6564516,-4.501678 -5.807729 0.7881804,-3.403337 -5.254238 0.2577988,-3.61602 -4.237791 0.3619531,-3.723537 -3.618631 0.4586067,-3.802057 -3.033045 0.5530815,-3.077518 -5.031682 0.3129796,-3.218562 -3.842159 0.4529336,-3.305091 -3.084489 0.6192366,-3.370986 -2.421541 0.7618126,-2.756415 -5.024013 0.4274135,-2.834141 -3.888697 0.5739762,-2.9183 -3.171369 0.7340257,-2.994531 -2.555841 0.8595825,-2.417841 -5.212978 0.5600623,-2.360258 -4.29675 0.7091583,-2.348556 -3.707953 0.8630734,-2.35737 -3.159716 0.9958119,-8.234757 -7.911279 0.08004627,-7.629532 -7.551249 0.3366137,-7.107996 -6.770099 0.4939301,-6.791585 -6.010021 0.6978479,-6.47837 -5.589164 0.9125866,-7.528053 -4.98591 0.1449065,-7.365668 -3.838437 0.2629388,-7.289047 -3.11268 0.4323973,-7.23076 -2.478854 0.5905854,-7.898222 -4.799537 0.2171209,-7.752139 -3.494835 0.2816595,-7.671925 -2.647302 0.4988837,-7.617685 -1.905421 0.6999767,-8.255544 -4.878092 0.3317331,-8.157574 -3.637801 0.4183389,-8.08299 -2.859418 0.6009155,-8.011799 -2.181555 0.761447,-8.623978 -5.169447 0.4829148,-8.684277 -4.249684 0.6234078,-8.687476 -3.657822 0.7635547,-8.661176 -3.061052 0.8848009,0.48333,0 0 1
-2.693668 -7.751596 0.2392295,-3.290445 -7.491339 0.4284763,-3.825352 -6.859409 0.5207549,-4.193729 -6.214997 0.6342183,-4.501637 -5.795465 0.7527708,-3.403782 -5.253358 0.24034,-3.612811 -4.238435 0.3332597,-3.720306 -3.622423 0.4212021,-3.797777 -3.040393 0.5101807,-3.080042 -5.033377 0.2979128,-3.218602 -3.844002 0.4285498,-3.304882 -3.084822 0.5957682,-3.368991 -2.420545 0.7397761,-2.761052 -5.028507 0.4151369,-2.835637 -3.891179 0.5585831,-2.919388 -3.174385 0.7199516,-2.99352 -2.557842 0.8486106,-2.424293 -5.219814 0.5506297,-2.363096 -4.305176 0.6977049,-2.349035 -3.715854 0.8527811,-2.353014 -3.165313 0.9838624,-8.24511 -7.910977 0.109282,-7.635911 -7.554935 0.3743574,-7.114315 -6.77469 0.5409341,-6.797963 -6.014097 0.7548121,-6.489164 -5.574864 0.9732378,-7.535912 -4.981718 0.1802318,-7.371278 -3.835636 0.3012748,-7.29487 -3.111406 0.4708784,-7.238011 -2.481512 0.6286485,-7.904356 -4.791456 0.2501231,-7.755715 -3.489561 0.3184592,-7.676226 -2.646116 0.5371398,-7.62543 -1.907549 0.7369463,-8.261132 -4.867732 0.3626451,-8.159586 -3.629772 0.4515374,-8.084146 -2.851776 0.6376832,-8.015041 -2.174743 0.7982072,-8.629741 -5.161766 0.5128588,-8.683142 -4.239288 0.6536378,-8.685641 -3.647804 0.7950213,-8.659598 -3.051971 0.9176408,0.51667,0 0 1
-2.693668 -7.751596 0.2392295,-3.290445 -7.491339 0.4284763,-3.825352 -6.859409 0.5207549,-4.193729 -6.214997 0.6342183,-4.501637 -5.795465 0.7527708,-3.403782 -5.253358 0.24034,-3.612811 -4.238435 0.3332597,-3.720306 -3.622423 0.4212021,-3.797777 -3.040393 0.5101807,-3.080042 -5.033377 0.2979128,-3.218602 -3.844002 0.4285498,-3.304882 -3.084822 0.5957682,-3.368991 -2.420545 0.7397761,-2.761052 -5.028507 0.4151369,-2.835637 -3.891179 0.5585831,-2.919388 -3.174385 0.7199516,-2.99352 -2.557842 0.8486106,-2.424293 -5.219814 0.5506297,-2.363096 -4.305176 0.6977049,-2.349035 -3.715854 0.8527811,-2.353014 -3.165313 0.9838624,-8.24511 -7.910977 0.109282,-7.635911 -7.554935 0.3743574,-7.114315 -6.77469 0.5409341,-6.797963 -6.014097 0.7548121,-6.489164 -5.574864 0.9732378,-7.535912 -4.981718 0.1802318,-7.371278 -3.835636 0.3012748,-7.29487 -3.111406 0.4708784,-7.238011 -2.481512 0.6286485,-7.904356 -4.791456 0.2501231,-7.755715 -3.489561 0.3184592,-7.676226 -2.646116 0.5371398,-7.62543 -1.907549 0.7369463,-8.261132 -4.867732 0.3626451,-8.159586 -3.629772 0.4515374,-8.084146 -2.851776 0.6376832,-8.015041 -2.174743 0.7982072,-8.629741 -5.161766 0.5128588,-8.683142 -4.239288 0.6536378,-8.685641 -3.647804 0.7950213,-8.659598 -3.051971 0.9176408,0.55000,0 0 1
-2.676516 -7.767353 0.2829349,-3.268685 -7.501138 0.4840146,-3.808081 -6.869113 0.5845376,-4.182474 -6.234994 0.7064201,-4.484621 -5.811569 0.8349371,-3.396265 -5.25695 0.2887709,-3.606651 -4.24358 0.3823411,-3.714808 -3.626521 0.4720097,-3.792788 -3.044595 0.5625491,-3.073441 -5.038099 0.3461434,-3.211905 -3.851901 0.4723619,-3.298553 -3.095198 0.6341835,-3.363565 -2.437797 0.7749439,-2.754423 -5.035339 0.4672424,-2.835247 -3.901699 0.610558,-2.922934 -3.184135 0.7679585,-3.000878 -2.567312 0.8935714,-2.41644 -5.232126 0.6081549,-2.358816 -4.316482 0.7539673,-2.346842 -3.728015 0.9043965,-2.351786 -3.180658 1.03605,-8.256094 -7.91629 0.1038425,-7.651761 -7.554647 0.3696004,-7.125256 -6.7754 0.5365982,-6.802931 -6.015567 0.7510416,-6.49202 -5.582143 0.9730037,-7.543469 -4.987434 0.1702968,-7.38081 -3.837598 0.2846961,-7.307783 -3.1094 0.4540554,-7.25407 -2.482522 0.6133043,-7.911102 -4.79834 0.2339178,-7.764198 -3.495336 0.2958232,-7.686137 -2.642757 0.5160934,-7.637707 -1.901532 0.7190516,-8.268 -4.875493 0.339294,-8.169316 -3.642765 0.4203805,-8.091578 -2.868496 0.6028721,-8.021168 -2.198631 0.7629796,-8.637498 -5.169046 0.4834591,-8.69565 -4.248353 0.6181174,-8.69978 -3.660871 0.7577678,-8.677151 -3.069799 0.8793685,0.58333,0 0 1
-2.676516 -7.767353 0.2829349,-3.268685 -7.501138 0.4840146,-3.808081 -6.869113 0.5845376,-4.182474 -6.234994 0.7064201,-4.484621 -5.811569 0.8349371,-3.396265 -5.25695 0.2887709,-3.606651 -4.24358 0.3823411,-3.714808 -3.626521 0.4720097,-3.792788 -3.044595 0.5625491,-3.073441 -5.038099 0.3461434,-3.211905 -3.851901 0.4723619,-3.298553 -3.095198 0.6341835,-3.363565 -2.437797 0.7749439,-2.754423 -5.035339 0.4672424,-2.835247 -3.901699 0.610558,-2.922934 -3.184135 0.7679585,-3.000878 -2.567312 0.8935714,-2.41644 -5.232126 0.6081549,-2.358816 -4.316482 0.7539673,-2.346842 -3.728015 0.9043965,-2.351786 -3.180658 1.03605,-8.256094 -7.91629 0.1038425,-7.651761 -7.554647 0.3696004,-7.125256 -6.7754 0.5365982,-6.802931 -6.015567 0.7510416,-6.49202 -5.582143 0.9730037,-7.543469 -4.987434 0.1702968,-7.38081 -3.837598 0.2846961,-7.307783 -3.1094 0.4540554,-7.25407 -2.482522 0.6133043,-7.911102 -4.79834 0.2339178,-7.764198 -3.495336 0.2958232,-7.686137 -2.642757 0.5160934,-7.637707 -1.901532 0.7190516,-8.268 -4.875493 0.339294,-8.169316 -3.642765 0.4203805,-8.091578 -2.868496 0.6028721,-8.021168 -2.198631 0.7629796,-8.637498 -5.169046 0.4834591,-8.69565 -4.248353 0.6181174,-8.69978 -3.660871 0.7577678,-8.677151 -3.069799 0.8793685,0.61667,0 0 1
-2.674872 -7.780815 0.3179392,-3.264837 -7.528945 0.5228754,-3.799449 -6.880527 0.6166589,-4.172997 -6.230846 0.7302197,-4.490459 -5.817564 0.8534432,-3.38835 -5.262834 0.3194847,-3.596005 -4.248788 0.4066525,-3.70144 -3.63022 0.4890766,-3.778239 -3.045671 0.5781758,-3.06435 -5.040205 0.372263,-3.206331 -3.852228 0.4961672,-3.296276 -3.096487 0.6525379,-3.363355 -2.441061 0.7857679,-2.744925 -5.038241 0.4884149,-2.82441 -3.898004 0.6324427,-2.916475 -3.174192 0.7920532,-2.996657 -2.55133 0.9164672,-2.406938 -5.241719 0.6264032,-2.351191 -4.328556 0.7773002,-2.343049 -3.739904 0.9324664,-2.348584 -3.191778 1.066086,-8.269572 -7.917634 0.1045908,-7.667018 -7.562126 0.3596015,-7.138018 -6.782547 0.5210543,-6.814686 -6.018594 0.7299728,-6.498998 -5.595824 0.9462494,-7.552172 -4.995389 0.1724243,-7.39084 -3.84324 0.2872921,-7.318733 -3.11555 0.4556938,-7.264956 -2.48834 0.6134723,-7.918509 -4.800365 0.2397294,-7.776283 -3.494857 0.3059478,-7.700397 -2.637366 0.5251209,-7.65138 -1.893732 0.7314596,-8.274721 -4.877449 0.3476155,-8.177001 -3.643099 0.4309107,-8.10134 -2.865186 0.607951,-8.031882 -2.195212 0.767942,-8.645096 -5.172256 0.4915521,-8.696918 -4.252728 0.6305196,-8.696596 -3.66487 0.7702716,-8.669024 -3.07801 0.8948743,0.65000,0 0 1
-2.674872 -7.780815 0.3179392,-3.264837 -7.528945 0.5228754,-3.799449 -6.880527 0.6166589,-4.172997 -6.230846 0.7302197,-4.490459 -5.817564 0.8534432,-3.38835 -5.262834 0.3194847,-3.596005 -4.248788 0.4066525,-3.70144 -3.63022 0.4890766,-3.778239 -3.045671 0.5781758,-3.06435 -5.040205 0.372263,-3.206331 -3.852228 0.4961672,-3.296276 -3.096487 0.6525379,-3.363355 -2.441061 0.7857679,-2.744925 -5.038241 0.4884149,-2.82441 -3.898004 0.6324427,-2.916475 -3.174192 0.7920532,-2.996657 -2.55133 0.9164672,-2.406938 -5.241719 0.6264032,-2.351191 -4.328556 0.7773002,-2.343049 -3.739904 0.9324664,-2.348584 -3.191778 1.066086,-8.269572 -7.917634 0.1045908,-7.667018 -7.562126 0.3596015,-7.138018 -6.782547 0.5210543,-6.814686 -6.018594 0.7299728,-6.498998 -5.595824 0.9462494,-7.552172 -4.995389 0.1724243,-7.39084 -3.84324 0.2872921,-7.318733 -3.11555 0.4556938,-7.264956 -2.48834 0.6134723,-7.918509 -4.800365 0.2397294,-7.776283 -3.494857 0.3059478,-7.700397 -2.637366 0.5251209,-7.65138 -1.893732 0.7314596,-8.274721 -4.877449 0.3476155,-8.177001 -3.643099 0.4309107,-8.10134 -2.865186 0.607951,-8.031882 -2.195212 0.767942,-8.645096 -5.172256 0.4915521,-8.696918 -4.252728 0.6305196,-8.696596 -3.66487 0.7702716,-8.669024 -3.07801 0.8948743,0.68333,0 0 1
-2.656641 -7.8041 0.3291315,-3.251646 -7.534235 0.5381713,-3.787437 -6.887191 0.6379672,-4.158329 -6.232662 0.7554915,-4.46828 -5.80682 0.8761578,-3.378768 -5.280751 0.3556658,-3.589186 -4.266834 0.4509765,-3.693981 -3.648144 0.5375515,-3.768946 -3.061045 0.6288753,-3.053732 -5.061872 0.4053881,-3.196503 -3.87853 0.5351238,-3.284983 -3.129992 0.6935588,-3.350933 -2.470645 0.8345304,-2.735149 -5.061431 0.5180688,-2.814198 -3.931194 0.663744,-2.902946 -3.217662 0.8190579,-2.981063 -2.596804 0.945612,-2.398828 -5.260412 0.651026,-2.342872 -4.349112 0.801729,-2.333406 -3.769314 0.9538518,-2.339084 -3.2288 1.086119,-8.296174 -7.967422 0.1183382,-7.685452 -7.616324 0.3490244,-7.158809 -6.822746 0.4926116,-6.83366 -6.051927 0.6900994,-6.522422 -5.618155 0.8864554,-7.572117 -5.035284 0.1189445,-7.416767 -3.875788 0.2212752,-7.343444 -3.149969 0.387828,-7.286489 -2.521175 0.5472401,-7.939966 -4.844875 0.1957948,-7.804377 -3.538052 0.2507562,-7.722722 -2.676436 0.4735493,-7.667577 -1.927407 0.6846291,-8.299376 -4.924785 0.3137413,-8.203074 -3.686277 0.3845648,-8.112185 -2.904904 0.5552362,-8.028429 -2.23758 0.713018,-8.671553 -5.222478 0.465994,-8.716855 -4.28949 0.6013676,-8.707157 -3.68324 0.7445183,-8.671394 -3.084473 0.8696573,0.71667,0 0 1
-2.651693 -7.822324 0.3528106,-3.243149 -7.547937 0.5492457,-3.769028 -6.895383 0.631394,-4.120434 -6.238676 0.7352144,-4.421944 -5.809991 0.8431228,-3.364002 -5.28932 0.3509935,-3.576612 -4.283453 0.4401372,-3.683811 -3.669172 0.5300437,-3.76397 -3.080152 0.6248268,-3.040754 -5.07147 0.401392,-3.177616 -3.897892 0.5304927,-3.262331 -3.154222 0.6994157,-3.325232 -2.49089 0.8479393,-2.724501 -5.069416 0.5145095,-2.804099 -3.950946 0.6559181,-2.891371 -3.246002 0.816685,-2.968364 -2.629028 0.9521965,-2.388911 -5.262813 0.6460871,-2.338834 -4.357008 0.7942106,-2.332897 -3.777164 0.951683,-2.342477 -3.233018 1.087894,-8.299104 -7.996126 0.1358364,-7.692226 -7.62404 0.3839672,-7.175451 -6.831203 0.5452446,-6.858781 -6.052001 0.7566019,-6.545518 -5.605968 0.9687047,-7.584553 -5.058712 0.1683348,-7.429793 -3.912118 0.2861657,-7.357284 -3.19218 0.4634345,-7.30081 -2.565793 0.627224,-7.951035 -4.868742 0.2498771,-7.82488 -3.567147 0.3153661,-7.748322 -2.70851 0.5486101,-7.695675 -1.957148 0.7645051,-8.308216 -4.94461 0.3752823,-8.219067 -3.713174 0.4543914,-8.135481 -2.935318 0.6385378,-8.056484 -2.256636 0.8005053,-8.679399 -5.236903 0.5359896,-8.732213 -4.306785 0.6787907,-8.731447 -3.701404 0.8190382,-8.70334 -3.094203 0.9429752,0.75000,0 0 1
-2.651693 -7.822324 0.3528106,-3.243149 -7.547937 0.5492457,-3.769028 -6.895383 0.631394,-4.120434 -6.238676 0.7352144,-4.421944 -5.809991 0.8431228,-3.364002 -5.28932 0.3509935,-3.576612 -4.283453 0.4401372,-3.683811 -3.669172 0.5300437,-3.76397 -3.080152 0.6248268,-3.040754 -5.07147 0.401392,-3.177616 -3.897892 0.5304927,-3.262331 -3.154222 0.6994157,-3.325232 -2.49089 0.8479393,-2.724501 -5.069416 0.5145095,-2.804099 -3.950946 0.6559181,-2.891371 -3.246002 0.816685,-2.968364 -2.629028 0.9521965,-2.388911 -5.262813 0.6460871,-2.338834 -4.357008 0.7942106,-2.332897 -3.777164 0.951683,-2.342477 -3.233018 1.087894,-8.299104 -7.996126 0.1358364,-7.692226 -7.62404 0.3839672,-7.175451 -6.831203 0.5452446,-6.858781 -6.052001 0.7566019,-6.545518 -5.605968 0.9687047,-7.584553 -5.058712 0.1683348,-7.429793 -3.912118 0.2861657,-7.357284 -3.19218 0.4634345,-7.30081 -2.565793 0.627224,-7.951035 -4.868742 0.2498771,-7.82488 -3.567147 0.3153661,-7.748322 -2.70851 0.5486101,-7.695675 -1.957148 0.7645051,-8.308216 -4.94461 0.3752823,-8.219067 -3.713174 0.4543914,-8.135481 -2.935318 0.6385378,-8.056484 -2.256636 0.8005053,-8.679399 -5.236903 0.5359896,-8.732213 -4.306785 0.6787907,-8.731447 -3.701404 0.8190382,-8.70334 -3.094203 0.9429752,0.78333,0 0 1
-2.626137 -7.827135 0.3152294,-3.20944 -7.536048 0.5107932,-3.728987 -6.863636 0.5948871,-4.073441 -6.2049 0.7054752,-4.377554 -5.775354 0.8259951,-3.34684 -5.300223 0.332474,-3.564149 -4.291367 0.433317,-3.670959 -3.669193 0.5267642,-3.749709 -3.073401 0.6215729,-3.026487 -5.08928 0.3869653,-3.166811 -3.921247 0.5270309,-3.250755 -3.185733 0.6931887,-3.312197 -2.530242 0.8419143,-2.7112 -5.094522 0.5069252,-2.792122 -3.976886 0.6634101,-2.878131 -3.271814 0.831897,-2.954385 -2.644797 0.9771745,-2.375417 -5.298881 0.6439627,-2.331324 -4.400012 0.8001612,-2.328256 -3.824594 0.9638034,-2.339124 -3.276445 1.107019,-8.32226 -8.005724 0.1291625,-7.715068 -7.643398 0.3791683,-7.200891 -6.835779 0.5377363,-6.891442 -6.052304 0.7459059,-6.576688 -5.61412 0.9549331,-7.603739 -5.074081 0.1727981,-7.441162 -3.94315 0.291473,-7.359943 -3.230546 0.4622734,-7.299711 -2.604173 0.6218665,-7.968427 -4.881633 0.262038,-7.839241 -3.588303 0.3291191,-7.757774 -2.735797 0.556888,-7.70005 -1.991452 0.7638969,-8.322644 -4.954751 0.3955749,-8.232547 -3.717722 0.4904999,-8.145191 -2.933813 0.6896746,-8.061091 -2.247795 0.8602049,-8.691083 -5.244691 0.564341,-8.743877 -4.316617 0.7234076,-8.744902 -3.713329 0.8720636,-8.714897 -3.110509 1.001898,0.81667,0 0 1
-2.626137 -7.827135 0.3152294,-3.20944 -7.536048 0.5107932,-3.728987 -6.863636 0.5948871,-4.073441 -6.2049 0.7054752,-4.377554 -5.775354 0.8259951,-3.34684 -5.300223 0.332474,-3.564149 -4.291367 0.433317,-3.670959 -3.669193 0.5267642,-3.749709 -3.073401 0.6215729,-3.026487 -5.08928 0.3869653,-3.166811 -3.921247 0.5270309,-3.250755 -3.185733 0.6931887,-3.312197 -2.530242 0.8419143,-2.7112 -5.094522 0.5069252,-2.792122 -3.976886 0.6634101,-2.878131 -3.271814 0.831897,-2.954385 -2.644797 0.9771745,-2.375417 -5.298881 0.6439627,-2.331324 -4.400012 0.8001612,-2.328256 -3.824594 0.9638034,-2.339124 -3.276445 1.107019,-8.32226 -8.005724 0.1291625,-7.715068 -7.643398 0.3791683,-7.200891 -6.835779 0.5377363,-6.891442 -6.052304 0.7459059,-6.576688 -5.61412 0.9549331,-7.603739 -5.074081 0.1727981,-7.441162 -3.94315 0.291473,-7.359943 -3.230546 0.4622734,-7.299711 -2.604173 0.6218665,-7.968427 -4.881633 0.262038,-7.839241 -3.588303 0.3291191,-7.757774 -2.735797 0.556888,-7.70005 -1.991452 0.7638969,-8.322644 -4.954751 0.3955749,-8.232547 -3.717722 0.4904999,-8.145191 -2.933813 0.6896746,-8.061091 -2.247795 0.8602049,-8.691083 -5.244691 0.564341,-8.743877 -4.316617 0.7234076,-8.744902 -3.713329 0.8720636,-8.714897 -3.110509 1.001898,0.85000,0 0 1
-2.605118 -7.830816 0.3010298,-3.172211 -7.518249 0.5538087,-3.677961 -6.858081 0.6811084,-4.005598 -6.183465 0.8281249,-4.306166 -5.7117 0.9985874,-3.33093 -5.310598 0.4032373,-3.545705 -4.303609 0.5259162,-3.65316 -3.68041 0.6311691,-3.738241 -3.081216 0.7407982,-3.008196 -5.099607 0.4308225,-3.152082 -3.939216 0.5797228,-3.240914 -3.215758 0.7473079,-3.306953 -2.571805 0.903066,-2.693542 -5.108518 0.5270531,-2.773129 -4.003049 0.6872413,-2.864735 -3.30208 0.8652165,-2.94672 -2.682394 1.02219,-2.35886 -5.315311 0.6434674,-2.320136 -4.419845 0.8077353,-2.328928 -3.846529 0.9860408,-2.350356 -3.312053 1.14306,-8.348634 -8.012993 0.1226291,-7.734671 -7.670111 0.3818497,-7.218618 -6.862783 0.5433723,-6.911058 -6.079409 0.7543365,-6.592403 -5.639163 0.9605862,-7.620324 -5.086586 0.1762879,-7.454089 -3.96276 0.3133933,-7.371765 -3.250379 0.5003335,-7.310038 -2.609622 0.6688622,-7.985413 -4.892148 0.2617038,-7.854889 -3.608888 0.3482761,-7.777468 -2.760598 0.5930448,-7.725887 -2.013706 0.8092661,-8.339473 -4.960634 0.3947225,-8.244535 -3.737345 0.4945949,-8.159739 -2.959246 0.693935,-8.080935 -2.274371 0.8660237,-8.709731 -5.242652 0.5595447,-8.747006 -4.305664 0.7217718,-8.741755 -3.699176 0.8698487,-8.712055 -3.092479 0.994503,0.88333,0 0 1
-2.605118 -7.830816 0.3010298,-3.172211 -7.518249 0.5538087,-3.677961 -6.858081 0.6811084,-4.005598 -6.183465 0.8281249,-4.306166 -5.7117 0.9985874,-3.33093 -5.310598 0.4032373,-3.545705 -4.303609 0.5259162,-3.65316 -3.68041 0.6311691,-3.738241 -3.081216 0.7407982,-3.008196 -5.099607 0.4308225,-3.152082 -3.939216 0.5797228,-3.240914 -3.215758 0.7473079,-3.306953 -2.571805 0.903066,-2.693542 -5.108518 0.5270531,-2.773129 -4.003049 0.6872413,-2.864735 -3.30208 0.8652165,-2.94672 -2.682394 1.02219,-2.35886 -5.315311 0.6434674,-2.320136 -4.419845 0.8077353,-2.328928 -3.846529 0.9860408,-2.350356 -3.312053 1.14306,-8.348634 -8.012993 0.1226291,-7.734671 -7.670111 0.3818497,-7.218618 -6.862783 0.5433723,-6.911058 -6.079409 0.7543365,-6.592403 -5.639163 0.9605862,-7.620324 -5.086586 0.1762879,-7.454089 -3.96276 0.3133933,-7.371765 -3.250379 0.5003335,-7.310038 -2.609622 0.6688622,-7.985413 -4.892148 0.2617038,-7.854889 -3.608888 0.3482761,-7.777468 -2.760598 0.5930448,-7.725887 -2.013706 0.8092661,-8.339473 -4.960634 0.3947225,-8.244535 -3.737345 0.4945949,-8.159739 -2.959246 0.693935,-8.080935 -2.274371 0.8660237,-8.709731 -5.242652 0.5595447,-8.747006 -4.305664 0.7217718,-8.741755 -3.699176 0.8698487,-8.712055 -3.092479 0.994503,0.91667,0 0 1
-2.591641 -7.868919 0.2889055,-3.152596 -7.535675 0.5699387,-3.648661 -6.868276 0.7201381,-3.965439 -6.19003 0.8891576,-4.252492 -5.678285 1.079717,-3.306254 -5.351408 0.4348524,-3.528574 -4.343574 0.5858155,-3.644802 -3.717708 0.7134242,-3.73451 -3.116852 0.8359594,-2.984318 -5.141935 0.4593438,-3.116178 -3.988158 0.6286113,-3.202499 -3.264565 0.8203854,-3.267988 -2.613775 0.9935575,-2.672593 -5.157484 0.5541337,-2.746281 -4.06203 0.7240869,-2.841035 -3.369275 0.919943,-2.923352 -2.754503 1.093052,-2.344821 -5.37 0.6690939,-2.304586 -4.476917 0.8429385,-2.315114 -3.899028 1.031792,-2.336215 -3.360685 1.19064,-8.373516 -8.029747 0.1156891,-7.757524 -7.683057 0.3555964,-7.251518 -6.862077 0.5020032,-6.958251 -6.062288 0.6965687,-6.638584 -5.594006 0.879412,-7.623035 -5.109972 0.09920692,-7.443147 -4.026445 0.2289015,-7.357262 -3.341523 0.3873747,-7.28902 -2.724903 0.5175045,-7.988167 -4.911546 0.1958939,-7.863192 -3.653817 0.2593588,-7.791172 -2.851907 0.4769292,-7.73709 -2.150199 0.6571957,-8.337716 -4.989503 0.3462921,-8.258162 -3.795233 0.4484026,-8.194882 -3.025988 0.6558582,-8.128228 -2.338757 0.8319384,-8.70185 -5.294347 0.5237964,-8.72365 -4.371811 0.7150684,-8.7048 -3.774214 0.8955715,-8.651579 -3.19226 1.033071,0.95000,0 0 1
-2.591641 -7.868919 0.2889055,-3.152596 -7.535675 0.5699387,-3.648661 -6.868276 0.7201381,-3.965439 -6.19003 0.8891576,-4.252492 -5.678285 1.079717,-3.306254 -5.351408 0.4348524,-3.528574 -4.343574 0.5858155,-3.644802 -3.717708 0.7134242,-3.73451 -3.116852 0.8359594,-2.984318 -5.141935 0.4593438,-3.116178 -3.988158 0.6286113,-3.202499 -3.264565 0.8203854,-3.267988 -2.613775 0.9935575,-2.672593 -5.157484 0.5541337,-2.746281 -4.06203 0.7240869,-2.841035 -3.369275 0.919943,-2.923352 -2.754503 1.093052,-2.344821 -5.37 0.6690939,-2.304586 -4.476917 0.8429385,-2.315114 -3.899028 1.031792,-2.336215 -3.360685 1.19064,-8.373516 -8.029747 0.1156891,-7.757524 -7.683057 0.3555964,-7.251518 -6.862077 0.5020032,-6.958251 -6.062288 0.6965687,-6.638584 -5.594006 0.879412,-7.623035 -5.109972 0.09920692,-7.443147 -4.026445 0.2289015,-7.357262 -3.341523 0.3873747,-7.28902 -2.724903 0.5175045,-7.988167 -4.911546 0.1958939,-7.863192 -3.653817 0.2593588,-7.791172 -2.851907 0.4769292,-7.73709 -2.150199 0.6571957,-8.337716 -4.989503 0.3462921,-8.258162 -3.795233 0.4484026,-8.194882 -3.025988 0.6558582,-8.128228 -2.338757 0.8319384,-8.70185 -5.294347 0.5237964,-8.72365 -4.371811 0.7150684,-8.7048 -3.774214 0.8955715,-8.651579 -3.19226 1.033071,0.98333,0 0 1
-2.610627 -7.861483 0.3085785,-3.173431 -7.548793 0.56408,-3.659965 -6.859595 0.6930314,-3.966812 -6.170623 0.8482679,-4.263737 -5.672468 1.025867,-3.309568 -5.337168 0.4072107,-3.533392 -4.334742 0.5450851,-3.652294 -3.721063 0.6505197,-3.745202 -3.136976 0.7530524,-2.987291 -5.124703 0.4452605,-3.117851 -3.972753 0.6150634,-3.209393 -3.248247 0.7984878,-3.279525 -2.598997 0.9607517,-2.676621 -5.138521 0.5520473,-2.743827 -4.038575 0.7273915,-2.834913 -3.339241 0.923515,-2.916757 -2.715688 1.091519,-2.348497 -5.352668 0.67857,-2.303846 -4.464067 0.8443529,-2.313817 -3.888892 1.03532,-2.336764 -3.348614 1.198244,-8.386039 -8.143597 -0.1811426,-7.744501 -7.70605 0.121299,-7.275608 -6.828012 0.3532121,-7.040535 -6.038105 0.6112806,-6.794374 -5.451362 0.8710059,-7.550184 -5.217152 -0.03646886,-7.436175 -4.096249 0.3030146,-7.380714 -3.458478 0.5694152,-7.331779 -2.896593 0.7521773,-7.938952 -5.130725 0.0940271,-7.883886 -4.083452 0.7073529,-7.815762 -4.952083 1.080903,-7.802034 -5.681642 1.198825,-8.324339 -5.257649 0.2871237,-8.281172 -4.333832 0.8973783,-8.140756 -5.159626 1.229085,-8.095923 -5.88762 1.300421,-8.746557 -5.564344 0.4889213,-8.713587 -4.757631 1.031471,-8.549563 -5.121221 1.312179,-8.449143 -5.633016 1.40007,1.01667,0 0 1
-2.610627 -7.861483 0.3085785,-3.173431 -7.548793 0.56408,-3.659965 -6.859595 0.6930314,-3.966812 -6.170623 0.8482679,-4.263737 -5.672468 1.025867,-3.309568 -5.337168 0.4072107,-3.533392 -4.334742 0.5450851,-3.652294 -3.721063 0.6505197,-3.745202 -3.136976 0.7530524,-2.987291 -5.124703 0.4452605,-3.117851 -3.972753 0.6150634,-3.209393 -3.248247 0.7984878,-3.279525 -2.598997 0.9607517,-2.676621 -5.138521 0.5520473,-2.743827 -4.038575 0.7273915,-2.834913 -3.339241 0.923515,-2.916757 -2.715688 1.091519,-2.348497 -5.352668 0.67857,-2.303846 -4.464067 0.8443529,-2.313817 -3.888892 1.03532,-2.336764 -3.348614 1.198244,-8.386039 -8.143597 -0.1811426,-7.744501 -7.70605 0.121299,-7.275608 -6.828012 0.3532121,-7.040535 -6.038105 0.6112806,-6.794374 -5.451362 0.8710059,-7.550184 -5.217152 -0.03646886,-7.436175 -4.096249 0.3030146,-7.380714 -3.458478 0.5694152,-7.331779 -2.896593 0.7521773,-7.938952 -5.130725 0.0940271,-7.883886 -4.083452 0.7073529,-7.815762 -4.952083 1.080903,-7.802034 -5.681642 1.198825,-8.324339 -5.257649 0.2871237,-8.281172 -4.333832 0.8973783,-8.140756 -5.159626 1.229085,-8.095923 -5.88762 1.300421,-8.746557 -5.564344 0.4889213,-8.713587 -4.757631 1.031471,-8.549563 -5.121221 1.312179,-8.449143 -5.633016 1.40007,1.05000,0 0 1
-2.621602 -7.862854 0.29147,-3.185059 -7.53189 0.5233945,-3.666887 -6.826885 0.6449465,-3.972396 -6.129413 0.7953926,-4.26732 -5.632473 0.9712524,-3.323042 -5.339658 0.3622381,-3.544679 -4.337276 0.4961133,-3.660267 -3.716953 0.6042291,-3.750141 -3.133926 0.7143773,-3.001109 -5.130737 0.4135619,-3.133771 -3.980372 0.5791707,-3.224932 -3.24971 0.7687315,-3.29419 -2.588008 0.9382136,-2.688223 -5.149099 0.5336319,-2.758992 -4.04425 0.7014928,-2.849488 -3.338922 0.8953925,-2.929853 -2.708961 1.064963,-2.358485 -5.370105 0.6699462,-2.314805 -4.475632 0.8349445,-2.323921 -3.895308 1.024816,-2.34291 -3.347174 1.189161,-8.399674 -8.165403 -0.5191836,-7.799183 -7.814466 -0.06018984,-7.300211 -7.034276 0.2541,-7.128858 -6.263624 0.5647061,-7.136267 -5.62338 0.9067154,-7.51294 -5.383453 -0.2102696,-7.383848 -4.404159 0.2378233,-7.353291 -3.921312 0.6057571,-7.30653 -3.557815 0.8560005,-7.936715 -5.264188 -0.1453637,-7.812456 -4.735197 0.6127571,-7.791094 -5.767814 1.044863,-7.78852 -6.656183 1.163905,-8.352688 -5.372218 0.006013513,-8.240737 -5.076652 0.7411813,-8.181968 -6.053118 1.098213,-8.136567 -6.807046 1.161538,-8.797623 -5.634014 0.181433,-8.729765 -5.221317 0.8175702,-8.612443 -5.882 1.119823,-8.521706 -6.470115 1.188928,1.08333,0 0 1
-2.621602 -7.862854 0.29147,-3.185059 -7.53189 0.5233945,-3.666887 -6.826885 0.6449465,-3.972396 -6.129413 0.7953926,-4.26732 -5.632473 0.9712524,-3.323042 -5.339658 0.3622381,-3.544679 -4.337276 0.4961133,-3.660267 -3.716953 0.6042291,-3.750141 -3.133926 0.7143773,-3.001109 -5.130737 0.4135619,-3.133771 -3.980372 0.5791707,-3.224932 -3.24971 0.7687315,-3.29419 -2.588008 0.9382136,-2.688223 -5.149099 0.5336319,-2.758992 -4.04425 0.7014928,-2.849488 -3.338922 0.8953925,-2.929853 -2.708961 1.064963,-2.358485 -5.370105 0.6699462,-2.314805 -4.475632 0.8349445,-2.323921 -3.895308 1.024816,-2.34291 -3.347174 1.189161,-8.399674 -8.165403 -0.5191836,-7.799183 -7.814466 -0.06018984,-7.300211 -7.034276 0.2541,-7.128858 -6.263624 0.5647061,-7.136267 -5.62338 0.9067154,-7.51294 -5.383453 -0.2102696,-7.383848 -4.404159 0.2378233,-7.353291 -3.921312 0.6057571,-7.30653 -3.557815 0.8560005,-7.936715 -5.264188 -0.1453637,-7.812456 -4.735197 0.6127571,-7.791094 -5.767814 1.044863,-7.78852 -6.656183 1.163905,-8.352688 -5.372218 0.006013513,-8.240737 -5.076652 0.7411813,-8.181968 -6.053118 1.098213,-8.136567 -6.807046 1.161538,-8.797623 -5.634014 0.181433,-8.729765 -5.221317 0.8175702,-8.612443 -5.882 1.119823,-8.521706 -6.470115 1.188928,1.11667,0 0 1
-2.652514 -7.835563 0.3162375,-3.234579 -7.523687 0.508177,-3.719687 -6.803335 0.5971739,-4.009491 -6.086167 0.7170942,-4.292659 -5.588546 0.8569206,-3.363077 -5.306201 0.3285306,-3.583666 -4.304697 0.4461058,-3.697032 -3.686338 0.5351194,-3.782712 -3.109611 0.6267833,-3.033031 -5.094702 0.3904788,-3.162795 -3.957988 0.543564,-3.25106 -3.22719 0.7137983,-3.316404 -2.568042 0.8627799,-2.715715 -5.109295 0.5163248,-2.793673 -4.019786 0.6693549,-2.886434 -3.323323 0.8445523,-2.965919 -2.702994 0.9947924,-2.382543 -5.318379 0.6581234,-2.34637 -4.427499 0.8067629,-2.361874 -3.8544 0.9809925,-2.386339 -3.30933 1.13317,-8.384188 -8.0914 -0.6068527,-7.818205 -7.777845 -0.1414094,-7.284348 -7.121342 0.2271776,-7.097556 -6.361646 0.5827208,-7.289335 -5.72454 0.9536984,-7.538518 -5.401109 -0.3138945,-7.342034 -4.573335 0.02156788,-7.282689 -4.122349 0.3103394,-7.198101 -3.767893 0.5103657,-7.957941 -5.207576 -0.2533335,-7.798028 -5.055286 0.3930055,-7.833433 -6.054223 0.7771798,-7.873301 -6.875051 0.8954591,-8.371488 -5.299956 -0.1002974,-8.220714 -5.251694 0.5436004,-8.218855 -6.178207 0.8617284,-8.210475 -6.904766 0.9086295,-8.812635 -5.548488 0.07976168,-8.705844 -5.276142 0.6256129,-8.602031 -5.924139 0.8938354,-8.52089 -6.496746 0.9639927,1.15000,0 0 1
-2.677462 -7.814707 0.302208,-3.254328 -7.512836 0.4931363,-3.7384 -6.792451 0.5825206,-4.035544 -6.08249 0.7029813,-4.332449 -5.602377 0.8487458,-3.389323 -5.294498 0.3263312,-3.612315 -4.296583 0.4456057,-3.726641 -3.67557 0.5389959,-3.812169 -3.092659 0.636566,-3.062273 -5.078857 0.388823,-3.193465 -3.941407 0.5446394,-3.28487 -3.209291 0.7151794,-3.354177 -2.548137 0.8634357,-2.745358 -5.088783 0.514864,-2.822896 -4.003456 0.6717402,-2.919505 -3.309233 0.8496621,-3.00205 -2.69027 1.000207,-2.41119 -5.294741 0.6562101,-2.374537 -4.407806 0.8090776,-2.39149 -3.834569 0.9853799,-2.416962 -3.28943 1.138823,-8.384188 -8.0914 -0.6068527,-7.818205 -7.777845 -0.1414094,-7.284348 -7.121342 0.2271776,-7.097556 -6.361646 0.5827208,-7.289335 -5.72454 0.9536984,-7.538518 -5.401109 -0.3138945,-7.342034 -4.573335 0.02156788,-7.282689 -4.122349 0.3103394,-7.198101 -3.767893 0.5103657,-7.957941 -5.207576 -0.2533335,-7.798028 -5.055286 0.3930055,-7.833433 -6.054223 0.7771798,-7.873301 -6.875051 0.8954591,-8.371488 -5.299956 -0.1002974,-8.220714 -5.251694 0.5436004,-8.218855 -6.178207 0.8617284,-8.210475 -6.904766 0.9086295,-8.812635 -5.548488 0.07976168,-8.705844 -5.276142 0.6256129,-8.602031 -5.924139 0.8938354,-8.52089 -6.496746 0.9639927,1.18333,0 0 1
-2.677462 -7.814707 0.302208,-3.254328 -7.512836 0.4931363,-3.7384 -6.792451 0.5825206,-4.035544 -6.08249 0.7029813,-4.332449 -5.602377 0.8487458,-3.389323 -5.294498 0.3263312,-3.612315 -4.296583 0.4456057,-3.726641 -3.67557 0.5389959,-3.812169 -3.092659 0.636566,-3.062273 -5.078857 0.388823,-3.193465 -3.941407 0.5446394,-3.28487 -3.209291 0.7151794,-3.354177 -2.548137 0.8634357,-2.745358 -5.088783 0.514864,-2.822896 -4.003456 0.6717402,-2.919505 -3.309233 0.8496621,-3.00205 -2.69027 1.000207,-2.41119 -5.294741 0.6562101,-2.374537 -4.407806 0.8090776,-2.39149 -3.834569 0.9853799,-2.416962 -3.28943 1.138823,-8.368637 -7.924531 -0.6828074,-7.799847 -7.675144 -0.1713483,-7.221723 -7.009771 0.2213963,-7.056627 -6.234324 0.5772128,-7.378934 -5.704748 0.9272628,-7.530994 -5.280344 -0.2918969,-7.332479 -4.552917 0.1493804,-7.267823 -4.154953 0.5102363,-7.166955 -3.845306 0.737905,-7.961587 -5.071123 -0.2488342,-7.797876 -5.018964 0.444518,-7.826686 -6.013412 0.8148267,-7.865705 -6.809458 0.8984329,-8.383875 -5.178918 -0.1092995,-8.218647 -5.240499 0.5480973,-8.212146 -6.183116 0.8197811,-8.203651 -6.906669 0.8187075,-8.832797 -5.457521 0.06590348,-8.716931 -5.252075 0.6028368,-8.586617 -5.925916 0.8397975,-8.48572 -6.523667 0.858083,1.21667,0 0 1
-2.686335 -7.804963 0.2758808,-3.264419 -7.497158 0.4635787,-3.747597 -6.786315 0.5579172,-4.048468 -6.082487 0.685209,-4.347272 -5.59548 0.843905,-3.406615 -5.291268 0.2810079,-3.630489 -4.292372 0.4033155,-3.747743 -3.669143 0.5053912,-3.83638 -3.08306 0.6125225,-3.082883 -5.078083 0.3514678,-3.217194 -3.941492 0.5080592,-3.311565 -3.212491 0.6861303,-3.381968 -2.545933 0.8422688,-2.768613 -5.089681 0.4874428,-2.850535 -3.999418 0.6425778,-2.951605 -3.303907 0.8227625,-3.036176 -2.678979 0.9790826,-2.437307 -5.296039 0.6405411,-2.401246 -4.398604 0.7930856,-2.420543 -3.816196 0.9725401,-2.445635 -3.263459 1.12969,-8.363148 -7.739863 -0.6857491,-7.811626 -7.561016 -0.07929957,-7.221842 -6.907909 0.3857853,-7.051401 -6.150213 0.7756348,-7.393555 -5.657395 1.164065,-7.512022 -5.180004 -0.06341875,-7.338094 -4.482053 0.4962285,-7.270627 -4.056972 0.9400644,-7.167316 -3.708702 1.215719,-7.954688 -4.925275 -0.05134082,-7.84358 -4.869665 0.7544358,-7.862923 -5.880574 1.125624,-7.887023 -6.616656 1.200916,-8.403203 -4.990518 0.05929935,-8.287529 -5.045398 0.7787992,-8.259833 -6.008809 1.029255,-8.240419 -6.685516 1.0009,-8.870271 -5.244021 0.2033598,-8.795465 -5.092855 0.7432511,-8.667589 -5.789155 0.9344239,-8.569899 -6.333335 0.9180212,1.25000,0 0 1
-2.686335 -7.804963 0.2758808,-3.264419 -7.497158 0.4635787,-3.747597 -6.786315 0.5579172,-4.048468 -6.082487 0.685209,-4.347272 -5.59548 0.843905,-3.406615 -5.291268 0.2810079,-3.630489 -4.292372 0.4033155,-3.747743 -3.669143 0.5053912,-3.83638 -3.08306 0.6125225,-3.082883 -5.078083 0.3514678,-3.217194 -3.941492 0.5080592,-3.311565 -3.212491 0.6861303,-3.381968 -2.545933 0.8422688,-2.768613 -5.089681 0.4874428,-2.850535 -3.999418 0.6425778,-2.951605 -3.303907 0.8227625,-3.036176 -2.678979 0.9790826,-2.437307 -5.296039 0.6405411,-2.401246 -4.398604 0.7930856,-2.420543 -3.816196 0.9725401,-2.445635 -3.263459 1.12969,-8.363148 -7.739863 -0.6857491,-7.811626 -7.561016 -0.07929957,-7.221842 -6.907909 0.3857853,-7.051401 -6.150213 0.7756348,-7.393555 -5.657395 1.164065,-7.512022 -5.180004 -0.06341875,-7.338094 -4.482053 0.4962285,-7.270627 -4.056972 0.9400644,-7.167316 -3.708702 1.215719,-7.954688 -4.925275 -0.05134082,-7.84358 -4.869665 0.7544358,-7.862923 -5.880574 1.125624,-7.887023 -6.616656 1.200916,-8.403203 -4.990518 0.05929935,-8.287529 -5.045398 0.7787992,-8.259833 -6.008809 1.029255,-8.240419 -6.685516 1.0009,-8.870271 -5.244021 0.2033598,-8.795465 -5.092855 0.7432511,-8.667589 -5.789155 0.9344239,-8.569899 -6.333335 0.9180212,1.28333,0 0 1
-2.707187 -7.780357 0.261199,-3.270943 -7.473131 0.4511284,-3.750393 -6.768795 0.5399258,-4.053046 -6.070834 0.6657165,-4.353907 -5.585409 0.8186527,-3.416613 -5.270038 0.2510176,-3.6408 -4.273777 0.3618135,-3.757994 -3.65669 0.4543964,-3.849476 -3.072964 0.5568521,-3.099152 -5.056706 0.3231176,-3.234621 -3.910631 0.4735049,-3.332643 -3.177358 0.6555718,-3.410086 -2.51866 0.8146899,-2.786525 -5.067277 0.4608292,-2.867298 -3.963235 0.6196569,-2.969459 -3.258396 0.8100633,-3.060896 -2.63319 0.9745783,-2.453566 -5.275988 0.6157879,-2.415801 -4.375464 0.7770448,-2.436446 -3.793149 0.9686041,-2.468522 -3.243145 1.138683,-8.357971 -7.52057 -0.4147794,-7.823895 -7.421211 0.2592845,-7.229259 -6.784508 0.7528019,-7.06372 -6.07172 1.155164,-7.407546 -5.595985 1.575754,-7.525046 -4.946397 0.3470621,-7.341387 -4.375169 1.054224,-7.24592 -3.983078 1.606293,-7.110328 -3.672157 1.942461,-7.979694 -4.650153 0.3376478,-7.881376 -4.708255 1.216662,-7.884165 -5.76209 1.57452,-7.896208 -6.502532 1.623866,-8.44374 -4.727596 0.4453959,-8.347559 -4.918441 1.221783,-8.295299 -5.909499 1.418622,-8.257309 -6.561382 1.351817,-8.913424 -5.034072 0.596128,-8.859239 -5.016616 1.174518,-8.716796 -5.750963 1.325292,-8.603656 -6.277881 1.269259,1.31667,0 0 1
-2.707187 -7.780357 0.261199,-3.270943 -7.473131 0.4511284,-3.750393 -6.768795 0.5399258,-4.053046 -6.070834 0.6657165,-4.353907 -5.585409 0.8186527,-3.416613 -5.270038 0.2510176,-3.6408 -4.273777 0.3618135,-3.757994 -3.65669 0.4543964,-3.849476 -3.072964 0.5568521,-3.099152 -5.056706 0.3231176,-3.234621 -3.910631 0.4735049,-3.332643 -3.177358 0.6555718,-3.410086 -2.51866 0.8146899,-2.786525 -5.067277 0.4608292,-2.867298 -3.963235 0.6196569,-2.969459 -3.258396 0.8100633,-3.060896 -2.63319 0.9745783,-2.453566 -5.275988 0.6157879,-2.415801 -4.375464 0.7770448,-2.436446 -3.793149 0.9686041,-2.468522 -3.243145 1.138683,-8.357971 -7.52057 -0.4147794,-7.823895 -7.421211 0.2592845,-7.229259 -6.784508 0.7528019,-7.06372 -6.07172 1.155164,-7.407546 -5.595985 1.575754,-7.525046 -4.946397 0.3470621,-7.341387 -4.375169 1.054224,-7.24592 -3.983078 1.606293,-7.110328 -3.672157 1.942461,-7.979694 -4.650153 0.3376478,-7.881376 -4.708255 1.216662,-7.884165 -5.76209 1.57452,-7.896208 -6.502532 1.623866,-8.44374 -4.727596 0.4453959,-8.347559 -4.918441 1.221783,-8.295299 -5.909499 1.418622,-8.257309 -6.561382 1.351817,-8.913424 -5.034072 0.596128,-8.859239 -5.016616 1.174518,-8.716796 -5.750963 1.325292,-8.603656 -6.277881 1.269259,1.35000,0 0 1
-2.699656 -7.767318 0.2544931,-3.27243 -7.452157 0.4426296,-3.756666 -6.754419 0.5406206,-4.060467 -6.063002 0.6774471,-4.358032 -5.569528 0.8477364,-3.421594 -5.2619 0.2498745,-3.645241 -4.271959 0.3676596,-3.761328 -3.659979 0.4643498,-3.85177 -3.082844 0.5656584,-3.104495 -5.047616 0.3214538,-3.242992 -3.907001 0.4671104,-3.339302 -3.183434 0.6412939,-3.417055 -2.525217 0.7929488,-2.79324 -5.059894 0.4591583,-2.872257 -3.964371 0.6102268,-2.971905 -3.271352 0.7900027,-3.061934 -2.651328 0.9453954,-2.463638 -5.270717 0.6154911,-2.426919 -4.373108 0.76949,-2.444771 -3.790554 0.9551044,-2.47447 -3.24127 1.117775,-8.432857 -7.297971 -0.3780759,-7.900846 -7.328481 0.3598568,-7.280826 -6.743358 0.899645,-7.099998 -6.088237 1.319971,-7.441671 -5.663105 1.783985,-7.521482 -4.812048 0.5770041,-7.369078 -4.298223 1.360497,-7.297503 -3.908923 1.953291,-7.174091 -3.613213 2.31103,-7.988008 -4.475744 0.543106,-7.92723 -4.608052 1.502798,-7.947331 -5.642917 1.870901,-7.962811 -6.378656 1.937031,-8.473083 -4.539835 0.627907,-8.43012 -4.842858 1.471629,-8.393012 -5.846963 1.669012,-8.348057 -6.490682 1.607046,-8.951677 -4.8398 0.7524573,-8.925447 -4.905237 1.389861,-8.811142 -5.659412 1.558499,-8.702703 -6.177211 1.519843,1.38333,0 0 1
-2.699656 -7.767318 0.2544931,-3.27243 -7.452157 0.4426296,-3.756666 -6.754419 0.5406206,-4.060467 -6.063002 0.6774471,-4.358032 -5.569528 0.8477364,-3.421594 -5.2619 0.2498745,-3.645241 -4.271959 0.3676596,-3.761328 -3.659979 0.4643498,-3.85177 -3.082844 0.5656584,-3.104495 -5.047616 0.3214538,-3.242992 -3.907001 0.4671104,-3.339302 -3.183434 0.6412939,-3.417055 -2.525217 0.7929488,-2.79324 -5.059894 0.4591583,-2.872257 -3.964371 0.6102268,-2.971905 -3.271352 0.7900027,-3.061934 -2.651328 0.9453954,-2.463638 -5.270717 0.6154911,-2.426919 -4.373108 0.76949,-2.444771 -3.790554 0.9551044,-2.47447 -3.24127 1.117775,-8.432857 -7.297971 -0.3780759,-7.900846 -7.328481 0.3598568,-7.280826 -6.743358 0.899645,-7.099998 -6.088237 1.319971,-7.441671 -5.663105 1.783985,-7.521482 -4.812048 0.5770041,-7.369078 -4.298223 1.360497,-7.297503 -3.908923 1.953291,-7.174091 -3.613213 2.31103,-7.988008 -4.475744 0.543106,-7.92723 -4.608052 1.502798,-7.947331 -5.642917 1.870901,-7.962811 -6.378656 1.937031,-8.473083 -4.539835 0.627907,-8.43012 -4.842858 1.471629,-8.393012 -5.846963 1.669012,-8.348057 -6.490682 1.607046,-8.951677 -4.8398 0.7524573,-8.925447 -4.905237 1.389861,-8.811142 -5.659412 1.558499,-8.702703 -6.177211 1.519843,1.41667,0 0 1
-2.707146 -7.766958 0.2531044,-3.275827 -7.45582 0.4415694,-3.758097 -6.752284 0.5300739,-4.056875 -6.060262 0.6586066,-4.349117 -5.56712 0.8136008,-3.420507 -5.26231 0.2318941,-3.649673 -4.279805 0.345602,-3.77202 -3.670042 0.4403469,-3.868616 -3.094965 0.53619,-3.1057 -5.046321 0.3005471,-3.238189 -3.910959 0.4362371,-3.332943 -3.191618 0.6070747,-3.40954 -2.540527 0.7542519,-2.798724 -5.05721 0.4377255,-2.868155 -3.969445 0.5853606,-2.959771 -3.275097 0.7651274,-3.045206 -2.654822 0.9207056,-2.473226 -5.26893 0.5936059,-2.433075 -4.380468 0.7457024,-2.446234 -3.805976 0.9266444,-2.473351 -3.26684 1.081991,-8.399797 -7.206132 -0.5081849,-7.881512 -7.236833 0.2922053,-7.298726 -6.648604 0.864566,-7.125816 -6.023351 1.301968,-7.467403 -5.644641 1.762002,-7.537388 -4.754144 0.5905397,-7.402266 -4.178321 1.48592,-7.324739 -3.797933 2.126309,-7.21395 -3.517229 2.491285,-8.014366 -4.459496 0.5390794,-8.00152 -4.437381 1.621265,-8.003745 -5.538362 1.972987,-7.995875 -6.307685 1.989465,-8.508575 -4.55235 0.6173923,-8.521255 -4.645823 1.599821,-8.45973 -5.690513 1.803278,-8.393255 -6.365926 1.707622,-8.985082 -4.897002 0.731692,-9.040237 -4.738882 1.468255,-8.917225 -5.449697 1.67175,-8.785501 -5.988657 1.646062,1.45000,0 0 1
-2.707146 -7.766958 0.2531044,-3.275827 -7.45582 0.4415694,-3.758097 -6.752284 0.5300739,-4.056875 -6.060262 0.6586066,-4.349117 -5.56712 0.8136008,-3.420507 -5.26231 0.2318941,-3.649673 -4.279805 0.345602,-3.77202 -3.670042 0.4403469,-3.868616 -3.094965 0.53619,-3.1057 -5.046321 0.3005471,-3.238189 -3.910959 0.4362371,-3.332943 -3.191618 0.6070747,-3.40954 -2.540527 0.7542519,-2.798724 -5.05721 0.4377255,-2.868155 -3.969445 0.5853606,-2.959771 -3.275097 0.7651274,-3.045206 -2.654822 0.9207056,-2.473226 -5.26893 0.5936059,-2.433075 -4.380468 0.7457024,-2.446234 -3.805976 0.9266444,-2.473351 -3.26684 1.081991,-8.399797 -7.206132 -0.5081849,-7.881512 -7.236833 0.2922053,-7.298726 -6.648604 0.864566,-7.125816 -6.023351 1.301968,-7.467403 -5.644641 1.762002,-7.537388 -4.754144 0.5905397,-7.402266 -4.178321 1.48592,-7.324739 -3.797933 2.126309,-7.21395 -3.517229 2.491285,-8.014366 -4.459496 0.5390794,-8.00152 -4.437381 1.621265,-8.003745 -5.538362 1.972987,-7.995875 -6.307685 1.989465,-8.508575 -4.55235 0.6173923,-8.521255 -4.645823 1.599821,-8.45973 -5.690513 1.803278,-8.393255 -6.365926 1.707622,-8.985082 -4.897002 0.731692,-9.040237 -4.738882 1.468255,-8.917225 -5.449697 1.67175,-8.785501 -5.988657 1.646062,1.48333,0 0 1
-2.703645 -7.785945 0.2514482,-3.260688 -7.474807 0.4537359,-3.741208 -6.777272 0.5551772,-4.047423 -6.100168 0.6973629,-4.340797 -5.598401 0.8709249,-3.402696 -5.282674 0.2479369,-3.636847 -4.304106 0.3649195,-3.765441 -3.697818 0.4642982,-3.867538 -3.127193 0.5620675,-3.092253 -5.064616 0.3136413,-3.230606 -3.926148 0.4500594,-3.332767 -3.207176 0.6199002,-3.414259 -2.558911 0.7625932,-2.788458 -5.079746 0.4485955,-2.855655 -3.988498 0.5977635,-2.956623 -3.293874 0.781822,-3.047617 -2.677621 0.9382066,-2.466574 -5.299913 0.6026789,-2.426086 -4.411651 0.7555453,-2.445523 -3.830885 0.9401518,-2.477963 -3.288729 1.095255,-8.404542 -7.190317 -0.172304,-7.867947 -7.15608 0.6334245,-7.294353 -6.555273 1.217604,-7.126775 -5.940052 1.686051,-7.465089 -5.55231 2.187633,-7.586094 -4.580084 0.8841655,-7.446527 -3.995355 1.778313,-7.382979 -3.694921 2.418507,-7.282208 -3.519863 2.767061,-8.072665 -4.316907 0.8281064,-8.031382 -4.333536 1.92567,-8.034788 -5.501478 2.249354,-8.02943 -6.299469 2.218648,-8.566309 -4.466939 0.9173548,-8.5548 -4.590652 1.920274,-8.494851 -5.66608 2.143664,-8.425428 -6.3392 2.047606,-9.042296 -4.835748 1.041137,-9.096637 -4.636608 1.794962,-8.963179 -5.357934 2.027077,-8.824701 -5.896965 2.020875,1.51667,0 0 1
-2.703645 -7.785945 0.2514482,-3.260688 -7.474807 0.4537359,-3.741208 -6.777272 0.5551772,-4.047423 -6.100168 0.6973629,-4.340797 -5.598401 0.8709249,-3.402696 -5.282674 0.2479369,-3.636847 -4.304106 0.3649195,-3.765441 -3.697818 0.4642982,-3.867538 -3.127193 0.5620675,-3.092253 -5.064616 0.3136413,-3.230606 -3.926148 0.4500594,-3.332767 -3.207176 0.6199002,-3.414259 -2.558911 0.7625932,-2.788458 -5.079746 0.4485955,-2.855655 -3.988498 0.5977635,-2.956623 -3.293874 0.781822,-3.047617 -2.677621 0.9382066,-2.466574 -5.299913 0.6026789,-2.426086 -4.411651 0.7555453,-2.445523 -3.830885 0.9401518,-2.477963 -3.288729 1.095255,-8.404542 -7.190317 -0.172304,-7.867947 -7.15608 0.6334245,-7.294353 -6.555273 1.217604,-7.126775 -5.940052 1.686051,-7.465089 -5.55231 2.187633,-7.586094 -4.580084 0.8841655,-7.446527 -3.995355 1.778313,-7.382979 -3.694921 2.418507,-7.282208 -3.519863 2.767061,-8.072665 -4.316907 0.8281064,-8.031382 -4.333536 1.92567,-8.034788 -5.501478 2.249354,-8.02943 -6.299469 2.218648,-8.566309 -4.466939 0.9173548,-8.5548 -4.590652 1.920274,-8.494851 -5.66608 2.143664,-8.425428 -6.3392 2.047606,-9.042296 -4.835748 1.041137,-9.096637 -4.636608 1.794962,-8.963179 -5.357934 2.027077,-8.824701 -5.896965 2.020875,1.55000,0 0 1
-2.676415 -7.798137 0.2275064,-3.232659 -7.482717 0.4461083,-3.72031 -6.800704 0.5547461,-4.028429 -6.127605 0.6977142,-4.30871 -5.619798 0.8714202,-3.38416 -5.311279 0.2380418,-3.617265 -4.33002 0.3586102,-3.742449 -3.724596 0.4620954,-3.84474 -3.150783 0.561842,-3.071661 -5.084764 0.294118,-3.213247 -3.941556 0.425913,-3.310881 -3.229188 0.5978264,-3.39255 -2.584981 0.7435396,-2.76607 -5.089443 0.4203173,-2.843046 -3.996492 0.5664867,-2.943344 -3.310107 0.7534468,-3.037883 -2.69993 0.9146261,-2.440757 -5.297384 0.5664773,-2.403688 -4.407617 0.7195143,-2.421521 -3.831045 0.9066356,-2.455404 -3.294857 1.062415,-8.422499 -7.158649 -0.06549608,-7.876688 -7.11618 0.6977043,-7.288006 -6.473141 1.282447,-7.127507 -5.852489 1.754094,-7.485909 -5.498398 2.251392,-7.603488 -4.496189 0.9542099,-7.47825 -3.891092 1.837385,-7.418679 -3.607118 2.453673,-7.317842 -3.437036 2.794545,-8.105752 -4.247096 0.9232101,-8.018276 -4.332624 2.01418,-8.017808 -5.514542 2.293765,-8.021384 -6.232516 2.244262,-8.603271 -4.431261 1.030357,-8.55035 -4.623274 1.989737,-8.490904 -5.703994 2.15496,-8.429087 -6.29001 2.052332,-9.090478 -4.821758 1.177739,-9.120262 -4.645069 1.892376,-8.977894 -5.386783 2.099065,-8.846152 -5.888538 2.101376,1.58333,0 0 1
-2.676415 -7.798137 0.2275064,-3.232659 -7.482717 0.4461083,-3.72031 -6.800704 0.5547461,-4.028429 -6.127605 0.6977142,-4.30871 -5.619798 0.8714202,-3.38416 -5.311279 0.2380418,-3.617265 -4.33002 0.3586102,-3.742449 -3.724596 0.4620954,-3.84474 -3.150783 0.561842,-3.071661 -5.084764 0.294118,-3.213247 -3.941556 0.425913,-3.310881 -3.229188 0.5978264,-3.39255 -2.584981 0.7435396,-2.76607 -5.089443 0.4203173,-2.843046 -3.996492 0.5664867,-2.943344 -3.310107 0.7534468,-3.037883 -2.69993 0.9146261,-2.440757 -5.297384 0.5664773,-2.403688 -4.407617 0.7195143,-2.421521 -3.831045 0.9066356,-2.455404 -3.294857 1.062415,-8.422499 -7.158649 -0.06549608,-7.876688 -7.11618 0.6977043,-7.288006 -6.473141 1.282447,-7.127507 -5.852489 1.754094,-7.485909 -5.498398 2.251392,-7.603488 -4.496189 0.9542099,-7.47825 -3.891092 1.837385,-7.418679 -3.607118 2.453673,-7.317842 -3.437036 2.794545,-8.105752 -4.247096 0.9232101,-8.018276 -4.332624 2.01418,-8.017808 -5.514542 2.293765,-8.021384 -6.232516 2.244262,-8.603271 -4.431261 1.030357,-8.55035 -4.623274 1.989737,-8.490904 -5.703994 2.15496,-8.429087 -6.29001 2.052332,-9.090478 -4.821758 1.177739,-9.120262 -4.645069 1.892376,-8.977894 -5.386783 2.099065,-8.846152 -5.888538 2.101376,1.61667,0 0 1
-2.655395 -7.819871 0.2066423,-3.210985 -7.487247 0.4287653,-3.694388 -6.807201 0.5448815,-4.001228 -6.136334 0.6946519,-4.291208 -5.638062 0.8752037,-3.356068 -5.324846 0.2545898,-3.585543 -4.337896 0.3863225,-3.710115 -3.72933 0.4966073,-3.811258 -3.148427 0.604786,-3.042273 -5.112422 0.3087335,-3.179924 -3.968338 0.458476,-3.275974 -3.254281 0.6372207,-3.355742 -2.609174 0.7933137,-2.736674 -5.122954 0.431887,-2.810953 -4.027141 0.5930157,-2.910681 -3.336263 0.7806655,-3.00345 -2.72268 0.9438053,-2.412928 -5.335386 0.5732372,-2.371783 -4.446176 0.7363125,-2.387388 -3.869255 0.9219306,-2.417739 -3.33274 1.079637,-8.388472 -7.143695 -0.07415631,-7.852751 -7.099352 0.7246549,-7.276108 -6.430233 1.314074,-7.116387 -5.791131 1.790237,-7.495274 -5.414614 2.286273,-7.619724 -4.486629 0.9992286,-7.471223 -3.861239 1.907078,-7.412737 -3.551984 2.546428,-7.313509 -3.339926 2.916977,-8.123216 -4.244321 0.956836,-8.05121 -4.259163 2.111902,-8.041326 -5.463218 2.391054,-8.023043 -6.24521 2.31867,-8.615757 -4.432626 1.054395,-8.585742 -4.538757 2.086637,-8.51543 -5.620599 2.26332,-8.430869 -6.260355 2.137405,-9.084174 -4.826705 1.191579,-9.149504 -4.583752 1.962605,-9.005098 -5.29621 2.176306,-8.852062 -5.817422 2.164556,1.65000,0 0 1
-2.655395 -7.819871 0.2066423,-3.210985 -7.487247 0.4287653,-3.694388 -6.807201 0.5448815,-4.001228 -6.136334 0.6946519,-4.291208 -5.638062 0.8752037,-3.356068 -5.324846 0.2545898,-3.585543 -4.337896 0.3863225,-3.710115 -3.72933 0.4966073,-3.811258 -3.148427 0.604786,-3.042273 -5.112422 0.3087335,-3.179924 -3.968338 0.458476,-3.275974 -3.254281 0.6372207,-3.355742 -2.609174 0.7933137,-2.736674 -5.122954 0.431887,-2.810953 -4.027141 0.5930157,-2.910681 -3.336263 0.7806655,-3.00345 -2.72268 0.9438053,-2.412928 -5.335386 0.5732372,-2.371783 -4.446176 0.7363125,-2.387388 -3.869255 0.9219306,-2.417739 -3.33274 1.079637,-8.388472 -7.143695 -0.07415631,-7.852751 -7.099352 0.7246549,-7.276108 -6.430233 1.314074,-7.116387 -5.791131 1.790237,-7.495274 -5.414614 2.286273,-7.619724 -4.486629 0.9992286,-7.471223 -3.861239 1.907078,-7.412737 -3.551984 2.546428,-7.313509 -3.339926 2.916977,-8.123216 -4.244321 0.956836,-8.05121 -4.259163 2.111902,-8.041326 -5.463218 2.391054,-8.023043 -6.24521 2.31867,-8.615757 -4.432626 1.054395,-8.585742 -4.538757 2.086637,-8.51543 -5.620599 2.26332,-8.430869 -6.260355 2.137405,-9.084174 -4.826705 1.191579,-9.149504 -4.583752 1.962605,-9.005098 -5.29621 2.176306,-8.852062 -5.817422 2.164556,1.68333,0 0 1
-2.627869 -7.831513 0.2119295,-3.179245 -7.518537 0.4552114,-3.663589 -6.834892 0.5820566,-3.971496 -6.162357 0.7382343,-4.260406 -5.66376 0.9228036,-3.337642 -5.347326 0.2954497,-3.566172 -4.362038 0.432456,-3.686546 -3.751529 0.5418966,-3.782751 -3.170646 0.6477067,-3.02038 -5.124542 0.3425434,-3.160671 -3.979357 0.4973305,-3.255803 -3.263292 0.6794429,-3.334426 -2.618577 0.8349032,-2.712169 -5.130393 0.4588248,-2.789625 -4.035661 0.6223156,-2.888649 -3.346279 0.811123,-2.981849 -2.734626 0.9750152,-2.38485 -5.340265 0.5937061,-2.346085 -4.453231 0.7577447,-2.36122 -3.876155 0.9454443,-2.393057 -3.339897 1.1036,-8.392941 -7.159875 -0.09663554,-7.85388 -7.07401 0.668366,-7.277077 -6.407423 1.2423,-7.101639 -5.77044 1.724259,-7.45142 -5.379941 2.222856,-7.639857 -4.45512 0.8909938,-7.494383 -3.79994 1.745258,-7.435718 -3.496852 2.327847,-7.341573 -3.312784 2.652306,-8.144847 -4.24052 0.8603371,-8.039105 -4.295767 1.986014,-8.02756 -5.489299 2.250215,-8.020268 -6.272801 2.155709,-8.634088 -4.46232 0.9659756,-8.571667 -4.564004 1.98906,-8.496676 -5.625629 2.179674,-8.415404 -6.272695 2.062757,-9.109967 -4.874725 1.104703,-9.159281 -4.597663 1.881515,-9.000606 -5.281766 2.121571,-8.846972 -5.805124 2.119742,1.71667,0 0 1
-2.619167 -7.85182 0.2412089,-3.172456 -7.538033 0.4684446,-3.65414 -6.842651 0.5836363,-3.963921 -6.162143 0.7353064,-4.259233 -5.663606 0.9201776,-3.322349 -5.350694 0.2803488,-3.552207 -4.362888 0.4045028,-3.675184 -3.752981 0.5075765,-3.769178 -3.174854 0.6092926,-3.007195 -5.13413 0.3320746,-3.144277 -3.989551 0.4704559,-3.2386 -3.269878 0.6390975,-3.313265 -2.624736 0.784609,-2.699713 -5.148782 0.454699,-2.768514 -4.053108 0.6060843,-2.865841 -3.355617 0.7869149,-2.955569 -2.738044 0.9433152,-2.372401 -5.367601 0.5963472,-2.331079 -4.482559 0.7533461,-2.345751 -3.911167 0.934867,-2.374007 -3.378599 1.087089,-8.392941 -7.159875 -0.09663554,-7.85388 -7.07401 0.668366,-7.277077 -6.407423 1.2423,-7.101639 -5.77044 1.724259,-7.45142 -5.379941 2.222856,-7.639857 -4.45512 0.8909938,-7.494383 -3.79994 1.745258,-7.435718 -3.496852 2.327847,-7.341573 -3.312784 2.652306,-8.144847 -4.24052 0.8603371,-8.039105 -4.295767 1.986014,-8.02756 -5.489299 2.250215,-8.020268 -6.272801 2.155709,-8.634088 -4.46232 0.9659756,-8.571667 -4.564004 1.98906,-8.496676 -5.625629 2.179674,-8.415404 -6.272695 2.062757,-9.109967 -4.874725 1.104703,-9.159281 -4.597663 1.881515,-9.000606 -5.281766 2.121571,-8.846972 -5.805124 2.119742,1.75000,0 0 1
-2.619167 -7.85182 0.2412089,-3.172456 -7.538033 0.4684446,-3.65414 -6.842651 0.5836363,-3.963921 -6.162143 0.7353064,-4.259233 -5.663606 0.9201776,-3.322349 -5.350694 0.2803488,-3.552207 -4.362888 0.4045028,-3.675184 -3.752981 0.5075765,-3.769178 -3.174854 0.6092926,-3.007195 -5.13413 0.3320746,-3.144277 -3.989551 0.4704559,-3.2386 -3.269878 0.6390975,-3.313265 -2.624736 0.784609,-2.699713 -5.148782 0.454699,-2.768514 -4.053108 0.6060843,-2.865841 -3.355617 0.7869149,-2.955569 -2.738044 0.9433152,-2.372401 -5.367601 0.5963472,-2.331079 -4.482559 0.7533461,-2.345751 -3.911167 0.934867,-2.374007 -3.378599 1.087089,-8.420846 -7.174137 -0.2309375,-7.873322 -7.103147 0.5496032,-7.301423 -6.453813 1.128075,-7.130898 -5.815933 1.610167,-7.457819 -5.42033 2.10351,-7.679395 -4.512785 0.804494,-7.546661 -3.830381 1.668543,-7.483704 -3.508146 2.273015,-7.389683 -3.317191 2.601298,-8.179697 -4.303432 0.7518477,-8.122579 -4.325752 1.875139,-8.113308 -5.510183 2.121815,-8.095337 -6.254468 2.011929,-8.662376 -4.523265 0.8361188,-8.64552 -4.593353 1.864244,-8.560297 -5.629451 2.055967,-8.458561 -6.220894 1.944742,-9.123503 -4.925769 0.9516705,-9.204948 -4.623819 1.724736,-9.058754 -5.284559 1.991487,-8.901562 -5.754698 2.013324,1.78333,0 0 1
-2.612013 -7.880744 0.2447503,-3.1658 -7.553375 0.4682184,-3.647114 -6.864885 0.5839342,-3.956475 -6.192483 0.7363839,-4.248324 -5.6898 0.9198246,-3.30315 -5.374925 0.2782872,-3.535517 -4.390054 0.4073657,-3.661242 -3.786885 0.5152097,-3.76095 -3.215729 0.6181552,-2.986906 -5.160058 0.3315524,-3.120565 -4.016553 0.4764357,-3.215303 -3.300691 0.6540985,-3.292126 -2.659312 0.8093773,-2.681623 -5.175889 0.4557591,-2.742238 -4.082876 0.6099851,-2.836442 -3.392152 0.8014817,-2.924211 -2.786588 0.9646473,-2.360774 -5.396389 0.5974452,-2.315163 -4.515624 0.7580785,-2.330148 -3.946509 0.9453864,-2.360459 -3.418163 1.098197,-8.445195 -7.252552 -0.08028821,-7.901598 -7.166416 0.6268249,-7.305516 -6.490908 1.166825,-7.12705 -5.815853 1.622496,-7.478724 -5.425691 2.072299,-7.699055 -4.549013 0.7556202,-7.541137 -3.883684 1.534869,-7.484775 -3.53305 2.073272,-7.3921 -3.243489 2.390715,-8.186592 -4.290093 0.747708,-8.057557 -4.419281 1.778182,-8.062471 -5.576785 2.029923,-8.077774 -6.283098 1.956226,-8.660191 -4.477898 0.871515,-8.572472 -4.690453 1.801149,-8.507822 -5.73278 1.968984,-8.448365 -6.321058 1.867441,-9.133116 -4.856945 1.032043,-9.119502 -4.718236 1.738977,-8.960792 -5.460559 1.959786,-8.828413 -5.965713 1.961403,1.81667,0 0 1
-2.612013 -7.880744 0.2447503,-3.1658 -7.553375 0.4682184,-3.647114 -6.864885 0.5839342,-3.956475 -6.192483 0.7363839,-4.248324 -5.6898 0.9198246,-3.30315 -5.374925 0.2782872,-3.535517 -4.390054 0.4073657,-3.661242 -3.786885 0.5152097,-3.76095 -3.215729 0.6181552,-2.986906 -5.160058 0.3315524,-3.120565 -4.016553 0.4764357,-3.215303 -3.300691 0.6540985,-3.292126 -2.659312 0.8093773,-2.681623 -5.175889 0.4557591,-2.742238 -4.082876 0.6099851,-2.836442 -3.392152 0.8014817,-2.924211 -2.786588 0.9646473,-2.360774 -5.396389 0.5974452,-2.315163 -4.515624 0.7580785,-2.330148 -3.946509 0.9453864,-2.360459 -3.418163 1.098197,-8.445195 -7.252552 -0.08028821,-7.901598 -7.166416 0.6268249,-7.305516 -6.490908 1.166825,-7.12705 -5.815853 1.622496,-7.478724 -5.425691 2.072299,-7.699055 -4.549013 0.7556202,-7.541137 -3.883684 1.534869,-7.484775 -3.53305 2.073272,-7.3921 -3.243489 2.390715,-8.186592 -4.290093 0.747708,-8.057557 -4.419281 1.778182,-8.062471 -5.576785 2.029923,-8.077774 -6.283098 1.956226,-8.660191 -4.477898 0.871515,-8.572472 -4.690453 1.801149,-8.507822 -5.73278 1.968984,-8.448365 -6.321058 1.867441,-9.133116 -4.856945 1.032043,-9.119502 -4.718236 1.738977,-8.960792 -5.460559 1.959786,-8.828413 -5.965713 1.961403,1.85000,0 0 1
-2.604137 -7.898399 0.2575588,-3.156578 -7.565225 0.5072798,-3.638346 -6.873281 0.6378167,-3.94805 -6.198541 0.8009307,-4.241673 -5.698873 0.995059,-3.295763 -5.385746 0.32495,-3.522116 -4.401458 0.4638711,-3.645209 -3.798703 0.5774114,-3.743525 -3.224288 0.6823065,-2.977458 -5.174768 0.3702893,-3.10986 -4.037556 0.5199136,-3.203602 -3.323188 0.6956452,-3.279465 -2.680759 0.8479152,-2.66959 -5.197488 0.4865772,-2.726792 -4.110214 0.6452476,-2.818173 -3.424801 0.8392103,-2.903203 -2.819493 1.001693,-2.34592 -5.423618 0.6240875,-2.297358 -4.542796 0.7870507,-2.31295 -3.970137 0.9796102,-2.343499 -3.433111 1.135851,-8.500207 -7.23313 -0.3875121,-7.955598 -7.241634 0.3723607,-7.356028 -6.557518 0.9179032,-7.169743 -5.905202 1.360178,-7.492145 -5.553482 1.832261,-7.70936 -4.679651 0.6832001,-7.551906 -3.969578 1.515227,-7.511568 -3.589826 2.076608,-7.452297 -3.332353 2.400077,-8.200994 -4.427028 0.6277654,-8.145597 -4.504586 1.710645,-8.150239 -5.617037 1.957161,-8.1404 -6.357818 1.885834,-8.687093 -4.616493 0.7117413,-8.67229 -4.76108 1.694502,-8.594249 -5.741323 1.906418,-8.495449 -6.350281 1.832188,-9.15408 -4.981139 0.8195318,-9.20157 -4.792077 1.584402,-9.061135 -5.449371 1.853569,-8.911627 -5.920816 1.898872,1.88333,0 0 1
-2.604137 -7.898399 0.2575588,-3.156578 -7.565225 0.5072798,-3.638346 -6.873281 0.6378167,-3.94805 -6.198541 0.8009307,-4.241673 -5.698873 0.995059,-3.295763 -5.385746 0.32495,-3.522116 -4.401458 0.4638711,-3.645209 -3.798703 0.5774114,-3.743525 -3.224288 0.6823065,-2.977458 -5.174768 0.3702893,-3.10986 -4.037556 0.5199136,-3.203602 -3.323188 0.6956452,-3.279465 -2.680759 0.8479152,-2.66959 -5.197488 0.4865772,-2.726792 -4.110214 0.6452476,-2.818173 -3.424801 0.8392103,-2.903203 -2.819493 1.001693,-2.34592 -5.423618 0.6240875,-2.297358 -4.542796 0.7870507,-2.31295 -3.970137 0.9796102,-2.343499 -3.433111 1.135851,-8.500207 -7.23313 -0.3875121,-7.955598 -7.241634 0.3723607,-7.356028 -6.557518 0.9179032,-7.169743 -5.905202 1.360178,-7.492145 -5.553482 1.832261,-7.70936 -4.679651 0.6832001,-7.551906 -3.969578 1.515227,-7.511568 -3.589826 2.076608,-7.452297 -3.332353 2.400077,-8.200994 -4.427028 0.6277654,-8.145597 -4.504586 1.710645,-8.150239 -5.617037 1.957161,-8.1404 -6.357818 1.885834,-8.687093 -4.616493 0.7117413,-8.67229 -4.76108 1.694502,-8.594249 -5.741323 1.906418,-8.495449 -6.350281 1.832188,-9.15408 -4.981139 0.8195318,-9.20157 -4.792077 1.584402,-9.061135 -5.449371 1.853569,-8.911627 -5.920816 1.898872,1.91667,0 0 1
-2.620408 -7.912309 0.2339655,-3.198527 -7.605934 0.4331754,-3.687078 -6.901223 0.5402234,-3.994881 -6.211818 0.6799232,-4.287142 -5.740568 0.8418977,-3.327797 -5.400461 0.2729307,-3.545294 -4.406597 0.4145634,-3.660093 -3.787536 0.5278734,-3.747203 -3.205745 0.6348099,-3.003408 -5.196577 0.3390379,-3.13219 -4.05783 0.5129031,-3.227222 -3.329177 0.6997131,-3.298241 -2.672309 0.8623976,-2.688931 -5.219254 0.4702983,-2.756124 -4.128801 0.6439946,-2.847139 -3.434133 0.8366458,-2.925521 -2.817791 0.9966789,-2.361094 -5.44245 0.616771,-2.317505 -4.557071 0.7816186,-2.333354 -3.980301 0.9644791,-2.357872 -3.43422 1.118646,-8.692031 -7.250526 -0.6066178,-8.11041 -7.361022 0.1250722,-7.451737 -6.716784 0.6949668,-7.252069 -6.071317 1.163256,-7.616817 -5.688262 1.66524,-7.831303 -4.817256 0.4885807,-7.713824 -4.112279 1.400141,-7.712688 -3.794878 2.048357,-7.711317 -3.688255 2.453094,-8.330803 -4.531532 0.4419485,-8.316797 -4.701238 1.485273,-8.343464 -5.775363 1.675639,-8.323878 -6.457552 1.630598,-8.817697 -4.701309 0.523599,-8.815017 -4.97091 1.458238,-8.75263 -5.92071 1.598312,-8.643614 -6.455968 1.550535,-9.276815 -5.029356 0.6402529,-9.310016 -5.034067 1.335807,-9.174572 -5.761189 1.528995,-9.015686 -6.223377 1.558788,1.95000,0 0 1
-2.620408 -7.912309 0.2339655,-3.198527 -7.605934 0.4331754,-3.687078 -6.901223 0.5402234,-3.994881 -6.211818 0.6799232,-4.287142 -5.740568 0.8418977,-3.327797 -5.400461 0.2729307,-3.545294 -4.406597 0.4145634,-3.660093 -3.787536 0.5278734,-3.747203 -3.205745 0.6348099,-3.003408 -5.196577 0.3390379,-3.13219 -4.05783 0.5129031,-3.227222 -3.329177 0.6997131,-3.298241 -2.672309 0.8623976,-2.688931 -5.219254 0.4702983,-2.756124 -4.128801 0.6439946,-2.847139 -3.434133 0.8366458,-2.925521 -2.817791 0.9966789,-2.361094 -5.44245 0.616771,-2.317505 -4.557071 0.7816186,-2.333354 -3.980301 0.9644791,-2.357872 -3.43422 1.118646,-8.692031 -7.250526 -0.6066178,-8.11041 -7.361022 0.1250722,-7.451737 -6.716784 0.6949668,-7.252069 -6.071317 1.163256,-7.616817 -5.688262 1.66524,-7.831303 -4.817256 0.4885807,-7.713824 -4.112279 1.400141,-7.712688 -3.794878 2.048357,-7.711317 -3.688255 2.453094,-8.330803 -4.531532 0.4419485,-8.316797 -4.701238 1.485273,-8.343464 -5.775363 1.675639,-8.323878 -6.457552 1.630598,-8.817697 -4.701309 0.523599,-8.815017 -4.97091 1.458238,-8.75263 -5.92071 1.598312,-8.643614 -6.455968 1.550535,-9.276815 -5.029356 0.6402529,-9.310016 -5.034067 1.335807,-9.174572 -5.761189 1.528995,-9.015686 -6.223377 1.558788,1.98333,0 0 1
-2.646109 -7.948579 0.2081922,-3.21767 -7.641807 0.4180892,-3.706638 -6.938299 0.5316997,-4.01517 -6.248741 0.6766207,-4.311383 -5.775148 0.8417972,-3.354358 -5.446601 0.26,-3.573563 -4.452785 0.4058053,-3.691471 -3.833499 0.5211256,-3.778711 -3.245562 0.6298165,-3.032347 -5.24113 0.3229524,-3.164907 -4.10328 0.500795,-3.26099 -3.372706 0.6908929,-3.331307 -2.709958 0.8569424,-2.718259 -5.26194 0.4519825,-2.789355 -4.173605 0.6247858,-2.880873 -3.480072 0.8176647,-2.958525 -2.862611 0.9803109,-2.389849 -5.484873 0.5973555,-2.348855 -4.598983 0.7675328,-2.36248 -4.023679 0.9525416,-2.384129 -3.480128 1.108414,-8.714925 -7.315639 -0.5182757,-8.152617 -7.402992 0.2648262,-7.526512 -6.749516 0.842032,-7.332602 -6.099631 1.30817,-7.666562 -5.73009 1.822281,-7.914701 -4.805664 0.5598277,-7.806199 -4.094842 1.510492,-7.782681 -3.833034 2.200636,-7.7509 -3.820317 2.603397,-8.41103 -4.552267 0.5030018,-8.385484 -4.641739 1.593003,-8.406076 -5.766731 1.823718,-8.388356 -6.487917 1.801918,-8.901621 -4.729768 0.5808233,-8.888018 -4.911157 1.554777,-8.81247 -5.921834 1.736535,-8.709324 -6.493214 1.691455,-9.363132 -5.071649 0.697414,-9.386615 -4.982234 1.412913,-9.253241 -5.756985 1.614921,-9.10664 -6.258855 1.63773,2.01667,0 0 1
-2.646109 -7.948579 0.2081922,-3.21767 -7.641807 0.4180892,-3.706638 -6.938299 0.5316997,-4.01517 -6.248741 0.6766207,-4.311383 -5.775148 0.8417972,-3.354358 -5.446601 0.26,-3.573563 -4.452785 0.4058053,-3.691471 -3.833499 0.5211256,-3.778711 -3.245562 0.6298165,-3.032347 -5.24113 0.3229524,-3.164907 -4.10328 0.500795,-3.26099 -3.372706 0.6908929,-3.331307 -2.709958 0.8569424,-2.718259 -5.26194 0.4519825,-2.789355 -4.173605 0.6247858,-2.880873 -3.480072 0.8176647,-2.958525 -2.862611 0.9803109,-2.389849 -5.484873 0.5973555,-2.348855 -4.598983 0.7675328,-2.36248 -4.023679 0.9525416,-2.384129 -3.480128 1.108414,-8.714925 -7.315639 -0.5182757,-8.152617 -7.402992 0.2648262,-7.526512 -6.749516 0.842032,-7.332602 -6.099631 1.30817,-7.666562 -5.73009 1.822281,-7.914701 -4.805664 0.5598277,-7.806199 -4.094842 1.510492,-7.782681 -3.833034 2.200636,-7.7509 -3.820317 2.603397,-8.41103 -4.552267 0.5030018,-8.385484 -4.641739 1.593003,-8.406076 -5.766731 1.823718,-8.388356 -6.487917 1.801918,-8.901621 -4.729768 0.5808233,-8.888018 -4.911157 1.554777,-8.81247 -5.921834 1.736535,-8.709324 -6.493214 1.691455,-9.363132 -5.071649 0.697414,-9.386615 -4.982234 1.412913,-9.253241 -5.756985 1.614921,-9.10664 -6.258855 1.63773,2.05000,0 0 1
-2.670102 -7.958076 0.2400206,-3.242213 -7.66304 0.405536,-3.721929 -6.940996 0.4811909,-4.02409 -6.248828 0.5972463,-4.329793 -5.796725 0.73454,-3.368879 -5.44404 0.2326716,-3.585838 -4.453966 0.3527974,-3.706942 -3.842785 0.4450777,-3.800871 -3.266912 0.5361904,-3.053923 -5.239763 0.3160896,-3.180228 -4.107681 0.4839061,-3.278551 -3.387556 0.6609972,-3.352361 -2.733397 0.8108779,-2.742898 -5.264833 0.462704,-2.810968 -4.177701 0.6370068,-2.90411 -3.486528 0.8243049,-2.983251 -2.868379 0.9776621,-2.415034 -5.495534 0.6248347,-2.373713 -4.616092 0.7960876,-2.389222 -4.038223 0.9823998,-2.41378 -3.492683 1.139399,-8.751106 -7.322999 -0.3216271,-8.185587 -7.337339 0.4298207,-7.583946 -6.676172 1.012992,-7.399436 -6.063098 1.486278,-7.718708 -5.734977 2.025555,-7.948794 -4.770193 0.8143257,-7.848651 -4.111099 1.738653,-7.852878 -3.849617 2.390869,-7.847506 -3.838643 2.769087,-8.458549 -4.524967 0.7705196,-8.461334 -4.660091 1.842808,-8.475157 -5.778625 2.074378,-8.441976 -6.54128 2.057587,-8.961855 -4.723882 0.847741,-8.961033 -4.942698 1.820519,-8.884591 -5.928604 1.99731,-8.774169 -6.524614 1.946786,-9.428391 -5.097675 0.9575087,-9.475199 -5.008438 1.691469,-9.350753 -5.737996 1.917151,-9.19359 -6.229967 1.965884,2.08333,0 0 1
-2.670102 -7.958076 0.2400206,-3.242213 -7.66304 0.405536,-3.721929 -6.940996 0.4811909,-4.02409 -6.248828 0.5972463,-4.329793 -5.796725 0.73454,-3.368879 -5.44404 0.2326716,-3.585838 -4.453966 0.3527974,-3.706942 -3.842785 0.4450777,-3.800871 -3.266912 0.5361904,-3.053923 -5.239763 0.3160896,-3.180228 -4.107681 0.4839061,-3.278551 -3.387556 0.6609972,-3.352361 -2.733397 0.8108779,-2.742898 -5.264833 0.462704,-2.810968 -4.177701 0.6370068,-2.90411 -3.486528 0.8243049,-2.983251 -2.868379 0.9776621,-2.415034 -5.495534 0.6248347,-2.373713 -4.616092 0.7960876,-2.389222 -4.038223 0.9823998,-2.41378 -3.492683 1.139399,-8.751106 -7.322999 -0.3216271,-8.185587 -7.337339 0.4298207,-7.583946 -6.676172 1.012992,-7.399436 -6.063098 1.486278,-7.718708 -5.734977 2.025555,-7.948794 -4.770193 0.8143257,-7.848651 -4.111099 1.738653,-7.852878 -3.849617 2.390869,-7.847506 -3.838643 2.769087,-8.458549 -4.524967 0.7705196,-8.461334 -4.660091 1.842808,-8.475157 -5.778625 2.074378,-8.441976 -6.54128 2.057587,-8.961855 -4.723882 0.847741,-8.961033 -4.942698 1.820519,-8.884591 -5.928604 1.99731,-8.774169 -6.524614 1.946786,-9.428391 -5.097675 0.9575087,-9.475199 -5.008438 1.691469,-9.350753 -5.737996 1.917151,-9.19359 -6.229967 1.965884,2.11667,0 0 1
-2.684575 -7.971544 0.2327801,-3.246559 -7.677242 0.4313152,-3.730387 -6.973356 0.5284739,-4.041718 -6.291982 0.6620536,-4.34286 -5.829135 0.8211197,-3.374256 -5.46644 0.2535292,-3.597285 -4.481874 0.378795,-3.719457 -3.872733 0.4827184,-3.813749 -3.296253 0.5834979,-3.059893 -5.254574 0.3238023,-3.191321 -4.116392 0.48539,-3.289761 -3.391237 0.6692188,-3.36474 -2.735955 0.8273747,-2.751286 -5.277082 0.4598217,-2.8172 -4.186227 0.6273783,-2.914021 -3.490717 0.8223054,-2.997705 -2.873176 0.985016,-2.427114 -5.507617 0.612825,-2.380414 -4.626284 0.776688,-2.393683 -4.046039 0.9630328,-2.416744 -3.500474 1.122164,-8.792753 -7.351032 0.06906705,-8.209837 -7.327413 0.8534296,-7.622708 -6.644742 1.519906,-7.453016 -6.071626 2.077625,-7.807064 -5.805582 2.706149,-8.022331 -4.766321 1.372972,-7.927562 -4.036045 2.36651,-7.927764 -3.873762 3.015265,-7.924938 -3.993918 3.388527,-8.546583 -4.49761 1.33036,-8.50563 -4.816854 2.455259,-8.527115 -5.913685 2.678501,-8.512006 -6.588301 2.67624,-9.064137 -4.704542 1.403831,-9.03091 -5.117363 2.374216,-8.968393 -6.068038 2.504525,-8.873232 -6.581491 2.452582,-9.55212 -5.081254 1.526143,-9.580402 -5.120782 2.230526,-9.45171 -5.85429 2.427388,-9.295446 -6.312086 2.474962,2.15000,0 0 1
-2.684575 -7.971544 0.2327801,-3.246559 -7.677242 0.4313152,-3.730387 -6.973356 0.5284739,-4.041718 -6.291982 0.6620536,-4.34286 -5.829135 0.8211197,-3.374256 -5.46644 0.2535292,-3.597285 -4.481874 0.378795,-3.719457 -3.872733 0.4827184,-3.813749 -3.296253 0.5834979,-3.059893 -5.254574 0.3238023,-3.191321 -4.116392 0.48539,-3.289761 -3.391237 0.6692188,-3.36474 -2.735955 0.8273747,-2.751286 -5.277082 0.4598217,-2.8172 -4.186227 0.6273783,-2.914021 -3.490717 0.8223054,-2.997705 -2.873176 0.985016,-2.427114 -5.507617 0.612825,-2.380414 -4.626284 0.776688,-2.393683 -4.046039 0.9630328,-2.416744 -3.500474 1.122164,-8.792753 -7.351032 0.06906705,-8.209837 -7.327413 0.8534296,-7.622708 -6.644742 1.519906,-7.453016 -6.071626 2.077625,-7.807064 -5.805582 2.706149,-8.022331 -4.766321 1.372972,-7.927562 -4.036045 2.36651,-7.927764 -3.873762 3.015265,-7.924938 -3.993918 3.388527,-8.546583 -4.49761 1.33036,-8.50563 -4.816854 2.455259,-8.527115 -5.913685 2.678501,-8.512006 -6.588301 2.67624,-9.064137 -4.704542 1.403831,-9.03091 -5.117363 2.374216,-8.968393 -6.068038 2.504525,-8.873232 -6.581491 2.452582,-9.55212 -5.081254 1.526143,-9.580402 -5.120782 2.230526,-9.45171 -5.85429 2.427388,-9.295446 -6.312086 2.474962,2.18333,0 0 1
-2.697326 -7.979652 0.2665451,-3.260929 -7.675943 0.4729359,-3.747177 -6.977645 0.5826776,-4.061281 -6.303793 0.7264152,-4.371434 -5.847373 0.9016603,-3.393811 -5.461187 0.3080434,-3.610735 -4.476039 0.4377589,-3.730725 -3.866849 0.5474914,-3.82527 -3.287154 0.6577859,-3.075507 -5.253973 0.3749207,-3.207864 -4.124699 0.545795,-3.307082 -3.404778 0.7322563,-3.381015 -2.746881 0.8895726,-2.76352 -5.273357 0.5063001,-2.834817 -4.186888 0.6741583,-2.931465 -3.498189 0.8652655,-3.012968 -2.881246 1.024384,-2.436337 -5.493942 0.655003,-2.394834 -4.613755 0.8207074,-2.407954 -4.036342 1.005813,-2.428138 -3.490666 1.163747,-8.830782 -7.393503 0.4374706,-8.274012 -7.322534 1.309831,-7.678711 -6.627105 2.018117,-7.522222 -6.059515 2.59277,-7.909081 -5.82728 3.20823,-8.094101 -4.757967 1.94013,-8.052361 -4.092731 3.028205,-8.07798 -3.98406 3.696572,-8.093148 -4.124303 4.04608,-8.624962 -4.490229 1.848885,-8.606691 -4.850646 3.041286,-8.617038 -5.992099 3.234723,-8.594791 -6.634183 3.191308,-9.137692 -4.704811 1.881822,-9.127873 -5.140113 2.922667,-9.044514 -6.121215 3.029676,-8.944743 -6.610312 2.961691,-9.614443 -5.098926 1.966755,-9.674403 -5.069325 2.706007,-9.531728 -5.795422 2.901231,-9.365032 -6.25326 2.9364,2.21667,0 1 2
-2.709636 -7.99097 0.2761947,-3.290164 -7.695711 0.4645783,-3.78178 -6.999381 0.5645844,-4.099562 -6.315817 0.6986679,-4.410144 -5.858027 0.8649461,-3.424685 -5.473221 0.2911487,-3.645496 -4.482059 0.4140212,-3.76713 -3.866524 0.518466,-3.864218 -3.288475 0.6252913,-3.102353 -5.26382 0.3643369,-3.236193 -4.131661 0.5362382,-3.342056 -3.396404 0.7220037,-3.424303 -2.734199 0.8778256,-2.788167 -5.277721 0.5017794,-2.86652 -4.186265 0.6664522,-2.973348 -3.486024 0.8509924,-3.063542 -2.866775 1.003852,-2.459778 -5.49139 0.6546328,-2.421096 -4.600683 0.8135508,-2.442534 -4.017613 0.9921222,-2.471403 -3.467247 1.147117,-8.884663 -7.451355 0.703348,-8.324201 -7.309788 1.573006,-7.721837 -6.603857 2.295298,-7.588919 -6.014326 2.878879,-8.006791 -5.778461 3.479057,-8.192047 -4.684799 2.174386,-8.152911 -4.041169 3.268799,-8.187206 -4.01715 3.928627,-8.209262 -4.25456 4.246349,-8.724561 -4.451331 2.094499,-8.697256 -4.83151 3.313962,-8.707071 -5.977662 3.526423,-8.682766 -6.60045 3.495527,-9.230674 -4.697724 2.143197,-9.227366 -5.133242 3.181469,-9.141132 -6.14632 3.282784,-9.036848 -6.636459 3.206975,-9.70223 -5.139867 2.244777,-9.785616 -5.075437 2.965096,-9.640857 -5.790494 3.151094,-9.472653 -6.230535 3.180442,2.25000,0 1 2
-2.709636 -7.99097 0.2761947,-3.290164 -7.695711 0.4645783,-3.78178 -6.999381 0.5645844,-4.099562 -6.315817 0.6986679,-4.410144 -5.858027 0.8649461,-3.424685 -5.473221 0.2911487,-3.645496 -4.482059 0.4140212,-3.76713 -3.866524 0.518466,-3.864218 -3.288475 0.6252913,-3.102353 -5.26382 0.3643369,-3.236193 -4.131661 0.5362382,-3.342056 -3.396404 0.7220037,-3.424303 -2.734199 0.8778256,-2.788167 -5.277721 0.5017794,-2.86652 -4.186265 0.6664522,-2.973348 -3.486024 0.8509924,-3.063542 -2.866775 1.003852,-2.459778 -5.49139 0.6546328,-2.421096 -4.600683 0.8135508,-2.442534 -4.017613 0.9921222,-2.471403 -3.467247 1.147117,-8.884663 -7.451355 0.703348,-8.324201 -7.309788 1.573006,-7.721837 -6.603857 2.295298,-7.588919 -6.014326 2.878879,-8.006791 -5.778461 3.479057,-8.192047 -4.684799 2.174386,-8.152911 -4.041169 3.268799,-8.187206 -4.01715 3.928627,-8.209262 -4.25456 4.246349,-8.724561 -4.451331 2.094499,-8.697256 -4.83151 3.313962,-8.707071 -5.977662 3.526423,-8.682766 -6.60045 3.495527,-9.230674 -4.697724 2.143197,-9.227366 -5.133242 3.181469,-9.141132 -6.14632 3.282784,-9.036848 -6.636459 3.206975,-9.70223 -5.139867 2.244777,-9.785616 -5.075437 2.965096,-9.640857 -5.790494 3.151094,-9.472653 -6.230535 3.180442,2.28333,0 1 2
-2.737307 -7.99422 0.267314,-3.327358 -7.690927 0.421019,-3.819906 -6.986232 0.4935179,-4.129353 -6.300537 0.607312,-4.431599 -5.843744 0.743879,-3.455795 -5.479896 0.2484461,-3.673972 -4.4892 0.3648263,-3.79985 -3.876617 0.4592342,-3.904049 -3.304991 0.5542231,-3.13578 -5.269807 0.3314224,-3.265688 -4.137836 0.5040512,-3.372398 -3.406357 0.6862425,-3.46057 -2.746171 0.8383751,-2.823274 -5.281193 0.4761812,-2.900515 -4.194458 0.6396855,-3.004108 -3.50464 0.8166434,-3.095844 -2.892931 0.9616283,-2.496618 -5.490625 0.6330829,-2.457918 -4.602555 0.7907233,-2.476231 -4.028196 0.964649,-2.505525 -3.487365 1.112259,-8.916089 -7.444812 1.00844,-8.354372 -7.242258 1.89637,-7.756804 -6.549693 2.652867,-7.641326 -5.993738 3.2559,-8.072181 -5.799372 3.868781,-8.266135 -4.597663 2.559352,-8.251858 -3.984754 3.64115,-8.28537 -4.087622 4.23203,-8.29978 -4.387934 4.481218,-8.806437 -4.377054 2.465393,-8.781979 -4.867421 3.666344,-8.7826 -6.03302 3.914266,-8.755993 -6.619014 3.908864,-9.309934 -4.638856 2.490173,-9.311001 -5.197748 3.488406,-9.22401 -6.217464 3.626016,-9.122388 -6.685609 3.597967,-9.787574 -5.097828 2.576384,-9.890328 -5.107351 3.241512,-9.750108 -5.805299 3.459885,-9.592481 -6.222277 3.527265,2.31667,0 1 2
-2.737307 -7.99422 0.267314,-3.327358 -7.690927 0.421019,-3.819906 -6.986232 0.4935179,-4.129353 -6.300537 0.607312,-4.431599 -5.843744 0.743879,-3.455795 -5.479896 0.2484461,-3.673972 -4.4892 0.3648263,-3.79985 -3.876617 0.4592342,-3.904049 -3.304991 0.5542231,-3.13578 -5.269807 0.3314224,-3.265688 -4.137836 0.5040512,-3.372398 -3.406357 0.6862425,-3.46057 -2.746171 0.8383751,-2.823274 -5.281193 0.4761812,-2.900515 -4.194458 0.6396855,-3.004108 -3.50464 0.8166434,-3.095844 -2.892931 0.9616283,-2.496618 -5.490625 0.6330829,-2.457918 -4.602555 0.7907233,-2.476231 -4.028196 0.964649,-2.505525 -3.487365 1.112259,-8.916089 -7.444812 1.00844,-8.354372 -7.242258 1.89637,-7.756804 -6.549693 2.652867,-7.641326 -5.993738 3.2559,-8.072181 -5.799372 3.868781,-8.266135 -4.597663 2.559352,-8.251858 -3.984754 3.64115,-8.28537 -4.087622 4.23203,-8.29978 -4.387934 4.481218,-8.806437 -4.377054 2.465393,-8.781979 -4.867421 3.666344,-8.7826 -6.03302 3.914266,-8.755993 -6.619014 3.908864,-9.309934 -4.638856 2.490173,-9.311001 -5.197748 3.488406,-9.22401 -6.217464 3.626016,-9.122388 -6.685609 3.597967,-9.787574 -5.097828 2.576384,-9.890328 -5.107351 3.241512,-9.750108 -5.805299 3.459885,-9.592481 -6.222277 3.527265,2.35000,0 1 2
-2.751395 -7.991374 0.2728779,-3.338387 -7.698967 0.4352277,-3.832634 -7.005949 0.5100586,-4.143834 -6.322984 0.6282435,-4.448231 -5.858179 0.7684195,-3.481945 -5.480764 0.2531525,-3.705092 -4.496927 0.3633238,-3.830088 -3.889716 0.453464,-3.928903 -3.31653 0.5474371,-3.164588 -5.267528 0.3357762,-3.299402 -4.141189 0.4996119,-3.40362 -3.419061 0.6806727,-3.485626 -2.759186 0.8347077,-2.852362 -5.278974 0.4830523,-2.931618 -4.195385 0.6431807,-3.035063 -3.507897 0.8296519,-3.126257 -2.891753 0.982493,-2.524351 -5.490406 0.6423684,-2.482307 -4.606626 0.8006143,-2.498606 -4.030184 0.9826725,-2.52673 -3.483587 1.13802,-8.958852 -7.428575 1.203484,-8.397953 -7.215253 2.106474,-7.791801 -6.496807 2.870825,-7.68096 -5.94964 3.485736,-8.129968 -5.817279 4.113468,-8.336008 -4.541689 2.826607,-8.349741 -4.020721 3.96909,-8.390735 -4.10688 4.61783,-8.404124 -4.38801 4.91452,-8.894818 -4.333663 2.734845,-8.879636 -4.809585 3.979172,-8.856805 -6.019134 4.209605,-8.811436 -6.657267 4.202199,-9.409128 -4.625904 2.763078,-9.413068 -5.167575 3.814516,-9.301413 -6.219441 3.926646,-9.183115 -6.72574 3.89313,-9.89126 -5.125453 2.853102,-9.997241 -5.123582 3.551919,-9.835639 -5.842066 3.761735,-9.658554 -6.278385 3.830833,2.38333,0 1 2
-2.751395 -7.991374 0.2728779,-3.338387 -7.698967 0.4352277,-3.832634 -7.005949 0.5100586,-4.143834 -6.322984 0.6282435,-4.448231 -5.858179 0.7684195,-3.481945 -5.480764 0.2531525,-3.705092 -4.496927 0.3633238,-3.830088 -3.889716 0.453464,-3.928903 -3.31653 0.5474371,-3.164588 -5.267528 0.3357762,-3.299402 -4.141189 0.4996119,-3.40362 -3.419061 0.6806727,-3.485626 -2.759186 0.8347077,-2.852362 -5.278974 0.4830523,-2.931618 -4.195385 0.6431807,-3.035063 -3.507897 0.8296519,-3.126257 -2.891753 0.982493,-2.524351 -5.490406 0.6423684,-2.482307 -4.606626 0.8006143,-2.498606 -4.030184 0.9826725,-2.52673 -3.483587 1.13802,-8.958852 -7.428575 1.203484,-8.397953 -7.215253 2.106474,-7.791801 -6.496807 2.870825,-7.68096 -5.94964 3.485736,-8.129968 -5.817279 4.113468,-8.336008 -4.541689 2.826607,-8.349741 -4.020721 3.96909,-8.390735 -4.10688 4.61783,-8.404124 -4.38801 4.91452,-8.894818 -4.333663 2.734845,-8.879636 -4.809585 3.979172,-8.856805 -6.019134 4.209605,-8.811436 -6.657267 4.202199,-9.409128 -4.625904 2.763078,-9.413068 -5.167575 3.814516,-9.301413 -6.219441 3.926646,-9.183115 -6.72574 3.89313,-9.89126 -5.125453 2.853102,-9.997241 -5.123582 3.551919,-9.835639 -5.842066 3.761735,-9.658554 -6.278385 3.830833,2.41667,0 1 2
-2.744227 -7.999935 0.2672922,-3.31531 -7.719576 0.4497703,-3.806942 -7.026142 0.5332823,-4.12779 -6.347951 0.6584508,-4.437626 -5.885377 0.8122426,-3.464888 -5.504432 0.2503921,-3.702079 -4.524055 0.3536849,-3.838049 -3.917819 0.4455159,-3.947296 -3.347036 0.5382401,-3.155116 -5.277097 0.3204101,-3.300893 -4.145267 0.4608505,-3.410965 -3.42962 0.6277215,-3.499914 -2.782698 0.7678362,-2.850789 -5.283097 0.4580625,-2.926347 -4.198241 0.6058441,-3.03396 -3.511594 0.7827725,-3.13064 -2.902202 0.9260675,-2.53032 -5.49464 0.6129301,-2.490028 -4.614288 0.768086,-2.505817 -4.036584 0.946182,-2.535196 -3.494432 1.094621,-8.98954 -7.471719 1.686134,-8.433616 -7.216569 2.645663,-7.844174 -6.490267 3.45667,-7.738873 -5.9213 4.100604,-8.180608 -5.763482 4.761871,-8.415517 -4.453058 3.373412,-8.422642 -3.941499 4.55478,-8.478292 -4.068782 5.210841,-8.505099 -4.361318 5.498494,-8.99392 -4.241535 3.256201,-8.979247 -4.816336 4.520357,-8.935521 -6.07319 4.736679,-8.877814 -6.686455 4.715673,-9.519979 -4.549495 3.263622,-9.510615 -5.197893 4.306123,-9.367682 -6.281242 4.380203,-9.236185 -6.759462 4.311811,-9.999107 -5.092243 3.344421,-10.09109 -5.225229 4.020079,-9.899767 -5.970165 4.19632,-9.711061 -6.378667 4.233791,2.45000,0 1 2
-2.744227 -7.999935 0.2672922,-3.31531 -7.719576 0.4497703,-3.806942 -7.026142 0.5332823,-4.12779 -6.347951 0.6584508,-4.437626 -5.885377 0.8122426,-3.464888 -5.504432 0.2503921,-3.702079 -4.524055 0.3536849,-3.838049 -3.917819 0.4455159,-3.947296 -3.347036 0.5382401,-3.155116 -5.277097 0.3204101,-3.300893 -4.145267 0.4608505,-3.410965 -3.42962 0.6277215,-3.499914 -2.782698 0.7678362,-2.850789 -5.283097 0.4580625,-2.926347 -4.198241 0.6058441,-3.03396 -3.511594 0.7827725,-3.13064 -2.902202 0.9260675,-2.53032 -5.49464 0.6129301,-2.490028 -4.614288 0.768086,-2.505817 -4.036584 0.946182,-2.535196 -3.494432 1.094621,-8.98954 -7.471719 1.686134,-8.433616 -7.216569 2.645663,-7.844174 -6.490267 3.45667,-7.738873 -5.9213 4.100604,-8.180608 -5.763482 4.761871,-8.415517 -4.453058 3.373412,-8.422642 -3.941499 4.55478,-8.478292 -4.068782 5.210841,-8.505099 -4.361318 5.498494,-8.99392 -4.241535 3.256201,-8.979247 -4.816336 4.520357,-8.935521 -6.07319 4.736679,-8.877814 -6.686455 4.715673,-9.519979 -4.549495 3.263622,-9.510615 -5.197893 4.306123,-9.367682 -6.281242 4.380203,-9.236185 -6.759462 4.311811,-9.999107 -5.092243 3.344421,-10.09109 -5.225229 4.020079,-9.899767 -5.970165 4.19632,-9.711061 -6.378667 4.233791,2.48333,0 1 2
-2.709871 -8.034885 0.2735291,-3.28317 -7.745492 0.4990491,-3.781122 -7.075192 0.6091416,-4.095948 -6.399933 0.7497298,-4.383784 -5.909949 0.9097179,-3.42935 -5.540431 0.3146125,-3.656193 -4.551138 0.4344179,-3.790299 -3.941801 0.5416834,-3.903322 -3.362121 0.642486,-3.114571 -5.310157 0.3598536,-3.259871 -4.17807 0.5095455,-3.368931 -3.462224 0.679934,-3.458831 -2.819683 0.8263718,-2.809608 -5.311092 0.4737379,-2.88726 -4.238808 0.6244864,-2.994893 -3.555776 0.7989081,-3.092051 -2.954623 0.9476492,-2.489461 -5.511743 0.6059265,-2.452204 -4.631572 0.7634839,-2.472179 -4.057626 0.9357312,-2.507508 -3.5286 1.080385,-8.946053 -7.525417 1.214899,-8.37943 -7.225779 2.12065,-7.853494 -6.510932 2.895808,-7.774895 -5.940568 3.536152,-8.195318 -5.758347 4.209712,-8.462953 -4.515147 2.771004,-8.429828 -3.858422 3.865211,-8.443085 -3.897868 4.508007,-8.443624 -4.214803 4.758954,-9.030736 -4.40047 2.690665,-9.007503 -4.65376 3.956604,-8.939291 -5.870204 4.239945,-8.86268 -6.623954 4.221227,-9.537115 -4.757014 2.733371,-9.552294 -5.032791 3.851837,-9.400772 -6.093038 4.038394,-9.239286 -6.70536 3.979471,-10.00224 -5.326301 2.823864,-10.17956 -5.027334 3.579242,-10.01141 -5.584436 3.854808,-9.797767 -5.998032 3.920853,2.51667,0 1 2
-2.709871 -8.034885 0.2735291,-3.28317 -7.745492 0.4990491,-3.781122 -7.075192 0.6091416,-4.095948 -6.399933 0.7497298,-4.383784 -5.909949 0.9097179,-3.42935 -5.540431 0.3146125,-3.656193 -4.551138 0.4344179,-3.790299 -3.941801 0.5416834,-3.903322 -3.362121 0.642486,-3.114571 -5.310157 0.3598536,-3.259871 -4.17807 0.5095455,-3.368931 -3.462224 0.679934,-3.458831 -2.819683 0.8263718,-2.809608 -5.311092 0.4737379,-2.88726 -4.238808 0.6244864,-2.994893 -3.555776 0.7989081,-3.092051 -2.954623 0.9476492,-2.489461 -5.511743 0.6059265,-2.452204 -4.631572 0.7634839,-2.472179 -4.057626 0.9357312,-2.507508 -3.5286 1.080385,-8.946053 -7.525417 1.214899,-8.37943 -7.225779 2.12065,-7.853494 -6.510932 2.895808,-7.774895 -5.940568 3.536152,-8.195318 -5.758347 4.209712,-8.462953 -4.515147 2.771004,-8.429828 -3.858422 3.865211,-8.443085 -3.897868 4.508007,-8.443624 -4.214803 4.758954,-9.030736 -4.40047 2.690665,-9.007503 -4.65376 3.956604,-8.939291 -5.870204 4.239945,-8.86268 -6.623954 4.221227,-9.537115 -4.757014 2.733371,-9.552294 -5.032791 3.851837,-9.400772 -6.093038 4.038394,-9.239286 -6.70536 3.979471,-10.00224 -5.326301 2.823864,-10.17956 -5.027334 3.579242,-10.01141 -5.584436 3.854808,-9.797767 -5.998032 3.920853,2.55000,0 1 2
-2.665937 -8.090044 0.2376203,-3.240366 -7.77066 0.4517793,-3.734797 -7.104471 0.5622004,-4.047305 -6.441098 0.7045103,-4.31959 -5.935218 0.8657622,-3.379364 -5.591945 0.2875103,-3.604758 -4.588811 0.4066492,-3.735975 -3.970531 0.5139329,-3.843411 -3.386401 0.6164483,-3.064761 -5.37524 0.3361205,-3.209551 -4.233245 0.4857664,-3.318216 -3.511539 0.6543933,-3.404465 -2.870445 0.7977263,-2.759835 -5.37788 0.4500157,-2.836759 -4.298488 0.5961273,-2.941531 -3.607524 0.7636843,-3.036628 -3.004232 0.9091859,-2.440916 -5.574991 0.5793454,-2.40761 -4.687233 0.7376937,-2.431448 -4.1112 0.9030508,-2.472627 -3.588158 1.03867,-8.92072 -7.569778 0.5086147,-8.334807 -7.29616 1.307507,-7.791409 -6.644103 2.011024,-7.662901 -6.100894 2.641197,-8.037908 -5.87177 3.269132,-8.35727 -4.664497 1.800275,-8.326712 -3.917888 2.720037,-8.270741 -3.628141 3.2905,-8.158105 -3.588875 3.560166,-8.907191 -4.56971 1.77195,-8.829993 -4.686182 2.882169,-8.729016 -5.792899 3.274556,-8.637331 -6.604582 3.371837,-9.399119 -4.89595 1.839152,-9.356518 -5.065521 2.832025,-9.228872 -6.01317 3.095448,-9.087864 -6.677963 3.135949,-9.864039 -5.364654 1.96415,-9.976302 -5.038955 2.715779,-9.78942 -5.666608 3.044919,-9.574656 -6.225576 3.15689,2.58333,0 1 2
-2.665937 -8.090044 0.2376203,-3.240366 -7.77066 0.4517793,-3.734797 -7.104471 0.5622004,-4.047305 -6.441098 0.7045103,-4.31959 -5.935218 0.8657622,-3.379364 -5.591945 0.2875103,-3.604758 -4.588811 0.4066492,-3.735975 -3.970531 0.5139329,-3.843411 -3.386401 0.6164483,-3.064761 -5.37524 0.3361205,-3.209551 -4.233245 0.4857664,-3.318216 -3.511539 0.6543933,-3.404465 -2.870445 0.7977263,-2.759835 -5.37788 0.4500157,-2.836759 -4.298488 0.5961273,-2.941531 -3.607524 0.7636843,-3.036628 -3.004232 0.9091859,-2.440916 -5.574991 0.5793454,-2.40761 -4.687233 0.7376937,-2.431448 -4.1112 0.9030508,-2.472627 -3.588158 1.03867,-8.92072 -7.569778 0.5086147,-8.334807 -7.29616 1.307507,-7.791409 -6.644103 2.011024,-7.662901 -6.100894 2.641197,-8.037908 -5.87177 3.269132,-8.35727 -4.664497 1.800275,-8.326712 -3.917888 2.720037,-8.270741 -3.628141 3.2905,-8.158105 -3.588875 3.560166,-8.907191 -4.56971 1.77195,-8.829993 -4.686182 2.882169,-8.729016 -5.792899 3.274556,-8.637331 -6.604582 3.371837,-9.399119 -4.89595 1.839152,-9.356518 -5.065521 2.832025,-9.228872 -6.01317 3.095448,-9.087864 -6.677963 3.135949,-9.864039 -5.364654 1.96415,-9.976302 -5.038955 2.715779,-9.78942 -5.666608 3.044919,-9.574656 -6.225576 3.15689,2.61667,0 1 2
